isaac-sim2real/sage/motion_files/h1_2/amass/0-141_22_poses_action_sequence.txt
/h1_2/pelvis/left_hip_yaw_joint, /h1_2/left_hip_yaw_link/left_hip_pitch_joint, /h1_2/left_hip_pitch_link/left_hip_roll_joint, /h1_2/left_hip_roll_link/left_knee_joint, /h1_2/left_knee_link/left_ankle_pitch_joint, /h1_2/left_ankle_pitch_link/left_ankle_roll_joint, /h1_2/pelvis/right_hip_yaw_joint, /h1_2/right_hip_yaw_link/right_hip_pitch_joint, /h1_2/right_hip_pitch_link/right_hip_roll_joint, /h1_2/right_hip_roll_link/right_knee_joint, /h1_2/right_knee_link/right_ankle_pitch_joint, /h1_2/right_ankle_pitch_link/right_ankle_roll_joint, /h1_2/pelvis/torso_joint, /h1_2/torso_link/left_shoulder_pitch_joint, /h1_2/left_shoulder_pitch_link/left_shoulder_roll_joint, /h1_2/left_shoulder_roll_link/left_shoulder_yaw_joint, /h1_2/left_shoulder_yaw_link/left_elbow_joint, /h1_2/left_elbow_link/left_wrist_roll_joint, /h1_2/torso_link/right_shoulder_pitch_joint, /h1_2/right_shoulder_pitch_link/right_shoulder_roll_joint, /h1_2/right_shoulder_roll_link/right_shoulder_yaw_joint, /h1_2/right_shoulder_yaw_link/right_elbow_joint, /h1_2/right_elbow_link/right_wrist_roll_joint
0.4299999792196667, -0.15877645923157105, -0.09532034377423887, -0.09335681171383098, -0.00709142948141979, 0.0, -0.42714540596156725, -0.9466730439999568, 0.22532682354120345, 0.7780710966646509, 0.2872901309640369, 0.0, -0.1774705586766347, -0.2434809704755776, 0.2179854625618322, 0.2697362376660086, 1.1135019113481615, 0.0, -0.20356659947940625, -0.12574364222333306, -0.5784699550589458, 1.1940450166033454, 0.0
0.4299999792196667, -0.1572297659017462, -0.09607620049471706, -0.09244238729295304, -0.015178916691436662, 0.0, -0.4275412780518461, -0.9514135676878835, 0.22486173518344899, 0.7786954707512593, 0.29062871543964075, 0.0, -0.1771001299961914, -0.23532907859158017, 0.216009634656844, 0.2727268488673254, 1.1205390090790326, 0.0, -0.20081309474763143, -0.12179590153593473, -0.5752349454024722, 1.1954912313281332, 0.0
0.4299999792196667, -0.15568307257192135, -0.09683205721519526, -0.09152796287207511, -0.023266403901453535, 0.0, -0.427937150142125, -0.9561540913758103, 0.22439664682569452, 0.7793198448378678, 0.2939672999152447, 0.0, -0.17672970131574814, -0.2271771867075828, 0.2140338067518558, 0.2757174600686422, 1.1275761068099037, 0.0, -0.19805959001585655, -0.11784816084853637, -0.5719999357459987, 1.1969374460529205, 0.0
0.4299999792196667, -0.1541363792420965, -0.09758791393567345, -0.09061353845119717, -0.03135389111147041, 0.0, -0.42833302223240377, -0.9608946150637372, 0.2239315584679401, 0.7799442189244762, 0.2973058843908485, 0.0, -0.17635927263530485, -0.2190252948235854, 0.21205797884686758, 0.2787080712699589, 1.1346132045407746, 0.0, -0.19530608528408178, -0.11390042016113801, -0.5687649260895252, 1.198383660777708, 0.0
0.4299999792196667, -0.15258968591227162, -0.09834377065615164, -0.08969911403031923, -0.03944137832148728, 0.0, -0.4287288943226827, -0.9656351387516641, 0.2234664701101857, 0.7805685930110846, 0.3006444688664524, 0.0, -0.17598884395486158, -0.21087340293958803, 0.21008215094187935, 0.28169868247127566, 1.1416503022716458, 0.0, -0.1925525805523069, -0.10995267947373966, -0.5655299164330517, 1.1998298755024956, 0.0
0.4299999792196667, -0.15104299258244677, -0.09909962737662983, -0.0887846896094413, -0.04752886553150415, 0.0, -0.42912476641296154, -0.970375662439591, 0.22300138175243123, 0.7811929670976931, 0.3039830533420563, 0.0, -0.1756184152744183, -0.20272151105559064, 0.20810632303689114, 0.2846892936725925, 1.148687400002517, 0.0, -0.18979907582053207, -0.1060049387863413, -0.5622949067765781, 1.2012760902272832, 0.0
0.4299999792196667, -0.1479532187543487, -0.10016959588951137, -0.08488427212844737, -0.05122791390471998, 0.0, -0.4292786765277194, -0.9776200703790139, 0.22737984386834884, 0.7745481844760852, 0.30526528740230197, 0.0, -0.17977207898267905, -0.19418756310767316, 0.20931104702505574, 0.29022417953495505, 1.157172178534747, 0.0, -0.1844031775078229, -0.1045661026154995, -0.5627939138630159, 1.2028394514514646, 0.0
0.4299999792196667, -0.1448634449262506, -0.10123956440239286, -0.08098385464745345, -0.0549269622779358, 0.0, -0.42943258664247724, -0.9848644783184367, 0.2317583059842665, 0.7679034018544775, 0.3065475214625476, 0.0, -0.1839257426909398, -0.18565361515975573, 0.21051577101322036, 0.29575906539731756, 1.1656569570669775, 0.0, -0.17900727919511364, -0.1031272664446577, -0.5632929209494535, 1.204402812675646, 0.0
0.4299999792196667, -0.14177367109815253, -0.10230953291527438, -0.07708343716645953, -0.05862601065115164, 0.0, -0.42958649675723515, -0.9921088862578596, 0.2361367681001841, 0.7612586192328699, 0.3078297555227933, 0.0, -0.1880794063992006, -0.17711966721183825, 0.21172049500138496, 0.30129395125968006, 1.1741417355992074, 0.0, -0.17361138088240444, -0.1016884302738159, -0.5637919280358913, 1.2059661738998275, 0.0
0.4299999792196667, -0.13868389727005445, -0.1033795014281559, -0.07318301968546559, -0.06232505902436746, 0.0, -0.429740406871993, -0.9993532941972827, 0.24051523021610172, 0.7546138366112619, 0.309111989583039, 0.0, -0.19223307010746132, -0.1685857192639208, 0.21292521898954955, 0.30682883712204256, 1.1826265141314378, 0.0, -0.1682154825696952, -0.10024959410297407, -0.564290935122329, 1.2075295351240087, 0.0
0.4299999792196667, -0.13559412344195637, -0.10444946994103742, -0.06928260220447166, -0.0660241073975833, 0.0, -0.42989431698675085, -1.0065977021367056, 0.24489369233201938, 0.7479690539896543, 0.3103942236432847, 0.0, -0.19638673381572205, -0.16005177131600334, 0.21412994297771415, 0.3123637229844051, 1.191111292663668, 0.0, -0.162819584256986, -0.09881075793213226, -0.5647899422087667, 1.20909289634819, 0.0
0.4299999792196667, -0.12955216148695833, -0.10089450722421998, -0.06028044594822891, -0.06317136917865951, 0.0, -0.4298916152170688, -1.0153799720399383, 0.25331765312113463, 0.733026613075581, 0.3038954971548008, 0.0, -0.20519767947856507, -0.16006980754849345, 0.21610950239664312, 0.31479799303335615, 1.19520848798931, 0.0, -0.15432188854296172, -0.10089146127560941, -0.568746778155963, 1.2119568420243725, 0.0
0.4299999792196667, -0.12351019953196028, -0.09733954450740255, -0.05127828969198615, -0.06031863095973574, 0.0, -0.42988891344738667, -1.024162241943171, 0.2617416139102499, 0.7180841721615079, 0.2973967706663169, 0.0, -0.21400862514140803, -0.16008784378098354, 0.21808906181557208, 0.31723226308230723, 1.1993056833149516, 0.0, -0.14582419282893744, -0.10297216461908655, -0.5727036141031594, 1.214820787700555, 0.0
0.4299999792196667, -0.11746823757696223, -0.0937845817905851, -0.04227613343574338, -0.057465892740811965, 0.0, -0.42988621167770463, -1.0329445118464036, 0.2701655746993652, 0.7031417312474346, 0.29089804417783294, 0.0, -0.222819570804251, -0.16010588001347367, 0.22006862123450108, 0.31966653313125826, 1.2034028786405933, 0.0, -0.13732649711491313, -0.1050528679625637, -0.5766604500503557, 1.2176847333767378, 0.0
0.4299999792196667, -0.11142627562196418, -0.09022961907376768, -0.03327397717950061, -0.05461315452188818, 0.0, -0.4298835099080226, -1.0417267817496365, 0.2785895354884805, 0.6881992903333614, 0.28439931768934906, 0.0, -0.23163051646709398, -0.16012391624596375, 0.22204818065343004, 0.32210080318020934, 1.2075000739662352, 0.0, -0.12882880140088887, -0.10713357130604086, -0.5806172859975521, 1.2205486790529203, 0.0
0.4299999792196667, -0.10538431366696614, -0.08667465635695024, -0.02427182092325785, -0.0517604163029644, 0.0, -0.42988080813834045, -1.0505090516528692, 0.28701349627759576, 0.6732568494192881, 0.2779005912008652, 0.0, -0.24044146212993694, -0.16014195247845386, 0.22402774007235904, 0.3245350732291604, 1.2115972692918768, 0.0, -0.12033110568686459, -0.109214274649518, -0.5845741219447484, 1.2234126247291026, 0.0
0.4299999792196667, -0.09754222400838304, -0.07786593529077185, -0.009824375281803686, -0.05406721169214, 0.0, -0.429894844076185, -1.0526200797430338, 0.29188088794885003, 0.6598440255336382, 0.2654994125095488, 0.0, -0.24554725879569667, -0.16634672712365836, 0.22507248369062735, 0.3240802125008227, 1.2100385855500908, 0.0, -0.11366004713336804, -0.11165298725954709, -0.5849336318453912, 1.2253537101100007, 0.0
0.4299999792196667, -0.08970013434979995, -0.06905721422459346, 0.004623070359650478, -0.0563740070813156, 0.0, -0.42990888001402955, -1.0547311078331985, 0.29674827962010436, 0.6464312016479884, 0.25309823381823243, 0.0, -0.2506530554614564, -0.17255150176886286, 0.22611722730889564, 0.3236253517724849, 1.2084799018083046, 0.0, -0.1069889885798715, -0.11409169986957618, -0.585293141746034, 1.2272947954908988, 0.0
0.4299999792196667, -0.08185804469121685, -0.060248493158415094, 0.019070516001104643, -0.05868080247049119, 0.0, -0.42992291595187404, -1.0568421359233633, 0.3016156712913587, 0.6330183777623384, 0.24069705512691597, 0.0, -0.2557588521272161, -0.17875627641406733, 0.22716197092716392, 0.3231704910441472, 1.2069212180665188, 0.0, -0.10031793002637494, -0.11653041247960526, -0.5856526516466768, 1.229235880871797, 0.0
0.4299999792196667, -0.07401595503263375, -0.0514397720922367, 0.033517961642558804, -0.0609875978596668, 0.0, -0.42993695188971864, -1.058953164013528, 0.306483062962613, 0.6196055538766886, 0.22829587643559957, 0.0, -0.26086464879297583, -0.18496105105927182, 0.22820671454543223, 0.32271563031580935, 1.2053625343247325, 0.0, -0.09364687147287842, -0.11896912508963435, -0.5860121615473196, 1.231176966252695, 0.0
0.4299999792196667, -0.06617386537405066, -0.042631051026058325, 0.04796540728401297, -0.0632943932488424, 0.0, -0.4299509878275632, -1.0610641921036927, 0.31135045463386724, 0.6061927299910386, 0.21589469774428316, 0.0, -0.26597044545873555, -0.1911658257044763, 0.22925145816370052, 0.3222607695874717, 1.2038038505829465, 0.0, -0.08697581291938186, -0.12140783769966344, -0.5863716714479624, 1.233118051633593, 0.0
0.42996291540767123, -0.0612370553261934, -0.03298664407853039, 0.06854874745360996, -0.07220416329365764, 0.0, -0.42992252499812167, -1.0512232473641023, 0.309041994898717, 0.6019864934750493, 0.20430415467734803, 0.0, -0.26416265436347086, -0.19547806653791477, 0.22892583557581445, 0.32231109790178214, 1.1979636298399232, 0.0, -0.08472291399563955, -0.1214612353499965, -0.5790291864765529, 1.2308671703104659, 0.0
0.4299258515956759, -0.05630024527833611, -0.023342237131002457, 0.08913208762320696, -0.08111393333847289, 0.0, -0.4298940621686801, -1.0413823026245117, 0.30673353516356666, 0.5977802569590601, 0.19271361161041295, 0.0, -0.2623548632682062, -0.1997903073713532, 0.22860021298792835, 0.3223614262160927, 1.1921234090968997, 0.0, -0.08247001507189723, -0.12151463300032955, -0.5716867015051433, 1.2286162889873389, 0.0
0.4298887877836806, -0.05136343523047883, -0.01369783018347452, 0.10971542779280394, -0.09002370338328815, 0.0, -0.4298655993392386, -1.0315413578849213, 0.30442507542841635, 0.5935740204430707, 0.18112306854347776, 0.0, -0.26054707217294143, -0.20410254820479168, 0.22827459040004225, 0.32241175453040316, 1.1862831883538763, 0.0, -0.08021711614815494, -0.12156803065066263, -0.5643442165337339, 1.2263654076642119, 0.0
0.42985172397168525, -0.04642662518262155, -0.004053423235946585, 0.13029876796240095, -0.09893347342810337, 0.0, -0.4298371365097971, -1.0217004131453309, 0.3021166156932661, 0.5893677839270814, 0.16953252547654266, 0.0, -0.25873928107767674, -0.20841478903823013, 0.22794896781215618, 0.32246208284471367, 1.1804429676108528, 0.0, -0.07796421722441262, -0.12162142830099568, -0.5570017315623244, 1.224114526341085, 0.0
0.42981466015968983, -0.041489815134764275, 0.005590983711581355, 0.15088210813199793, -0.10784324347291861, 0.0, -0.4298086736803555, -1.0118594684057405, 0.2998081559581158, 0.585161547411092, 0.15794198240960755, 0.0, -0.25693148998241205, -0.2127270298716686, 0.22762334522427013, 0.3225124111590242, 1.1746027468678295, 0.0, -0.07571131830067031, -0.12167482595132875, -0.5496592465909148, 1.221863645017958, 0.0
0.4290560388376765, -0.0423175937321245, 0.018371447686817123, 0.17614278897620447, -0.12253331431500954, 0.0, -0.42911738367022556, -0.9906743582577435, 0.29520110457940596, 0.5856262273618016, 0.14749633204781523, 0.0, -0.24958618979491906, -0.21122612700009905, 0.2237952866506029, 0.3225002601767718, 1.1688068574878065, 0.0, -0.07553874817274765, -0.11976200617766679, -0.5353109576421226, 1.2144009662022803, 0.0
0.4282974175156632, -0.043145372329484726, 0.031151911662052886, 0.20140346982041102, -0.13722338515710042, 0.0, -0.42842609366009576, -0.9694892481097466, 0.2905940532006961, 0.586090907312511, 0.13705068168602294, 0.0, -0.24224088960742612, -0.2097252241285295, 0.2199672280769357, 0.32248810919451937, 1.1630109681077838, 0.0, -0.07536617804482501, -0.11784918640400482, -0.5209626686933302, 1.2069382873866032, 0.0
0.4275387961936498, -0.04397315092684495, 0.04393237563728865, 0.2266641506646176, -0.15191345599919137, 0.0, -0.4277348036499658, -0.9483041379617496, 0.2859870018219863, 0.5865555872632204, 0.12660503132423065, 0.0, -0.23489558941993313, -0.20822432125695994, 0.21613916950326856, 0.322475958212267, 1.157215078727761, 0.0, -0.07519360791690238, -0.11593636663034286, -0.5066143797445379, 1.199475608570926, 0.0
0.4267801748716365, -0.044800929524205176, 0.056712839612524414, 0.2519248315088241, -0.16660352684128224, 0.0, -0.4270435136398359, -0.9271190278137524, 0.28137995044327646, 0.5870202672139299, 0.11615938096243836, 0.0, -0.22755028923244014, -0.20672341838539043, 0.21231111092960137, 0.3224638072300146, 1.1514191893477383, 0.0, -0.07502103778897974, -0.1140235468566809, -0.49226609079574557, 1.1920129297552486, 0.0
0.4260215535496232, -0.0456287081215654, 0.06949330358776017, 0.2771855123530307, -0.18129359768337316, 0.0, -0.426352223629706, -0.9059339176657555, 0.27677289906456665, 0.5874849471646394, 0.10571373060064605, 0.0, -0.22020498904494715, -0.2052225155138209, 0.20848305235593412, 0.32245165624776223, 1.1456232999677156, 0.0, -0.0748484676610571, -0.11211072708301893, -0.4779178018469532, 1.1845502509395711, 0.0
0.42110861925686727, -0.05817047168786656, 0.0724395959924469, 0.2948993127171266, -0.19915021834015983, 0.0, -0.42282379969136263, -0.8735499826574825, 0.2733220759554255, 0.5888071946433163, 0.09748215431338547, 0.0, -0.20443025471580462, -0.19615376377650734, 0.2044765199036165, 0.3256515289357346, 1.145922030522487, 0.0, -0.0816885156249829, -0.11242594017818026, -0.45735869243242755, 1.1708209325380232, 0.0
0.41619568496411147, -0.07071223525416771, 0.07538588839713363, 0.3126131130812225, -0.21700683899694648, 0.0, -0.4192953757530193, -0.8411660476492094, 0.2698712528462844, 0.5901294421219931, 0.08925057802612486, 0.0, -0.18865552038666214, -0.18708501203919378, 0.2004699874512989, 0.328851401623707, 1.1462207610772583, 0.0, -0.08852856358890868, -0.11274115327334161, -0.43679958301790184, 1.157091614136475, 0.0
0.4112827506713556, -0.08325399882046887, 0.07833218080182038, 0.33032691344531856, -0.23486345965373315, 0.0, -0.41576695181467604, -0.8087821126409364, 0.26642042973714325, 0.5914516896006701, 0.08101900173886427, 0.0, -0.17288078605751958, -0.17801626030188022, 0.19646345499898124, 0.3320512743116794, 1.1465194916320296, 0.0, -0.09536861155283448, -0.11305636636850293, -0.4162404736033761, 1.1433622957349268, 0.0
0.4063698163785997, -0.09579576238677003, 0.08127847320650711, 0.34804071380941454, -0.2527200803105198, 0.0, -0.4122385278763327, -0.7763981776326633, 0.2629696066280021, 0.5927739370793469, 0.07278742545160366, 0.0, -0.1571060517283771, -0.16894750856456667, 0.1924569225466636, 0.33525114699965186, 1.1468182221868009, 0.0, -0.10220865951676027, -0.11337157946366427, -0.39568136418885036, 1.1296329773333789, 0.0
0.4014568820858439, -0.10833752595307118, 0.08422476561119384, 0.36575451417351046, -0.27057670096730646, 0.0, -0.4087101039379894, -0.7440142426243903, 0.259518783518861, 0.5940961845580238, 0.06455584916434307, 0.0, -0.14133131739923457, -0.1598787568272531, 0.18845039009434597, 0.3384510196876242, 1.147116952741572, 0.0, -0.10904870748068607, -0.1136867925588256, -0.37512225477432465, 1.115903658931831, 0.0
0.3874723372064598, -0.13506743543358207, 0.07580887871519827, 0.36985071466147856, -0.2799619262765672, 0.0, -0.4024350448838071, -0.7041897107061361, 0.2531400623790857, 0.5945952056070957, 0.0584409673531967, 0.0, -0.11697572416253951, -0.15155334570528586, 0.18558181929564563, 0.3425849891006054, 1.1517490216697803, 0.0, -0.12539209032594764, -0.118457470649305, -0.3505775394052128, 1.0985798349358007, 0.0
0.3734877923270755, -0.16179734491409292, 0.06739299181920272, 0.37394691514944667, -0.28934715158582786, 0.0, -0.39615998582962475, -0.6643651787878819, 0.24676134123931043, 0.5950942266561673, 0.05232608554205032, 0.0, -0.09262013092584444, -0.1432279345833186, 0.18271324849694534, 0.3467189585135867, 1.156381090597988, 0.0, -0.14173547317120924, -0.1232281487397844, -0.3260328240361009, 1.0812560109397704, 0.0
0.3595032474476914, -0.1885272543946038, 0.058977104923207166, 0.3780431156374148, -0.2987323768950885, 0.0, -0.38988492677544245, -0.6245406468696277, 0.2403826200995352, 0.595593247705239, 0.046211203730903955, 0.0, -0.06826453768914936, -0.13490252346135131, 0.179844677698245, 0.35085292792656797, 1.1610131595261959, 0.0, -0.15807885601647087, -0.12799882683026378, -0.3014881086669889, 1.06393218694374, 0.0
0.3455187025683072, -0.21525716387511468, 0.05056121802721161, 0.3821393161253829, -0.3081176022043492, 0.0, -0.38360986772126027, -0.5847161149513735, 0.23400389895975995, 0.5960922687543108, 0.04009632191975758, 0.0, -0.04390894445245428, -0.12657711233938404, 0.1769761068995447, 0.3549868973395492, 1.1656452284544039, 0.0, -0.17442223886173244, -0.1327695049207432, -0.276943393297877, 1.0466083629477094, 0.0
0.331534157688923, -0.24198707335562555, 0.04214533113121606, 0.3862355166133509, -0.3175028275136099, 0.0, -0.3773348086670779, -0.5448915830331195, 0.2276251778199847, 0.5965912898033825, 0.03398144010861121, 0.0, -0.019553351215759213, -0.11825170121741678, 0.17410753610084437, 0.3591208667525304, 1.1702772973826119, 0.0, -0.19076562170699402, -0.1375401830112226, -0.2523986779287651, 1.0292845389516792, 0.0
0.3124799339873199, -0.27759699815879785, 0.03673395384243676, 0.37487552455928724, -0.3133454288007499, 0.0, -0.37537314934495736, -0.5072940563338251, 0.21321913592624392, 0.6000332082426799, 0.027807632840324854, 0.0, 0.007785250568030945, -0.10937553120416338, 0.1716775665431702, 0.3658393267031819, 1.1767284531770035, 0.0, -0.20941850345644256, -0.13893819523272852, -0.22831888162047015, 1.0113082655026928, 0.0
0.2934257102857168, -0.3132069229619701, 0.03132257655365746, 0.36351553250522356, -0.30918803008788986, 0.0, -0.37341149002283686, -0.46969652963453057, 0.19881309403250308, 0.6034751266819774, 0.021633825572038502, 0.0, 0.0351238523518211, -0.10049936119090996, 0.16924759698549607, 0.3725577866538333, 1.183179608971395, 0.0, -0.22807138520589107, -0.1403362074542345, -0.20423908531217522, 0.9933319920537064, 0.0
0.27437148658411364, -0.34881684776514243, 0.02591119926487816, 0.35215554045115993, -0.30503063137502984, 0.0, -0.37144983070071635, -0.4320990029352361, 0.1844070521387623, 0.6069170451212749, 0.015460018303752146, 0.0, 0.06246245413561126, -0.09162319117765658, 0.16681762742782194, 0.3792762466044848, 1.1896307647657864, 0.0, -0.24672426695533956, -0.14173421967574046, -0.18015928900388029, 0.9753557186047198, 0.0
0.2553172628825105, -0.38442677256831465, 0.02049982197609886, 0.34079554839709625, -0.30087323266216986, 0.0, -0.36948817137859585, -0.3945014762359417, 0.17000101024502148, 0.6103589635605724, 0.009286211035465793, 0.0, 0.08980105591940142, -0.08274702116440318, 0.16438765787014778, 0.38599470655513624, 1.1960819205601778, 0.0, -0.26537714870478807, -0.1431322318972464, -0.15607949269558533, 0.9573794451557335, 0.0
0.23626303918090738, -0.42003669737148697, 0.015088444687319562, 0.32943555634303257, -0.29671583394930984, 0.0, -0.3675265120564753, -0.3569039495366473, 0.15559496835128067, 0.6138008819998697, 0.00311240376717944, 0.0, 0.11713965770319158, -0.07387085115114976, 0.16195768831247365, 0.3927131665057877, 1.2025330763545694, 0.0, -0.28403003045423664, -0.14453024411875237, -0.1319996963872904, 0.9394031717067471, 0.0
0.22382129205645762, -0.44844666078996753, 0.016032713540274895, 0.3075888407448235, -0.28369666907644725, 0.0, -0.37049567316128507, -0.32920850995129913, 0.13515487538190943, 0.6220994443728879, 0.0010543129094911282, 0.0, 0.1358529522793686, -0.06733009992680465, 0.16042218952447107, 0.40031875288061836, 1.2071019992704402, 0.0, -0.29673658940477454, -0.14359009982788537, -0.11448111633601776, 0.9150939710668993, 0.0
0.21137954493200786, -0.47685662420844815, 0.01697698239323023, 0.2857421251466145, -0.27067750420358466, 0.0, -0.37346483426609484, -0.30151307036595093, 0.11471478241253814, 0.6303980067459057, -0.0010037779481971835, 0.0, 0.15456624685554568, -0.06078934870245956, 0.1588866907364685, 0.407924339255449, 1.2116709221863111, 0.0, -0.30944314835531234, -0.14264995553701834, -0.0969625362847451, 0.8907847704270515, 0.0
0.1989377978075581, -0.5052665876269289, 0.017921251246185564, 0.2638954095484055, -0.2576583393307221, 0.0, -0.3764339953709046, -0.2738176307806028, 0.09427468944316689, 0.6386965691189238, -0.003061868805885495, 0.0, 0.17327954143172275, -0.05424859747811446, 0.15735119194846595, 0.4155299256302797, 1.2162398451021814, 0.0, -0.3221497073058502, -0.1417098112461513, -0.07944395623347246, 0.8664755697872037, 0.0
0.18649605068310832, -0.5336765510454093, 0.018865520099140897, 0.2420486939501965, -0.24463917445785954, 0.0, -0.3794031564757143, -0.24612219119525464, 0.07383459647379563, 0.6469951314919418, -0.005119959663573807, 0.0, 0.1919928360078998, -0.047707846253769365, 0.1558156931604634, 0.42313551200511035, 1.2208087680180524, 0.0, -0.33485626625638804, -0.14076966695528428, -0.06192537618219981, 0.8421663691473559, 0.0
0.17405430355865853, -0.56208651446389, 0.019809788952096233, 0.22020197835198746, -0.23162000958499693, 0.0, -0.3823723175805241, -0.21842675160990646, 0.053394503504424366, 0.6552936938649597, -0.00717805052126212, 0.0, 0.21070613058407686, -0.04116709502942426, 0.15428019437246082, 0.43074109837994096, 1.2253776909339231, 0.0, -0.34756282520692594, -0.13982952266441728, -0.04440679613092717, 0.8178571685075081, 0.0
0.17165350194344373, -0.575966786392443, 0.019529025514776612, 0.20680891159347017, -0.22570701384815312, 0.0, -0.38206013402787836, -0.20079192530006812, 0.03594209481921428, 0.6651481963221797, 0.00036679769746742754, 0.0, 0.21699685920428355, -0.03981722597000531, 0.1523457656773299, 0.4370282316218886, 1.2250470557604252, 0.0, -0.3589125058557689, -0.14350277751474957, -0.037546456620051835, 0.7816642513742922, 0.0
0.16925270032822892, -0.589847058320996, 0.019248262077456998, 0.19341584483495286, -0.2197940181113093, 0.0, -0.3817479504752327, -0.18315709899022983, 0.0184896861340042, 0.6750026987793996, 0.007911645916196974, 0.0, 0.22328758782449026, -0.038467356910586364, 0.15041133698219902, 0.44331536486383616, 1.2247164205869276, 0.0, -0.37026218650461173, -0.14717603236508187, -0.030686117109176507, 0.7454713342410761, 0.0
0.1668518987130141, -0.603727330249549, 0.018967498640137376, 0.18002277807643552, -0.21388102237446543, 0.0, -0.3814357669225869, -0.1655222726803915, 0.0010372774487941165, 0.6848572012366195, 0.01545649413492652, 0.0, 0.22957831644469695, -0.03711748785116741, 0.1484769082870681, 0.4496024981057838, 1.2243857854134297, 0.0, -0.38161186715345463, -0.1508492872154142, -0.023825777598301172, 0.7092784171078602, 0.0
0.16445109709779926, -0.6176076021781021, 0.01868673520281776, 0.1666297113179182, -0.20796802663762162, 0.0, -0.3811235833699412, -0.14788744637055315, -0.01641513123641597, 0.6947117036938394, 0.023001342353656067, 0.0, 0.23586904506490372, -0.035767618791748466, 0.14654247959193722, 0.4558896313477314, 1.2240551502399322, 0.0, -0.3929615478022976, -0.1545225420657465, -0.01696543808742584, 0.6730854999746443, 0.0
0.16205029548258448, -0.6314878741066552, 0.01840597176549814, 0.15323664455940092, -0.2020550309007778, 0.0, -0.3808113998172955, -0.1302526200607148, -0.033867539921626055, 0.7045662061510594, 0.030546190572385612, 0.0, 0.2421597736851104, -0.034417749732329514, 0.1446080508968063, 0.46217676458967893, 1.2237245150664342, 0.0, -0.4043112284511405, -0.15819579691607882, -0.010105098576550509, 0.6368925828414284, 0.0
0.1678588454810012, -0.6302200320314213, 0.013717954213722449, 0.1552093867222716, -0.20847948490294305, 0.0, -0.3744982227722496, -0.12280026521662886, -0.04245998397568751, 0.7141134433934656, 0.04448529126683806, 0.0, 0.23608024037637054, -0.035518000405864836, 0.14469596662188777, 0.47057397646267823, 1.219003853225395, 0.0, -0.4195667220918269, -0.16513120303808243, -0.015323991181576062, 0.5889197369641435, 0.0
0.17366739547941795, -0.6289521899561876, 0.009029936661946757, 0.15718212888514227, -0.2149039389051083, 0.0, -0.36818504572720373, -0.11534791037254291, -0.051052428029748964, 0.7236606806358719, 0.058424391961290505, 0.0, 0.23000070706763068, -0.03661825107940015, 0.14478388234696923, 0.47897118833567737, 1.214283191384356, 0.0, -0.4348222157325133, -0.172066609160086, -0.02054288378660162, 0.5409468910868585, 0.0
0.17947594547783466, -0.627684347880954, 0.004341919110171065, 0.15915487104801299, -0.22132839290727355, 0.0, -0.36187186868215787, -0.10789555552845695, -0.05964487208381041, 0.7332079178782782, 0.07236349265574296, 0.0, 0.22392117375889076, -0.03771850175293548, 0.14487179807205067, 0.48736840020867667, 1.209562529543317, 0.0, -0.45007770937319974, -0.17900201528208962, -0.025761776391627172, 0.4929740452095735, 0.0
0.1852844954762514, -0.6264165058057203, -0.0003460984416046275, 0.16112761321088367, -0.2277528469094388, 0.0, -0.355558691637112, -0.10044320068437099, -0.06823731613787185, 0.7427551551206847, 0.0863025933501954, 0.0, 0.21784164045015086, -0.0388187524264708, 0.14495971379713213, 0.49576561208167585, 1.2048418677022776, 0.0, -0.4653332030138862, -0.18593742140409325, -0.03098066899665273, 0.44500119933228854, 0.0
0.19109304547466816, -0.6251486637304865, -0.005034115993380316, 0.16310035537375434, -0.2341773009116041, 0.0, -0.3492455145920662, -0.09299084584028504, -0.07682976019193331, 0.7523023923630908, 0.10024169404464785, 0.0, 0.211762107141411, -0.03991900310000611, 0.1450476295222136, 0.504162823954675, 1.2001212058612387, 0.0, -0.48058869665457266, -0.19287282752609683, -0.03619956160167828, 0.39702835345500354, 0.0
0.1994880861580779, -0.610200896071536, -0.010839406763951877, 0.17678254290418155, -0.24624766989649746, 0.0, -0.3389392790365281, -0.09786671387758457, -0.07112842402413733, 0.7551112030882029, 0.10526653082052702, 0.0, 0.1945881859841759, -0.047102050847982545, 0.15044008604563788, 0.5117193910121343, 1.1900849692503255, 0.0, -0.49936484053711405, -0.20707917233748294, -0.05353678937729811, 0.3454248003638914, 0.0
0.2078831268414876, -0.5952531284125858, -0.01664469753452344, 0.1904647304346087, -0.2583180388813909, 0.0, -0.32863304348099, -0.10274258191488411, -0.06542708785634135, 0.7579200138133149, 0.11029136759640618, 0.0, 0.17741426482694087, -0.054285098595958974, 0.15583254256906215, 0.5192759580695933, 1.1800487326394125, 0.0, -0.5181409844196554, -0.22128551714886907, -0.07087401715291793, 0.29382124727277925, 0.0
0.21627816752489737, -0.5803053607536357, -0.022449988305095, 0.2041469179650359, -0.2703884078662843, 0.0, -0.3183268079254519, -0.10761844995218366, -0.059725751688545374, 0.7607288245384269, 0.11531620437228533, 0.0, 0.1602403436697058, -0.061468146343935395, 0.16122499909248644, 0.5268325251270525, 1.1700124960284992, 0.0, -0.5369171283021968, -0.23549186196025518, -0.08821124492853774, 0.24221769418166705, 0.0
0.22467320820830708, -0.5653575930946853, -0.028255279075666564, 0.21782910549546308, -0.2824587768511777, 0.0, -0.3080205723699138, -0.11249431798948319, -0.054024415520749394, 0.763537635263539, 0.1203410411481645, 0.0, 0.14306642251247073, -0.06865119409191182, 0.16661745561591068, 0.5343890921845116, 1.159976259417586, 0.0, -0.5556932721847382, -0.24969820677164128, -0.10554847270415757, 0.1906141410905549, 0.0
0.23306824889171682, -0.5504098254357349, -0.03406056984623813, 0.23151129302589024, -0.29452914583607115, 0.0, -0.2977143368143757, -0.11737018602678274, -0.048323079352953414, 0.7663464459886511, 0.12536587792404363, 0.0, 0.12589250135523566, -0.07583424183988827, 0.17200991213933498, 0.5419456592419707, 1.149940022806673, 0.0, -0.5744694160672795, -0.2639045515830274, -0.12288570047977738, 0.13901058799944274, 0.0
0.24067390857037607, -0.5255181700272531, -0.03283851962552313, 0.25052495178501855, -0.3048263231327914, 0.0, -0.2926570184139194, -0.1360641797048937, -0.02679803805879662, 0.7568490937469252, 0.1174965747426976, 0.0, 0.10130825811829042, -0.09296566772049576, 0.18392568334974524, 0.5418516488271413, 1.1350741564682019, 0.0, -0.5934756571770868, -0.2823134851722662, -0.1479652964327725, 0.09792753755481903, 0.0
0.24827956824903527, -0.5006265146187712, -0.03161646940480813, 0.2695386105441468, -0.3151235004295116, 0.0, -0.2875997000134631, -0.15475817338300465, -0.005272996764639825, 0.7473517415051995, 0.10962727156135157, 0.0, 0.07672401488134518, -0.11009709360110327, 0.1958414545601555, 0.5417576384123118, 1.1202082901297306, 0.0, -0.6124818982868941, -0.30072241876150496, -0.17304489238576762, 0.05684448711019528, 0.0
0.2558852279276945, -0.47573485921028935, -0.03039441918409314, 0.28855226930327504, -0.32542067772623184, 0.0, -0.28254238161300677, -0.17345216706111563, 0.016252044529516976, 0.7378543892634735, 0.10175796838000553, 0.0, 0.05213977164439993, -0.1272285194817108, 0.20775722577056577, 0.5416636279974825, 1.1053424237912592, 0.0, -0.6314881393967015, -0.31913135235074375, -0.19812448833876273, 0.015761436665571553, 0.0
0.26349088760635375, -0.4508432038018074, -0.029172368963378142, 0.30756592806240335, -0.3357178550229521, 0.0, -0.27748506321255045, -0.19214616073922655, 0.03777708582367377, 0.7283570370217478, 0.0938886651986595, 0.0, 0.027555528407454687, -0.14435994536231833, 0.21967299698097598, 0.541569617582653, 1.0904765574527882, 0.0, -0.6504943805065089, -0.33754028593998253, -0.22320408429175784, -0.02532161377905218, 0.0
0.271096547285013, -0.42595154839332555, -0.027950318742663145, 0.32657958682153165, -0.34601503231967234, 0.0, -0.2724277448120941, -0.2108401544173375, 0.05930212711783056, 0.718859684780022, 0.08601936201731346, 0.0, 0.0029712851705094388, -0.1614913712429258, 0.23158876819138624, 0.5414756071678236, 1.075610691114317, 0.0, -0.6695006216163161, -0.35594921952922126, -0.248283680244753, -0.0664046642236759, 0.0
0.2821406452164412, -0.39748979756527986, -0.017272119664137574, 0.35066390178726, -0.35093660599222554, 0.0, -0.27941112130858875, -0.23896655070158812, 0.08996942748327545, 0.6948126221218481, 0.07610101751045069, 0.0, -0.023155632601125017, -0.17870052710710016, 0.24052992239774504, 0.5365556322168652, 1.0670048809797779, 0.0, -0.6817232670877874, -0.36858224426771413, -0.27113449423360986, -0.09268890387969003, 0.0
0.2931847431478694, -0.36902804673723405, -0.006593920585612003, 0.37474821675298836, -0.3558581796647788, 0.0, -0.28639449780508336, -0.2670929469858387, 0.12063672784872037, 0.6707655594636743, 0.06618267300358793, 0.0, -0.04928255037275948, -0.19590968297127445, 0.24947107660410378, 0.5316356572659069, 1.0583990708452389, 0.0, -0.6939459125592587, -0.381215269006207, -0.29398530822246666, -0.11897314353570414, 0.0
0.30422884107929765, -0.34056629590918824, 0.004084278492913568, 0.39883253171871663, -0.360779753337332, 0.0, -0.29337787430157813, -0.29521934327008925, 0.15130402821416522, 0.6467184968055005, 0.05626432849672517, 0.0, -0.07540946814439392, -0.2131188388354488, 0.2584122308104625, 0.5267156823149484, 1.0497932607106997, 0.0, -0.7061685580307303, -0.3938482937446998, -0.3168361222113235, -0.14525738319171827, 0.0
0.3152729390107259, -0.31210454508114244, 0.014762477571439139, 0.42291684668444496, -0.36570132700988517, 0.0, -0.3003612507980728, -0.3233457395543399, 0.18197132857961015, 0.622671434147327, 0.046345983989862415, 0.0, -0.1015363859160284, -0.23032799469962315, 0.2673533850168213, 0.5217957073639901, 1.0411874505761607, 0.0, -0.7183912035022016, -0.4064813184831927, -0.3396869362001804, -0.1715416228477324, 0.0
0.3263170369421541, -0.2836427942530967, 0.025440676649964713, 0.44700116165017334, -0.37062290068243847, 0.0, -0.3073446272945674, -0.3514721358385905, 0.21263862894505509, 0.5986243714891532, 0.036427639482999645, 0.0, -0.12766330368766285, -0.24753715056379744, 0.27629453922318004, 0.5168757324130316, 1.0325816404416215, 0.0, -0.730613848973673, -0.41911434322168545, -0.3625377501890373, -0.19782586250374654, 0.0
0.33909565355618976, -0.26039839106462254, 0.04473669337921723, 0.4735801978888248, -0.3641869606684658, 0.0, -0.32177980920549953, -0.3752362910969915, 0.23814619359327321, 0.5649812791640042, 0.03534820988930892, 0.0, -0.1496155680723862, -0.256518855749997, 0.2771815469649701, 0.5081639179610435, 1.0329552456213036, 0.0, -0.7371923544622656, -0.42696618159133853, -0.3769631024056221, -0.20906870805841635, 0.0
0.35187427017022543, -0.23715398787614847, 0.06403271010846974, 0.5001592341274763, -0.3577510206544932, 0.0, -0.33621499111643166, -0.39900044635539245, 0.26365375824149134, 0.5313381868388555, 0.03426878029561819, 0.0, -0.1715678324571096, -0.2655005609361967, 0.2780685547067602, 0.4994521035090552, 1.0333288508009855, 0.0, -0.7437708599508582, -0.4348180199609915, -0.391388454622207, -0.22031155361308616, 0.0
0.3646528867842611, -0.21390958468767435, 0.08332872683772226, 0.5267382703661277, -0.35131508064052047, 0.0, -0.3506501730273638, -0.4227646016137935, 0.28916132288970947, 0.4976950945137065, 0.03318935070192746, 0.0, -0.19352009684183294, -0.27448226612239623, 0.27895556244855024, 0.490740289057067, 1.0337024559806673, 0.0, -0.7503493654394506, -0.4426698583306446, -0.40581380683879187, -0.23155439916775603, 0.0
0.37743150339829684, -0.19066518149920025, 0.10262474356697479, 0.5533173066047793, -0.34487914062654784, 0.0, -0.36508535493829586, -0.44652875687219457, 0.31466888753792766, 0.46405200218855774, 0.03210992110823673, 0.0, -0.21547236122655633, -0.28346397130859585, 0.27984257019034026, 0.4820284746050788, 1.0340760611603492, 0.0, -0.7569278709280434, -0.45052169670029757, -0.4202391590553768, -0.24279724472242584, 0.0
0.3902101200123326, -0.16742077831072613, 0.1219207602962273, 0.5798963428434308, -0.3384432006125752, 0.0, -0.37952053684922793, -0.4702929121305956, 0.3401764521861458, 0.43040890986340885, 0.031030491514546007, 0.0, -0.23742462561127972, -0.2924456764947954, 0.2807295779321303, 0.47331666015309065, 1.034449666340031, 0.0, -0.7635063764166358, -0.45837353506995065, -0.4346645112719616, -0.2540400902770956, 0.0
0.3967580682763812, -0.1547565418492199, 0.14498267185811284, 0.6003670094434409, -0.32172749121584177, 0.0, -0.38778606712082275, -0.48150041825857093, 0.35372937016019473, 0.4044129741652147, 0.03989674596325298, 0.0, -0.2501400717783687, -0.29296042645108605, 0.2793120878361721, 0.46669079690057447, 1.0335157232039964, 0.0, -0.7744727234205462, -0.4685734207328477, -0.44023871242105456, -0.25031030072163274, 0.0
0.40330601654042986, -0.14209230538771364, 0.16804458341999845, 0.6208376760434511, -0.30501178181910826, 0.0, -0.3960515973924174, -0.4927079243865465, 0.3672822881342437, 0.3784170384670205, 0.04876300041195995, 0.0, -0.26285551794545775, -0.2934751764073768, 0.2778945977402139, 0.46006493364805834, 1.0325817800679618, 0.0, -0.7854390704244567, -0.4787733063957447, -0.44581291357014746, -0.2465805111661698, 0.0
0.40985396480447844, -0.12942806892620737, 0.191106494981884, 0.6413083426434611, -0.28829607242237476, 0.0, -0.4043171276640122, -0.5039154305145218, 0.38083520610829275, 0.3524211027688263, 0.05762925486066692, 0.0, -0.2755709641125467, -0.2939899263636675, 0.2764771076442557, 0.4534390703955422, 1.0316478369319273, 0.0, -0.7964054174283668, -0.4889731920586418, -0.4513871147192405, -0.24285072161070692, 0.0
0.4164019130685271, -0.11676383246470112, 0.21416840654376962, 0.6617790092434713, -0.27158036302564137, 0.0, -0.41258265793560694, -0.5151229366424973, 0.39438812408234164, 0.3264251670706321, 0.0664955093093739, 0.0, -0.28828641027963575, -0.2945046763199582, 0.2750596175482975, 0.4468132071430261, 1.0307138937958924, 0.0, -0.8073717644322773, -0.4991730777215389, -0.4569613158683334, -0.239120932055244, 0.0
0.4229498613325757, -0.10409959600319488, 0.23723031810565515, 0.6822496758434814, -0.25486465362890787, 0.0, -0.42084818820720166, -0.5263304427704727, 0.4079410420563906, 0.30042923137243793, 0.07536176375808087, 0.0, -0.3010018564467248, -0.2950194262762489, 0.27364212745233923, 0.4401873438905099, 1.0297799506598577, 0.0, -0.8183381114361877, -0.509372963384436, -0.4625355170174264, -0.23539114249978113, 0.0
0.42415579308858264, -0.10398897668613763, 0.2566140285541083, 0.6937279383889773, -0.24093937664026288, 0.0, -0.42238438163624653, -0.5235788334662655, 0.410165115122207, 0.28860461870885934, 0.09102914463026246, 0.0, -0.3021587863386528, -0.2927622443145222, 0.27165700043309643, 0.4373356364630423, 1.0234230112291474, 0.0, -0.8408106671975768, -0.5184365943257242, -0.4556399201103315, -0.2176408263570749, 0.0
0.4253617248445896, -0.10387835736908038, 0.27599773900256136, 0.7052062009344731, -0.22701409965161795, 0.0, -0.4239205750652914, -0.5208272241620584, 0.4123891881880234, 0.2767800060452808, 0.10669652550244406, 0.0, -0.30331571623058073, -0.29050506235279544, 0.26967187341385357, 0.4344839290355748, 1.017066071798437, 0.0, -0.8632832229589661, -0.5275002252670125, -0.4487443232032367, -0.1998905102143687, 0.0
0.42656765660059665, -0.10376773805202312, 0.2953814494510145, 0.716684463479969, -0.213088822662973, 0.0, -0.4254567684943362, -0.5180756148578511, 0.41461326125383974, 0.2649553933817022, 0.12236390637462566, 0.0, -0.30447264612250874, -0.28824788039106874, 0.2676867463946107, 0.4316322216081072, 1.0107091323677266, 0.0, -0.8857557787203549, -0.5365638562083006, -0.4418487262961418, -0.18214019407166251, 0.0
0.4277735883566036, -0.10365711873496589, 0.31476515989946763, 0.7281627260254647, -0.19916354567432804, 0.0, -0.42699296192338115, -0.5153240055536441, 0.41683733431965614, 0.2531307807181236, 0.13803128724680724, 0.0, -0.3056295760144367, -0.285990698429342, 0.26570161937536785, 0.4287805141806397, 1.0043521929370163, 0.0, -0.9082283344817442, -0.5456274871495889, -0.43495312938904696, -0.16438987792895635, 0.0
0.42897952011261054, -0.10354649941790864, 0.3341488703479208, 0.7396409885709605, -0.1852382686856831, 0.0, -0.4285291553524259, -0.5125723962494368, 0.4190614073854725, 0.24130616805454502, 0.15369866811898886, 0.0, -0.3067865059063647, -0.28373351646761535, 0.26371649235612504, 0.42592880675317213, 0.997995253506306, 0.0, -0.9307008902431333, -0.554691118090877, -0.42805753248195205, -0.14663956178625015, 0.0
0.4268575418267189, -0.1173723820000476, 0.34210225895477187, 0.741438942990561, -0.18312202555171347, 0.0, -0.42542212370868415, -0.4962601197093019, 0.4162795305813772, 0.24264752339787274, 0.1631969453852182, 0.0, -0.29537988912666324, -0.28443158533656, 0.2674610055091578, 0.4275387892123328, 0.9872261671051146, 0.0, -0.9598661693300241, -0.5537326391162178, -0.40602722569972577, -0.1198442504902505, 0.0
0.4247355635408272, -0.13119826458218659, 0.35005564756162294, 0.7432368974101616, -0.18100578241774376, 0.0, -0.4223150920649424, -0.4799478431691669, 0.4134976537772819, 0.24398887874120045, 0.17269522265144757, 0.0, -0.2839732723469618, -0.2851296542055047, 0.2712055186621905, 0.4291487716714935, 0.976457080703923, 0.0, -0.9890314484169147, -0.5527741601415586, -0.3839969189174995, -0.09304893919425083, 0.0
0.4226135852549354, -0.14502414716432555, 0.358009036168474, 0.7450348518297619, -0.1788895392837741, 0.0, -0.4192080604212005, -0.46363556662903194, 0.41071577697318673, 0.2453302340845282, 0.18219349991767694, 0.0, -0.2725666555672603, -0.28582772307444926, 0.27495003181522326, 0.4307587541306541, 0.9656879943027316, 0.0, -1.0181967275038053, -0.5518156811668994, -0.36196661213527315, -0.06625362789825118, 0.0
0.4204916069690437, -0.15885002974646453, 0.3659624247753251, 0.7468328062493624, -0.17677329614980444, 0.0, -0.4161010287774588, -0.44732329008889693, 0.4079339001690915, 0.2466715894278559, 0.19169177718390631, 0.0, -0.2611600387875589, -0.28652579194339395, 0.27869454496825596, 0.43236873658981484, 0.95491890790154, 0.0, -1.0473620065906961, -0.5508572021922401, -0.33993630535304686, -0.039458316602251534, 0.0
0.41836962868315203, -0.17267591232860352, 0.3739158133821761, 0.748630760668963, -0.17465705301583478, 0.0, -0.412993997133717, -0.4310110135487619, 0.4051520233649962, 0.24801294477118363, 0.20119005445013566, 0.0, -0.24975342200785738, -0.28722386081233864, 0.2824390581212887, 0.43397871904897545, 0.9441498215003483, 0.0, -1.0765272856775867, -0.5498987232175808, -0.3179059985708206, -0.012663005306251893, 0.0
0.40883794930569806, -0.20068054746291797, 0.3652408637746486, 0.7394482239363948, -0.18256974054452932, 0.0, -0.40018398553709644, -0.40271208448663476, 0.4050281992358843, 0.2573342212166512, 0.20456788090864136, 0.0, -0.22654520647609416, -0.2964614452295146, 0.29434954796538243, 0.4349385279645247, 0.9283146062766366, 0.0, -1.0983009662279168, -0.5342816252811493, -0.2798151137177455, 0.009455902277693856, 0.0
0.3993062699282439, -0.22868518259723242, 0.356565914167121, 0.7302656872038268, -0.19048242807322394, 0.0, -0.3873739739404758, -0.3744131554245075, 0.4049043751067722, 0.2666554976621188, 0.20794570736714713, 0.0, -0.20333699094433091, -0.3056990296466906, 0.30626003780947614, 0.4358983368800739, 0.9124793910529247, 0.0, -1.120074646778247, -0.5186645273447177, -0.24172422886467032, 0.0315748098616396, 0.0
0.3897745905507899, -0.2566898177315469, 0.3478909645595934, 0.7210831504712586, -0.1983951156019185, 0.0, -0.37456396234385525, -0.3461142263623802, 0.40478055097766025, 0.2759767741075864, 0.21132353382565286, 0.0, -0.1801287754125676, -0.3149366140638665, 0.3181705276535699, 0.43685814579562326, 0.896644175829213, 0.0, -1.1418483273285769, -0.503047429408286, -0.20363334401159522, 0.05369371744558535, 0.0
0.38024291117333586, -0.28469445286586137, 0.33921601495206577, 0.7119006137386906, -0.20630780313061306, 0.0, -0.36175395074723465, -0.31781529730025293, 0.40465672684854825, 0.285298050553054, 0.21470136028415862, 0.0, -0.15692055988080442, -0.3241741984810425, 0.3300810174976636, 0.43781795471117246, 0.8808089606055011, 0.0, -1.163622007878907, -0.48743033147185444, -0.16554245915852006, 0.07581262502953111, 0.0
0.37071123179588183, -0.3126990880001758, 0.33054106534453825, 0.7027180770061224, -0.21422049065930762, 0.0, -0.3489439391506141, -0.2895163682381257, 0.4045329027194363, 0.29461932699852167, 0.21807918674266433, 0.0, -0.13371234434904114, -0.33341178289821854, 0.3419915073417573, 0.4387777636267217, 0.8649737453817892, 0.0, -1.1853956884292371, -0.47181323353542276, -0.1274515743054449, 0.09793153261347685, 0.0
0.35418314529373784, -0.34849476819563785, 0.305402749534189, 0.6806063541049492, -0.21966388636228057, 0.0, -0.32493339227105056, -0.256264599675225, 0.4023378858950071, 0.30699255947785514, 0.22277472631445022, 0.0, -0.1048229862834604, -0.340989283434726, 0.3457270704463858, 0.4337790045133283, 0.8567640342303318, 0.0, -1.1945048061414907, -0.4459583344034237, -0.07950166345079455, 0.10935845629902527, 0.0
0.3376550587915937, -0.38429044839109994, 0.2802644337238398, 0.6584946312037758, -0.22510728206525357, 0.0, -0.300922845391487, -0.2230128311123243, 0.40014286907057794, 0.3193657919571886, 0.22747026588623617, 0.0, -0.07593362821787968, -0.34856678397123364, 0.34946263355101426, 0.4287802453999349, 0.8485543230788744, 0.0, -1.2036139238537444, -0.4201034352714247, -0.0315517525961442, 0.12078537998457367, 0.0
0.3211269722894496, -0.4200861285865619, 0.2551261179134906, 0.6363829083026025, -0.23055067776822658, 0.0, -0.2769122985119234, -0.18976106254942365, 0.3979478522461487, 0.33173902443652215, 0.23216580545802212, 0.0, -0.04704427015229895, -0.35614428450774116, 0.3531981966556428, 0.42378148628654144, 0.8403446119274167, 0.0, -1.2127230415659982, -0.3942485361394257, 0.01639815825850618, 0.1322123036701221, 0.0
0.3045988857873055, -0.4558818087820239, 0.2299878021031414, 0.6142711854014292, -0.23599407347119958, 0.0, -0.2529017516323599, -0.15650929398652294, 0.3957528354217196, 0.3441122569158556, 0.23686134502980805, 0.0, -0.01815491208671822, -0.3637217850442488, 0.3569337597602713, 0.418782727173148, 0.8321349007759593, 0.0, -1.2218321592782517, -0.3683936370074266, 0.06434806911315652, 0.1436392273556705, 0.0
0.2880707992851614, -0.491677488977486, 0.20484948629279218, 0.5921594625002559, -0.24143746917417255, 0.0, -0.22889120475279634, -0.12325752542362227, 0.3935578185972904, 0.35648548939518904, 0.241556884601594, 0.0, 0.010734445978862518, -0.3712992855807563, 0.3606693228648998, 0.41378396805975465, 0.8239251896245018, 0.0, -1.2309412769905055, -0.3425387378754276, 0.1122979799678069, 0.15506615104121893, 0.0
0.2750881641535431, -0.5189821353806786, 0.1728614718949512, 0.5615156312281967, -0.23540549608754952, 0.0, -0.1995693975572698, -0.0986006485840737, 0.3905748240128294, 0.37627461190361244, 0.25415108972686395, 0.0, 0.03244666144345802, -0.36669553985564973, 0.354862504233101, 0.4149601594053076, 0.8297193825444916, 0.0, -1.2263720399153692, -0.32109999298987224, 0.15324476103855436, 0.15905773998448097, 0.0
0.26210552902192474, -0.5462867817838711, 0.1408734574971102, 0.5308717999561375, -0.22937352300092648, 0.0, -0.17024759036174325, -0.07394377174452516, 0.3875918294283683, 0.3960637344120358, 0.26674529485213394, 0.0, 0.05415887690805352, -0.36209179413054327, 0.34905568560130223, 0.4161363507508606, 0.8355135754644816, 0.0, -1.2218028028402332, -0.29966124810431694, 0.19419154210930184, 0.16304932892774301, 0.0
0.2491228938903064, -0.5735914281870638, 0.10888544309926922, 0.5002279686840784, -0.22334154991430344, 0.0, -0.14092578316621668, -0.049286894904976584, 0.3846088348439072, 0.4158528569204592, 0.2793394999774039, 0.0, 0.07587109237264901, -0.3574880484054367, 0.3432488669695035, 0.4173125420964136, 0.8413077683844714, 0.0, -1.217233565765097, -0.2782225032187616, 0.2351383231800493, 0.1670409178710051, 0.0
0.23614025875868808, -0.6008960745902564, 0.07689742870142822, 0.4695841374120191, -0.21730957682768037, 0.0, -0.11160397597069013, -0.02463001806542804, 0.38162584025944607, 0.43564197942888255, 0.2919337051026739, 0.0, 0.0975833078372445, -0.35288430268033016, 0.3374420483377048, 0.41848873344196663, 0.8471019613044611, 0.0, -1.212664328689961, -0.2567837583332062, 0.27608510425079674, 0.17103250681426715, 0.0
0.22315762362706976, -0.628200720993449, 0.04490941430358724, 0.43894030613995993, -0.21127760374105733, 0.0, -0.08228216877516359, 2.6858774120502624e-05, 0.3786428456749851, 0.45543110193730596, 0.30452791022794384, 0.0, 0.11929552330184001, -0.3482805569552236, 0.331635229705906, 0.4196649247875196, 0.8528961542244511, 0.0, -1.208095091614825, -0.23534501344765088, 0.31703188532154425, 0.17502409575752922, 0.0
0.21834396715282586, -0.6403345431686279, 0.01875355443509866, 0.41729448142931397, -0.1977866589180882, 0.0, -0.061143797148271575, 0.011834094610148076, 0.37930054856898965, 0.4750701261300578, 0.31839839784071017, 0.0, 0.129789392223943, -0.3302561159095407, 0.3223298846258506, 0.4312655942547748, 0.8701355217379774, 0.0, -1.1900417898046312, -0.22681091191075925, 0.3445116091926629, 0.1766321723171467, 0.0
0.21353031067858197, -0.6524683653438069, -0.007402305433389916, 0.39564865671866806, -0.18429571409511902, 0.0, -0.04000542552137956, 0.02364133044617565, 0.3799582514629941, 0.49470915032280965, 0.33226888545347655, 0.0, 0.140283261146046, -0.3122316748638578, 0.3130245395457952, 0.44286626372203003, 0.8873748892515038, 0.0, -1.1719884879944371, -0.21827681037386762, 0.37199133306378157, 0.1782402488767642, 0.0
0.20871665420433808, -0.6646021875189858, -0.033558165301878495, 0.374002832008022, -0.17080476927214994, 0.0, -0.01886705389448755, 0.03544856628220321, 0.3806159543569987, 0.5143481745155616, 0.3461393730662429, 0.0, 0.150777130068149, -0.29420723381817476, 0.30371919446573975, 0.4544669331892852, 0.90461425676503, 0.0, -1.1539351861842433, -0.209742708836976, 0.3994710569349002, 0.1798483254363817, 0.0
0.20390299773009413, -0.6767360096941648, -0.05971402517036707, 0.35235700729737607, -0.15731382444918077, 0.0, 0.002271317732404459, 0.04725580211823079, 0.38127365725100315, 0.5339871987083133, 0.36000986067900925, 0.0, 0.161270998990252, -0.27618279277249186, 0.2944138493856844, 0.4660676026565404, 0.9218536242785562, 0.0, -1.1358818843740495, -0.20120860730008439, 0.42695078080601895, 0.18145640199599916, 0.0
0.19908934125585023, -0.6888698318693437, -0.08586988503885565, 0.3307111825867301, -0.1438228796262116, 0.0, 0.02340968935929647, 0.059063037954258366, 0.3819313601450077, 0.5536262229010652, 0.3738803482917756, 0.0, 0.171764867912355, -0.25815835172680895, 0.28510850430562895, 0.47766827212379565, 0.9390929917920827, 0.0, -1.1178285825638554, -0.19267450576319275, 0.4544305046771376, 0.18306447855561667, 0.0
0.2025422657414108, -0.6862920503773181, -0.09645596179973662, 0.32378595697025336, -0.14004734499105392, 0.0, 0.029871898672906717, 0.056870821336081095, 0.37826006355409614, 0.5640876356803981, 0.3769151407577774, 0.0, 0.17142948893395027, -0.23452467030197002, 0.2753600899416623, 0.49484401540476974, 0.9609234932815407, 0.0, -1.0867060284219252, -0.19807721784130175, 0.46814194043516966, 0.1943420736156937, 0.0
0.20599519022697135, -0.6837142688852925, -0.10704203856061757, 0.3168607313537767, -0.13627181035589625, 0.0, 0.03633410798651697, 0.05467860471790382, 0.3745887669631846, 0.574549048459731, 0.3799499332237791, 0.0, 0.17109410995554555, -0.2108909888771311, 0.26561167557769555, 0.5120197586857439, 0.9827539947709986, 0.0, -1.055583474279995, -0.20347992991941075, 0.4818533761932018, 0.20561966867577072, 0.0
0.20944811471253189, -0.6811364873932669, -0.11762811532149853, 0.30993550573729994, -0.13249627572073858, 0.0, 0.04279631730012723, 0.05248638809972654, 0.370917470372273, 0.585010461239064, 0.3829847256897809, 0.0, 0.1707587309771408, -0.18725730745229216, 0.2558632612137289, 0.529195501966718, 1.0045844962604566, 0.0, -1.0244609201380648, -0.2088826419975197, 0.49556481195123386, 0.21689726373584778, 0.0
0.21290103919809242, -0.6785587059012415, -0.12821419208237947, 0.30301028012082326, -0.12872074108558088, 0.0, 0.04925852661373747, 0.05029417148154928, 0.3672461737813615, 0.5954718740183969, 0.38601951815578267, 0.0, 0.17042335199873607, -0.16362362602745326, 0.24611484684976223, 0.5463712452476922, 1.0264149977499146, 0.0, -0.9933383659961346, -0.2142853540756287, 0.5092762477092659, 0.2281748587959248, 0.0
0.21635396368365298, -0.6759809244092159, -0.13880026884326044, 0.2960850545043465, -0.1249452064504232, 0.0, 0.05572073592734773, 0.048101954863371994, 0.36357487719044995, 0.6059332867977296, 0.3890543106217844, 0.0, 0.17008797302033135, -0.13998994460261432, 0.23636643248579553, 0.5635469885286662, 1.0482454992393726, 0.0, -0.9622158118542045, -0.2196880661537377, 0.5229876834672981, 0.23945245385600183, 0.0
0.22663982775616176, -0.6608075066219337, -0.13182204455871765, 0.2995023952171174, -0.1344218067273428, 0.0, 0.04612368873341874, 0.03081218852423336, 0.35280930239171343, 0.602897670536321, 0.37669268807263523, 0.0, 0.16216894436139845, -0.12562559513404517, 0.22971433344396341, 0.5760643258630199, 1.0636194658296847, 0.0, -0.9189488728044621, -0.23381401760911846, 0.524103008200517, 0.2667508380178383, 0.0
0.23692569182867063, -0.6456340888346515, -0.12484382027417487, 0.30291973592988825, -0.1438984070042624, 0.0, 0.03652664153948977, 0.013522422185094718, 0.34204372759297696, 0.5998620542749122, 0.36433106552348593, 0.0, 0.15424991570246555, -0.11126124566547602, 0.22306223440213127, 0.5885816631973736, 1.0789934324199963, 0.0, -0.87568193375472, -0.24793996906449922, 0.5252183329337359, 0.2940492221796747, 0.0
0.2472115559011794, -0.6304606710473694, -0.11786559598963207, 0.3063370766426592, -0.15337500728118197, 0.0, 0.026929594345560793, -0.0037673441540439206, 0.3312781527942405, 0.5968264380135037, 0.35196944297433674, 0.0, 0.1463308870435326, -0.09689689619690685, 0.21641013536029913, 0.6010990005317272, 1.094367399010308, 0.0, -0.8324149947049779, -0.26206592051988, 0.5263336576669548, 0.3213476063415112, 0.0
0.25749741997368825, -0.6152872532600872, -0.11088737170508928, 0.30975441735543, -0.16285160755810157, 0.0, 0.01733254715163182, -0.021057110493182558, 0.320512577995504, 0.5937908217520949, 0.33960782042518745, 0.0, 0.1384118583845997, -0.08253254672833768, 0.20975803631846698, 0.6136163378660808, 1.1097413656006199, 0.0, -0.7891480556552357, -0.27619187197526074, 0.5274489824001738, 0.3486459905033476, 0.0
0.267783284046197, -0.6001138354728051, -0.10390914742054651, 0.3131717580682009, -0.17232820783502117, 0.0, 0.007735499957702848, -0.0383468768323212, 0.30974700319676757, 0.5907552054906863, 0.32724619787603826, 0.0, 0.1304928297256668, -0.06816819725976853, 0.20310593727663487, 0.6261336752004346, 1.1251153321909317, 0.0, -0.7458811166054935, -0.2903178234306415, 0.5285643071333928, 0.3759443746651841, 0.0
0.27949402793871697, -0.573789376449508, -0.09010614750116458, 0.32137611454951326, -0.18127910446926457, 0.0, -0.017610222054307116, -0.07004741002055165, 0.30004672152291234, 0.5726812320008317, 0.30437567213860944, 0.0, 0.12258384892723763, -0.06889799621451445, 0.2061528562902795, 0.6282443646967244, 1.1303731156186136, 0.0, -0.6968732276499229, -0.30073921581022617, 0.5187743818584967, 0.41644976999661676, 0.0
0.291204771831237, -0.5474649174262108, -0.07630314758178267, 0.3295804710308256, -0.19023000110350796, 0.0, -0.04295594406631708, -0.1017479432087821, 0.29034643984905717, 0.5546072585109773, 0.2815051464011805, 0.0, 0.11467486812880842, -0.06962779516926036, 0.20919977530392408, 0.6303550541930142, 1.1356308990462953, 0.0, -0.6478653386943521, -0.3111606081898109, 0.5089844565836006, 0.4569551653280495, 0.0
0.3029155157237569, -0.5211404584029138, -0.06250014766240072, 0.33778482751213795, -0.19918089773775138, 0.0, -0.06830166607832705, -0.13344847639701254, 0.280646158175202, 0.5365332850211227, 0.25863462066375165, 0.0, 0.10676588733037927, -0.07035759412400627, 0.2122466943175687, 0.632465743689304, 1.1408886824739775, 0.0, -0.5988574497387815, -0.3215820005693955, 0.49919453130870445, 0.4974605606594821, 0.0
0.31462625961627694, -0.49481599937961673, -0.0486971477430188, 0.34598918399345024, -0.20813179437199475, 0.0, -0.093647388090337, -0.16514900958524298, 0.27094587650134677, 0.5184593115312681, 0.23576409492632275, 0.0, 0.09885690653195009, -0.0710873930787522, 0.2152936133312133, 0.6345764331855938, 1.1461464659016594, 0.0, -0.5498495607832108, -0.33200339294898024, 0.48940460603380825, 0.5379659559909148, 0.0
0.32633700350879685, -0.4684915403563196, -0.034894147823636874, 0.3541935404747626, -0.21708269100623817, 0.0, -0.11899311010234695, -0.1968495427734734, 0.2612455948274916, 0.5003853380414137, 0.21289356918889388, 0.0, 0.0909479257335209, -0.07181719203349811, 0.21834053234485795, 0.6366871226818835, 1.1514042493293413, 0.0, -0.5008416718276401, -0.34242478532856485, 0.4796146807589122, 0.5784713513223475, 0.0
0.3383809412274981, -0.4346259325141756, -0.017762962100334446, 0.36618148454040134, -0.22025442549600988, 0.0, -0.1518909363649187, -0.23419565828467656, 0.2626662753853225, 0.4733390981059543, 0.19668576596338816, 0.0, 0.07974787600117585, -0.08368931255931598, 0.2310620941456459, 0.6325899692441439, 1.1491181682058598, 0.0, -0.45725150129108705, -0.34807468838863387, 0.45960429238923795, 0.6208739893638681, 0.0
0.35042487894619934, -0.4007603246720315, -0.0006317763770320155, 0.3781694286060401, -0.22342615998578164, 0.0, -0.18478876262749044, -0.27154177379587974, 0.2640869559431534, 0.44629285817049497, 0.18047796273788244, 0.0, 0.06854782626883077, -0.09556143308513386, 0.24378365594643397, 0.6284928158064041, 1.1468320870823787, 0.0, -0.413661330754534, -0.35372459144870283, 0.4395939040195638, 0.6632766274053885, 0.0
0.3624688166649005, -0.3668947168298874, 0.016499409346270415, 0.39015737267167877, -0.22659789447555337, 0.0, -0.21768658889006223, -0.3088878893070829, 0.26550763650098425, 0.4192466182350356, 0.16427015951237675, 0.0, 0.05734777653648569, -0.10743355361095172, 0.25650521774722196, 0.6243956623686646, 1.1445460059588974, 0.0, -0.370071160217981, -0.3593744945087718, 0.4195835156498896, 0.7056792654469091, 0.0
0.37451275438360176, -0.3330291089877433, 0.03363059506957285, 0.4021453167373175, -0.2297696289653251, 0.0, -0.25058441515263397, -0.3462340048182861, 0.2669283170588151, 0.3922003782995763, 0.14806235628687103, 0.0, 0.04614772680414062, -0.11930567413676961, 0.26922677954800994, 0.6202985089309249, 1.1422599248354164, 0.0, -0.32648098968142797, -0.3650243975688407, 0.39957312728021543, 0.7480819034884297, 0.0
0.386556692102303, -0.29916350114559914, 0.05076178079287529, 0.41413326080295626, -0.23294136345509683, 0.0, -0.2834822414152057, -0.3835801203294892, 0.26834899761664593, 0.3651541383641169, 0.13185455306136531, 0.0, 0.03494767707179555, -0.1311777946625875, 0.281948341348798, 0.6162013554931852, 1.139973843711935, 0.0, -0.2828908191448749, -0.37067430062890966, 0.37956273891054115, 0.7904845415299503, 0.0
0.39351905483460364, -0.26678528872287754, 0.06735581700426695, 0.4270531688012579, -0.22755922880886886, 0.0, -0.3052331419281388, -0.4106579961029702, 0.2780974399058807, 0.3469798433488578, 0.13037081236139647, 0.0, 0.016928883213440375, -0.14381519668684434, 0.29549445602942265, 0.6153093281844664, 1.1331557359329705, 0.0, -0.24811212834191596, -0.3701486877433545, 0.35333837102918747, 0.8252308076060657, 0.0
0.4004814175669042, -0.23440707630015598, 0.0839498532156586, 0.43997307679955955, -0.22217709416264084, 0.0, -0.32698404244107176, -0.4377358718764512, 0.2878458821951154, 0.3288055483335986, 0.12888707166142765, 0.0, -0.0010899106449148005, -0.15645259871110118, 0.30904057071004737, 0.6144173008757476, 1.1263376281540056, 0.0, -0.213333437538957, -0.36962307485779944, 0.3271140031478338, 0.8599770736821811, 0.0
0.40744378029920497, -0.20202886387743435, 0.10054388942705027, 0.4528929847978612, -0.21679495951641287, 0.0, -0.3487349429540048, -0.4648137476499322, 0.29759432448435014, 0.31063125331833946, 0.12740333096145884, 0.0, -0.01910870450326997, -0.16909000073535801, 0.3225866853906721, 0.6135252735670289, 1.1195195203750405, 0.0, -0.17855474673599803, -0.3690974619722444, 0.30088963526648005, 0.8947233397582964, 0.0
0.4144061430315055, -0.16965065145471275, 0.1171379256384419, 0.4658128927961629, -0.21141282487018487, 0.0, -0.3704858434669378, -0.49189162342341314, 0.3073427667735848, 0.2924569583030803, 0.12591959026149002, 0.0, -0.03712749836162515, -0.18172740275961483, 0.3361328000712968, 0.6126332462583102, 1.1127014125960757, 0.0, -0.1437760559330391, -0.3685718490866893, 0.2746652673851263, 0.929469605834412, 0.0
0.42136850576380624, -0.13727243903199113, 0.13373196184983355, 0.4787328007944645, -0.20603069022395687, 0.0, -0.39223674397987085, -0.5189694991968941, 0.31709120906281957, 0.2742826632878212, 0.12443584956152119, 0.0, -0.055146292219980325, -0.19436480478387172, 0.3496789147519215, 0.6117412189495912, 1.105883304817111, 0.0, -0.10899736513008015, -0.3680462362011342, 0.2484408995037726, 0.9642158719105273, 0.0
0.4229824605923445, -0.11406560998978565, 0.14521313211386316, 0.48894482347698, -0.1925759690114812, 0.0, -0.3986770159010469, -0.5310776440881176, 0.3240881188423342, 0.27170103334479495, 0.13617932884949158, 0.0, -0.07113556695863403, -0.20002088281883418, 0.35508956458746854, 0.6122981395512687, 1.0947100769556448, 0.0, -0.08386143343948915, -0.3606823744370462, 0.22337432615045832, 0.9873449402513711, 0.0
0.4245964154208826, -0.09085878094758021, 0.15669430237789284, 0.4991568461594954, -0.17912124779900548, 0.0, -0.40511728782222295, -0.5431857889793412, 0.3310850286218488, 0.26911940340176876, 0.14792280813746192, 0.0, -0.08712484169728775, -0.2056769608537967, 0.36050021442301555, 0.6128550601529461, 1.0835368490941784, 0.0, -0.058725501748898165, -0.35331851267295833, 0.19830775279714408, 1.010474008592215, 0.0
0.42621037024942093, -0.06765195190537474, 0.1681754726419225, 0.5093688688420108, -0.16566652658652978, 0.0, -0.4115575597433991, -0.5552939338705649, 0.33808193840136347, 0.2665377734587426, 0.15966628742543232, 0.0, -0.10311411643594147, -0.2113330388887592, 0.3659108642585627, 0.6134119807546233, 1.0723636212327121, 0.0, -0.03358957005830719, -0.34595465090887034, 0.17324117944382975, 1.0336030769330589, 0.0
0.42782432507795914, -0.044445122863169255, 0.17965664290595215, 0.5195808915245261, -0.15221180537405407, 0.0, -0.41799783166457516, -0.5674020787617884, 0.34507884818087803, 0.2639561435157164, 0.17140976671340272, 0.0, -0.11910339117459517, -0.21698911692372175, 0.37132151409410974, 0.6139689013563008, 1.0611903933712459, 0.0, -0.008453638367716187, -0.3385907891447824, 0.14817460609051547, 1.0567321452739027, 0.0
0.42943827990649736, -0.021238293820963792, 0.1911378131699818, 0.5297929142070417, -0.13875708416157834, 0.0, -0.42443810358575124, -0.5795102236530121, 0.3520757579603927, 0.2613745135726902, 0.18315324600137312, 0.0, -0.1350926659132489, -0.22264519495868423, 0.37673216392965675, 0.6145258219579782, 1.0500171655097796, 0.0, 0.0166822933228748, -0.3312269273806945, 0.1231080327372012, 1.0798612136147463, 0.0
0.4290355975414772, -0.010159101158002318, 0.1992092733007303, 0.5375145579958129, -0.12661441561055278, 0.0, -0.42158904207742975, -0.577870137754913, 0.3507375616630111, 0.2724533103949773, 0.19621591495117086, 0.0, -0.14222290279058677, -0.21734981190292663, 0.3690234565213013, 0.6071922067498273, 1.0420784935191814, 0.0, 0.02897350021428645, -0.31729285742327795, 0.10723357203992896, 1.0893471828190906, 0.0
0.428632915176457, 0.0009200915049591568, 0.2072807334314788, 0.5452362017845842, -0.1144717470595272, 0.0, -0.41873998056910816, -0.576230051856814, 0.34939936536562954, 0.28353210721726446, 0.20927858390096865, 0.0, -0.14935313966792466, -0.21205442884716902, 0.3613147491129458, 0.5998585915416764, 1.034139821528583, 0.0, 0.04126470710569811, -0.3033587874658615, 0.09135911134265676, 1.0988331520234351, 0.0
0.4282302328114369, 0.011999284167920631, 0.21535219356222726, 0.5529578455733555, -0.10232907850850162, 0.0, -0.4158909190607867, -0.5745899659587148, 0.3480611690682479, 0.29461090403955154, 0.22234125285076642, 0.0, -0.15648337654526254, -0.20675904579141138, 0.35360604170459037, 0.5925249763335254, 1.0262011495379848, 0.0, 0.05355591399710975, -0.289424717508445, 0.07548465064538454, 1.1083191212277794, 0.0
0.42782755044641674, 0.023078476830882103, 0.22342365369297576, 0.5606794893621267, -0.09018640995747607, 0.0, -0.41304185755246514, -0.5729498800606158, 0.3467229727708663, 0.30568970086183866, 0.2354039218005642, 0.0, -0.16361361342260042, -0.2014636627356538, 0.34589733429623487, 0.5851913611253745, 1.0182624775473865, 0.0, 0.0658471208885214, -0.2754906475510285, 0.05961018994811232, 1.1178050904321235, 0.0
0.4274248680813966, 0.03415766949384358, 0.23149511382372426, 0.568401133150898, -0.07804374140645048, 0.0, -0.41019279604414366, -0.5713097941625166, 0.3453847764734847, 0.3167684976841258, 0.24846659075036198, 0.0, -0.1707438502999383, -0.1961682796798962, 0.3381886268878794, 0.5778577459172237, 1.0103238055567882, 0.0, 0.07813832777993307, -0.261556577593612, 0.04373572925084011, 1.127291059636468, 0.0
0.42293776969151786, 0.032428965550172044, 0.2322266371637711, 0.5685267759130905, -0.07724454746251357, 0.0, -0.3984610628220392, -0.5593075628316211, 0.34196169362747475, 0.3339589017308167, 0.2582753027493266, 0.0, -0.1666155357537335, -0.1815680786335173, 0.3200394087633129, 0.5619240138385538, 1.0134456341019284, 0.0, 0.07600944357525706, -0.24908106882011166, 0.04034587433219548, 1.1227098845092482, 0.0
0.41845067130163915, 0.030700261606500516, 0.23295816050381798, 0.5686524186752832, -0.07644535351857665, 0.0, -0.38672932959993467, -0.5473053315007256, 0.3385386107814648, 0.35114930577750764, 0.26808401474829113, 0.0, -0.16248722120752873, -0.16696787758713835, 0.3018901906387464, 0.5459902817598838, 1.0165674626470689, 0.0, 0.07388055937058105, -0.2366055600466113, 0.03695601941355087, 1.1181287093820285, 0.0
0.41396357291176034, 0.02897155766282898, 0.23368968384386493, 0.5687780614374757, -0.07564615957463974, 0.0, -0.37499759637783026, -0.53530310016983, 0.33511552793545485, 0.3683397098241985, 0.27789272674725574, 0.0, -0.15835890666132396, -0.15236767654075944, 0.2837409725141799, 0.5300565496812139, 1.0196892911922089, 0.0, 0.07175167516590505, -0.22413005127311092, 0.03356616449490624, 1.1135475342548087, 0.0
0.40947647452188163, 0.02724285371915745, 0.23442120718391182, 0.5689037041996683, -0.07484696563070284, 0.0, -0.3632658631557258, -0.5233008688389345, 0.3316924450894449, 0.3855301138708894, 0.28770143874622034, 0.0, -0.15423059211511916, -0.13776747549438056, 0.2655917543896133, 0.5141228176025441, 1.0228111197373493, 0.0, 0.06962279096122904, -0.2116545424996106, 0.030176309576261613, 1.1089663591275887, 0.0
0.4049893761320028, 0.02551414977548592, 0.23515273052395866, 0.5690293469618608, -0.07404777168676592, 0.0, -0.3515341299336213, -0.511298637508039, 0.32826936224343495, 0.40272051791758035, 0.2975101507451849, 0.0, -0.15010227756891437, -0.12316727444800163, 0.24744253626504684, 0.4981890855238741, 1.0259329482824893, 0.0, 0.06749390675655305, -0.19917903372611023, 0.02678645465761699, 1.1043851840003691, 0.0
0.3951845631985872, 0.01608988110179227, 0.22859370640047694, 0.5621659723234164, -0.08254784453923142, 0.0, -0.3398880016206687, -0.49802280451537806, 0.3232793507202525, 0.41605395375687393, 0.30808656675959023, 0.0, -0.13934740163849263, -0.11190182059633319, 0.2334147246735057, 0.48487640863070364, 1.033322379120119, 0.0, 0.057031775076101236, -0.19522628184936355, 0.03202647691669889, 1.0925046928754587, 0.0
0.3853797502651715, 0.006665612428098623, 0.22203468227699513, 0.5553025976849718, -0.0910479173916969, 0.0, -0.32824187330771604, -0.4847469715227172, 0.3182893391970701, 0.4293873895961677, 0.3186629827739955, 0.0, -0.1285925257080709, -0.10063636674466472, 0.21938691308196462, 0.47156373173753313, 1.0407118099577486, 0.0, 0.04656964339564943, -0.19127352997261687, 0.03726649917578079, 1.0806242017505483, 0.0
0.37557493733175595, -0.002758656245595024, 0.21547565815351336, 0.5484392230465271, -0.09954799024416242, 0.0, -0.31659574499476345, -0.4714711385300563, 0.3132993276738877, 0.4427208254354614, 0.32923939878840086, 0.0, -0.11783764977764916, -0.08937091289299626, 0.20535910149042347, 0.4582510548443627, 1.0481012407953783, 0.0, 0.03610751171519762, -0.1873207780958702, 0.04250652143486268, 1.0687437106256377, 0.0
0.3657701243983403, -0.01218292491928867, 0.20891663403003158, 0.5415758484080827, -0.10804806309662791, 0.0, -0.30494961668181075, -0.4581953055373954, 0.3083093161507053, 0.456054261274755, 0.3398158148028062, 0.0, -0.10708277384722743, -0.0781054590413278, 0.19133128989888237, 0.44493837795119223, 1.055490671633008, 0.0, 0.025645380034745813, -0.18336802621912354, 0.04774654369394458, 1.0568632195007273, 0.0
0.3559653114649246, -0.021607193592982316, 0.20235760990654977, 0.534712473769638, -0.11654813594909341, 0.0, -0.2933034883688581, -0.44491947254473463, 0.3033193046275228, 0.4693876971140487, 0.3503922308172115, 0.0, -0.09632789791680568, -0.06684000518965935, 0.17730347830734125, 0.4316257010580218, 1.0628801024706376, 0.0, 0.015183248354294014, -0.17941527434237683, 0.052986565953026483, 1.044982728375817, 0.0
