isaac-sim2real/sage/motion_files/h1_2/amass/0-castBox02_poses_action_sequence.txt
left_hip_yaw_joint, left_hip_pitch_joint, left_hip_roll_joint, left_knee_joint, left_ankle_pitch_joint, left_ankle_roll_joint, right_hip_yaw_joint, right_hip_pitch_joint, right_hip_roll_joint, right_knee_joint, right_ankle_pitch_joint, right_ankle_roll_joint, torso_joint, left_shoulder_pitch_joint, left_shoulder_roll_joint, left_shoulder_yaw_joint, left_elbow_joint, left_wrist_roll_joint, right_shoulder_pitch_joint, right_shoulder_roll_joint, right_shoulder_yaw_joint, right_elbow_joint, right_wrist_roll_joint
0.4299999792196667, -0.2944975379233175, 0.030527382904366122, 0.28785109723892033, 0.23443979843110405, 0.0, -0.27764015316988266, -0.09069875729351844, -0.14116048457204936, -0.05613476293250582, 0.32001739318012823, 0.0, -0.04186738046651896, -0.00943303930225077, -0.010450129225718764, 0.032089108755038405, 0.3343830935335384, 0.0, -0.10871120094592317, 0.00903235219763152, -0.010269456232210815, 0.2857443626587156, 0.0
0.4299999792196667, -0.2948931656675011, 0.031270187703632046, 0.2874677950099144, 0.23466439438056766, 0.0, -0.2775890953079448, -0.09025284521732152, -0.14030778302203653, -0.05582018025027031, 0.3224039040394277, 0.0, -0.04191969182392558, -0.010512080595089514, -0.011013661693108053, 0.031359000178883184, 0.3324402488607544, 0.0, -0.10906674894916393, 0.009208785227881013, -0.01023715856533681, 0.28614385805252157, 0.0
0.4299999792196667, -0.2952887934116847, 0.03201299250289798, 0.28708449278090836, 0.23488899033003133, 0.0, -0.27753803744600697, -0.08980693314112459, -0.13945508147202365, -0.0555055975680348, 0.3247904148987272, 0.0, -0.041972003181332214, -0.01159112188792826, -0.011577194160497342, 0.030628891602727967, 0.33049740418797036, 0.0, -0.10942229695240471, 0.009385218258130506, -0.010204860898462806, 0.2865433534463276, 0.0
0.4299999792196667, -0.2956844211558682, 0.0327557973021639, 0.2867011905519024, 0.2351135862794949, 0.0, -0.27748697958406915, -0.08936102106492767, -0.13860237992201083, -0.055191014885799285, 0.3271769257580267, 0.0, -0.04202431453873883, -0.012670163180767, -0.012140726627886633, 0.029898783026572742, 0.32855455951518636, 0.0, -0.10977784495564548, 0.009561651288380001, -0.0101725632315888, 0.2869428488401335, 0.0
0.4299999792196667, -0.2960800489000518, 0.03349860210142983, 0.2863178883228964, 0.23533818222895858, 0.0, -0.2774359217221313, -0.08891510898873072, -0.13774967837199795, -0.05487643220356377, 0.3295634366173262, 0.0, -0.042076625896145456, -0.013749204473605744, -0.012704259095275922, 0.029168674450417525, 0.32661171484240237, 0.0, -0.11013339295888626, 0.009738084318629494, -0.010140265564714793, 0.2873423442339395, 0.0
0.4299999792196667, -0.2964756766442354, 0.03424140690069576, 0.2859345860938904, 0.23556277817842222, 0.0, -0.27738486386019345, -0.0884691969125338, -0.1368969768219851, -0.05456184952132826, 0.33194994747662565, 0.0, -0.04212893725355209, -0.014828245766444492, -0.01326779156266521, 0.0284385658742623, 0.3246688701696183, 0.0, -0.11048894096212702, 0.009914517348878988, -0.010107967897840789, 0.2877418396277455, 0.0
0.4299999792196667, -0.29690489150454435, 0.03478843811776548, 0.28543659129841886, 0.23582225627831624, 0.0, -0.2775081574092128, -0.08815927146687431, -0.13618557119409427, -0.054568544953404755, 0.3332653742085857, 0.0, -0.04198550260496469, -0.015641252595147537, -0.013902136994542989, 0.027697547594018712, 0.32337143778224625, 0.0, -0.11030829240322859, 0.010155588857415602, -0.010080871661203576, 0.2898081209665475, 0.0
0.4299999792196667, -0.2973341063648533, 0.03533546933483521, 0.28493859650294734, 0.23608173437821023, 0.0, -0.2776314509582322, -0.08784934602121482, -0.13547416556620342, -0.05457524038548126, 0.3345808009405459, 0.0, -0.04184206795637729, -0.016454259423850582, -0.014536482426420763, 0.026956529313775127, 0.3220740053948742, 0.0, -0.11012764384433017, 0.010396660365952217, -0.010053775424566364, 0.2918744023053496, 0.0
0.4299999792196667, -0.2977633212251622, 0.035882500551904936, 0.28444060170747576, 0.23634121247810422, 0.0, -0.27775474450725157, -0.08753942057555532, -0.13476275993831255, -0.054581935817557756, 0.33589622767250593, 0.0, -0.04169863330778989, -0.01726726625255363, -0.01517082785829854, 0.026215511033531542, 0.32077657300750223, 0.0, -0.10994699528543177, 0.010637731874488831, -0.010026679187929153, 0.2939406836441517, 0.0
0.4299999792196667, -0.29819253608547114, 0.03642953176897466, 0.2839426069120042, 0.23660069057799818, 0.0, -0.2778780380562709, -0.08722949512989582, -0.1340513543104217, -0.05458863124963426, 0.33721165440446604, 0.0, -0.04155519865920249, -0.018080273081256672, -0.015805173290176316, 0.02547449275328795, 0.31947914062013016, 0.0, -0.10976634672653335, 0.010878803383025448, -0.00999958295129194, 0.2960069649829538, 0.0
0.4299999792196667, -0.29862175094578014, 0.03697656298604438, 0.28344461211653266, 0.2368601686778922, 0.0, -0.27800133160529034, -0.08691956968423634, -0.13333994868253085, -0.05459532668171076, 0.33852708113642616, 0.0, -0.04141176401061509, -0.018893279909959718, -0.01643951872205409, 0.024733474473044366, 0.3181817082327581, 0.0, -0.10958569816763492, 0.01111987489156206, -0.009972486714654729, 0.29807324632175586, 0.0
0.4299999792196667, -0.29898719496587967, 0.03717480900165896, 0.2829189992309776, 0.23713885587153366, 0.0, -0.27860038794576936, -0.08653347457936131, -0.13307346273662427, -0.054650568795997334, 0.33864963466584264, 0.0, -0.0412781838400503, -0.019062063720603085, -0.01695931288932255, 0.02422520841492484, 0.318063881054956, 0.0, -0.10964125025239664, 0.011060439239775136, -0.010084424104363084, 0.2994800864186184, 0.0
0.4299999792196667, -0.2993526389859793, 0.03737305501727354, 0.2823933863454225, 0.23741754306517507, 0.0, -0.2791994442862484, -0.08614737947448628, -0.13280697679071765, -0.05470581091028391, 0.3387721881952592, 0.0, -0.04114460366948552, -0.01923084753124645, -0.01747910705659101, 0.023716942356805312, 0.31794605387715386, 0.0, -0.10969680233715838, 0.01100100358798821, -0.010196361494071443, 0.30088692651548093, 0.0
0.4299999792196667, -0.2997180830060789, 0.03757130103288812, 0.2818677734598674, 0.2376962302588166, 0.0, -0.2797985006267274, -0.08576128436961127, -0.13254049084481107, -0.054761053024570475, 0.33889474172467565, 0.0, -0.041011023498920725, -0.019399631341889812, -0.017998901223859477, 0.02320867629868578, 0.3178282266993517, 0.0, -0.10975235442192009, 0.010941567936201284, -0.010308298883779798, 0.30229376661234353, 0.0
0.4299999792196667, -0.30008352702617846, 0.0377695470485027, 0.2813421605743123, 0.237974917452458, 0.0, -0.2803975569672064, -0.08537518926473624, -0.13227400489890445, -0.054816295138857045, 0.33901729525409224, 0.0, -0.04087744332835593, -0.019568415152533176, -0.018518695391127934, 0.02270041024056625, 0.3177103995215496, 0.0, -0.10980790650668183, 0.01088213228441436, -0.010420236273488157, 0.30370060670920607, 0.0
0.4299999792196667, -0.30044897104627805, 0.037967793064117274, 0.2808165476887572, 0.23825360464609946, 0.0, -0.2809966133076855, -0.08498909415986121, -0.13200751895299784, -0.05487153725314362, 0.3391398487835088, 0.0, -0.04074386315779115, -0.01973719896317654, -0.019038489558396397, 0.02219214418244672, 0.31759257234374744, 0.0, -0.10986345859144356, 0.010822696632627435, -0.010532173663196512, 0.3051074468060686, 0.0
0.4299999792196667, -0.3008816032612624, 0.03803622812221968, 0.2802671285122049, 0.2384781901235876, 0.0, -0.2816350722013575, -0.08459438201540324, -0.13176228378699767, -0.05491922209176906, 0.33886275333014515, 0.0, -0.04073231187066975, -0.01945911425719288, -0.01911662445834968, 0.02219276342526533, 0.3180819766286407, 0.0, -0.11012679910497222, 0.010309521382201068, -0.010958220750913092, 0.3051849917847347, 0.0
0.4299999792196667, -0.30131423547624675, 0.038104663180322074, 0.2797177093356526, 0.23870277560107572, 0.0, -0.28227353109502956, -0.08419966987094525, -0.1315170486209975, -0.05496690693039451, 0.3385856578767815, 0.0, -0.04072076058354835, -0.019181029551209223, -0.01919475935830296, 0.022193382668083936, 0.3185713809135339, 0.0, -0.11039013961850089, 0.009796346131774698, -0.011384267838629671, 0.3052625367634008, 0.0
0.4299999792196667, -0.3017468676912311, 0.03817309823842448, 0.27916829015910033, 0.2389273610785638, 0.0, -0.2829119899887016, -0.08380495772648727, -0.13127181345499733, -0.055014591769019947, 0.3383085624234179, 0.0, -0.040709209296426956, -0.018902944845225565, -0.01927289425825624, 0.022194001910902546, 0.3190607851984272, 0.0, -0.11065348013202955, 0.00928317088134833, -0.011810314926346252, 0.30534008174206695, 0.0
0.4299999792196667, -0.30217949990621545, 0.038241533296526874, 0.278618870982548, 0.23915194655605193, 0.0, -0.28355044888237363, -0.0834102455820293, -0.13102657828899714, -0.05506227660764537, 0.33803146697005426, 0.0, -0.04069765800930555, -0.018624860139241903, -0.019351029158209524, 0.022194621153721155, 0.31955018948332037, 0.0, -0.11091682064555819, 0.008769995630921961, -0.012236362014062833, 0.3054176267207331, 0.0
0.4299999792196667, -0.3026121321211998, 0.03830996835462928, 0.2780694518059957, 0.2393765320335401, 0.0, -0.28418890777604566, -0.08301553343757131, -0.13078134312299697, -0.05510996144627082, 0.33775437151669063, 0.0, -0.04068610672218416, -0.018346775433258248, -0.019429164058162807, 0.022195240396539764, 0.32003959376821356, 0.0, -0.11118016115908687, 0.008256820380495593, -0.01266240910177941, 0.30549517169939916, 0.0
0.4299999792196667, -0.30287723716260223, 0.038416320690731254, 0.27767157956839406, 0.23955050994403737, 0.0, -0.28452696059886445, -0.08287954087291444, -0.1304833166340459, -0.05527719889519691, 0.33755652099268457, 0.0, -0.04064254819097628, -0.01808829552207005, -0.019377793084157158, 0.022317472087242232, 0.3206030384106349, 0.0, -0.11125378263759449, 0.008115557584722792, -0.012714482396276063, 0.30531496994478924, 0.0
0.4299999792196667, -0.3031423422040047, 0.038522673026833223, 0.27727370733079243, 0.23972448785453465, 0.0, -0.2848650134216833, -0.08274354830825754, -0.13018529014509478, -0.05544443634412301, 0.3373586704686785, 0.0, -0.040598989659768416, -0.017829815610881854, -0.01932642211015151, 0.0224397037779447, 0.32116648305305623, 0.0, -0.11132740411610212, 0.00797429478894999, -0.012766555690772716, 0.3051347681901793, 0.0
0.4299999792196667, -0.3034074472454071, 0.03862902536293521, 0.2768758350931908, 0.23989846576503196, 0.0, -0.285203066244502, -0.08260755574360064, -0.1298872636561437, -0.0556116737930491, 0.33716081994467245, 0.0, -0.04055543112856053, -0.017571335699693658, -0.019275051136145856, 0.02256193546864717, 0.32172992769547754, 0.0, -0.11140102559460972, 0.007833031993177189, -0.012818628985269372, 0.3049545664355694, 0.0
0.4299999792196667, -0.3036725522868095, 0.03873537769903718, 0.2764779628555892, 0.24007244367552927, 0.0, -0.2855411190673208, -0.08247156317894376, -0.12958923716719262, -0.0557789112419752, 0.3369629694206664, 0.0, -0.040511872597352665, -0.01731285578850546, -0.01922368016214021, 0.022684167159349643, 0.32229337233789884, 0.0, -0.11147464707311736, 0.007691769197404388, -0.012870702279766024, 0.3047743646809595, 0.0
0.4299999792196667, -0.30393765732821193, 0.03884173003513915, 0.2760800906179875, 0.24024642158602655, 0.0, -0.2858791718901396, -0.08233557061428685, -0.1292912106782415, -0.055946148690901296, 0.3367651188966603, 0.0, -0.04046831406614479, -0.017054375877317268, -0.01917230918813456, 0.02280639885005211, 0.3228568169803202, 0.0, -0.11154826855162499, 0.007550506401631586, -0.012922775574262675, 0.3045941629263496, 0.0
0.4299999792196667, -0.3040856682300981, 0.038880974112436094, 0.2757300857804511, 0.2402133615593353, 0.0, -0.2861277940420862, -0.08227242704541066, -0.1290614356387555, -0.056014782367472565, 0.33683607002141236, 0.0, -0.040467601622744126, -0.017090814652000894, -0.01916222921357259, 0.022812279213367932, 0.3231803975329814, 0.0, -0.11143003645743639, 0.0076760883914596, -0.012755464472442146, 0.30466230058034743, 0.0
0.4299999792196667, -0.3042336791319842, 0.03892021818973304, 0.2753800809429146, 0.24018030153264402, 0.0, -0.28637641619403276, -0.08220928347653446, -0.1288316605992695, -0.05608341604404384, 0.3369070211461644, 0.0, -0.04046688917934346, -0.01712725342668452, -0.01915214923901062, 0.022818159576683747, 0.32350397808564263, 0.0, -0.11131180436324778, 0.007801670381287613, -0.012588153370621614, 0.3047304382343453, 0.0
0.4299999792196667, -0.3043816900338703, 0.038959462267029975, 0.2750300761053782, 0.2401472415059527, 0.0, -0.2866250383459794, -0.08214613990765826, -0.1286018855597835, -0.05615204972061513, 0.3369779722709165, 0.0, -0.0404661767359428, -0.01716369220136815, -0.01914206926444865, 0.02282403993999957, 0.3238275586383039, 0.0, -0.11119357226905918, 0.007927252371115627, -0.012420842268801082, 0.30479857588834314, 0.0
0.4299999792196667, -0.30452970093575643, 0.03899870634432692, 0.2746800712678418, 0.2401141814792615, 0.0, -0.28687366049792595, -0.08208299633878205, -0.12837211052029748, -0.056220683397186395, 0.3370489233956686, 0.0, -0.040465464292542136, -0.01720013097605178, -0.01913198928988669, 0.022829920303315383, 0.32415113919096517, 0.0, -0.11107534017487058, 0.008052834360943641, -0.01225353116698055, 0.304866713542341, 0.0
0.4299999792196667, -0.3046777118376426, 0.03903795042162386, 0.27433006643030533, 0.24008112145257018, 0.0, -0.28712228264987255, -0.08201985276990584, -0.12814233548081147, -0.05628931707375767, 0.33711987452042064, 0.0, -0.04046475184914147, -0.017236569750735405, -0.019121909315324717, 0.022835800666631205, 0.3244747197436264, 0.0, -0.110957108080682, 0.008178416350771654, -0.01208622006516002, 0.30493485119633884, 0.0
0.4299999792196667, -0.30475686950053754, 0.0390159285552539, 0.27406599113316155, 0.23991506035555996, 0.0, -0.2873849861182242, -0.08198153092458565, -0.12802883916301522, -0.056235742796104306, 0.33713857746868503, 0.0, -0.04048401155743723, -0.017275218321691564, -0.019364463655593824, 0.02256773031082964, 0.3247039652502174, 0.0, -0.11092211981423311, 0.008254512636345437, -0.011999068096159233, 0.30514512846461916, 0.0
0.4299999792196667, -0.3048360271634325, 0.03899390668888393, 0.27380191583601776, 0.2397489992585497, 0.0, -0.2876476895865759, -0.08194320907926547, -0.127915342845219, -0.05618216851845093, 0.33715728041694937, 0.0, -0.04050327126573299, -0.017313866892647727, -0.019607017995862935, 0.022299659955028077, 0.32493321075680826, 0.0, -0.11088713154778423, 0.008330608921919218, -0.011911916127158449, 0.30535540573289943, 0.0
0.4299999792196667, -0.30491518482632746, 0.03897188482251397, 0.2735378405388741, 0.23958293816153942, 0.0, -0.2879103930549276, -0.08190488723394526, -0.12780184652742274, -0.05612859424079757, 0.33717598336521376, 0.0, -0.04052253097402874, -0.01735251546360389, -0.019849572336132045, 0.022031589599226513, 0.3251624562633993, 0.0, -0.11085214328133534, 0.008406705207493, -0.011824764158157662, 0.3055656830011797, 0.0
0.4299999792196667, -0.30499434248922236, 0.038949862956144006, 0.27327376524173036, 0.23941687706452916, 0.0, -0.28817309652327927, -0.08186656538862508, -0.12768835020962652, -0.05607501996314421, 0.3371946863134781, 0.0, -0.040541790682324504, -0.017391164034560053, -0.020092126676401156, 0.02176351924342495, 0.3253917017699902, 0.0, -0.11081715501488645, 0.008482801493066785, -0.011737612189156876, 0.30577596026945997, 0.0
0.4299999792196667, -0.3050735001521173, 0.03892784108977405, 0.2730096899445866, 0.23925081596751893, 0.0, -0.28843579999163094, -0.0818282435433049, -0.1275748538918303, -0.05602144568549084, 0.33721338926174244, 0.0, -0.04056105039062027, -0.017429812605516216, -0.020334681016670263, 0.021495448887623385, 0.3256209472765812, 0.0, -0.1107821667484376, 0.008558897778640566, -0.011650460220156091, 0.3059862375377403, 0.0
0.4299999792196667, -0.30515636140368496, 0.03885577539776165, 0.2728756486580334, 0.23911861774865587, 0.0, -0.2885512255963823, -0.08191685390942866, -0.1274343629155593, -0.05597173835932819, 0.336955687907027, 0.0, -0.04071417475814888, -0.017606867531484778, -0.020716506697129062, 0.021050358861504144, 0.32574903349972656, 0.0, -0.1109281474833378, 0.008422064593602743, -0.011771951716722791, 0.30606668325362324, 0.0
0.4299999792196667, -0.3052392226552527, 0.03878370970574926, 0.27274160737148023, 0.2389864195297928, 0.0, -0.2886666512011337, -0.0820054642755524, -0.12729387193928832, -0.055922031033165544, 0.3366979865523116, 0.0, -0.040867299125677506, -0.017783922457453343, -0.02109833237758786, 0.020605268835384903, 0.32587711972287187, 0.0, -0.111074128218238, 0.008285231408564917, -0.01189344321328949, 0.30614712896950613, 0.0
0.4299999792196667, -0.30532208390682036, 0.03871164401373685, 0.2726075660849271, 0.23885422131092973, 0.0, -0.28878207680588514, -0.08209407464167615, -0.12715338096301732, -0.055872323707002895, 0.33644028519759606, 0.0, -0.041020423493206115, -0.01796097738342191, -0.02148015805804666, 0.020160178809265666, 0.3260052059460173, 0.0, -0.11122010895313823, 0.008148398223527094, -0.012014934709856191, 0.306227574685389, 0.0
0.4299999792196667, -0.30540494515838806, 0.03863957832172445, 0.27247352479837395, 0.2387220230920667, 0.0, -0.28889750241063655, -0.0821826850077999, -0.12701288998674634, -0.05582261638084025, 0.3361825838428806, 0.0, -0.04117354786073474, -0.01813803230939047, -0.02186198373850546, 0.019715088783146425, 0.32613329216916265, 0.0, -0.11136608968803843, 0.008011565038489267, -0.012136426206422888, 0.306308020401272, 0.0
0.4299999792196667, -0.3054878064099557, 0.03856751262971206, 0.27233948351182075, 0.23858982487320365, 0.0, -0.28901292801538797, -0.08227129537392366, -0.12687239901047537, -0.05577290905467759, 0.33592488248816516, 0.0, -0.04132667222826336, -0.01831508723535904, -0.022243809418964255, 0.019269998757027187, 0.326261378392308, 0.0, -0.11151207042293863, 0.007874731853451443, -0.01225791770298959, 0.30638846611715487, 0.0
0.4299999792196667, -0.3055481424421972, 0.03844505614060193, 0.27232994703278784, 0.23855339636105602, 0.0, -0.28899133829254076, -0.08250858161237855, -0.12674971458136491, -0.055771615765701874, 0.3357930472977865, 0.0, -0.04151152633252739, -0.018630627056156344, -0.022444130631059458, 0.0189534721270708, 0.3263195188003505, 0.0, -0.1116972753383823, 0.007667824187638237, -0.012455052118403571, 0.30640110928225633, 0.0
0.4299999792196667, -0.30560847847443867, 0.038322599651491804, 0.27232041055375494, 0.23851696784890836, 0.0, -0.28896974856969365, -0.08274586785083343, -0.1266270301522545, -0.055770322476726135, 0.33566121210740785, 0.0, -0.041696380436791414, -0.018946166876953652, -0.02264445184315466, 0.018636945497114414, 0.32637765920839285, 0.0, -0.11188248025382597, 0.00746091652182503, -0.012652186533817557, 0.30641375244735775, 0.0
0.4299999792196667, -0.30566881450668004, 0.038200143162381676, 0.2723108740747221, 0.23848053933676075, 0.0, -0.2889481588468464, -0.08298315408928833, -0.12650434572314406, -0.0557690291877504, 0.3355293769170292, 0.0, -0.04188123454105544, -0.019261706697750958, -0.022844773055249862, 0.018320418867158034, 0.3264357996164353, 0.0, -0.11206768516926965, 0.007254008856011824, -0.01284932094923154, 0.30642639561245927, 0.0
0.4299999792196667, -0.30572915053892147, 0.038077686673271556, 0.27230133759568914, 0.23844411082461311, 0.0, -0.2889265691239992, -0.08322044032774323, -0.1263816612940336, -0.05576773589877468, 0.3353975417266506, 0.0, -0.04206608864531947, -0.019577246518548266, -0.023045094267345058, 0.018003892237201648, 0.32649394002447774, 0.0, -0.11225289008471334, 0.0070471011901986165, -0.013046455364645524, 0.30643903877756073, 0.0
0.4299999792196667, -0.30578948657116295, 0.03795523018416143, 0.2722918011166563, 0.2384076823124655, 0.0, -0.28890497940115206, -0.08345772656619811, -0.12625897686492318, -0.055766442609798954, 0.3352657065362719, 0.0, -0.04225094274958349, -0.01989278633934557, -0.02324541547944026, 0.017687365607245265, 0.3265520804325202, 0.0, -0.11243809500015702, 0.006840193524385411, -0.013243589780059508, 0.3064516819426621, 0.0
0.4299999792196667, -0.3056815205036346, 0.03782794785966954, 0.2724016381771428, 0.2385322150452538, 0.0, -0.28890450467159556, -0.08374648151709675, -0.12624500899491947, -0.05577486766316418, 0.33539202299555576, 0.0, -0.04234478072588282, -0.0200038660742595, -0.02308667883116893, 0.01770146123535022, 0.32672385573750146, 0.0, -0.11240626368525913, 0.0065212670667075335, -0.013592006228350292, 0.3066483770587034, 0.0
0.4299999792196667, -0.30557355443610623, 0.03770066553517764, 0.2725114752376293, 0.23865674777804213, 0.0, -0.288904029942039, -0.08403523646799542, -0.12623104112491576, -0.0557832927165294, 0.3355183394548396, 0.0, -0.04243861870218214, -0.02011494580917343, -0.022927942182897596, 0.017715556863455176, 0.3268956310424827, 0.0, -0.11237443237036128, 0.006202340609029657, -0.013940422676641074, 0.30684507217474466, 0.0
0.4299999792196667, -0.3054655883685778, 0.03757338321068575, 0.2726213122981158, 0.2387812805108304, 0.0, -0.28890355521248245, -0.08432399141889407, -0.12621707325491205, -0.05579171776989464, 0.3356446559141234, 0.0, -0.04253245667848147, -0.020226025544087353, -0.02276920553462626, 0.01772965249156013, 0.32706740634746406, 0.0, -0.1123426010554634, 0.005883414151351781, -0.014288839124931858, 0.30704176729078586, 0.0
0.4299999792196667, -0.30535762230104946, 0.03744610088619386, 0.27273114935860227, 0.23890581324361868, 0.0, -0.2889030804829259, -0.08461274636979273, -0.1262031053849083, -0.05580014282325986, 0.3357709723734073, 0.0, -0.042626294654780794, -0.02033710527900128, -0.02261046888635493, 0.017743748119665087, 0.3272391816524453, 0.0, -0.11231076974056552, 0.005564487693673904, -0.014637255573222643, 0.3072384624068272, 0.0
0.4299999792196667, -0.30524965623352107, 0.037318818561701966, 0.2728409864190888, 0.23903034597640702, 0.0, -0.2889026057533694, -0.08490150132069137, -0.12618913751490463, -0.05580856787662509, 0.33589728883269115, 0.0, -0.04272013263108012, -0.020448185013915206, -0.022451732238083597, 0.017757843747770046, 0.3274109569574266, 0.0, -0.11227893842566763, 0.0052455612359960276, -0.014985672021513427, 0.30743515752286843, 0.0
0.4299999792196667, -0.3051404858888088, 0.03708732925982466, 0.2728864592274203, 0.2392597136560456, 0.0, -0.28919348232650677, -0.08496723844883602, -0.1262872285095252, -0.055596229025432355, 0.33600362127203964, 0.0, -0.042615358072621956, -0.020553720535927248, -0.022062115407843894, 0.017940124189519083, 0.3273429275138423, 0.0, -0.11223951737198455, 0.00501984611160284, -0.015225283876290012, 0.3077008140883145, 0.0
0.4299999792196667, -0.3050313155440966, 0.03685583995794734, 0.2729319320357517, 0.23948908133568417, 0.0, -0.28948435889964413, -0.0850329755769807, -0.1263853195041458, -0.05538389017423962, 0.33610995371138813, 0.0, -0.04251058351416378, -0.020659256057939293, -0.021672498577604192, 0.018122404631268116, 0.3272748980702581, 0.0, -0.11220009631830145, 0.004794130987209653, -0.015464895731066599, 0.30796647065376054, 0.0
0.4299999792196667, -0.3049221451993843, 0.036624350656070025, 0.27297740484408317, 0.23971844901532277, 0.0, -0.2897752354727815, -0.08509871270512535, -0.12648341049876638, -0.055171551323046894, 0.3362162861507366, 0.0, -0.0424058089557056, -0.020764791579951335, -0.02128288174736449, 0.018304685073017152, 0.3272068686266739, 0.0, -0.11216067526461834, 0.004568415862816466, -0.015704507585843186, 0.30823212721920656, 0.0
0.4299999792196667, -0.30481297485467207, 0.0363928613541927, 0.2730228776524146, 0.23994781669496137, 0.0, -0.29006611204591887, -0.08516444983327004, -0.12658150149338696, -0.05495921247185415, 0.33632261859008517, 0.0, -0.04230103439724743, -0.020870327101963376, -0.020893264917124788, 0.01848696551476619, 0.32713883918308967, 0.0, -0.11212125421093526, 0.00434270073842328, -0.015944119440619773, 0.30849778378465265, 0.0
0.4299999792196667, -0.3047038045099598, 0.03616137205231539, 0.27306835046074607, 0.24017718437459995, 0.0, -0.29035698861905623, -0.08523018696141468, -0.12667959248800756, -0.054746873620661426, 0.33642895102943365, 0.0, -0.04219625983878926, -0.020975862623975418, -0.020503648086885085, 0.018669245956515222, 0.3270708097395054, 0.0, -0.11208183315725216, 0.0041169856140300925, -0.01618373129539636, 0.3087634403500987, 0.0
0.4299999792196667, -0.3046405956657696, 0.036005473658473654, 0.2730589169561391, 0.2403497799843297, 0.0, -0.29084383774192457, -0.08521860356023506, -0.1268802512467801, -0.05443850186710206, 0.3364655366212139, 0.0, -0.04200744348805736, -0.021204210682264996, -0.020309932596942835, 0.01861464996311774, 0.32690401560420934, 0.0, -0.11213614291665232, 0.004211823035672279, -0.016038795314586397, 0.3089984419525627, 0.0
0.4299999792196667, -0.3045773868215794, 0.03584957526463191, 0.27304948345153207, 0.2405223755940594, 0.0, -0.29133068686479285, -0.08520702015905542, -0.1270809100055526, -0.054130130113542695, 0.33650212221299425, 0.0, -0.04181862713732546, -0.02143255874055457, -0.020116217107000577, 0.018560053969720255, 0.3267372214689132, 0.0, -0.11219045267605249, 0.004306660457314468, -0.015893859333776437, 0.30923344355502674, 0.0
0.4299999792196667, -0.30451417797738917, 0.03569367687079017, 0.273040049946925, 0.2406949712037891, 0.0, -0.29181753598766114, -0.08519543675787579, -0.12728156876432514, -0.053821758359983325, 0.3365387078047745, 0.0, -0.04162981078659355, -0.021660906798844144, -0.019922501617058327, 0.01850545797632277, 0.32657042733361713, 0.0, -0.11224476243545264, 0.004401497878956656, -0.015748923352966467, 0.3094684451574908, 0.0
0.4299999792196667, -0.30445096913319897, 0.03553777847694843, 0.27303061644231796, 0.24086756681351887, 0.0, -0.2923043851105295, -0.08518385335669613, -0.12748222752309768, -0.053513386606423956, 0.33657529339655484, 0.0, -0.04144099443586164, -0.02188925485713372, -0.019728786127116073, 0.018450861982925282, 0.32640363319832105, 0.0, -0.11229907219485281, 0.0044963353005988424, -0.015603987372156507, 0.3097034467599548, 0.0
0.4299999792196667, -0.30438776028900877, 0.03538188008310669, 0.27302118293771094, 0.24104016242324855, 0.0, -0.29279123423339776, -0.08517226995551651, -0.12768288628187022, -0.0532050148528646, 0.3366118789883351, 0.0, -0.041252178085129744, -0.022117602915423293, -0.019535070637173822, 0.0183962659895278, 0.326236839063025, 0.0, -0.11235338195425296, 0.00459117272224103, -0.015459051391346542, 0.30993844836241885, 0.0
0.4299999792196667, -0.30438987562806213, 0.035284843267354316, 0.27294660327344394, 0.24109231635195666, 0.0, -0.29321653955618227, -0.0852990765032543, -0.1278476122020027, -0.05297427255190713, 0.3368740483859357, 0.0, -0.04090295759855915, -0.02224182323427549, -0.01940727309148674, 0.018283106869343042, 0.326221546488119, 0.0, -0.11259505909204001, 0.0048874448062280204, -0.015040887257729521, 0.309997632477354, 0.0
0.4299999792196667, -0.3043919909671156, 0.03518780645160193, 0.272872023609177, 0.24114447028066474, 0.0, -0.2936418448789667, -0.08542588305099211, -0.1280123381221352, -0.052743530250949675, 0.33713621778353625, 0.0, -0.04055373711198856, -0.02236604355312768, -0.01927947554579966, 0.018169947749158293, 0.326206253913213, 0.0, -0.11283673622982708, 0.005183716890215011, -0.0146227231241125, 0.3100568165922891, 0.0
0.4299999792196667, -0.304394106306169, 0.03509076963584955, 0.27279744394491, 0.24119662420937285, 0.0, -0.2940671502017512, -0.0855526895987299, -0.12817706404226764, -0.052512787949992215, 0.3373983871811369, 0.0, -0.04020451662541796, -0.022490263871979874, -0.019151678000112585, 0.01805678862897354, 0.32619096133830705, 0.0, -0.11307841336761412, 0.005479988974202001, -0.014204558990495476, 0.3101160007072242, 0.0
0.4299999792196667, -0.30439622164522245, 0.03499373282009717, 0.2727228642806431, 0.24124877813808093, 0.0, -0.2944924555245357, -0.08567949614646769, -0.12834178996240014, -0.052282045649034756, 0.33766055657873745, 0.0, -0.03985529613884737, -0.022614484190832066, -0.019023880454425504, 0.01794362950878879, 0.32617566876340104, 0.0, -0.1133200905054012, 0.005776261058188991, -0.013786394856878456, 0.31017518482215933, 0.0
0.4299999792196667, -0.3043983369842759, 0.034896696004344786, 0.27264828461637614, 0.24130093206678904, 0.0, -0.29491776084732013, -0.0858063026942055, -0.12850651588253262, -0.05205130334807728, 0.33792272597633805, 0.0, -0.03950607565227678, -0.02273870450968426, -0.018896082908738423, 0.017830470388604035, 0.326160376188495, 0.0, -0.11356176764318825, 0.006072533142175982, -0.013368230723261432, 0.3102343689370945, 0.0
0.4299999792196667, -0.30438675497935963, 0.034841154042492724, 0.27256750030661825, 0.24128726264808742, 0.0, -0.2952665369730632, -0.08608038570928019, -0.1286277136401862, -0.05189600220590558, 0.33847099672624253, 0.0, -0.03905051539597482, -0.022704151877416676, -0.01866157663071611, 0.017828610914818962, 0.3262691241635283, 0.0, -0.113781300043426, 0.006288585739857692, -0.013006393251528173, 0.310360842476011, 0.0
0.4299999792196667, -0.30437517297444344, 0.034785612080640654, 0.2724867159968605, 0.2412735932293858, 0.0, -0.2956153130988063, -0.08635446872435486, -0.12874891139783978, -0.05174070106373387, 0.339019267476147, 0.0, -0.03859495513967287, -0.022669599245149098, -0.0184270703526938, 0.01782675144103389, 0.3263778721385616, 0.0, -0.11400083244366374, 0.006504638337539404, -0.012644555779794913, 0.3104873160149275, 0.0
0.4299999792196667, -0.30436359096952714, 0.03473007011878859, 0.27240593168710264, 0.24125992381068417, 0.0, -0.29596408922454925, -0.08662855173942956, -0.12887010915549338, -0.051585399921562164, 0.3395675382260515, 0.0, -0.03813939488337092, -0.022635046612881515, -0.018192564074671486, 0.017824891967248808, 0.32648662011359486, 0.0, -0.1142203648439015, 0.006720690935221114, -0.01228271830806165, 0.310613789553844, 0.0
0.4299999792196667, -0.3043520089646109, 0.03467452815693653, 0.2723251473773448, 0.24124625439198258, 0.0, -0.29631286535029233, -0.08690263475450424, -0.12899130691314697, -0.051430098779390455, 0.340115808975956, 0.0, -0.037683834627068966, -0.022600493980613933, -0.017958057796649173, 0.017823032493463734, 0.3265953680886281, 0.0, -0.11443989724413926, 0.006936743532902825, -0.011920880836328392, 0.31074026309276054, 0.0
0.4299999792196667, -0.3043404269596947, 0.03461898619508446, 0.27224436306758704, 0.24123258497328096, 0.0, -0.29666164147603535, -0.08717671776957893, -0.12911250467080054, -0.051274797637218754, 0.3406640797258605, 0.0, -0.037228274370767006, -0.02256594134834635, -0.01772355151862686, 0.017821173019678657, 0.3267041160636614, 0.0, -0.114659429644377, 0.007152796130584537, -0.011559043364595133, 0.310866736631677, 0.0
0.4299999792196667, -0.3043549131924862, 0.034656930002088665, 0.27223065525164186, 0.2410444140453064, 0.0, -0.2969494951389082, -0.08748384440524991, -0.129077564575439, -0.05107901183771778, 0.34117680859087735, 0.0, -0.03686288550307179, -0.02247930599680415, -0.017568130297802614, 0.017759342985597507, 0.3269100509527627, 0.0, -0.11477778949666685, 0.007230198411131001, -0.011345064113345035, 0.31098533175435006, 0.0
0.4299999792196667, -0.3043693994252778, 0.03469487380909287, 0.2722169474356967, 0.24085624311733192, 0.0, -0.2972373488017812, -0.08779097104092091, -0.1290426244800775, -0.050883226038216815, 0.34168953745589425, 0.0, -0.036497496635376575, -0.02239267064526196, -0.01741270907697837, 0.017697512951516357, 0.327115985841864, 0.0, -0.1148961493489567, 0.007307600691677466, -0.011131084862094938, 0.3111039268770231, 0.0
0.4299999792196667, -0.3043838856580693, 0.03473281761609708, 0.27220323961975157, 0.24066807218935737, 0.0, -0.2975252024646541, -0.08809809767659192, -0.12900768438471596, -0.050687440238715846, 0.3422022663209111, 0.0, -0.03613210776768135, -0.022306035293719766, -0.01725728785615413, 0.017635682917435204, 0.32732192073096533, 0.0, -0.11501450920124653, 0.007385002972223931, -0.010917105610844842, 0.31122252199969613, 0.0
0.4299999792196667, -0.3043983718908609, 0.034770761423101294, 0.2721895318038064, 0.24047990126138288, 0.0, -0.29781305612752706, -0.08840522431226291, -0.12897274428935443, -0.05049165443921488, 0.342714995185928, 0.0, -0.03576671889998614, -0.022219399942177566, -0.017101866635329883, 0.017573852883354057, 0.32752785562006664, 0.0, -0.11513286905353641, 0.007462405252770397, -0.010703126359594747, 0.3113411171223691, 0.0
0.4299999792196667, -0.30441285812365243, 0.0348087052301055, 0.2721758239878612, 0.24029173033340834, 0.0, -0.29810090979039994, -0.0887123509479339, -0.12893780419399292, -0.05029586863971391, 0.34322772405094487, 0.0, -0.03540133003229092, -0.02213276459063537, -0.01694644541450564, 0.017512022849272904, 0.32773379050916795, 0.0, -0.11525122890582623, 0.007539807533316862, -0.01048914710834465, 0.31145971224504215, 0.0
0.4299999792196667, -0.30449123038838394, 0.03493541613380029, 0.27243656570613367, 0.23996710956451292, 0.0, -0.2983265703907073, -0.08898004012382682, -0.12864226933708198, -0.04997144090423375, 0.34326269346783783, 0.0, -0.03518126391036791, -0.02225884577953604, -0.016876256509944496, 0.017390312313885083, 0.3279085922150722, 0.0, -0.11536425642818539, 0.007571256237136111, -0.010355615388119898, 0.31143137158864825, 0.0
0.4299999792196667, -0.3045696026531155, 0.035062127037495075, 0.2726973074244061, 0.23964248879561748, 0.0, -0.2985522309910147, -0.08924772929971976, -0.12834673448017103, -0.049647013168753584, 0.34329766288473085, 0.0, -0.03496119778844489, -0.02238492696843671, -0.016806067605383352, 0.017268601778497254, 0.32808339392097646, 0.0, -0.11547728395054456, 0.007602704940955362, -0.010222083667895145, 0.31140303093225435, 0.0
0.4299999792196667, -0.30464797491784706, 0.03518883794118986, 0.27295804914267857, 0.23931786802672203, 0.0, -0.29877789159132195, -0.08951541847561269, -0.1280511996232601, -0.049322585433273426, 0.34333263230162375, 0.0, -0.03474113166652188, -0.02251100815733738, -0.01673587870082221, 0.017146891243109433, 0.32825819562688063, 0.0, -0.11559031147290369, 0.007634153644774613, -0.010088551947670393, 0.3113746902758605, 0.0
0.4299999792196667, -0.3047263471825786, 0.035315548844884644, 0.273218790860951, 0.23899324725782659, 0.0, -0.29900355219162933, -0.08978310765150563, -0.12775566476634911, -0.04899815769779326, 0.3433676017185167, 0.0, -0.03452106554459887, -0.02263708934623805, -0.01666568979626107, 0.017025180707721604, 0.3284329973327849, 0.0, -0.11570333899526285, 0.0076656023485938635, -0.009955020227445639, 0.3113463496194666, 0.0
0.4299999792196667, -0.3048047194473102, 0.03544225974857943, 0.27347953257922347, 0.23866862648893117, 0.0, -0.29922921279193676, -0.09005079682739855, -0.12746012990943817, -0.0486737299623131, 0.3434025711354097, 0.0, -0.03430099942267585, -0.022763170535138717, -0.016595500891699925, 0.016903470172333783, 0.32860779903868914, 0.0, -0.11581636651762199, 0.007697051052413114, -0.009821488507220888, 0.3113180089630727, 0.0
0.4299999792196667, -0.3051919347044991, 0.035350106713139984, 0.2740986532247834, 0.23838649401534628, 0.0, -0.2993132573767373, -0.09048407830486463, -0.12703344996533486, -0.0483507599258242, 0.3431041303052942, 0.0, -0.03419691496740392, -0.02311160248195326, -0.016592822299990304, 0.0167733101489712, 0.3288770823983208, 0.0, -0.11592007293457794, 0.007715286322251121, -0.0097741012821395, 0.31129929205217427, 0.0
0.4299999792196667, -0.3055791499616881, 0.035257953677700536, 0.27471777387034335, 0.23810436154176143, 0.0, -0.2993973019615378, -0.09091735978233074, -0.12660677002123147, -0.0480277898893353, 0.34280568947517864, 0.0, -0.034092830512131994, -0.023460034428767804, -0.016590143708280682, 0.016643150125608623, 0.32914636575795253, 0.0, -0.11602377935153389, 0.007733521592089127, -0.009726714057058113, 0.31128057514127594, 0.0
0.4299999792196667, -0.30596636521887705, 0.03516580064226109, 0.2753368945159033, 0.23782222906817654, 0.0, -0.29948134654633835, -0.09135064125979682, -0.12618009007712813, -0.04770481985284641, 0.3425072486450631, 0.0, -0.03398874605686005, -0.023808466375582336, -0.01658746511657106, 0.016512990102246043, 0.32941564911758425, 0.0, -0.11612748576848984, 0.007751756861927133, -0.009679326831976724, 0.3112618582303775, 0.0
0.4299999792196667, -0.30635358047606603, 0.03507364760682164, 0.27595601516146323, 0.23754009659459163, 0.0, -0.29956539113113884, -0.09178392273726294, -0.12575341013302477, -0.04738184981635751, 0.34220880781494756, 0.0, -0.03388466160158812, -0.024156898322396883, -0.016584786524861443, 0.016382830078883463, 0.329684932477216, 0.0, -0.11623119218544581, 0.00776999213176514, -0.009631939606895337, 0.31124314131947917, 0.0
0.4299999792196667, -0.30674079573325497, 0.034981494571382186, 0.2765751358070232, 0.23725796412100675, 0.0, -0.29964943571593944, -0.09221720421472901, -0.12532673018892143, -0.04705887977986861, 0.34191036698483207, 0.0, -0.03378057714631619, -0.024505330269211426, -0.016582107933151822, 0.016252670055520883, 0.32995421583684764, 0.0, -0.11633489860240176, 0.0077882274016031474, -0.009584552381813948, 0.3112244244085808, 0.0
0.4299999792196667, -0.30734331480696997, 0.03454701614711508, 0.27747034310563906, 0.23713988561579236, 0.0, -0.2997569479978623, -0.09289536376383034, -0.12512550175468104, -0.046778821106500945, 0.3414395015872535, 0.0, -0.033728634751513435, -0.024725332163017963, -0.016904121878276477, 0.015902653698811383, 0.3302547824779921, 0.0, -0.11640837207698881, 0.007733339240088878, -0.0097195452218753, 0.31120353979875137, 0.0
0.4299999792196667, -0.3079458338806849, 0.03411253772284796, 0.27836555040425504, 0.23702180711057794, 0.0, -0.2998644602797851, -0.09357352331293164, -0.12492427332044065, -0.046498762433133285, 0.340968636189675, 0.0, -0.03367669235671068, -0.024945334056824503, -0.01722613582340113, 0.015552637342101881, 0.33055534911913653, 0.0, -0.11648184555157585, 0.00767845107857461, -0.009854538061936651, 0.311182655188922, 0.0
0.4299999792196667, -0.30854835295439986, 0.033678059298580844, 0.27926075770287095, 0.2369037286053635, 0.0, -0.299971972561708, -0.09425168286203295, -0.12472304488620026, -0.04621870375976562, 0.3404977707920964, 0.0, -0.03362474996190793, -0.025165335950631043, -0.017548149768525784, 0.015202620985392377, 0.330855915760281, 0.0, -0.11655531902616292, 0.007623562917060341, -0.009989530901998004, 0.31116177057909267, 0.0
0.4299999792196667, -0.30915087202811486, 0.033243580874313734, 0.2801559650014869, 0.23678565010014907, 0.0, -0.30007948484363084, -0.09492984241113427, -0.12452181645195988, -0.04593864508639795, 0.34002690539451785, 0.0, -0.03357280756710518, -0.025385337844437583, -0.01787016371365044, 0.014852604628682875, 0.3311564824014254, 0.0, -0.11662879250074996, 0.007568674755546073, -0.010124523742059357, 0.31114088596926326, 0.0
0.4299999792196667, -0.30975339110182987, 0.03280910245004662, 0.2810511723001028, 0.23666757159493462, 0.0, -0.3001869971255537, -0.09560800196023557, -0.1243205880177195, -0.04565858641303029, 0.33955603999693934, 0.0, -0.033520865172302426, -0.025605339738244116, -0.018192177658775094, 0.014502588271973373, 0.33145704904256995, 0.0, -0.11670226597533703, 0.007513786594031803, -0.010259516582120707, 0.3111200013594339, 0.0
0.4299999792196667, -0.31014372700772136, 0.03227085303164123, 0.2819176200633044, 0.23651732667160594, 0.0, -0.3005395396718225, -0.0963091007207617, -0.12443029836730231, -0.04522724818515337, 0.3391405992750871, 0.0, -0.03338001326194213, -0.025472941853714633, -0.0185088124991451, 0.014224867746391439, 0.3317392408573494, 0.0, -0.11656004502871148, 0.007549231927305195, -0.010478192025695731, 0.3110330141495145, 0.0
0.4299999792196667, -0.31053406291361285, 0.031732603613235835, 0.28278406782650595, 0.23636708174827728, 0.0, -0.3008920822180914, -0.09701019948128782, -0.12454000871688511, -0.04479590995727645, 0.33872515855323493, 0.0, -0.03323916135158183, -0.025340543969185145, -0.01882544733951511, 0.0139471472208095, 0.3320214326721288, 0.0, -0.11641782408208592, 0.007584677260578589, -0.010696867469270755, 0.3109460269395951, 0.0
0.4299999792196667, -0.31092439881950446, 0.031194354194830447, 0.2836505155897075, 0.2362168368249486, 0.0, -0.30124462476436015, -0.09771129824181395, -0.12464971906646792, -0.04436457172939951, 0.33830971783138275, 0.0, -0.03309830944122153, -0.025208146084655658, -0.019142082179885122, 0.013669426695227561, 0.3323036244869083, 0.0, -0.11627560313546036, 0.00762012259385198, -0.010915542912845775, 0.31085903972967577, 0.0
0.4299999792196667, -0.31131473472539595, 0.03065610477642506, 0.28451696335290905, 0.2360665919016199, 0.0, -0.301597167310629, -0.09841239700234007, -0.12475942941605073, -0.04393323350152259, 0.33789427710953057, 0.0, -0.03295745753086124, -0.025075748200126168, -0.019458717020255128, 0.013391706169645625, 0.3325858163016877, 0.0, -0.11613338218883479, 0.0076555679271253715, -0.0111342183564208, 0.31077205251975637, 0.0
0.4299999792196667, -0.31170507063128744, 0.030117855358019672, 0.28538341111611065, 0.23591634697829125, 0.0, -0.30194970985689784, -0.09911349576286618, -0.12486913976563355, -0.04350189527364567, 0.33747883638767834, 0.0, -0.03281660562050094, -0.024943350315596687, -0.019775351860625137, 0.01311398564406369, 0.3328680081164672, 0.0, -0.11599116124220923, 0.007691013260398765, -0.011352893799995822, 0.31068506530983697, 0.0
0.4299999792196667, -0.3119036681562134, 0.029543362432367364, 0.28597933284525306, 0.23571477541231992, 0.0, -0.3023847820421765, -0.09991385663394098, -0.12506947459129691, -0.0430579679858741, 0.3371243635072568, 0.0, -0.032544301095934036, -0.024707453708292235, -0.02021614139546746, 0.012706628938240865, 0.33312239334560384, 0.0, -0.11571521247016416, 0.008088166073282728, -0.011380118143800131, 0.3108777671125496, 0.0
0.4299999792196667, -0.3121022656811393, 0.02896886950671506, 0.2865752545743955, 0.23551320384634858, 0.0, -0.3028198542274551, -0.10071421750501576, -0.12526980941696028, -0.04261404069810255, 0.33676989062683527, 0.0, -0.03227199657136714, -0.02447155710098778, -0.020656930930309784, 0.012299272232418041, 0.3333767785747405, 0.0, -0.1154392636981191, 0.00848531888616669, -0.011407342487604439, 0.31107046891526235, 0.0
0.4299999792196667, -0.31230086320606526, 0.02839437658106276, 0.28717117630353794, 0.23531163228037724, 0.0, -0.30325492641273377, -0.10151457837609058, -0.12547014424262365, -0.04217011341033098, 0.33641541774641365, 0.0, -0.03199969204680023, -0.024235660493683333, -0.02109772046515211, 0.011891915526595218, 0.33363116380387725, 0.0, -0.11516331492607403, 0.008882471699050654, -0.01143456683140875, 0.31126317071797505, 0.0
0.4299999792196667, -0.3124994607309912, 0.02781988365541046, 0.28776709803268036, 0.2351100607144059, 0.0, -0.30368999859801243, -0.10231493924716537, -0.12567047906828702, -0.04172618612255942, 0.3360609448659921, 0.0, -0.03172738752223333, -0.023999763886378877, -0.021538509999994435, 0.011484558820772397, 0.3338855490330139, 0.0, -0.11488736615402896, 0.009279624511934616, -0.011461791175213058, 0.3114558725206878, 0.0
0.4299999792196667, -0.3126980582559171, 0.02724539072975815, 0.2883630197618228, 0.23490848914843457, 0.0, -0.3041250707832911, -0.10311530011824017, -0.12587081389395038, -0.04128225883478786, 0.3357064719855706, 0.0, -0.031455082997666424, -0.023763867279074428, -0.021979299534836762, 0.011077202114949575, 0.33413993426215055, 0.0, -0.11461141738198391, 0.00967677732481858, -0.011489015519017366, 0.31164857432340043, 0.0
0.4299999792196667, -0.3128205559347976, 0.026743407856945796, 0.2886933058694702, 0.23480463856728243, 0.0, -0.30458307659494094, -0.10400523023932974, -0.12596851253855512, -0.04091432073918718, 0.33535910259520463, 0.0, -0.03106701916139515, -0.02365519609852825, -0.02212449522063942, 0.01090465910944351, 0.3343864166404342, 0.0, -0.11433375818727189, 0.010160923281741398, -0.011532212418004225, 0.31206256293131496, 0.0
0.4299999792196667, -0.3129430536136781, 0.026241424984133455, 0.28902359197711763, 0.23470078798613025, 0.0, -0.3050410824065908, -0.10489516036041935, -0.12606621118315986, -0.040546382643586495, 0.33501173320483874, 0.0, -0.03067895532512387, -0.023546524917982082, -0.022269690906442083, 0.010732116103937447, 0.33463289901871784, 0.0, -0.11405609899255986, 0.010645069238664215, -0.011575409316991083, 0.3124765515392296, 0.0
0.4299999792196667, -0.31306555129255853, 0.025739442111321103, 0.289353878084765, 0.23459693740497808, 0.0, -0.3054990882182406, -0.10578509048150896, -0.1261639098277646, -0.040178444547985824, 0.33466436381447284, 0.0, -0.030290891488852587, -0.023437853737435902, -0.022414886592244745, 0.010559573098431382, 0.3348793813970016, 0.0, -0.11377843979784784, 0.011129215195587032, -0.011618606215977944, 0.31289054014714407, 0.0
0.4299999792196667, -0.31318804897143904, 0.025237459238508755, 0.28968416419241244, 0.23449308682382594, 0.0, -0.30595709402989046, -0.10667502060259854, -0.12626160847236934, -0.03981050645238514, 0.3343169944241069, 0.0, -0.029902827652581312, -0.02332918255688973, -0.022560082278047403, 0.010387030092925317, 0.33512586377528514, 0.0, -0.11350078060313579, 0.011613361152509851, -0.011661803114964803, 0.31330452875505865, 0.0
0.4299999792196667, -0.3133105466503195, 0.024735476365696406, 0.2900144503000598, 0.23438923624267377, 0.0, -0.3064150998415403, -0.10756495072368813, -0.12635930711697407, -0.03944256835678446, 0.33396962503374095, 0.0, -0.029514763816310033, -0.023220511376343556, -0.022705277963850065, 0.010214487087419252, 0.3353723461535688, 0.0, -0.11322312140842378, 0.012097507109432668, -0.011705000013951665, 0.3137185173629732, 0.0
0.4299999792196667, -0.3135550847318164, 0.02428807377831827, 0.29016129532200563, 0.23452244675250297, 0.0, -0.30709723734507277, -0.10836401725858966, -0.12642429096101357, -0.03901718658857874, 0.33384800351014493, 0.0, -0.0291611754687534, -0.0235628643413734, -0.022690661180430467, 0.010124154081323783, 0.3355485895014352, 0.0, -0.11324629938089026, 0.012502616180244772, -0.01180906980845788, 0.3140682569104633, 0.0
0.4299999792196667, -0.31379962281331336, 0.02384067119094014, 0.29030814034395147, 0.2346556572623322, 0.0, -0.3077793748486052, -0.10916308379349117, -0.1264892748050531, -0.03859180482037301, 0.33372638198654897, 0.0, -0.028807587121196767, -0.023905217306403242, -0.02267604439701086, 0.010033821075228311, 0.33572483284930155, 0.0, -0.11326947735335674, 0.012907725251056877, -0.011913139602964098, 0.31441799645795343, 0.0
0.4299999792196667, -0.31404416089481024, 0.023393268603562008, 0.29045498536589714, 0.2347888677721614, 0.0, -0.30846151235213765, -0.10996215032839268, -0.12655425864909256, -0.038166423052167296, 0.333604760462953, 0.0, -0.028453998773640132, -0.02424757027143309, -0.02266142761359126, 0.009943488069132842, 0.335901076197168, 0.0, -0.11329265532582324, 0.013312834321868982, -0.012017209397470315, 0.31476773600544367, 0.0
0.4299999792196667, -0.3142886989763072, 0.022945866016183872, 0.290601830387843, 0.23492207828199063, 0.0, -0.3091436498556701, -0.11076121686329418, -0.12661924249313208, -0.03774104128396158, 0.33348313893935705, 0.0, -0.028100410426083498, -0.024589923236462932, -0.022646810830171654, 0.009853155063037373, 0.3360773195450344, 0.0, -0.11331583329828973, 0.013717943392681087, -0.012121279191976532, 0.3151174755529338, 0.0
0.4299999792196667, -0.3145332370578041, 0.02249846342880574, 0.29074867540978877, 0.23505528879181983, 0.0, -0.3098257873592026, -0.11156028339819571, -0.12668422633717158, -0.03731565951575586, 0.33336151741576103, 0.0, -0.027746822078526866, -0.02493227620149278, -0.022632194046752048, 0.009762822056941902, 0.33625356289290076, 0.0, -0.1133390112707562, 0.01412305246349319, -0.012225348986482748, 0.3154672151004239, 0.0
0.4299999792196667, -0.31526698394731806, 0.022026731300720657, 0.29068677905319606, 0.23552844755203553, 0.0, -0.31066568517382276, -0.11226725449352308, -0.12666873828538938, -0.03680546277441777, 0.3337490293789228, 0.0, -0.027458617255408442, -0.025625055326540493, -0.022780580892559056, 0.009497158161112986, 0.33646605323867257, 0.0, -0.1137417058530811, 0.014237281121443564, -0.012531599641402168, 0.31588502947005875, 0.0
0.4299999792196667, -0.316000730836832, 0.021554999172635578, 0.29062488269660336, 0.23600160631225114, 0.0, -0.311505582988443, -0.1129742255888505, -0.12665325023360718, -0.036295266033079684, 0.3341365413420847, 0.0, -0.027170412432290025, -0.02631783445158821, -0.022928967738366064, 0.009231494265284072, 0.3366785435844444, 0.0, -0.114144400435406, 0.01435150977939394, -0.012837850296321585, 0.31630284383969376, 0.0
0.4299999792196667, -0.3167344777263459, 0.021083267044550498, 0.2905629863400106, 0.23647476507246684, 0.0, -0.3123454808030633, -0.11368119668417785, -0.126637762181825, -0.035785069291741606, 0.3345240533052464, 0.0, -0.0268822076091716, -0.027010613576635922, -0.02307735458417307, 0.008965830369455157, 0.33689103393021613, 0.0, -0.11454709501773089, 0.014465738437344316, -0.013144100951241001, 0.31672065820932865, 0.0
0.4299999792196667, -0.31746822461585983, 0.020611534916465415, 0.29050108998341795, 0.23694792383268246, 0.0, -0.3131853786176835, -0.11438816777950525, -0.12662227413004282, -0.03527487255040352, 0.33491156526840826, 0.0, -0.026594002786053183, -0.02770339270168364, -0.02322574142998008, 0.00870016647362624, 0.33710352427598794, 0.0, -0.11494978960005577, 0.014579967095294692, -0.013450351606160418, 0.3171384725789636, 0.0
0.4299999792196667, -0.31820197150537377, 0.02013980278838033, 0.2904391936268252, 0.23742108259289812, 0.0, -0.31402527643230366, -0.11509513887483261, -0.12660678607826062, -0.034764675809065435, 0.3352990772315701, 0.0, -0.02630579796293476, -0.028396171826731355, -0.023374128275787085, 0.008434502577797326, 0.33731601462175975, 0.0, -0.11535248418238069, 0.014694195753245067, -0.013756602261079835, 0.3175562869485985, 0.0
0.4299999792196667, -0.3191782039691843, 0.019594652512645482, 0.2901520520582871, 0.23821356330240018, 0.0, -0.3147779566535433, -0.11595950725276336, -0.12651900683792666, -0.03439963600722062, 0.33592288234084233, 0.0, -0.02599955306760187, -0.029840111340305998, -0.02378106226286508, 0.007878871774437173, 0.33701570279868603, 0.0, -0.1162337173278076, 0.014586450190614395, -0.014173658494594276, 0.31837101711540494, 0.0
0.4299999792196667, -0.3201544364329948, 0.01904950223691063, 0.28986491048974894, 0.23900604401190223, 0.0, -0.31553063687478283, -0.11682387563069407, -0.1264312275975927, -0.03403459620537579, 0.3365466874501146, 0.0, -0.02569330817226899, -0.03128405085388064, -0.02418799624994307, 0.0073232409710770234, 0.3367153909756124, 0.0, -0.1171149504732345, 0.014478704627983723, -0.014590714728108719, 0.31918574728221144, 0.0
0.4299999792196667, -0.32113066889680525, 0.01850435196117578, 0.2895777689212109, 0.23979852472140425, 0.0, -0.31628331709602236, -0.11768824400862482, -0.12634344835725875, -0.03366955640353098, 0.33717049255938697, 0.0, -0.0253870632769361, -0.03272799036745529, -0.024594930237021057, 0.006767610167716873, 0.33641507915253877, 0.0, -0.11799618361866139, 0.014370959065353048, -0.01500777096162316, 0.3200004774490179, 0.0
0.4299999792196667, -0.3221069013606158, 0.01795920168544093, 0.28929062735267275, 0.2405910054309063, 0.0, -0.31703599731726195, -0.11855261238655554, -0.1262556691169248, -0.03330451660168616, 0.33779429766865926, 0.0, -0.025080818381603212, -0.034171929881029926, -0.025001864224099047, 0.006211979364356722, 0.33611476732946516, 0.0, -0.11887741676408829, 0.014263213502722376, -0.0154248271951376, 0.3208152076158244, 0.0
0.4299999792196667, -0.32308313382442627, 0.01741405140970608, 0.28900348578413465, 0.24138348614040833, 0.0, -0.31778867753850154, -0.11941698076448629, -0.12616788987659083, -0.03293947679984134, 0.33841810277793155, 0.0, -0.024774573486270327, -0.035615869394604566, -0.025408798211177034, 0.0056563485609965715, 0.3358144555063915, 0.0, -0.11975864990951521, 0.014155467940091706, -0.015841883428652042, 0.3216299377826308, 0.0
0.4299999792196667, -0.32360714100706955, 0.016984273820339704, 0.2886796853199876, 0.24227064048985558, 0.0, -0.3186136597693342, -0.12020075786607451, -0.12610996728563906, -0.032559062392615704, 0.3390944457883474, 0.0, -0.024456354585071213, -0.03737296111855978, -0.025874012581703472, 0.005027783275628966, 0.33527915953414633, 0.0, -0.12110801387064864, 0.013921712956499207, -0.016301067477173324, 0.32219565833439673, 0.0
0.4299999792196667, -0.32413114818971284, 0.016554496230973326, 0.28835588485584057, 0.24315779483930278, 0.0, -0.31943864200016686, -0.12098453496766268, -0.12605204469468725, -0.03217864798539007, 0.33977078879876327, 0.0, -0.024138135683872092, -0.039130052842515015, -0.026339226952229906, 0.004399217990261359, 0.33474386356190117, 0.0, -0.12245737783178207, 0.013687957972906707, -0.01676025152569461, 0.32276137888616263, 0.0
0.4299999792196667, -0.32465515537235606, 0.016124718641606948, 0.28803208439169364, 0.24404494918875, 0.0, -0.3202636242309996, -0.12176831206925089, -0.12599412210373548, -0.031798233578164435, 0.34044713180917907, 0.0, -0.02381991678267298, -0.04088714456647022, -0.026804441322756344, 0.0037706527048937542, 0.33420856758965595, 0.0, -0.12380674179291547, 0.01345420298931421, -0.017219435574215895, 0.32332709943792864, 0.0
0.4299999792196667, -0.32517916255499935, 0.01569494105224057, 0.28770828392754666, 0.24493210353819725, 0.0, -0.32108860646183224, -0.12255208917083908, -0.1259361995127837, -0.03141781917093879, 0.3411234748195949, 0.0, -0.023501697881473854, -0.04264423629042545, -0.027269655693282772, 0.0031420874195261486, 0.3336732716174108, 0.0, -0.12515610575404892, 0.013220448005721707, -0.017678619622737177, 0.32389281998969455, 0.0
0.4299999792196667, -0.32570316973764263, 0.015265163462874192, 0.2873844834633997, 0.24581925788764447, 0.0, -0.3219135886926649, -0.12333586627242728, -0.1258782769218319, -0.03103740476371316, 0.3417998178300108, 0.0, -0.02318347898027474, -0.04440132801438067, -0.02773487006380921, 0.002513522134158543, 0.3331379756451656, 0.0, -0.12650546971518234, 0.01298669302212921, -0.018137803671258463, 0.32445854054146045, 0.0
0.4299999792196667, -0.3258313327552751, 0.014949218725690423, 0.28712764081067615, 0.24651868113208866, 0.0, -0.32286756122719545, -0.12380075112479094, -0.12579146319764017, -0.030482842799986927, 0.34227551778961735, 0.0, -0.022937422462328577, -0.04531235951519272, -0.028028375451865938, 0.002118471528470705, 0.3329006283201869, 0.0, -0.12747616773993478, 0.01270896471237881, -0.018753587247288598, 0.324371933813318, 0.0
0.4299999792196667, -0.32595949577290756, 0.014633273988506652, 0.28687079815795263, 0.2472181043765329, 0.0, -0.32382153376172607, -0.1242656359771546, -0.12570464947344842, -0.0299282808362607, 0.3427512177492239, 0.0, -0.022691365944382418, -0.04622339101600477, -0.028321880839922667, 0.0017234209227828666, 0.33266328099520825, 0.0, -0.1284468657646872, 0.012431236402628408, -0.019369370823318736, 0.32428532708517555, 0.0
0.4299999792196667, -0.32608765879053997, 0.014317329251322885, 0.28661395550522917, 0.2479175276209771, 0.0, -0.3247755062962567, -0.12473052082951826, -0.12561783574925667, -0.029373718872534472, 0.3432269177088304, 0.0, -0.022445309426436254, -0.047134422516816835, -0.0286153862279794, 0.0013283703170950281, 0.3324259336702295, 0.0, -0.12941756378943964, 0.01215350809287801, -0.01998515439934887, 0.32419872035703307, 0.0
0.4299999792196667, -0.3262158218081724, 0.014001384514139115, 0.2863571128525057, 0.2486169508654213, 0.0, -0.32572947883078723, -0.1251954056818819, -0.12553102202506491, -0.02881915690880824, 0.34370261766843696, 0.0, -0.022199252908490095, -0.04804545401762889, -0.028908891616036127, 0.0009333197114071902, 0.3321885863452508, 0.0, -0.13038826181419205, 0.01187577978312761, -0.020600937975379006, 0.32411211362889064, 0.0
0.4299999792196667, -0.32634398482580484, 0.013685439776955344, 0.28610027019978224, 0.24931637410986554, 0.0, -0.32668345136531785, -0.12566029053424557, -0.12544420830087316, -0.028264594945082013, 0.3441783176280436, 0.0, -0.021953196390543935, -0.048956485518440944, -0.029202397004092853, 0.0005382691057193521, 0.33195123902027207, 0.0, -0.1313589598389445, 0.011598051473377207, -0.02121672155140914, 0.32402550690074816, 0.0
0.4299999792196667, -0.3265007468085605, 0.01338035657277259, 0.2857664166391437, 0.24988312091523163, 0.0, -0.32740090037027664, -0.1262086300501226, -0.12526787175242474, -0.0279257308932269, 0.3439511979324815, 0.0, -0.021823632920719687, -0.049137099519820183, -0.029301111779388104, 0.0003994840386938765, 0.33213491747075197, 0.0, -0.1317757723895888, 0.011356877164947647, -0.021947288800091787, 0.32379879910288967, 0.0
0.4299999792196667, -0.32665750879131616, 0.013075273368589829, 0.2854325630785053, 0.25044986772059774, 0.0, -0.32811834937523543, -0.1267569695659996, -0.12509153520397628, -0.02758686684137179, 0.3437240782369196, 0.0, -0.021694069450895442, -0.04931771352119941, -0.029399826554683352, 0.000260698971668401, 0.33231859592123186, 0.0, -0.13219258494023306, 0.01111570285651809, -0.02267785604877443, 0.323572091305031, 0.0
0.4299999792196667, -0.3268142707740717, 0.01277019016440707, 0.2850987095178668, 0.2510166145259638, 0.0, -0.3288357983801942, -0.12730530908187662, -0.12491519865552785, -0.027248002789516685, 0.34349695854135753, 0.0, -0.02156450598107119, -0.049498327522578635, -0.029498541329978596, 0.0001219139046429254, 0.33250227437171176, 0.0, -0.13260939749087733, 0.010874528548088538, -0.023408423297457074, 0.3233453835071725, 0.0
0.4299999792196667, -0.3269710327568274, 0.012465106960224312, 0.2847648559572283, 0.2515833613313299, 0.0, -0.329553247385153, -0.12785364859775367, -0.12473886210707938, -0.026909138737661573, 0.34326983884579554, 0.0, -0.021434942511246946, -0.04967894152395786, -0.029597256105273844, -1.6871162382550174e-05, 0.3326859528221916, 0.0, -0.1330262100415216, 0.01063335423965898, -0.024138990546139716, 0.3231186757093139, 0.0
0.4299999792196667, -0.327127794739583, 0.012160023756041555, 0.28443100239658986, 0.252150108136696, 0.0, -0.3302706963901118, -0.12840198811363068, -0.12456252555863095, -0.026570274685806465, 0.3430427191502335, 0.0, -0.021305379041422698, -0.0498595555253371, -0.029695970880569092, -0.00015565622940802567, 0.3328696312726715, 0.0, -0.1334430225921659, 0.010392179931229421, -0.02486955779482236, 0.32289196791145536, 0.0
0.4299999792196667, -0.32705913348680954, 0.011893136105154311, 0.28392232967675457, 0.2526153326301321, 0.0, -0.33096028644955033, -0.1288804561654309, -0.12447009745930138, -0.026272411908739204, 0.34243886664497, 0.0, -0.021298743299606616, -0.049670207547315035, -0.02967441082831921, -0.00011442026857323962, 0.33333169672016155, 0.0, -0.1333699201745778, 0.010244854280514212, -0.025591624242850244, 0.322800174064776, 0.0
0.4299999792196667, -0.3269904722340361, 0.011626248454267067, 0.28341365695691934, 0.25308055712356825, 0.0, -0.3316498765089888, -0.1293589242172311, -0.1243776693599718, -0.02597454913167195, 0.3418350141397065, 0.0, -0.02129210755779053, -0.049480859569292976, -0.029652850776069325, -7.318430773845357e-05, 0.33379376216765144, 0.0, -0.13329681775698973, 0.010097528629799003, -0.026313690690878126, 0.3227083802180966, 0.0
0.4299999792196667, -0.32692181098126266, 0.01135936080337982, 0.2829049842370841, 0.2535457816170043, 0.0, -0.3323394665684272, -0.12983739226903138, -0.12428524126064225, -0.02567668635460469, 0.341231161634443, 0.0, -0.021285471815974448, -0.04929151159127092, -0.029631290723819436, -3.194834690366752e-05, 0.3342558276151415, 0.0, -0.13322371533940164, 0.009950202979083797, -0.027035757138906005, 0.32261658637141716, 0.0
0.4299999792196667, -0.3268531497284892, 0.011092473152492578, 0.28239631151724887, 0.2540110061104404, 0.0, -0.3330290566278657, -0.1303158603208316, -0.12419281316131268, -0.025378823577537436, 0.3406273091291795, 0.0, -0.021278836074158366, -0.04910216361324885, -0.029609730671569558, 9.28761393111854e-06, 0.33471789306263144, 0.0, -0.13315061292181357, 0.009802877328368587, -0.027757823586933888, 0.32252479252473776, 0.0
0.4299999792196667, -0.32678448847571573, 0.010825585501605334, 0.2818876387974136, 0.2544762306038765, 0.0, -0.33371864668730417, -0.1307943283726318, -0.12410038506198312, -0.025080960800470172, 0.340023456623916, 0.0, -0.021272200332342284, -0.04891281563522679, -0.02958817061931967, 5.052357476590461e-05, 0.33517995851012145, 0.0, -0.1330775105042255, 0.009655551677653378, -0.02847989003496177, 0.3224329986780584, 0.0
0.4299999792196667, -0.32635244967267707, 0.010872210576308963, 0.28127911928173027, 0.2547382883004049, 0.0, -0.3343598248039508, -0.1310861578955408, -0.12396050774347714, -0.024734618710901973, 0.3394292104108555, 0.0, -0.021288197671200212, -0.04896607121575875, -0.02953903366675657, 0.0001290536779992962, 0.3355117037130235, 0.0, -0.1328947745315417, 0.009896322256520363, -0.02882066173168931, 0.322453607525866, 0.0
0.4299999792196667, -0.3259204108696384, 0.010918835651012588, 0.2806705997660469, 0.2550003459969334, 0.0, -0.3350010029205975, -0.13137798741844975, -0.12382063042497114, -0.024388276621333766, 0.3388349641977949, 0.0, -0.021304195010058143, -0.0490193267962907, -0.029489896714193473, 0.00020758378123268784, 0.3358434489159256, 0.0, -0.13271203855885788, 0.010137092835387348, -0.029161433428416848, 0.32247421637367346, 0.0
0.4299999792196667, -0.3254883720665997, 0.010965460725716216, 0.2800620802503636, 0.2552624036934618, 0.0, -0.33564218103724414, -0.1316698169413587, -0.12368075310646517, -0.024041934531765567, 0.3382407179847344, 0.0, -0.02132019234891607, -0.04907258237682266, -0.029440759761630374, 0.0002861138844660795, 0.3361751941188277, 0.0, -0.13252930258617407, 0.010377863414254333, -0.02950220512514438, 0.32249482522148104, 0.0
0.4299999792196667, -0.3250563332635611, 0.011012085800419843, 0.27945356073468025, 0.2555244613899903, 0.0, -0.3362833591538908, -0.13196164646426767, -0.12354087578795918, -0.02369559244219736, 0.33764647177167384, 0.0, -0.021336189687774003, -0.049125837957354604, -0.029391622809067278, 0.00036464398769947115, 0.33650693932172976, 0.0, -0.13234656661349026, 0.010618633993121318, -0.02984297682187192, 0.3225154340692886, 0.0
0.4299999792196667, -0.3246242944605224, 0.01105871087512347, 0.27884504121899695, 0.2557865190865187, 0.0, -0.3369245372705374, -0.13225347598717663, -0.1234009984694532, -0.02334925035262916, 0.3370522255586133, 0.0, -0.021352187026631934, -0.049179093537886555, -0.029342485856504178, 0.00044317409093286276, 0.33683868452463184, 0.0, -0.13216383064080645, 0.010859404571988304, -0.03018374851859946, 0.32253604291709614, 0.0
0.4299999792196667, -0.3240365199283282, 0.011536247758861176, 0.2782256133954886, 0.2558396294556569, 0.0, -0.3376644486629694, -0.1321698677346891, -0.12319107131422087, -0.022786792868432756, 0.33671611703258125, 0.0, -0.021378777466851916, -0.04956868977324109, -0.029263548105094978, 0.0005710174864193926, 0.3370061034878001, 0.0, -0.13227064234756755, 0.011247923974100939, -0.030335527586340647, 0.32233981903995296, 0.0
0.4299999792196667, -0.3234487453961341, 0.01201378464259888, 0.27760618557198036, 0.2558927398247951, 0.0, -0.33840436005540137, -0.13208625948220157, -0.12298114415898855, -0.022224335384236356, 0.33638000850654926, 0.0, -0.021405367907071902, -0.049958286008595615, -0.029184610353685782, 0.0006988608819059225, 0.33717352245096843, 0.0, -0.13237745405432863, 0.01163644337621357, -0.030487306654081826, 0.3221435951628097, 0.0
0.4299999792196667, -0.32286097086394, 0.012491321526336587, 0.27698675774847203, 0.2559458501939333, 0.0, -0.3391442714478333, -0.13200265122971402, -0.12277121700375623, -0.021661877900039955, 0.3360438999805172, 0.0, -0.021431958347291884, -0.05034788224395015, -0.029105672602276582, 0.0008267042773924524, 0.33734094141413673, 0.0, -0.13248426576108976, 0.012024962778326204, -0.03063908572182301, 0.32194737128566653, 0.0
0.4299999792196667, -0.32227319633174584, 0.01296885841007429, 0.2763673299249637, 0.2559989605630715, 0.0, -0.33988418284026534, -0.13191904297722648, -0.1225612898485239, -0.021099420415843558, 0.3357077914544851, 0.0, -0.02145854878751187, -0.05073747847930468, -0.029026734850867382, 0.0009545476728789822, 0.3375083603773051, 0.0, -0.13259107746785087, 0.012413482180438836, -0.030790864789564193, 0.3217511474085233, 0.0
0.4299999792196667, -0.3216854217995517, 0.013446395293811997, 0.27574790210145544, 0.2560520709322096, 0.0, -0.3406240942326973, -0.13183543472473896, -0.12235136269329158, -0.020536962931647154, 0.33537168292845304, 0.0, -0.02148513922773185, -0.05112707471465921, -0.028947797099458182, 0.001082391068365512, 0.3376757793404734, 0.0, -0.13269788917461195, 0.01280200158255147, -0.03094264385730538, 0.3215549235313801, 0.0
0.4299999792196667, -0.3208616717711709, 0.014295005093926474, 0.2752071990991876, 0.255907096903222, 0.0, -0.3415444377632004, -0.13140668970706462, -0.12216180876641777, -0.019710124578061563, 0.33534120947971324, 0.0, -0.021614623808673912, -0.05164810645999367, -0.029007587541775456, 0.0011367434137994187, 0.3379019530675808, 0.0, -0.13310446152946892, 0.01293581356774751, -0.03131488453857807, 0.3212381218375336, 0.0
0.4299999792196667, -0.32003792174279017, 0.015143614894040952, 0.2746664960969198, 0.25576212287423433, 0.0, -0.34246478129370356, -0.1309779446893903, -0.12197225483954398, -0.01888328622447597, 0.3353107360309734, 0.0, -0.021744108389615966, -0.05216913820532813, -0.02906737798409272, 0.0011910957592333254, 0.33812812679468823, 0.0, -0.13351103388432592, 0.013069625552943546, -0.03168712521985077, 0.320921320143687, 0.0
0.4299999792196667, -0.31921417171440936, 0.01599222469415543, 0.2741257930946519, 0.25561714884524667, 0.0, -0.3433851248242067, -0.13054919967171602, -0.12178270091267017, -0.01805644787089038, 0.3352802625822336, 0.0, -0.021873592970558027, -0.052690169950662606, -0.029127168426409996, 0.0012454481046672318, 0.3383543005217957, 0.0, -0.13391760623918286, 0.013203437538139583, -0.03205936590112347, 0.3206045184498406, 0.0
0.4299999792196667, -0.3183904216860286, 0.01684083449426991, 0.273585090092384, 0.255472174816259, 0.0, -0.3443054683547099, -0.1301204546540417, -0.12159314698579639, -0.01722960951730479, 0.33524978913349374, 0.0, -0.022003077551500085, -0.05321120169599706, -0.029186958868727266, 0.0012998004501011385, 0.3385804742489031, 0.0, -0.13432417859403986, 0.01333724952333562, -0.03243160658239616, 0.3202877167559941, 0.0
0.4299999792196667, -0.3175666716576478, 0.017689444294384387, 0.27304438709011625, 0.2553272007872714, 0.0, -0.345225811885213, -0.1296917096363674, -0.1214035930589226, -0.0164027711637192, 0.3352193156847539, 0.0, -0.022132562132442142, -0.05373223344133153, -0.029246749311044536, 0.0013541527955350451, 0.33880664797601057, 0.0, -0.13473075094889683, 0.013471061508531657, -0.03280384726366886, 0.3199709150621476, 0.0
0.4299999792196667, -0.3166367253256002, 0.018535431911830668, 0.2725534364435057, 0.2550895358123688, 0.0, -0.3460897742995598, -0.12926752446589684, -0.12118834474386679, -0.01548401776779096, 0.3353767548552593, 0.0, -0.022266715120067435, -0.05448904730037152, -0.029531567148216538, 0.001246292425146177, 0.3388699789932484, 0.0, -0.13538146065765447, 0.01325870426156861, -0.03349727006614471, 0.3200210653528744, 0.0
0.4299999792196667, -0.3157067789935526, 0.01938141952927695, 0.27206248579689524, 0.25485187083746624, 0.0, -0.3469537367139065, -0.12884333929542627, -0.12097309642881098, -0.014565264371862723, 0.3355341940257647, 0.0, -0.022400868107692724, -0.055245861159411505, -0.029816384985388536, 0.0011384320547573085, 0.33893331001048627, 0.0, -0.1360321703664121, 0.013046347014605561, -0.034190692868620566, 0.3200712156436012, 0.0
0.4299999792196667, -0.31477683266150497, 0.020227407146723234, 0.2715715351502847, 0.25461420586256367, 0.0, -0.34781769912825317, -0.12841915412495575, -0.12075784811375516, -0.013646510975934483, 0.33569163319627016, 0.0, -0.022535021095318016, -0.05600267501845149, -0.03010120282256054, 0.0010305716843684398, 0.33899664102772414, 0.0, -0.13668288007516977, 0.012833989767642513, -0.034884115671096415, 0.320121365934328, 0.0
0.4299999792196667, -0.3138468863294574, 0.02107339476416951, 0.2710805845036742, 0.2543765408876611, 0.0, -0.3486816615425999, -0.12799496895448517, -0.12054259979869936, -0.012727757580006244, 0.3358490723667755, 0.0, -0.022669174082943312, -0.05675948887749148, -0.030386020659732543, 0.0009227113139795715, 0.339059972044962, 0.0, -0.1373335897839274, 0.012621632520679464, -0.035577538473572264, 0.3201715162250548, 0.0
0.4299999792196667, -0.31291693999740977, 0.021919382381615796, 0.27058963385706375, 0.2541388759127585, 0.0, -0.3495456239569466, -0.12757078378401462, -0.12032735148364354, -0.011809004184078006, 0.3360065115372809, 0.0, -0.022803327070568605, -0.05751630273653146, -0.03067083849690454, 0.0008148509435907031, 0.33912330306219984, 0.0, -0.13798429949268504, 0.012409275273716415, -0.03627096127604812, 0.3202216665157816, 0.0
0.4299999792196667, -0.3122997915739046, 0.02250140779925386, 0.2699988817931657, 0.25382763832856736, 0.0, -0.3500613443163014, -0.12762686295821046, -0.12002170244371728, -0.011150698592976172, 0.33592654404161304, 0.0, -0.0227952748195316, -0.05895496646884317, -0.030895427465051178, 0.000713700714913271, 0.33867496637460603, 0.0, -0.13881533452536365, 0.01224625035147293, -0.036881456504444715, 0.32083492983637185, 0.0
0.4299999792196667, -0.31168264315039934, 0.023083433216891918, 0.2694081297292677, 0.25351640074437626, 0.0, -0.3505770646756562, -0.12768294213240627, -0.11971605340379105, -0.010492393001874337, 0.33584657654594513, 0.0, -0.022787222568494598, -0.06039363020115488, -0.0311200164331978, 0.000612550486235839, 0.3382266296870122, 0.0, -0.13964636955804224, 0.012083225429229448, -0.037491951732841304, 0.3214481931569621, 0.0
0.4299999792196667, -0.3110654947268942, 0.02366545863452998, 0.2688173776653696, 0.25320516316018504, 0.0, -0.35109278503501107, -0.1277390213066021, -0.11941040436386478, -0.009834087410772503, 0.33576660905027733, 0.0, -0.0227791703174576, -0.0618322939334666, -0.031344605401344434, 0.0005114002575584071, 0.3377782929994184, 0.0, -0.14047740459072086, 0.011920200506985968, -0.0381024469612379, 0.32206145647755235, 0.0
0.4299999792196667, -0.310448346303389, 0.024247484052168044, 0.2682266256014716, 0.25289392557599394, 0.0, -0.3516085053943658, -0.12779510048079795, -0.11910475532393855, -0.00917578181967067, 0.3356866415546094, 0.0, -0.022771118066420598, -0.06327095766577831, -0.031569194369491065, 0.00041025002888097506, 0.33732995631182466, 0.0, -0.14130843962339945, 0.011757175584742484, -0.03871294218963449, 0.3226747197981426, 0.0
0.4299999792196667, -0.3098311978798838, 0.0248295094698061, 0.26763587353757357, 0.25258268799180283, 0.0, -0.3521242257537206, -0.12785117965499376, -0.11879910628401229, -0.008517476228568835, 0.33560667405894157, 0.0, -0.022763065815383593, -0.06470962139809003, -0.031793783337637695, 0.000309099800203543, 0.33688161962423085, 0.0, -0.14213947465607807, 0.011594150662499001, -0.039323437418031085, 0.32328798311873286, 0.0
0.4299999792196667, -0.30932632299650087, 0.025578644578269014, 0.26717230361626837, 0.2521013506187123, 0.0, -0.3528092709757869, -0.12778508194182564, -0.11834623208942915, -0.00754390539186762, 0.3355350876343418, 0.0, -0.022701265451899728, -0.06588337905653405, -0.031868861817004886, 0.0002941324708943364, 0.33632840261122615, 0.0, -0.14229274598032968, 0.011928375768828646, -0.03948359650964279, 0.3237225840651135, 0.0
0.4299999792196667, -0.30882144811311796, 0.026327779686731924, 0.2667087336949632, 0.2516200132456218, 0.0, -0.35349431619785315, -0.12771898422865752, -0.11789335789484601, -0.006570334555166401, 0.33546350120974194, 0.0, -0.02263946508841586, -0.06705713671497805, -0.03194394029637208, 0.00027916514158512964, 0.3357751855982216, 0.0, -0.1424460173045813, 0.012262600875158297, -0.0396437556012545, 0.3241571850114941, 0.0
0.4299999792196667, -0.30831657322973505, 0.027076914795194838, 0.266245163773658, 0.25113867587253125, 0.0, -0.35417936141991946, -0.1276528865154894, -0.11744048370026287, -0.005596763718465186, 0.3353919147851422, 0.0, -0.022577664724931994, -0.06823089437342207, -0.03201901877573927, 0.00026419781227592304, 0.3352219685852169, 0.0, -0.14259928862883298, 0.012596825981487942, -0.039803914692866205, 0.3245917859578747, 0.0
0.4299999792196667, -0.3078116983463522, 0.027826049903657748, 0.2657815938523527, 0.2506573384994408, 0.0, -0.3548644066419857, -0.12758678880232127, -0.11698760950567974, -0.004623192881763969, 0.3353203283605423, 0.0, -0.022515864361448125, -0.06940465203186608, -0.03209409725510645, 0.00024923048296671634, 0.3346687515722123, 0.0, -0.14275255995308458, 0.012931051087817592, -0.03996407378447791, 0.3250263869042553, 0.0
0.4299999792196667, -0.3073068234629692, 0.028575185012120658, 0.2653180239310476, 0.25017600112635024, 0.0, -0.355549451864052, -0.12752069108915315, -0.11653473531109661, -0.0036496220450627508, 0.33524874193594256, 0.0, -0.02245406399796426, -0.0705784096903101, -0.03216917573447364, 0.0002342631536575097, 0.33411553455920767, 0.0, -0.14290583127733622, 0.013265276194147238, -0.04012423287608962, 0.32546098785063593, 0.0
0.4299999792196667, -0.3072111759293014, 0.02912504296444691, 0.2652197758567943, 0.24955814060851028, 0.0, -0.35636222726209626, -0.12757736053370197, -0.11614067766510813, -0.002531958780085645, 0.33541010111594793, 0.0, -0.02227197274990614, -0.07056665664312717, -0.032114823039973886, 0.00036233290089473076, 0.3342359273710102, 0.0, -0.14230849583149968, 0.013588605768462046, -0.04018489912462554, 0.3257134008577179, 0.0
0.4299999792196667, -0.3071155283956336, 0.029674900916773165, 0.26512152778254106, 0.24894028009067024, 0.0, -0.35717500266014046, -0.12763402997825085, -0.11574662001911966, -0.0014142955151085382, 0.3355714602959533, 0.0, -0.02208988150184802, -0.07055490359594423, -0.03206047034547413, 0.0004904026481319518, 0.33435632018281275, 0.0, -0.1417111603856631, 0.013911935342776856, -0.04024556537316147, 0.3259658138647998, 0.0
0.4299999792196667, -0.30701988086196585, 0.030224758869099425, 0.26502327970828776, 0.24832241957283024, 0.0, -0.35798777805818466, -0.12769069942279968, -0.11535256237313117, -0.0002966322501314316, 0.33573281947595873, 0.0, -0.0219077902537899, -0.07054315054876131, -0.03200611765097437, 0.0006184723953691728, 0.3344767129946154, 0.0, -0.14111382493982658, 0.01423526491709166, -0.040306231621697386, 0.3262182268718817, 0.0
0.4299999792196667, -0.30692423332829805, 0.03077461682142568, 0.2649250316340345, 0.24770455905499023, 0.0, -0.3588005534562289, -0.12774736886734855, -0.11495850472714271, 0.000821031014845675, 0.33589417865596405, 0.0, -0.02172569900573178, -0.07053139750157837, -0.031951764956474615, 0.0007465421426063938, 0.334597105806418, 0.0, -0.14051648949398998, 0.01455859449140647, -0.0403668978702333, 0.3264706398789636, 0.0
0.4299999792196667, -0.30682858579463024, 0.031324474773751936, 0.26482678355978123, 0.24708669853715023, 0.0, -0.35961332885427316, -0.1278040383118974, -0.11456444708115422, 0.0019386942798227814, 0.3360555378359694, 0.0, -0.02154360775767366, -0.07051964445439544, -0.03189741226197486, 0.0008746118898436148, 0.33471749861822053, 0.0, -0.13991915404815344, 0.014881924065721277, -0.04042756411876923, 0.32672305288604553, 0.0
0.4299999792196667, -0.3074169711920626, 0.031108595696704454, 0.2653430624244967, 0.2467409243777206, 0.0, -0.36033014605004277, -0.12855670107984443, -0.11455644404840212, 0.002674641191765433, 0.33594715638007905, 0.0, -0.021273321880919616, -0.06986272242069824, -0.03208229568777032, 0.0007794319229011138, 0.3354235541138223, 0.0, -0.13930929202520947, 0.014697461683154568, -0.040710957418205754, 0.32726986105003686, 0.0
0.4299999792196667, -0.30800535658949496, 0.030892716619656976, 0.2658593412892121, 0.24639515021829103, 0.0, -0.3610469632458123, -0.1293093638477915, -0.11454844101565005, 0.0034105881037080855, 0.33583877492418873, 0.0, -0.02100303600416557, -0.06920580038700107, -0.032267179113565775, 0.0006842519559586129, 0.3361296096094241, 0.0, -0.1386994300022655, 0.01451299930058786, -0.04099435071764228, 0.3278166692140282, 0.0
0.4299999792196667, -0.30859374198692724, 0.030676837542609497, 0.2663756201539275, 0.2460493760588614, 0.0, -0.3617637804415819, -0.13006202661573854, -0.11454043798289794, 0.0041465350156507375, 0.3357303934682984, 0.0, -0.020732750127411523, -0.06854887835330387, -0.03245206253936123, 0.000589071989016112, 0.3368356651050259, 0.0, -0.13808956797932154, 0.014328536918021152, -0.0412777440170788, 0.3283634773780195, 0.0
0.4299999792196667, -0.30918212738435963, 0.030460958465562023, 0.26689189901864296, 0.24570360189943183, 0.0, -0.36248059763735146, -0.1308146893836856, -0.11453243495014585, 0.00488248192759339, 0.33562201201240804, 0.0, -0.020462464250657474, -0.06789195631960668, -0.0326369459651567, 0.000493892022073611, 0.33754172060062765, 0.0, -0.13747970595637757, 0.01414407453545444, -0.04156113731651532, 0.3289102855420108, 0.0
0.4299999792196667, -0.30977051278179196, 0.03024507938851454, 0.2674081778833584, 0.2453578277400022, 0.0, -0.36319741483312107, -0.13156735215163262, -0.11452443191739375, 0.0056184288395360405, 0.33551363055651773, 0.0, -0.020192178373903427, -0.06723503428590948, -0.032821829390952156, 0.00039871205513111, 0.3382477760962294, 0.0, -0.1368698439334336, 0.013959612152887733, -0.04184453061595184, 0.3294570937060021, 0.0
0.4299999792196667, -0.31091455865318174, 0.029572172233264186, 0.26855866227435876, 0.24529791756809827, 0.0, -0.3639441260283188, -0.1326582688043283, -0.11464189746297487, 0.006234487270016782, 0.33511248408123934, 0.0, -0.019746152153173418, -0.06664120939533039, -0.03304313155505143, 0.00020926657603571498, 0.33893719860405974, 0.0, -0.13648440053450128, 0.013706422264849163, -0.04199236279612257, 0.3301534312083288, 0.0
0.4299999792196667, -0.3120586045245715, 0.028899265078013825, 0.2697091466653591, 0.2452380073961943, 0.0, -0.36469083722351664, -0.13374918545702394, -0.11475936300855599, 0.00685054570049752, 0.334711337605961, 0.0, -0.01930012593244341, -0.0660473845047513, -0.03326443371915071, 1.982109694031991e-05, 0.33962662111188996, 0.0, -0.13609895713556894, 0.01345323237681059, -0.042140194976293295, 0.3308497687106555, 0.0
0.4299999792196667, -0.31320265039596124, 0.028226357922763467, 0.2708596310563595, 0.24517809722429035, 0.0, -0.3654375484187143, -0.13484010210971958, -0.11487682855413711, 0.0074666041309782594, 0.3343101911306826, 0.0, -0.0188540997117134, -0.0654535596141722, -0.03348573588324999, -0.00016962438215507516, 0.3403160436197203, 0.0, -0.13571351373663662, 0.013200042488772018, -0.042288027156464014, 0.3315461062129822, 0.0
0.4299999792196667, -0.314346696267351, 0.027553450767513105, 0.27201011544735987, 0.2451181870523864, 0.0, -0.3661842596139121, -0.13593101876241523, -0.11499429409971823, 0.008082662561458998, 0.3339090446554043, 0.0, -0.018408073490983393, -0.0648597347235931, -0.03370703804734926, -0.00035906986125047014, 0.3410054661275505, 0.0, -0.13532807033770428, 0.012946852600733447, -0.04243585933663475, 0.3322424437153089, 0.0
0.4299999792196667, -0.3154907421387408, 0.02688054361226275, 0.2731605998383603, 0.24505827688048243, 0.0, -0.3669309708091098, -0.1370219354151109, -0.11511175964529935, 0.008698720991939739, 0.3335078981801259, 0.0, -0.01796204727025338, -0.06426590983301401, -0.033928340211448534, -0.0005485153403458652, 0.34169488863538083, 0.0, -0.13494262693877193, 0.012693662712694875, -0.042583691516805466, 0.3329387812176356, 0.0
0.4299999792196667, -0.3166727663746539, 0.02619796558762709, 0.27459792909192593, 0.24486991047563167, 0.0, -0.3677945736856306, -0.13807615756748093, -0.11512385477701569, 0.009491036698014297, 0.33310088739856075, 0.0, -0.017272154570722613, -0.06384586004567314, -0.033991329493218855, -0.0006621395070004706, 0.341992198492141, 0.0, -0.13485179895730062, 0.012693364959524485, -0.04239893654724295, 0.3333151195829261, 0.0
0.4299999792196667, -0.3178547906105671, 0.025515387562991432, 0.27603525834549153, 0.24468154407078094, 0.0, -0.3686581765621514, -0.13913037971985096, -0.115135949908732, 0.010283352404088853, 0.33269387661699573, 0.0, -0.01658226187119185, -0.06342581025833226, -0.034054318774989184, -0.0007757636736550763, 0.3422895083489013, 0.0, -0.13476097097582926, 0.012693067206354096, -0.042214181577680435, 0.3336914579482166, 0.0
0.4299999792196667, -0.3190368148464802, 0.024832809538355774, 0.27747258759905713, 0.24449317766593018, 0.0, -0.3695217794386722, -0.14018460187222095, -0.11514804504044833, 0.01107566811016341, 0.3322868658354306, 0.0, -0.015892369171661078, -0.06300576047099138, -0.03411730805675951, -0.0008893878403096818, 0.3425868182056615, 0.0, -0.13467014299435792, 0.012692769453183704, -0.042029426608117926, 0.33406779631350714, 0.0
0.4299999792196667, -0.3202188390823934, 0.02415023151372011, 0.2789099168526228, 0.24430481126107945, 0.0, -0.370385382315193, -0.14123882402459098, -0.11516014017216464, 0.011867983816237968, 0.3318798550538656, 0.0, -0.015202476472130314, -0.0625857106836505, -0.034180297338529834, -0.0010030120069642874, 0.34288412806242174, 0.0, -0.13457931501288659, 0.012692471700013313, -0.04184467163855541, 0.3344441346787977, 0.0
0.4299999792196667, -0.32140086331830653, 0.023467653489084455, 0.28034724610618844, 0.2441164448562287, 0.0, -0.37124898519171384, -0.14229304617696104, -0.11517223530388097, 0.012660299522312525, 0.33147284427230045, 0.0, -0.014512583772599544, -0.06216566089630963, -0.034243286620300156, -0.001116636173618893, 0.343181437919182, 0.0, -0.13448848703141525, 0.012692173946842925, -0.041659916668992894, 0.33482047304408824, 0.0
0.4299999792196667, -0.32158603227996757, 0.02295129049949907, 0.2815256749638425, 0.24366333294780146, 0.0, -0.37210344603361273, -0.14338471471749845, -0.11508015173254574, 0.01362799163630742, 0.33136015883447467, 0.0, -0.013748194486474201, -0.061873225046018526, -0.034302159019430886, -0.0013119356196705, 0.3431686132398383, 0.0, -0.13464999386627535, 0.01290404243180224, -0.041307065897578155, 0.33484481340583655, 0.0
0.4299999792196667, -0.3217712012416287, 0.022434927509913695, 0.2827041038214966, 0.24321022103937423, 0.0, -0.37295790687551156, -0.14447638325803586, -0.11498806816121054, 0.014595683750302315, 0.33124747339664895, 0.0, -0.01298380520034886, -0.06158078919572742, -0.0343610314185616, -0.0015072350657221074, 0.34315578856049467, 0.0, -0.13481150070113543, 0.013115910916761562, -0.040954215126163415, 0.3348691537675848, 0.0
0.4299999792196667, -0.3219563702032898, 0.02191856452032831, 0.28388253267915053, 0.24275710913094695, 0.0, -0.37381236771741044, -0.14556805179857327, -0.11489598458987531, 0.015563375864297211, 0.3311347879588232, 0.0, -0.012219415914223517, -0.061288353345436315, -0.034419903817692325, -0.0017025345117737145, 0.343142963881151, 0.0, -0.13497300753599556, 0.013327779401720884, -0.040601364354748676, 0.3348934941293331, 0.0
0.4299999792196667, -0.3221415391649509, 0.02140220153074293, 0.2850609615368046, 0.2423039972225197, 0.0, -0.37466682855930933, -0.14665972033911068, -0.11480390101854009, 0.016531067978292104, 0.33102210252099745, 0.0, -0.011455026628098176, -0.0609959174951452, -0.03447877621682305, -0.001897833957825322, 0.34313013920180735, 0.0, -0.13513451437085564, 0.013539647886680203, -0.040248513583333936, 0.3349178344910814, 0.0
0.4299999792196667, -0.32232670812661196, 0.02088583854115755, 0.2862393903944587, 0.24185088531409243, 0.0, -0.37552128940120816, -0.1477513888796481, -0.11471181744720486, 0.017498760092287, 0.3309094170831717, 0.0, -0.010690637341972835, -0.06070348164485409, -0.03453764861595377, -0.002093133403876929, 0.3431173145224637, 0.0, -0.13529602120571574, 0.013751516371639523, -0.0398956628119192, 0.33494217485282973, 0.0
0.4299999792196667, -0.3220435110021834, 0.020289020759977135, 0.286689018625699, 0.24156051837709663, 0.0, -0.37640734070256815, -0.14897985981761533, -0.11472109561750846, 0.018652736188988907, 0.3316896420906662, 0.0, -0.010107922344747309, -0.06103527816043618, -0.03430860277502925, -0.00214991385136621, 0.3430364813434868, 0.0, -0.1357071603890935, 0.013761604758688485, -0.03976845448938759, 0.33502601697943707, 0.0
0.4299999792196667, -0.32176031387775483, 0.019692202978796723, 0.28713864685693924, 0.24127015144010086, 0.0, -0.3772933920039281, -0.15020833075558254, -0.11473037378781208, 0.019806712285690822, 0.33246986709816073, 0.0, -0.009525207347521786, -0.06136707467601826, -0.03407955693410472, -0.0022066942988554915, 0.3429556481645099, 0.0, -0.13611829957247124, 0.01377169314573745, -0.039641246166855985, 0.33510985910604435, 0.0
0.4299999792196667, -0.3214771167533262, 0.01909538519761631, 0.2875882750881795, 0.24097978450310506, 0.0, -0.378179443305288, -0.1514368016935498, -0.11473965195811567, 0.02096068838239273, 0.33325009210565526, 0.0, -0.008942492350296262, -0.06169887119160035, -0.0338505110931802, -0.002263474746344772, 0.3428748149855331, 0.0, -0.136529438755849, 0.013781781532786412, -0.039514037844324376, 0.3351937012326517, 0.0
0.4299999792196667, -0.32119391962889754, 0.0184985674164359, 0.28803790331941975, 0.2406894175661093, 0.0, -0.37906549460664796, -0.15266527263151702, -0.11474893012841926, 0.022114664479094638, 0.3340303171131498, 0.0, -0.008359777353070738, -0.06203066770718242, -0.03362146525225567, -0.0023202551938340536, 0.34279398180655624, 0.0, -0.13694057793922673, 0.013791869919835375, -0.03938682952179277, 0.3352775433592589, 0.0
0.4299999792196667, -0.32091072250446895, 0.017901749635255485, 0.2884875315506601, 0.2403990506291135, 0.0, -0.37995154590800795, -0.15389374356948426, -0.11475820829872287, 0.023268640575796553, 0.3348105421206443, 0.0, -0.007777062355845215, -0.06236246422276451, -0.03339241941133115, -0.0023770356413233343, 0.34271314862757934, 0.0, -0.13735171712260447, 0.013801958306884337, -0.03925962119926116, 0.33536138548586625, 0.0
0.4299999792196667, -0.32101676172850313, 0.01702755470457017, 0.28847232973287523, 0.24075579941887962, 0.0, -0.3809697081617684, -0.15514920427900433, -0.11488910101130542, 0.024478979986296518, 0.33614720252828423, 0.0, -0.007282986173610251, -0.063125581512931, -0.0331636095389215, -0.002449757367694971, 0.34245482942630867, 0.0, -0.1379413741669298, 0.013628455614635772, -0.039279289663667734, 0.33559021909475373, 0.0
0.4299999792196667, -0.3211228009525373, 0.016153359773884858, 0.28845712791509037, 0.24111254820864578, 0.0, -0.3819878704155288, -0.1564046649885244, -0.11501999372388802, 0.025689319396796476, 0.33748386293592403, 0.0, -0.006788909991375285, -0.06388869880309749, -0.03293479966651184, -0.0025224790940666076, 0.34219651022503805, 0.0, -0.13853103121125515, 0.013454952922387206, -0.03929895812807431, 0.33581905270364126, 0.0
0.4299999792196667, -0.3212288401765715, 0.015279164843199543, 0.28844192609730546, 0.24146929699841194, 0.0, -0.38300603266928923, -0.15766012569804447, -0.11515088643647058, 0.02689965880729644, 0.33882052334356394, 0.0, -0.006294833809140322, -0.06465181609326397, -0.03270598979410219, -0.002595200820438245, 0.3419381910237673, 0.0, -0.1391206882555805, 0.01328145023013864, -0.039318626592480886, 0.3360478863125287, 0.0
0.4299999792196667, -0.3213348794006056, 0.01440496991251423, 0.2884267242795206, 0.24182604578817807, 0.0, -0.3840241949230497, -0.15891558640756454, -0.11528177914905315, 0.028109998217796407, 0.34015718375120374, 0.0, -0.0058007576269053585, -0.06541493338343046, -0.03247717992169254, -0.0026679225468098813, 0.3416798718224967, 0.0, -0.13971034529990578, 0.013107947537890073, -0.03933829505688746, 0.33627671992141617, 0.0
0.4299999792196667, -0.3214409186246398, 0.013530774981828916, 0.28841152246173574, 0.2421827945779442, 0.0, -0.3850423571768101, -0.16017104711708463, -0.11541267186163572, 0.02932033762829637, 0.34149384415884365, 0.0, -0.005306681444670393, -0.06617805067359694, -0.03224837004928289, -0.0027406442731815178, 0.34142155262122603, 0.0, -0.14030000234423115, 0.012934444845641506, -0.03935796352129403, 0.3365055535303037, 0.0
0.4299999792196667, -0.3213607242361691, 0.012786057476235724, 0.28825779735187856, 0.2428176406400646, 0.0, -0.38632906975191633, -0.16121858151682686, -0.11560500016388847, 0.030369825051471587, 0.3420034244498899, 0.0, -0.0046995364455861745, -0.06635553948841756, -0.032277805376183626, -0.002839831788357961, 0.3413118412244457, 0.0, -0.1407311649919853, 0.012709875878968104, -0.03944281828793334, 0.33667595002517586, 0.0
0.4299999792196667, -0.32128052984769856, 0.012041339970642537, 0.28810407224202145, 0.24345248670218503, 0.0, -0.38761578232702265, -0.1622661159165691, -0.11579732846614124, 0.0314193124746468, 0.3425130047409362, 0.0, -0.004092391446501954, -0.06653302830323816, -0.032307240703084356, -0.0029390193035344044, 0.34120212982766535, 0.0, -0.1411623276397395, 0.012485306912294703, -0.03952767305457265, 0.3368463465200481, 0.0
0.4299999792196667, -0.3212003354592279, 0.011296622465049347, 0.2879503471321642, 0.24408733276430541, 0.0, -0.3889024949021289, -0.16331365031631132, -0.11598965676839401, 0.03246879989782202, 0.34302258503198246, 0.0, -0.0034852464474177352, -0.0667105171180588, -0.03233667602998509, -0.003038206818710848, 0.34109241843088495, 0.0, -0.14159349028749366, 0.0122607379456213, -0.03961252782121197, 0.3370167430149203, 0.0
0.4299999792196667, -0.3211201410707573, 0.01055190495945616, 0.28779662202230705, 0.24472217882642586, 0.0, -0.39018920747723523, -0.16436118471605354, -0.11618198507064677, 0.03351828732099723, 0.34353216532302877, 0.0, -0.0028781014483335154, -0.0668880059328794, -0.03236611135688582, -0.0031373943338872906, 0.34098270703410455, 0.0, -0.14202465293524785, 0.012036168978947898, -0.03969738258785128, 0.3371871395097925, 0.0
0.4299999792196667, -0.32103994668228664, 0.00980718745386297, 0.28764289691244993, 0.2453570248885463, 0.0, -0.39147592005234144, -0.1654087191157958, -0.11637431337289955, 0.03456777474417245, 0.3440417456140751, 0.0, -0.0022709564492492964, -0.0670654947477, -0.03239554668378656, -0.0032365818490637343, 0.3408729956373242, 0.0, -0.14245581558300202, 0.011811600012274496, -0.03978223735449059, 0.3373575360046647, 0.0
0.4299999792196667, -0.32041155135708166, 0.009608835147696945, 0.28708002473802324, 0.2457857650192987, 0.0, -0.3928296846866509, -0.16613608333623517, -0.11635827309894202, 0.035483642901407625, 0.3437684619597977, 0.0, -0.0017148490802462299, -0.06662885700208232, -0.03256427254949876, -0.003272939396123974, 0.3413073382749755, 0.0, -0.1425866524450485, 0.011759006330408068, -0.03980966799621249, 0.3373035669335345, 0.0
0.4299999792196667, -0.31978315603187657, 0.009410482841530919, 0.28651715256359656, 0.24621450515005108, 0.0, -0.39418344932096033, -0.16686344755667457, -0.11634223282498449, 0.03639951105864281, 0.3434951783055205, 0.0, -0.0011587417112431636, -0.06619221925646464, -0.032732998415210955, -0.0033092969431842132, 0.34174168091262686, 0.0, -0.14271748930709502, 0.011706412648541642, -0.03983709863793437, 0.3372495978624043, 0.0
0.4299999792196667, -0.3191547607066715, 0.009212130535364894, 0.28595428038916987, 0.24664324528080353, 0.0, -0.39553721395526964, -0.16759081177711393, -0.11632619255102697, 0.037315379215877985, 0.3432218946512432, 0.0, -0.0006026343422400975, -0.06575558151084697, -0.03290172428092315, -0.0033456544902444527, 0.34217602355027815, 0.0, -0.1428483261691415, 0.011653818966675214, -0.039864529279656266, 0.33719562879127424, 0.0
0.4299999792196667, -0.31852636538146645, 0.00901377822919887, 0.28539140821474324, 0.2470719854115559, 0.0, -0.3968909785895791, -0.1683181759975533, -0.11631015227706944, 0.03823124737311317, 0.34294861099696594, 0.0, -4.652697323703105e-05, -0.06531894376522929, -0.03307045014663535, -0.0033820120373046925, 0.3426103661879295, 0.0, -0.14297916303118802, 0.011601225284808787, -0.03989195992137816, 0.33714165972014404, 0.0
0.4299999792196667, -0.3178979700562614, 0.008815425923032843, 0.28482853604031655, 0.24750072554230834, 0.0, -0.39824474322388853, -0.1690455402179927, -0.1162941120031119, 0.039147115530348345, 0.3426753273426887, 0.0, 0.0005095803957660355, -0.0648823060196116, -0.03323917601234755, -0.003418369584364932, 0.34304470882558075, 0.0, -0.1431099998932345, 0.01154863160294236, -0.03991939056310006, 0.33708769064901384, 0.0
0.4299999792196667, -0.3170150149689945, 0.00908696459712397, 0.28376587487194727, 0.2476233279409439, 0.0, -0.39943491814740845, -0.16954688604562806, -0.11594682708668178, 0.04004128680152029, 0.34243121512152924, 0.0, 0.0008900998857752765, -0.06476215755390431, -0.03328220675598962, -0.0032886389469049277, 0.3435902254459256, 0.0, -0.14308063298324045, 0.011796365905898464, -0.03973720471819649, 0.33696721406140717, 0.0
0.4299999792196667, -0.31613205988172755, 0.0093585032712151, 0.282703213703578, 0.2477459303395795, 0.0, -0.4006250930709285, -0.17004823187326343, -0.11559954217025165, 0.04093545807269223, 0.3421871029003698, 0.0, 0.0012706193757845176, -0.06464200908819702, -0.03332523749963169, -0.0031589083094449243, 0.34413574206627046, 0.0, -0.14305126607324642, 0.012044100208854568, -0.03955501887329291, 0.33684673747380056, 0.0
0.4299999792196667, -0.31524910479446067, 0.009630041945306228, 0.28164055253520875, 0.2478685327382151, 0.0, -0.4018152679944484, -0.17054957770089885, -0.11525225725382152, 0.04182962934386417, 0.3419429906792103, 0.0, 0.0016511388657937584, -0.06452186062248971, -0.033368268243273755, -0.0030291776719849205, 0.34468125868661526, 0.0, -0.14302189916325234, 0.012291834511810667, -0.03937283302838932, 0.33672626088619384, 0.0
0.4299999792196667, -0.3143661497071937, 0.009901580619397356, 0.28057789136683947, 0.24799113513685073, 0.0, -0.40300544291796836, -0.17105092352853418, -0.11490497233739139, 0.04272380061503611, 0.3416988784580509, 0.0, 0.0020316583558029995, -0.06440171215678243, -0.033411298986915826, -0.0028994470345249162, 0.3452267753069601, 0.0, -0.1429925322532583, 0.01253956881476677, -0.03919064718348574, 0.33660578429858723, 0.0
0.4299999792196667, -0.3134831946199268, 0.010173119293488483, 0.27951523019847024, 0.2481137375354863, 0.0, -0.40419561784148833, -0.17155226935616955, -0.11455768742096126, 0.04361797188620805, 0.34145476623689147, 0.0, 0.0024121778458122403, -0.06428156369107516, -0.0334543297305579, -0.0027697163970649124, 0.34577229192730496, 0.0, -0.14296316534326425, 0.012787303117722875, -0.03900846133858217, 0.33648530771098056, 0.0
0.4299999792196667, -0.3125690155923417, 0.010702311046487969, 0.2781416909837357, 0.24801761178160348, 0.0, -0.40537653204799723, -0.17186539538661136, -0.11411329273401599, 0.04460133506721051, 0.3413717479056911, 0.0, 0.0025817996239360713, -0.06468587828801176, -0.03345443584657642, -0.0025171448442737375, 0.3459053942267205, 0.0, -0.14290466539739588, 0.012879043557327153, -0.03901759185403105, 0.3363800189785247, 0.0
0.4299999792196667, -0.31165483656475657, 0.011231502799487453, 0.2767681517690012, 0.24792148602772063, 0.0, -0.4065574462545061, -0.17217852141705314, -0.11366889804707075, 0.045584698248212964, 0.34128872957449075, 0.0, 0.0027514214020599027, -0.06509019288494834, -0.03345454196259494, -0.0022645732914825622, 0.34603849652613616, 0.0, -0.14284616545152756, 0.012970783996931431, -0.03902672236947993, 0.3362747302460689, 0.0
0.4299999792196667, -0.3107406575371715, 0.011760694552486938, 0.2753946125542667, 0.24782536027383778, 0.0, -0.407738360461015, -0.17249164744749496, -0.11322450336012552, 0.04656806142921542, 0.34120571124329035, 0.0, 0.0029210431801837337, -0.06549450748188493, -0.03345464807861346, -0.0020120017386913874, 0.3461715988255517, 0.0, -0.1427876655056592, 0.01306252443653571, -0.03903585288492882, 0.3361694415136131, 0.0
0.4299999792196667, -0.3098264785095864, 0.012289886305486422, 0.27402107333953224, 0.24772923451995493, 0.0, -0.4089192746675239, -0.17280477347793674, -0.11278010867318028, 0.04755142461021788, 0.34112269291208996, 0.0, 0.0030906649583075647, -0.06589882207882153, -0.03345475419463198, -0.0017594301859002123, 0.3463047011249673, 0.0, -0.14272916555979087, 0.01315426487613999, -0.0390449834003777, 0.3360641527811573, 0.0
0.4299999792196667, -0.3089122994820013, 0.012819078058485906, 0.27264753412479775, 0.2476331087660721, 0.0, -0.41010018887403277, -0.17311789950837855, -0.11233571398623503, 0.048534787791220335, 0.34103967458088963, 0.0, 0.003260286736431396, -0.06630313667575813, -0.0334548603106505, -0.0015068586331090372, 0.3464378034243829, 0.0, -0.1426706656139225, 0.013246005315744267, -0.03905411391582658, 0.33595886404870146, 0.0
0.4299999792196667, -0.30832320199023416, 0.01338248510651515, 0.2711129708332743, 0.24758941968423617, 0.0, -0.4112141382878012, -0.17347688231958724, -0.11189318645252357, 0.0494729979082103, 0.3410698897209002, 0.0, 0.003304417037502222, -0.06658770597804466, -0.0338428965707196, -0.001414126825545675, 0.34634129718872314, 0.0, -0.14269329904366237, 0.012844262985059259, -0.03956861568629763, 0.3358046642092878, 0.0
0.4299999792196667, -0.30773410449846694, 0.01394589215454439, 0.2695784075417507, 0.24754573060240023, 0.0, -0.4123280877015696, -0.17383586513079594, -0.11145065891881209, 0.05041120802520026, 0.3411001048609107, 0.0, 0.0033485473385730484, -0.06687227528033117, -0.03423093283078869, -0.001321395017982312, 0.3462447909530633, 0.0, -0.14271593247340225, 0.012442520654374251, -0.04008311745676869, 0.3356504643698741, 0.0
0.4299999792196667, -0.30714500700669983, 0.014509299202573635, 0.26804384425022726, 0.24750204152056432, 0.0, -0.4134420371153379, -0.17419484794200465, -0.11100813138510064, 0.05134941814219022, 0.34113032000092125, 0.0, 0.0033926776396438745, -0.06715684458261768, -0.034618969090857786, -0.0012286632104189497, 0.34614828471740366, 0.0, -0.1427385659031421, 0.012040778323689246, -0.04059761922723974, 0.3354962645304604, 0.0
0.4299999792196667, -0.30655590951493267, 0.015072706250602873, 0.2665092809587038, 0.24745835243872838, 0.0, -0.4145559865291063, -0.17455383075321332, -0.11056560385138917, 0.05228762825918018, 0.34116053514093175, 0.0, 0.003436807940714701, -0.0674414138849042, -0.035007005350926886, -0.001135931402855587, 0.34605177848174384, 0.0, -0.14276119933288195, 0.011639035993004239, -0.041112120997710805, 0.3353420646910467, 0.0
0.4299999792196667, -0.30596681202316556, 0.015636113298632116, 0.2649747176671803, 0.24741466335689247, 0.0, -0.41566993594287466, -0.17491281356442204, -0.11012307631767772, 0.05322583837617014, 0.3411907502809423, 0.0, 0.0034809382417855268, -0.06772598318719072, -0.035395041610995985, -0.0010431995952922244, 0.3459552722460841, 0.0, -0.14278383276262183, 0.01123729366231923, -0.04162662276818185, 0.335187864851633, 0.0
0.4299999792196667, -0.3058790603590338, 0.016078434534425992, 0.26354407127932056, 0.24761163598028477, 0.0, -0.41645784738039504, -0.17552747314841388, -0.10951996906800482, 0.05398707524860053, 0.3412548248084415, 0.0, 0.003738896194807622, -0.06773666250781783, -0.03593986708095703, -0.0008544865841090672, 0.3457913753573463, 0.0, -0.1428966927333728, 0.010835997926483223, -0.042107463071501386, 0.33487797815228293, 0.0
