isaac-sim2real/sage/motion_files/h1_2/amass/0-castBox02_poses_action_sequence.txt
/h1_2/pelvis/left_hip_yaw_joint, /h1_2/left_hip_yaw_link/left_hip_pitch_joint, /h1_2/left_hip_pitch_link/left_hip_roll_joint, /h1_2/left_hip_roll_link/left_knee_joint, /h1_2/left_knee_link/left_ankle_pitch_joint, /h1_2/left_ankle_pitch_link/left_ankle_roll_joint, /h1_2/pelvis/right_hip_yaw_joint, /h1_2/right_hip_yaw_link/right_hip_pitch_joint, /h1_2/right_hip_pitch_link/right_hip_roll_joint, /h1_2/right_hip_roll_link/right_knee_joint, /h1_2/right_knee_link/right_ankle_pitch_joint, /h1_2/right_ankle_pitch_link/right_ankle_roll_joint, /h1_2/pelvis/torso_joint, /h1_2/torso_link/left_shoulder_pitch_joint, /h1_2/left_shoulder_pitch_link/left_shoulder_roll_joint, /h1_2/left_shoulder_roll_link/left_shoulder_yaw_joint, /h1_2/left_shoulder_yaw_link/left_elbow_joint, /h1_2/left_elbow_link/left_wrist_roll_joint, /h1_2/torso_link/right_shoulder_pitch_joint, /h1_2/right_shoulder_pitch_link/right_shoulder_roll_joint, /h1_2/right_shoulder_roll_link/right_shoulder_yaw_joint, /h1_2/right_shoulder_yaw_link/right_elbow_joint, /h1_2/right_elbow_link/right_wrist_roll_joint
24.637184, -16.873466, 1.7490902, 16.492653, 13.432411, 0.0, -15.907609, -5.196656, -8.0879, -3.216285, 18.335646, 0.0, -2.3988242, -0.54047334, -0.5987483, 1.8385705, 19.15874, 0.0, -6.228693, 0.51751566, -0.5883965, 16.371946, 0.0
24.637184, -16.8961338, 1.79164978, 16.4706914, 13.4452794, 0.0, -15.9046836, -5.17110712, -8.0390438, -3.1982607400000003, 18.472383, 0.0, -2.40182142, -0.602297852, -0.631036332, 1.79673836, 19.0474232, 0.0, -6.2490644, 0.527624528, -0.58654598, 16.3948354, 0.0
24.637184, -16.918801600000002, 1.83420936, 16.4487298, 13.4581478, 0.0, -15.9017582, -5.14555824, -7.9901876, -3.18023648, 18.60912, 0.0, -2.4048186400000002, -0.664122364, -0.6633243639999999, 1.75490622, 18.9361064, 0.0, -6.2694358, 0.537733396, -0.5846954600000001, 16.417724800000002, 0.0
24.637184, -16.9414694, 1.8767689399999998, 16.4267682, 13.4710162, 0.0, -15.898832800000001, -5.12000936, -7.9413314, -3.1622122200000002, 18.745857, 0.0, -2.40781586, -0.725946876, -0.695612396, 1.71307408, 18.824789600000003, 0.0, -6.289807199999999, 0.547842264, -0.58284494, 16.4406142, 0.0
24.637184, -16.9641372, 1.9193285199999999, 16.4048066, 13.4838846, 0.0, -15.8959074, -5.0944604799999995, -7.8924752, -3.14418796, 18.882594, 0.0, -2.41081308, -0.7877713879999999, -0.727900428, 1.67124194, 18.7134728, 0.0, -6.3101785999999995, 0.557951132, -0.58099442, 16.4635036, 0.0
24.637184, -16.986805, 1.9618881, 16.382845, 13.496753, 0.0, -15.892982, -5.0689116, -7.843619, -3.1261637, 19.019331, 0.0, -2.4138103, -0.8495959, -0.76018846, 1.6294098, 18.602156, 0.0, -6.33055, 0.56806, -0.5791439, 16.486393, 0.0
24.637184, -17.0113972, 1.99323068, 16.354312, 13.51162, 0.0, -15.9000462, -5.05115418, -7.80285846, -3.1265473200000002, 19.0946994, 0.0, -2.4055921000000002, -0.8961777599999999, -0.796533776, 1.58695258, 18.5278186, 0.0, -6.3201996, 0.58187238, -0.5775914000000001, 16.6047822, 0.0
24.637184, -17.035989400000002, 2.02457326, 16.325779, 13.526487, 0.0, -15.9071104, -5.03339676, -7.76209792, -3.1269309400000003, 19.1700678, 0.0, -2.3973739000000003, -0.9427596199999999, -0.832879092, 1.54449536, 18.4534812, 0.0, -6.3098491999999995, 0.59568476, -0.5760389, 16.7231714, 0.0
24.637184, -17.0605816, 2.05591584, 16.297245999999998, 13.541354, 0.0, -15.914174599999999, -5.01563934, -7.72133738, -3.12731456, 19.2454362, 0.0, -2.3891557, -0.98934148, -0.869224408, 1.50203814, 18.3791438, 0.0, -6.2994988, 0.60949714, -0.5744864000000001, 16.8415606, 0.0
24.637184, -17.0851738, 2.08725842, 16.268712999999998, 13.556220999999999, 0.0, -15.9212388, -4.997881919999999, -7.68057684, -3.12769818, 19.320804600000002, 0.0, -2.3809375, -1.0359233399999999, -0.905569724, 1.45958092, 18.3048064, 0.0, -6.2891484, 0.6233095200000001, -0.5729339, 16.9599498, 0.0
24.637184, -17.109766, 2.118601, 16.24018, 13.571088, 0.0, -15.928303, -4.9801245, -7.6398163, -3.1280818, 19.396173, 0.0, -2.3727193, -1.0825052, -0.94191504, 1.4171237, 18.230469, 0.0, -6.278798, 0.6371219, -0.5713814, 17.078339, 0.0
24.637184, -17.1307044, 2.12995966, 16.2100646, 13.5870556, 0.0, -15.9626264, -4.95800288, -7.624547779999999, -3.13124694, 19.4031948, 0.0, -2.36506572, -1.0921758, -0.971697052, 1.3880022, 18.223717999999998, 0.0, -6.2819809, 0.633716488, -0.57779494, 17.158945, 0.0
24.637184, -17.1516428, 2.14131832, 16.1799492, 13.603023199999999, 0.0, -15.9969498, -4.9358812599999995, -7.60927926, -3.13441208, 19.410216600000002, 0.0, -2.35741214, -1.1018464, -1.001479064, 1.3588807, 18.216967, 0.0, -6.2851638, 0.630311076, -0.58420848, 17.239551, 0.0
24.637184, -17.1725812, 2.15267698, 16.1498338, 13.6189908, 0.0, -16.0312732, -4.91375964, -7.59401074, -3.13757722, 19.4172384, 0.0, -2.3497585599999997, -1.111517, -1.031261076, 1.3297592, 18.210216, 0.0, -6.2883467, 0.626905664, -0.59062202, 17.320157000000002, 0.0
24.637184, -17.193519600000002, 2.16403564, 16.1197184, 13.6349584, 0.0, -16.0655966, -4.89163802, -7.5787422200000005, -3.14074236, 19.4242602, 0.0, -2.34210498, -1.1211876, -1.061043088, 1.3006377, 18.203465, 0.0, -6.2915296000000005, 0.623500252, -0.59703556, 17.400763, 0.0
24.637184, -17.214458, 2.1753943, 16.089603, 13.650926, 0.0, -16.09992, -4.8695164, -7.5634737, -3.1439075, 19.431282, 0.0, -2.3344514, -1.1308582, -1.0908251, 1.2715162, 18.196714, 0.0, -6.2947125, 0.62009484, -0.6034491, 17.481369, 0.0
24.637184, -17.239246, 2.17931534, 16.058123600000002, 13.6637938, 0.0, -16.136501, -4.84690106, -7.549422760000001, -3.14663964, 19.4154056, 0.0, -2.33378956, -1.11492512, -1.0953019, 1.27155168, 18.2247548, 0.0, -6.3098008000000005, 0.5906920640000001, -0.6278598, 17.485812, 0.0
24.637184, -17.264034000000002, 2.18323638, 16.0266442, 13.676661600000001, 0.0, -16.173082, -4.82428572, -7.53537182, -3.14937178, 19.3995292, 0.0, -2.33312772, -1.09899204, -1.0997786999999999, 1.27158716, 18.2527956, 0.0, -6.3248891, 0.561289288, -0.6522705, 17.490255, 0.0
24.637184, -17.288822, 2.18715742, 15.995164800000001, 13.6895294, 0.0, -16.209663, -4.80167038, -7.52132088, -3.15210392, 19.3836528, 0.0, -2.33246588, -1.08305896, -1.1042555, 1.2716226400000001, 18.280836400000002, 0.0, -6.3399774, 0.531886512, -0.6766812, 17.494698, 0.0
24.637184, -17.31361, 2.19107846, 15.963685400000001, 13.7023972, 0.0, -16.246244, -4.779055039999999, -7.50726994, -3.15483606, 19.3677764, 0.0, -2.3318040399999997, -1.0671258799999999, -1.1087323, 1.2716581200000001, 18.3088772, 0.0, -6.3550657, 0.502483736, -0.7010919, 17.499141, 0.0
24.637184, -17.338398, 2.1949995, 15.932206, 13.715265, 0.0, -16.282825, -4.7564397, -7.493219, -3.1575682, 19.3519, 0.0, -2.3311422, -1.0511928, -1.1132091, 1.2716936, 18.336918, 0.0, -6.370154, 0.47308096, -0.7255026, 17.503584, 0.0
24.637184, -17.353587400000002, 2.2010930400000004, 15.9094096, 13.7252332, 0.0, -16.302194, -4.7486479, -7.47614334, -3.1671502, 19.340564, 0.0, -2.3286464799999997, -1.036382992, -1.1102657599999999, 1.27869696, 18.369201, 0.0, -6.3743722, 0.464987198, -0.72848618, 17.4932592, 0.0
24.637184, -17.368776800000003, 2.20718658, 15.886613200000001, 13.7352014, 0.0, -16.321563, -4.7408561, -7.45906768, -3.1767322, 19.329228, 0.0, -2.32615076, -1.021573184, -1.10732242, 1.2857003200000001, 18.401484, 0.0, -6.3785904, 0.456893436, -0.73146976, 17.4829344, 0.0
24.637184, -17.3839662, 2.2132801200000003, 15.8638168, 13.7451696, 0.0, -16.340932, -4.7330643, -7.44199202, -3.1863142, 19.317892, 0.0, -2.32365504, -1.0067633759999999, -1.10437908, 1.29270368, 18.433767, 0.0, -6.3828086, 0.448799674, -0.7344533400000001, 17.4726096, 0.0
24.637184, -17.3991556, 2.21937366, 15.841020400000001, 13.7551378, 0.0, -16.360301, -4.7252725, -7.42491636, -3.1958962, 19.306556, 0.0, -2.32115932, -0.991953568, -1.10143574, 1.2997070400000001, 18.46605, 0.0, -6.3870268, 0.440705912, -0.73743692, 17.4622848, 0.0
24.637184, -17.414345, 2.2254672, 15.818224, 13.765106, 0.0, -16.37967, -4.7174807, -7.4078407, -3.2054782, 19.29522, 0.0, -2.3186636, -0.97714376, -1.0984924, 1.3067104, 18.498333, 0.0, -6.391245, 0.43261215, -0.7404205, 17.45196, 0.0
24.637184, -17.4228254, 2.22771572, 15.798170200000001, 13.763211799999999, 0.0, -16.393915, -4.71386284, -7.3946755600000005, -3.20941062, 19.2992852, 0.0, -2.3186227799999997, -0.979231548, -1.09791486, 1.3070473200000001, 18.516872799999998, 0.0, -6.3844708, 0.439807468, -0.7308342800000001, 17.455864, 0.0
24.637184, -17.4313058, 2.22996424, 15.7781164, 13.7613176, 0.0, -16.40816, -4.71024498, -7.381510420000001, -3.21334304, 19.3033504, 0.0, -2.31858196, -0.981319336, -1.09733732, 1.30738424, 18.535412599999997, 0.0, -6.3776966, 0.447002786, -0.7212480600000001, 17.459768, 0.0
24.637184, -17.4397862, 2.23221276, 15.7580626, 13.7594234, 0.0, -16.422405, -4.70662712, -7.36834528, -3.21727546, 19.307415600000002, 0.0, -2.31854114, -0.9834071240000001, -1.09675978, 1.30772116, 18.5539524, 0.0, -6.3709223999999995, 0.454198104, -0.71166184, 17.463672, 0.0
24.637184, -17.4482666, 2.23446128, 15.7380088, 13.7575292, 0.0, -16.43665, -4.70300926, -7.35518014, -3.22120788, 19.311480800000002, 0.0, -2.31850032, -0.9854949120000001, -1.09618224, 1.30805808, 18.5724922, 0.0, -6.3641482, 0.461393422, -0.70207562, 17.467576, 0.0
24.637184, -17.456747, 2.2367098, 15.717955, 13.755635, 0.0, -16.450895, -4.6993914, -7.342015, -3.2251403, 19.315546, 0.0, -2.3184595, -0.9875827, -1.0956047, 1.308395, 18.591032, 0.0, -6.357374, 0.46858874, -0.6924894, 17.47148, 0.0
24.637184, -17.4612824, 2.23544804, 15.7028246, 13.7461204, 0.0, -16.465946799999998, -4.69719572, -7.33551214, -3.22207072, 19.3166176, 0.0, -2.319563, -0.9897971, -1.10950204, 1.2930357, 18.604166799999998, 0.0, -6.35536932, 0.472948736, -0.68749596, 17.483528, 0.0
24.637184, -17.4658178, 2.23418628, 15.6876942, 13.7366058, 0.0, -16.4809986, -4.69500004, -7.32900928, -3.21900114, 19.3176892, 0.0, -2.3206665, -0.9920115, -1.12339938, 1.2776764, 18.617301599999998, 0.0, -6.353364640000001, 0.477308732, -0.68250252, 17.495576, 0.0
24.637184, -17.4703532, 2.23292452, 15.6725638, 13.7270912, 0.0, -16.496050399999998, -4.692804359999999, -7.32250642, -3.21593156, 19.3187608, 0.0, -2.32177, -0.9942259, -1.1372967200000001, 1.2623171, 18.6304364, 0.0, -6.35135996, 0.481668728, -0.67750908, 17.507624, 0.0
24.637184, -17.4748886, 2.23166276, 15.6574334, 13.7175766, 0.0, -16.5111022, -4.6906086799999995, -7.31600356, -3.21286198, 19.3198324, 0.0, -2.3228735, -0.9964403000000001, -1.1511940600000001, 1.2469578000000001, 18.6435712, 0.0, -6.34935528, 0.486028724, -0.67251564, 17.519672, 0.0
24.637184, -17.479424, 2.230401, 15.642303, 13.708062, 0.0, -16.526154, -4.688413, -7.3095007, -3.2097924, 19.320904, 0.0, -2.323977, -0.9986547, -1.1650914, 1.2315985, 18.656706, 0.0, -6.3473506, 0.49038872, -0.6675222, 17.53172, 0.0
24.637184, -17.4841716, 2.22627194, 15.634623, 13.7004876, 0.0, -16.532767399999997, -4.69349, -7.30145116, -3.20694438, 19.3061388, 0.0, -2.3327503800000002, -1.0087992, -1.1869684, 1.2060967200000001, 18.6640448, 0.0, -6.35571468, 0.482548756, -0.6744831499999999, 17.5363292, 0.0
24.637184, -17.4889192, 2.2221428800000003, 15.626943, 13.6929132, 0.0, -16.5393808, -4.698567, -7.29340162, -3.20409636, 19.2913736, 0.0, -2.3415237600000003, -1.0189437, -1.2088454, 1.18059494, 18.6713836, 0.0, -6.36407876, 0.474708792, -0.6814441, 17.5409384, 0.0
24.637184, -17.4936668, 2.21801382, 15.619263, 13.6853388, 0.0, -16.5459942, -4.703644, -7.28535208, -3.2012483400000002, 19.276608399999997, 0.0, -2.35029714, -1.0290882, -1.2307224, 1.15509316, 18.6787224, 0.0, -6.372442840000001, 0.466868828, -0.68840505, 17.5455476, 0.0
24.637184, -17.4984144, 2.21388476, 15.611583000000001, 13.6777644, 0.0, -16.5526076, -4.708721, -7.27730254, -3.19840032, 19.261843199999998, 0.0, -2.35907052, -1.0392327, -1.2525994, 1.12959138, 18.6860612, 0.0, -6.38080692, 0.459028864, -0.695366, 17.5501568, 0.0
24.637184, -17.503162, 2.2097557, 15.603903, 13.67019, 0.0, -16.559221, -4.713798, -7.269253, -3.1955523, 19.247078, 0.0, -2.3678439, -1.0493772, -1.2744764, 1.1040896, 18.6934, 0.0, -6.389171, 0.4511889, -0.70232695, 17.554766, 0.0
24.637184, -17.506619, 2.20273946, 15.603356600000001, 13.6681028, 0.0, -16.557984, -4.7273935, -7.2622237, -3.1954782, 19.239524399999997, 0.0, -2.37843526, -1.0674563, -1.28595396, 1.08595396, 18.696731200000002, 0.0, -6.39978246, 0.439333964, -0.71362192, 17.5554904, 0.0
24.637184, -17.510076, 2.19572322, 15.6028102, 13.6660156, 0.0, -16.556747, -4.740989, -7.2551944, -3.1954041, 19.2319708, 0.0, -2.38902662, -1.0855354, -1.29743152, 1.06781832, 18.7000624, 0.0, -6.41039392, 0.427479028, -0.72491689, 17.5562148, 0.0
24.637184, -17.513533, 2.18870698, 15.602263800000001, 13.6639284, 0.0, -16.555509999999998, -4.7545845, -7.2481651000000005, -3.19533, 19.224417199999998, 0.0, -2.39961798, -1.1036145, -1.30890908, 1.04968268, 18.703393600000002, 0.0, -6.42100538, 0.415624092, -0.7362118599999999, 17.556939200000002, 0.0
24.637184, -17.51699, 2.18169074, 15.6017174, 13.6618412, 0.0, -16.554273, -4.76818, -7.2411358, -3.1952559, 19.2168636, 0.0, -2.41020934, -1.1216936, -1.32038664, 1.03154704, 18.7067248, 0.0, -6.43161684, 0.40376915599999996, -0.74750683, 17.5576636, 0.0
24.637184, -17.520447, 2.1746745, 15.601171, 13.659754, 0.0, -16.553036, -4.7817755, -7.2341065, -3.1951818, 19.20931, 0.0, -2.4208007, -1.1397727, -1.3318642, 1.0134114, 18.710056, 0.0, -6.4422283, 0.39191422, -0.7588018, 17.558388, 0.0
24.637184, -17.514261, 2.16738176, 15.6074642, 13.6668892, 0.0, -16.5530088, -4.79831994, -7.2333062, -3.19566452, 19.2165474, 0.0, -2.42617722, -1.1461371, -1.32276926, 1.01421902, 18.719898, 0.0, -6.4404045, 0.37364107999999996, -0.7787645919999999, 17.5696578, 0.0
24.637184, -17.508075, 2.16008902, 15.6137574, 13.6740244, 0.0, -16.5529816, -4.81486438, -7.2325059000000005, -3.1961472399999997, 19.2237848, 0.0, -2.43155374, -1.1525015, -1.31367432, 1.01502664, 18.72974, 0.0, -6.4385807, 0.35536794, -0.798727384, 17.580927600000003, 0.0
24.637184, -17.501889, 2.15279628, 15.6200506, 13.681159599999999, 0.0, -16.5529544, -4.83140882, -7.2317056, -3.19662996, 19.231022199999998, 0.0, -2.43693026, -1.1588659, -1.30457938, 1.0158342599999999, 18.739582000000002, 0.0, -6.4367569, 0.33709479999999997, -0.8186901759999999, 17.5921974, 0.0
24.637184, -17.495703, 2.14550354, 15.6263438, 13.6882948, 0.0, -16.5529272, -4.847953260000001, -7.2309053, -3.19711268, 19.2382596, 0.0, -2.44230678, -1.1652303, -1.29548444, 1.0166418799999999, 18.749424, 0.0, -6.4349331, 0.31882166, -0.838652968, 17.6034672, 0.0
24.637184, -17.489517, 2.1382108, 15.632637, 13.69543, 0.0, -16.5529, -4.8644977, -7.230105, -3.1975954, 19.245497, 0.0, -2.4476833, -1.1715947, -1.2863895, 1.0174495, 18.759266, 0.0, -6.4331093, 0.30054852, -0.85861576, 17.614737, 0.0
24.637184, -17.483262, 2.12494744, 15.635242400000001, 13.7085718, 0.0, -16.569566000000002, -4.86826416, -7.2357252, -3.18542928, 19.2515894, 0.0, -2.44168016, -1.17764144, -1.2640661, 1.0278934, 18.7553682, 0.0, -6.43085064, 0.287615996, -0.872344508, 17.629958000000002, 0.0
24.637184, -17.477007, 2.11168408, 15.637847800000001, 13.7217136, 0.0, -16.586232000000003, -4.87203062, -7.2413454, -3.17326316, 19.2576818, 0.0, -2.43567702, -1.1836881799999999, -1.2417427, 1.0383373, 18.7514704, 0.0, -6.42859198, 0.274683472, -0.886073256, 17.645179000000002, 0.0
24.637184, -17.470751999999997, 2.09842072, 15.6404532, 13.7348554, 0.0, -16.602898, -4.87579708, -7.2469656, -3.16109704, 19.2637742, 0.0, -2.42967388, -1.18973492, -1.2194193, 1.0487811999999999, 18.7475726, 0.0, -6.4263333199999995, 0.261750948, -0.899802004, 17.6604, 0.0
24.637184, -17.464496999999998, 2.0851573599999997, 15.6430586, 13.7479972, 0.0, -16.619564, -4.87956354, -7.2525858, -3.1489309199999997, 19.2698666, 0.0, -2.42367074, -1.19578166, -1.1970959, 1.0592251, 18.7436748, 0.0, -6.42407466, 0.248818424, -0.913530752, 17.675621, 0.0
24.637184, -17.458242, 2.071894, 15.645664, 13.761139, 0.0, -16.63623, -4.88333, -7.258206, -3.1367648, 19.275959, 0.0, -2.4176676, -1.2018284, -1.1747725, 1.069669, 18.739777, 0.0, -6.421816, 0.2358859, -0.9272595, 17.690842, 0.0
24.637184, -17.4546204, 2.06296168, 15.6451235, 13.771028, 0.0, -16.664124400000002, -4.88266632, -7.2697029, -3.1190964, 19.2780552, 0.0, -2.4068492200000002, -1.21491178, -1.16367342, 1.06654088, 18.7302204, 0.0, -6.4249277199999995, 0.241319684, -0.91895528, 17.7043066, 0.0
24.637184, -17.4509988, 2.05402936, 15.644583, 13.780917, 0.0, -16.6920188, -4.88200264, -7.2811998, -3.101428, 19.2801514, 0.0, -2.3960308400000003, -1.2279951599999999, -1.15257434, 1.06341276, 18.7206638, 0.0, -6.42803944, 0.246753468, -0.9106510600000001, 17.7177712, 0.0
24.637184, -17.4473772, 2.04509704, 15.6440425, 13.790806, 0.0, -16.7199132, -4.88133896, -7.2926967, -3.0837596, 19.282247599999998, 0.0, -2.38521246, -1.24107854, -1.14147526, 1.06028464, 18.7111072, 0.0, -6.43115116, 0.25218725200000003, -0.90234684, 17.7312358, 0.0
24.637184, -17.4437556, 2.03616472, 15.643502, 13.800695000000001, 0.0, -16.747807599999998, -4.880675279999999, -7.3041936, -3.0660912, 19.2843438, 0.0, -2.37439408, -1.2541619199999998, -1.1303761799999998, 1.05715652, 18.7015506, 0.0, -6.43426288, 0.257621036, -0.89404262, 17.744700400000003, 0.0
24.637184, -17.440134, 2.0272324, 15.6429615, 13.810584, 0.0, -16.775702, -4.8800116, -7.3156905, -3.0484228, 19.28644, 0.0, -2.3635757, -1.2672453, -1.1192771, 1.0540284, 18.691994, 0.0, -6.4373746, 0.26305482, -0.8857384, 17.758165, 0.0
24.637184, -17.4402552, 2.0216726, 15.6386884, 13.813572200000001, 0.0, -16.8000702, -4.88727708, -7.325128599999999, -3.03520224, 19.3014612, 0.0, -2.3435668400000003, -1.2743626, -1.1119548399999999, 1.04754486, 18.6911178, 0.0, -6.45122168, 0.28002996, -0.86177936, 17.761556000000002, 0.0
24.637184, -17.4403764, 2.0161128, 15.6344153, 13.8165604, 0.0, -16.8244384, -4.89454256, -7.3345667, -3.02198168, 19.316482399999998, 0.0, -2.3235579800000004, -1.2814799, -1.1046325799999999, 1.04106132, 18.6902416, 0.0, -6.46506876, 0.2970051, -0.8378203200000001, 17.764947000000003, 0.0
24.637184, -17.4404976, 2.010553, 15.6301422, 13.819548600000001, 0.0, -16.8488066, -4.90180804, -7.3440047999999996, -3.00876112, 19.3315036, 0.0, -2.30354912, -1.2885972, -1.09731032, 1.03457778, 18.6893654, 0.0, -6.47891584, 0.31398024, -0.81386128, 17.768338, 0.0
24.637184, -17.440618800000003, 2.0049932, 15.625869100000001, 13.8225368, 0.0, -16.873174799999997, -4.90907352, -7.3534429, -2.9955405600000002, 19.3465248, 0.0, -2.28354026, -1.2957145, -1.08998806, 1.0280942400000002, 18.6884892, 0.0, -6.4927629200000005, 0.33095538, -0.7899022400000001, 17.771729, 0.0
24.637184, -17.44074, 1.9994334, 15.621596, 13.825525, 0.0, -16.897543, -4.916339, -7.362881, -2.98232, 19.361546, 0.0, -2.2635314, -1.3028318, -1.0826658, 1.0216107, 18.687613, 0.0, -6.50661, 0.34793052, -0.7659432, 17.77512, 0.0
24.637184, -17.440076400000002, 1.99625108, 15.6169674, 13.8247418, 0.0, -16.9175264, -4.9320428, -7.36982512, -2.9734219, 19.3929596, 0.0, -2.23742972, -1.30085208, -1.06922958, 1.02150416, 18.6938438, 0.0, -6.51918828, 0.360309422, -0.7452114400000001, 17.7823664, 0.0
24.637184, -17.439412800000003, 1.9930687599999999, 15.6123388, 13.823958600000001, 0.0, -16.9375098, -4.947746599999999, -7.37676924, -2.9645238, 19.4243732, 0.0, -2.21132804, -1.29887236, -1.05579336, 1.0213976200000001, 18.7000746, 0.0, -6.53176656, 0.372688324, -0.7244796800000001, 17.7896128, 0.0
24.637184, -17.4387492, 1.98988644, 15.6077102, 13.8231754, 0.0, -16.9574932, -4.9634504, -7.38371336, -2.9556257, 19.4557868, 0.0, -2.18522636, -1.29689264, -1.04235714, 1.02129108, 18.706305399999998, 0.0, -6.54434484, 0.385067226, -0.70374792, 17.7968592, 0.0
24.637184, -17.4380856, 1.98670412, 15.6030816, 13.822392200000001, 0.0, -16.9774766, -4.9791542, -7.39065748, -2.9467276, 19.4872004, 0.0, -2.15912468, -1.29491292, -1.02892092, 1.02118454, 18.7125362, 0.0, -6.55692312, 0.397446128, -0.68301616, 17.8041056, 0.0
24.637184, -17.437422, 1.9835218, 15.598453, 13.821609, 0.0, -16.99746, -4.994858, -7.3976016, -2.9378295, 19.518614, 0.0, -2.133023, -1.2929332, -1.0154847, 1.021078, 18.718767, 0.0, -6.5695014, 0.40982503, -0.6622844, 17.811352, 0.0
24.637184, -17.438252000000002, 1.98569582, 15.5976676, 13.8108276, 0.0, -17.0139528, -5.01245506, -7.39559968, -2.9266118, 19.5479912, 0.0, -2.11208776, -1.28796936, -1.00657972, 1.0175353999999999, 18.7305662, 0.0, -6.57628292, 0.414259854, -0.650024292, 17.818147, 0.0
24.637184, -17.439082000000003, 1.9878698399999999, 15.5968822, 13.8000462, 0.0, -17.0304456, -5.03005212, -7.39359776, -2.9153941, 19.5773684, 0.0, -2.09115252, -1.28300552, -0.99767474, 1.0139928, 18.7423654, 0.0, -6.58306444, 0.418694678, -0.637764184, 17.824942, 0.0
24.637184, -17.439912, 1.99004386, 15.5960968, 13.7892648, 0.0, -17.0469384, -5.0476491800000005, -7.39159584, -2.9041764, 19.6067456, 0.0, -2.07021728, -1.27804168, -0.98876976, 1.0104502, 18.7541646, 0.0, -6.58984596, 0.423129502, -0.625504076, 17.831737, 0.0
24.637184, -17.440742, 1.99221788, 15.5953114, 13.7784834, 0.0, -17.0634312, -5.0652462400000005, -7.389593919999999, -2.8929587, 19.636122800000003, 0.0, -2.04928204, -1.27307784, -0.97986478, 1.0069076000000001, 18.7659638, 0.0, -6.59662748, 0.427564326, -0.613243968, 17.838532, 0.0
24.637184, -17.441572, 1.9943919, 15.594526, 13.767702, 0.0, -17.079924, -5.0828433, -7.387592, -2.881741, 19.6655, 0.0, -2.0283468, -1.268114, -0.9709598, 1.003365, 18.777763, 0.0, -6.603409, 0.43199915, -0.60098386, 17.845327, 0.0
24.637184, -17.4460624, 2.0016519, 15.6094654, 13.7491026, 0.0, -17.0928534, -5.09818076, -7.3706591, -2.86315266, 19.6675036, 0.0, -2.01573794, -1.27533792, -0.966938272, 0.9963915000000001, 18.7877784, 0.0, -6.609885, 0.433801028, -0.5933330560000001, 17.8437032, 0.0
24.637184, -17.4505528, 2.0089119, 15.6244048, 13.7305032, 0.0, -17.1057828, -5.1135182200000004, -7.3537262, -2.84456432, 19.6695072, 0.0, -2.00312908, -1.28256184, -0.962916744, 0.989418, 18.7977938, 0.0, -6.616361, 0.435602906, -0.585682252, 17.8420794, 0.0
24.637184, -17.4550432, 2.0161719, 15.6393442, 13.7119038, 0.0, -17.118712199999997, -5.12885568, -7.3367933, -2.82597598, 19.6715108, 0.0, -1.99052022, -1.28978576, -0.9588952159999999, 0.9824445, 18.807809199999998, 0.0, -6.622837, 0.437404784, -0.5780314480000001, 17.840455600000002, 0.0
24.637184, -17.4595336, 2.0234319, 15.654283600000001, 13.693304399999999, 0.0, -17.1316416, -5.1441931400000005, -7.3198604, -2.80738764, 19.673514400000002, 0.0, -1.97791136, -1.2970096800000002, -0.9548736879999999, 0.975471, 18.817824599999998, 0.0, -6.629313, 0.439206662, -0.570380644, 17.8388318, 0.0
24.637184, -17.464024, 2.0306919, 15.669223, 13.674705, 0.0, -17.144571, -5.1595306, -7.3029275, -2.7887993, 19.675518, 0.0, -1.9653025, -1.3042336, -0.95085216, 0.9684975, 18.82784, 0.0, -6.635789, 0.44100854, -0.56272984, 17.837208, 0.0
24.637184, -17.486209799999997, 2.02541192, 15.704696, 13.65854, 0.0, -17.1493864, -5.1843558, -7.27848054, -2.77029448, 19.6584186, 0.0, -1.9593388999999999, -1.3241972800000001, -0.9506986879999999, 0.96103988, 18.843268799999997, 0.0, -6.6417309399999995, 0.442053344, -0.5600147520000001, 17.8361356, 0.0
24.637184, -17.5083956, 2.0201319399999997, 15.740169, 13.642375, 0.0, -17.1542018, -5.209181, -7.25403358, -2.75178966, 19.6413192, 0.0, -1.9533753, -1.3441609600000002, -0.950545216, 0.95358226, 18.8586976, 0.0, -6.64767288, 0.443098148, -0.5572996640000001, 17.8350632, 0.0
24.637184, -17.5305814, 2.01485196, 15.775642000000001, 13.62621, 0.0, -17.1590172, -5.2340062, -7.22958662, -2.73328484, 19.6242198, 0.0, -1.9474117, -1.36412464, -0.9503917439999999, 0.94612464, 18.874126399999998, 0.0, -6.65361482, 0.444142952, -0.554584576, 17.8339908, 0.0
24.637184, -17.5527672, 2.00957198, 15.811115000000001, 13.610045, 0.0, -17.1638326, -5.2588314, -7.2051396599999995, -2.71478002, 19.6071204, 0.0, -1.9414481000000001, -1.38408832, -0.950238272, 0.93866702, 18.8895552, 0.0, -6.65955676, 0.445187756, -0.551869488, 17.8329184, 0.0
24.637184, -17.574953, 2.004292, 15.846588, 13.59388, 0.0, -17.168648, -5.2836566, -7.1806927, -2.6962752, 19.590021, 0.0, -1.9354845, -1.404052, -0.9500848, 0.9312094, 18.904984, 0.0, -6.6654987, 0.44623256, -0.5491544, 17.831846, 0.0
24.637184, -17.6094748, 1.97939822, 15.8978796, 13.5871146, 0.0, -17.174808000000002, -5.32251228, -7.16916316, -2.68022902, 19.5630424, 0.0, -1.93250842, -1.41665718, -0.96853484, 0.91115494, 18.9222052, 0.0, -6.66970842, 0.4430877, -0.55688892, 17.8306494, 0.0
24.637184, -17.6439966, 1.95450444, 15.9491712, 13.5803492, 0.0, -17.180968, -5.36136796, -7.15763362, -2.66418284, 19.5360638, 0.0, -1.92953234, -1.42926236, -0.98698488, 0.89110048, 18.9394264, 0.0, -6.67391814, 0.43994284, -0.56462344, 17.8294528, 0.0
24.637184, -17.678518399999998, 1.92961066, 16.0004628, 13.5735838, 0.0, -17.187128, -5.40022364, -7.14610408, -2.64813666, 19.509085199999998, 0.0, -1.9265562600000001, -1.44186754, -1.00543492, 0.87104602, 18.9566476, 0.0, -6.67812786, 0.43679798, -0.57235796, 17.8282562, 0.0
24.637184, -17.7130402, 1.90471688, 16.0517544, 13.5668184, 0.0, -17.193288, -5.43907932, -7.13457454, -2.63209048, 19.482106599999998, 0.0, -1.92358018, -1.45447272, -1.02388496, 0.85099156, 18.973868799999998, 0.0, -6.6823375799999996, 0.43365312, -0.58009248, 17.8270596, 0.0
24.637184, -17.747562, 1.8798231, 16.103046, 13.560053, 0.0, -17.199448, -5.477935, -7.123045, -2.6160443, 19.455128, 0.0, -1.9206041, -1.4670779, -1.042335, 0.8309371, 18.99109, 0.0, -6.6865473, 0.43050826, -0.587827, 17.825863, 0.0
24.637184, -17.769926599999998, 1.8489836800000001, 16.1526898, 13.5514446, 0.0, -17.2196472, -5.518105, -7.12933094, -2.59133044, 19.431324999999998, 0.0, -1.91253388, -1.45949206, -1.06047684, 0.815024886, 19.0072584, 0.0, -6.67839864, 0.432539128, -0.60035618, 17.820878999999998, 0.0
24.637184, -17.792291199999998, 1.8181442600000002, 16.2023336, 13.5428362, 0.0, -17.2398464, -5.558275, -7.13561688, -2.5666165800000003, 19.407522, 0.0, -1.90446366, -1.4519062200000001, -1.07861868, 0.799112672, 19.0234268, 0.0, -6.67024998, 0.434569996, -0.61288536, 17.815894999999998, 0.0
24.637184, -17.8146558, 1.78730484, 16.2519774, 13.5342278, 0.0, -17.260045599999998, -5.598445000000001, -7.14190282, -2.54190272, 19.383719, 0.0, -1.89639344, -1.44432038, -1.0967605200000001, 0.7832004579999999, 19.0395952, 0.0, -6.66210132, 0.436600864, -0.62541454, 17.810911, 0.0
24.637184, -17.8370204, 1.75646542, 16.3016212, 13.5256194, 0.0, -17.2802448, -5.638615000000001, -7.14818876, -2.51718886, 19.359916000000002, 0.0, -1.88832322, -1.43673454, -1.11490236, 0.767288244, 19.0557636, 0.0, -6.65395266, 0.438631732, -0.63794372, 17.805927, 0.0
24.637184, -17.859385, 1.725626, 16.351265, 13.517011, 0.0, -17.300444, -5.678785, -7.1544747, -2.492475, 19.336113, 0.0, -1.880253, -1.4291487, -1.1330442, 0.75137603, 19.071932, 0.0, -6.645804, 0.4406626, -0.6504729, 17.800943, 0.0
24.637184, -17.8707638, 1.69270998, 16.3854088, 13.5054618, 0.0, -17.3253718, -5.7246423, -7.16595304, -2.46703984, 19.3158032, 0.0, -1.8646511, -1.4156328200000001, -1.15829958, 0.72803621, 19.0865072, 0.0, -6.6299933, 0.46341778, -0.65203274, 17.811984, 0.0
24.637184, -17.882142599999998, 1.65979396, 16.4195526, 13.4939126, 0.0, -17.3502996, -5.7704996, -7.17743138, -2.44160468, 19.2954934, 0.0, -1.8490492, -1.40211694, -1.18355496, 0.70469639, 19.1010824, 0.0, -6.6141826, 0.48617296, -0.65359258, 17.823025, 0.0
24.637184, -17.8935214, 1.6268779400000002, 16.453696400000002, 13.4823634, 0.0, -17.3752274, -5.816356900000001, -7.18890972, -2.41616952, 19.2751836, 0.0, -1.8334473, -1.38860106, -1.20881034, 0.6813565699999999, 19.115657600000002, 0.0, -6.5983719, 0.50892814, -0.6551524200000001, 17.834066, 0.0
24.637184, -17.9049002, 1.5939619200000001, 16.4878402, 13.4708142, 0.0, -17.4001552, -5.8622142, -7.20038806, -2.39073436, 19.2548738, 0.0, -1.8178454000000002, -1.37508518, -1.23406572, 0.65801675, 19.1302328, 0.0, -6.582561200000001, 0.53168332, -0.65671226, 17.845107000000002, 0.0
24.637184, -17.916279, 1.5610459, 16.521984, 13.459265, 0.0, -17.425083, -5.9080715, -7.2118664, -2.3652992, 19.234564, 0.0, -1.8022435, -1.3615693, -1.2593211, 0.63467693, 19.144808, 0.0, -6.5667505, 0.5544385, -0.6582721, 17.856148, 0.0
24.637184, -17.923297599999998, 1.5322844, 16.540907999999998, 13.4533148, 0.0, -17.451324800000002, -5.95906074, -7.21746412, -2.3442179, 19.2146612, 0.0, -1.7800090800000001, -1.3553429, -1.2676402, 0.624790944, 19.158930400000003, 0.0, -6.550841800000001, 0.58217802, -0.6607471, 17.8798678, 0.0
24.637184, -17.9303162, 1.5035229, 16.559832, 13.4473646, 0.0, -17.4775666, -6.01004998, -7.22306184, -2.3231365999999998, 19.194758399999998, 0.0, -1.7577746600000002, -1.3491165, -1.2759593, 0.614904958, 19.1730528, 0.0, -6.5349331, 0.60991754, -0.6632221, 17.9035876, 0.0
24.637184, -17.9373348, 1.4747614, 16.578756, 13.4414144, 0.0, -17.5038084, -6.0610392200000005, -7.2286595600000005, -2.3020553, 19.1748556, 0.0, -1.73554024, -1.3428901, -1.2842784, 0.605018972, 19.187175200000002, 0.0, -6.5190244, 0.63765706, -0.6656971, 17.9273074, 0.0
24.637184, -17.9443534, 1.4459999000000001, 16.59768, 13.4354642, 0.0, -17.530050199999998, -6.11202846, -7.2342572800000005, -2.280974, 19.1549528, 0.0, -1.71330582, -1.3366637000000001, -1.2925975, 0.595132986, 19.2012976, 0.0, -6.5031156999999995, 0.66539658, -0.6681721, 17.951027200000002, 0.0
24.637184, -17.951372, 1.4172384, 16.616604, 13.429514, 0.0, -17.556292, -6.1630177, -7.239855, -2.2598927, 19.13505, 0.0, -1.6910714, -1.3304373, -1.3009166, 0.585247, 19.21542, 0.0, -6.487207, 0.6931361, -0.6706471, 17.974747, 0.0
24.637184, -17.965383, 1.39160412, 16.6250176, 13.4371464, 0.0, -17.5953756, -6.20880084, -7.2435783, -2.23552012, 19.128081599999998, 0.0, -1.67081228, -1.3500526800000001, -1.3000791200000001, 0.5800713, 19.225518, 0.0, -6.488535, 0.71634714, -0.67660986, 17.9947856, 0.0
24.637184, -17.979394, 1.36596984, 16.6334312, 13.4447788, 0.0, -17.6344592, -6.2545839800000005, -7.2473016, -2.21114754, 19.1211132, 0.0, -1.65055316, -1.36966806, -1.29924164, 0.5748956, 19.235616, 0.0, -6.489863, 0.73955818, -0.6825726200000001, 18.0148242, 0.0
24.637184, -17.993405, 1.34033556, 16.641844799999998, 13.4524112, 0.0, -17.6735428, -6.30036712, -7.2510249, -2.18677496, 19.1141448, 0.0, -1.6302940399999999, -1.38928344, -1.29840416, 0.5697199000000001, 19.245714000000003, 0.0, -6.491191, 0.76276922, -0.68853538, 18.034862800000003, 0.0
24.637184, -18.007416, 1.31470128, 16.6502584, 13.4600436, 0.0, -17.712626399999998, -6.34615026, -7.2547482, -2.16240238, 19.1071764, 0.0, -1.61003492, -1.4088988199999999, -1.2975666799999999, 0.5645442, 19.255812000000002, 0.0, -6.492519, 0.78598026, -0.6944981400000001, 18.054901400000002, 0.0
24.637184, -18.021427, 1.289067, 16.658672, 13.467676, 0.0, -17.75171, -6.3919334, -7.2584715, -2.1380298, 19.100208, 0.0, -1.5897758, -1.4285142, -1.2967292, 0.5593685, 19.26591, 0.0, -6.493847, 0.8091913, -0.7004609, 18.07494, 0.0
24.637184, -18.0634676, 1.26203874, 16.655125599999998, 13.494786000000001, 0.0, -17.7998326, -6.43243986, -7.2575841, -2.10879768, 19.122410799999997, 0.0, -1.57326288, -1.46820752, -1.3052311399999998, 0.54414708, 19.278084800000002, 0.0, -6.5169197, 0.81573612, -0.71800777, 18.098879, 0.0
24.637184, -18.1055082, 1.23501048, 16.6515792, 13.521896, 0.0, -17.847955199999998, -6.47294632, -7.2566967, -2.07956556, 19.1446136, 0.0, -1.5567499599999999, -1.50790084, -1.31373308, 0.5289256600000001, 19.290259600000002, 0.0, -6.5399924, 0.82228094, -0.73555464, 18.122818000000002, 0.0
24.637184, -18.1475488, 1.20798222, 16.6480328, 13.549006, 0.0, -17.8960778, -6.51345278, -7.2558093, -2.05033344, 19.1668164, 0.0, -1.54023704, -1.5475941599999998, -1.32223502, 0.51370424, 19.3024344, 0.0, -6.563065099999999, 0.82882576, -0.75310151, 18.146757, 0.0
24.637184, -18.1895894, 1.18095396, 16.6444864, 13.576115999999999, 0.0, -17.9442004, -6.55395924, -7.2549219, -2.02110132, 19.1890192, 0.0, -1.52372412, -1.5872874799999999, -1.33073696, 0.49848282, 19.3146092, 0.0, -6.5861377999999995, 0.83537058, -0.77064838, 18.170696000000003, 0.0
24.637184, -18.23163, 1.1539257, 16.64094, 13.603226, 0.0, -17.992323, -6.5944657, -7.2540345, -1.9918692, 19.211222, 0.0, -1.5072112, -1.6269808, -1.3392389, 0.4832614, 19.326784, 0.0, -6.6092105, 0.8419154, -0.78819525, 18.194635, 0.0
24.637184, -18.287564, 1.12269089, 16.624488, 13.648631799999999, 0.0, -18.0354484, -6.64399036, -7.2490051200000005, -1.9709539600000001, 19.2469634, 0.0, -1.48966466, -1.7097124399999999, -1.3625545000000001, 0.4514261, 19.3095774, 0.0, -6.65970144, 0.835742034, -0.812090812, 18.2413156, 0.0
24.637184, -18.343498, 1.09145608, 16.608036, 13.6940376, 0.0, -18.0785738, -6.6935150199999995, -7.243975740000001, -1.95003872, 19.282704799999998, 0.0, -1.47211812, -1.7924440799999999, -1.3858701, 0.41959080000000004, 19.2923708, 0.0, -6.71019238, 0.829568668, -0.835986374, 18.287996200000002, 0.0
24.637184, -18.399431999999997, 1.06022127, 16.591584, 13.739443399999999, 0.0, -18.1216992, -6.74303968, -7.23894636, -1.9291234800000001, 19.3184462, 0.0, -1.45457158, -1.87517572, -1.4091857, 0.38775550000000003, 19.2751642, 0.0, -6.76068332, 0.823395302, -0.8598819360000001, 18.3346768, 0.0
24.637184, -18.455365999999998, 1.02898646, 16.575132, 13.7848492, 0.0, -18.1648246, -6.792564339999999, -7.23391698, -1.90820824, 19.3541876, 0.0, -1.43702504, -1.95790736, -1.4325013, 0.3559202, 19.2579576, 0.0, -6.81117426, 0.8172219359999999, -0.883777498, 18.381357400000002, 0.0
24.637184, -18.5113, 0.99775165, 16.55868, 13.830255, 0.0, -18.20795, -6.842089, -7.2288876, -1.887293, 19.389929, 0.0, -1.4194785, -2.040639, -1.4558169, 0.3240849, 19.240751, 0.0, -6.8616652, 0.81104857, -0.90767306, 18.428038, 0.0
24.637184, -18.5413234, 0.973127208, 16.540127599999998, 13.8810852, 0.0, -18.255218, -6.88699612, -7.22556888, -1.8654968600000001, 19.4286806, 0.0, -1.4012459000000002, -2.14131294, -1.4824717200000002, 0.28807076200000004, 19.2100808, 0.0, -6.93897806, 0.797655396, -0.933982368, 18.4604514, 0.0
24.637184, -18.5713468, 0.9485027659999999, 16.521575199999997, 13.9319154, 0.0, -18.302486, -6.93190324, -7.22225016, -1.8437007200000002, 19.4674322, 0.0, -1.3830133, -2.2419868800000002, -1.50912654, 0.252056624, 19.1794106, 0.0, -7.01629092, 0.784262222, -0.960291676, 18.4928648, 0.0
24.637184, -18.601370199999998, 0.9238783239999999, 16.5030228, 13.9827456, 0.0, -18.349754, -6.97681036, -7.21893144, -1.82190458, 19.5061838, 0.0, -1.3647807, -2.34266082, -1.53578136, 0.216042486, 19.148740399999998, 0.0, -7.09360378, 0.770869048, -0.9866009840000001, 18.525278200000002, 0.0
24.637184, -18.6313936, 0.899253882, 16.4844704, 14.0335758, 0.0, -18.397022, -7.0217174799999995, -7.21561272, -1.80010844, 19.5449354, 0.0, -1.3465481, -2.44333476, -1.56243618, 0.180028348, 19.1180702, 0.0, -7.17091664, 0.7574758739999999, -1.012910292, 18.557691600000002, 0.0
24.637184, -18.661417, 0.87462944, 16.465918, 14.084406, 0.0, -18.44429, -7.0666246, -7.212294, -1.7783123, 19.583687, 0.0, -1.3283155, -2.5440087, -1.589091, 0.14401421, 19.0874, 0.0, -7.2482295, 0.7440827, -1.0392196, 18.590105, 0.0
24.637184, -18.6687602, 0.85652714, 16.451202, 14.12448, 0.0, -18.4989486, -7.09326054, -7.20731994, -1.74653824, 19.6109426, 0.0, -1.3142175, -2.59620696, -1.60590762, 0.12137947760000001, 19.073801, 0.0, -7.3038464, 0.72817004, -1.0745014, 18.5851428, 0.0
24.637184, -18.6761034, 0.83842484, 16.436486, 14.164554, 0.0, -18.5536072, -7.11989648, -7.20234588, -1.71476418, 19.6381982, 0.0, -1.3001195, -2.64840522, -1.62272424, 0.0987447452, 19.060202, 0.0, -7.3594633, 0.7122573799999999, -1.1097832, 18.580180600000002, 0.0
24.637184, -18.6834466, 0.82032254, 16.42177, 14.204628, 0.0, -18.6082658, -7.14653242, -7.19737182, -1.6829901200000001, 19.665453799999998, 0.0, -1.2860215, -2.7006034800000003, -1.63954086, 0.07611001279999999, 19.046602999999998, 0.0, -7.4150802, 0.69634472, -1.145065, 18.5752184, 0.0
24.637184, -18.690789799999997, 0.80222024, 16.407054, 14.244702, 0.0, -18.6629244, -7.17316836, -7.19239776, -1.65121606, 19.6927094, 0.0, -1.2719235, -2.75280174, -1.65635748, 0.05347528039999999, 19.033004, 0.0, -7.4706971, 0.68043206, -1.1803468000000001, 18.570256200000003, 0.0
24.637184, -18.698133, 0.78411794, 16.392338, 14.284776, 0.0, -18.717583, -7.1998043, -7.1874237, -1.619442, 19.719965, 0.0, -1.2578255, -2.805, -1.6731741, 0.030840548, 19.019405, 0.0, -7.526314, 0.6645194, -1.2156286, 18.565294, 0.0
24.637184, -18.7071148, 0.7666379600000001, 16.3732096, 14.3172482, 0.0, -18.758689800000003, -7.23122184, -7.17732036, -1.6000265200000001, 19.706951999999998, 0.0, -1.25040206, -2.8153484200000003, -1.67883004, 0.0228887494, 19.029929, 0.0, -7.5501956, 0.65070113, -1.2574870200000001, 18.552304600000003, 0.0
24.637184, -18.7160966, 0.74915798, 16.3540812, 14.3497204, 0.0, -18.7997966, -7.26263938, -7.16721702, -1.58061104, 19.693939, 0.0, -1.2429786200000001, -2.82569684, -1.68448598, 0.014936950799999998, 19.040453, 0.0, -7.5740772000000005, 0.6368828599999999, -1.29934544, 18.5393152, 0.0
24.637184, -18.725078399999997, 0.731678, 16.3349528, 14.3821926, 0.0, -18.840903400000002, -7.29405692, -7.15711368, -1.56119556, 19.680926, 0.0, -1.23555518, -2.83604526, -1.6901419199999999, 0.006985152199999997, 19.050977, 0.0, -7.5979588, 0.62306459, -1.34120386, 18.526325800000002, 0.0
24.637184, -18.7340602, 0.71419802, 16.3158244, 14.4146648, 0.0, -18.8820102, -7.325474460000001, -7.14701034, -1.5417800799999999, 19.667913000000002, 0.0, -1.22813174, -2.84639368, -1.6957978599999999, -0.0009666464000000034, 19.061501, 0.0, -7.6218404, 0.60924632, -1.3830622799999999, 18.5133364, 0.0
24.637184, -18.743042, 0.69671804, 16.296696, 14.447137, 0.0, -18.923117, -7.356892, -7.136907, -1.5223646, 19.6549, 0.0, -1.2207083, -2.8567421, -1.7014538, -0.008918445, 19.072025, 0.0, -7.645722, 0.59542805, -1.4249207, 18.500347, 0.0
24.637184, -18.739107999999998, 0.681426504, 16.2675512, 14.473792399999999, 0.0, -18.9626276, -7.3843062, -7.13161126, -1.5052983199999999, 19.6203018, 0.0, -1.2203281000000001, -2.84589326, -1.7002184999999999, -0.0065557984800000005, 19.0984994, 0.0, -7.64153354, 0.586986912, -1.46629206, 18.4950876, 0.0
24.637184, -18.735174, 0.666134968, 16.2384064, 14.5004478, 0.0, -19.0021382, -7.4117204, -7.1263155199999995, -1.48823204, 19.585703600000002, 0.0, -1.2199479, -2.83504442, -1.6989832, -0.0041931519600000005, 19.1249738, 0.0, -7.63734508, 0.578545774, -1.50766342, 18.4898282, 0.0
24.637184, -18.73124, 0.6508434319999999, 16.2092616, 14.527103199999999, 0.0, -19.0416488, -7.4391346, -7.12101978, -1.4711657599999999, 19.5511054, 0.0, -1.2195677, -2.82419558, -1.6977479, -0.0018305054400000005, 19.1514482, 0.0, -7.63315662, 0.570104636, -1.54903478, 18.484568799999998, 0.0
24.637184, -18.727306000000002, 0.635551896, 16.1801168, 14.5537586, 0.0, -19.0811594, -7.4665488, -7.11572404, -1.45409948, 19.516507200000003, 0.0, -1.2191874999999999, -2.81334674, -1.6965126000000001, 0.0005321410799999995, 19.1779226, 0.0, -7.62896816, 0.561663498, -1.59040614, 18.479309399999998, 0.0
24.637184, -18.723372, 0.62026036, 16.150972, 14.580414, 0.0, -19.12067, -7.493963, -7.1104283, -1.4370332, 19.481909, 0.0, -1.2188073, -2.8024979, -1.6952773, 0.0028947876, 19.204397, 0.0, -7.6247797, 0.55322236, -1.6317775, 18.47405, 0.0
24.637184, -18.698618, 0.6229317799999999, 16.1161064, 14.595428799999999, 0.0, -19.1574068, -7.5106836, -7.10241392, -1.41718926, 19.447861200000002, 0.0, -1.2197238799999999, -2.80554922, -1.6924619600000002, 0.007394231079999999, 19.2234046, 0.0, -7.614309700000001, 0.567017498, -1.6513022800000001, 18.4752308, 0.0
24.637184, -18.673864000000002, 0.6256031999999999, 16.0812408, 14.6104436, 0.0, -19.1941436, -7.5274042, -7.0943995399999995, -1.39734532, 19.413813400000002, 0.0, -1.22064046, -2.80860054, -1.68964662, 0.01189367456, 19.2424122, 0.0, -7.6038397, 0.580812636, -1.6708270600000001, 18.4764116, 0.0
24.637184, -18.64911, 0.62827462, 16.0463752, 14.6254584, 0.0, -19.2308804, -7.5441248, -7.08638516, -1.37750138, 19.3797656, 0.0, -1.22155704, -2.81165186, -1.68683128, 0.016393118039999998, 19.2614198, 0.0, -7.5933697, 0.594607774, -1.69035184, 18.4775924, 0.0
24.637184, -18.624356000000002, 0.63094604, 16.0115096, 14.6404732, 0.0, -19.2676172, -7.5608454, -7.078370779999999, -1.3576574399999999, 19.3457178, 0.0, -1.2224736200000001, -2.81470318, -1.6840159399999999, 0.02089256152, 19.2804274, 0.0, -7.5828997, 0.608402912, -1.70987662, 18.4787732, 0.0
24.637184, -18.599602, 0.63361746, 15.976644, 14.655488, 0.0, -19.304354, -7.577566, -7.0703564, -1.3378135, 19.31167, 0.0, -1.2233902, -2.8177545, -1.6812006, 0.025392005, 19.299435, 0.0, -7.5724297, 0.62219805, -1.7294014, 18.479954, 0.0
24.637184, -18.565925, 0.660978308, 15.941153400000001, 14.658531, 0.0, -19.3467478, -7.5727756, -7.058328459999999, -1.30558706, 19.2924124, 0.0, -1.22491372, -2.84007672, -1.6766778, 0.032716892, 19.309027399999998, 0.0, -7.57854956, 0.644458572, -1.7380977, 18.468711199999998, 0.0
24.637184, -18.532248, 0.688339156, 15.9056628, 14.661574, 0.0, -19.3891416, -7.5679852, -7.04630052, -1.27336062, 19.2731548, 0.0, -1.22643724, -2.86239894, -1.672155, 0.040041779, 19.3186198, 0.0, -7.58466942, 0.666719094, -1.746794, 18.4574684, 0.0
24.637184, -18.498571000000002, 0.715700004, 15.8701722, 14.664617, 0.0, -19.4315354, -7.5631948, -7.03427258, -1.24113418, 19.2538972, 0.0, -1.22796076, -2.8847211600000002, -1.6676322, 0.047366666, 19.3282122, 0.0, -7.59078928, 0.688979616, -1.7554903, 18.4462256, 0.0
24.637184, -18.464894, 0.7430608519999999, 15.8346816, 14.66766, 0.0, -19.4739292, -7.5584044, -7.02224464, -1.2089077400000001, 19.2346396, 0.0, -1.22948428, -2.90704338, -1.6631094, 0.054691553, 19.337804600000002, 0.0, -7.59690914, 0.711240138, -1.7641866, 18.4349828, 0.0
24.637184, -18.431217, 0.7704217, 15.799191, 14.670703, 0.0, -19.516323, -7.553614, -7.0102167, -1.1766813, 19.215382, 0.0, -1.2310078, -2.9293656, -1.6585866, 0.06201644, 19.347397, 0.0, -7.603029, 0.73350066, -1.7728829, 18.42374, 0.0
24.637184, -18.3840196, 0.81904346, 15.768211, 14.6623966, 0.0, -19.5690548, -7.52904872, -6.99935606, -1.129306952, 19.213636, 0.0, -1.23842672, -2.9592185200000003, -1.66201234, 0.0651306, 19.3603558, 0.0, -7.62632388, 0.741167522, -1.79421072, 18.405588599999998, 0.0
24.637184, -18.3368222, 0.8676652199999999, 15.737231000000001, 14.654090199999999, 0.0, -19.6217866, -7.50448344, -6.9884954200000005, -1.0819326040000001, 19.21189, 0.0, -1.24584564, -2.98907144, -1.66543808, 0.06824476, 19.3733146, 0.0, -7.64961876, 0.748834384, -1.81553854, 18.387437199999997, 0.0
24.637184, -18.2896248, 0.91628698, 15.706251, 14.6457838, 0.0, -19.6745184, -7.47991816, -6.97763478, -1.034558256, 19.210144, 0.0, -1.25326456, -3.01892436, -1.66886382, 0.07135891999999999, 19.3862734, 0.0, -7.67291364, 0.756501246, -1.83686636, 18.3692858, 0.0
24.637184, -18.2424274, 0.9649087399999999, 15.675271, 14.6374774, 0.0, -19.7272502, -7.45535288, -6.96677414, -0.987183908, 19.208398, 0.0, -1.26068348, -3.04877728, -1.67228956, 0.07447308, 19.3992322, 0.0, -7.69620852, 0.764168108, -1.85819418, 18.3511344, 0.0
24.637184, -18.19523, 1.0135305, 15.644291, 14.629171, 0.0, -19.779982, -7.4307876, -6.9559135, -0.93980956, 19.206652, 0.0, -1.2681024, -3.0786302, -1.6757153, 0.07758724, 19.412191, 0.0, -7.7195034, 0.77183497, -1.879522, 18.332983, 0.0
24.637184, -18.141948, 1.06200202, 15.6161616, 14.615553799999999, 0.0, -19.8294834, -7.406483580000001, -6.94358068, -0.887168868, 19.215672599999998, 0.0, -1.2757888000000002, -3.12199244, -1.69203416, 0.07140729600000001, 19.4158196, 0.0, -7.75678632, 0.759667796, -1.9192521999999999, 18.335856399999997, 0.0
24.637184, -18.088666, 1.1104735399999999, 15.5880322, 14.6019366, 0.0, -19.8789848, -7.38217956, -6.93124786, -0.8345281760000001, 19.224693199999997, 0.0, -1.2834752, -3.16535468, -1.7083530199999999, 0.065227352, 19.419448199999998, 0.0, -7.79406924, 0.747500622, -1.9589824, 18.3387298, 0.0
24.637184, -18.035384, 1.15894506, 15.5599028, 14.5883194, 0.0, -19.9284862, -7.35787554, -6.91891504, -0.7818874840000001, 19.2337138, 0.0, -1.2911616000000001, -3.20871692, -1.72467188, 0.059047408, 19.4230768, 0.0, -7.83135216, 0.735333448, -1.9987126, 18.341603199999998, 0.0
24.637184, -17.982102, 1.2074165799999999, 15.5317734, 14.5747022, 0.0, -19.9779876, -7.33357152, -6.90658222, -0.729246792, 19.2427344, 0.0, -1.298848, -3.25207916, -1.74099074, 0.052867464, 19.4267054, 0.0, -7.86863508, 0.723166274, -2.0384428, 18.3444766, 0.0
24.637184, -17.92882, 1.2558881, 15.503644, 14.561085, 0.0, -20.027489, -7.3092675, -6.8942494, -0.6766061, 19.251755, 0.0, -1.3065344, -3.2954414, -1.7573096, 0.04668752, 19.430334, 0.0, -7.905918, 0.7109991, -2.078173, 18.34735, 0.0
24.637184, -17.89346, 1.2892356999999999, 15.4697964, 14.5432524, 0.0, -20.0570376, -7.3124806, -6.876736999999999, -0.638887968, 19.2471732, 0.0, -1.30607304, -3.37787076, -1.7701776, 0.0408920388, 19.4046462, 0.0, -7.9535328, 0.70165846, -2.1131518000000002, 18.3824874, 0.0
24.637184, -17.8581, 1.3225833, 15.4359488, 14.5254198, 0.0, -20.0865862, -7.3156937, -6.8592246, -0.601169836, 19.2425914, 0.0, -1.30561168, -3.46030012, -1.7830456, 0.0350965576, 19.3789584, 0.0, -8.0011476, 0.69231782, -2.1481306, 18.4176248, 0.0
24.637184, -17.822740000000003, 1.3559309, 15.402101199999999, 14.5075872, 0.0, -20.1161348, -7.3189068, -6.8417122, -0.563451704, 19.2380096, 0.0, -1.30515032, -3.54272948, -1.7959136, 0.0293010764, 19.3532706, 0.0, -8.048762400000001, 0.6829771800000001, -2.1831094, 18.4527622, 0.0
24.637184, -17.787380000000002, 1.3892785, 15.3682536, 14.4897546, 0.0, -20.1456834, -7.3221199, -6.824199800000001, -0.525733572, 19.2334278, 0.0, -1.30468896, -3.62515884, -1.8087815999999999, 0.0235055952, 19.3275828, 0.0, -8.096377200000001, 0.6736365400000001, -2.2180882, 18.4878996, 0.0
24.637184, -17.75202, 1.4226261, 15.334406, 14.471922, 0.0, -20.175232, -7.325333, -6.8066874, -0.48801544, 19.228846, 0.0, -1.3042276, -3.7075882, -1.8216496, 0.017710114, 19.301895, 0.0, -8.143992, 0.6642959, -2.253067, 18.523037, 0.0
24.637184, -17.7230928, 1.46554838, 15.3078454, 14.4443434, 0.0, -20.214482200000003, -7.3215458799999995, -6.78073962, -0.43223394000000004, 19.224744400000002, 0.0, -1.3006867, -3.77483956, -1.82595128, 0.0168525492, 19.270197999999997, 0.0, -8.1527738, 0.683445588, -2.26224344, 18.5479378, 0.0
24.637184, -17.6941656, 1.50847066, 15.2812848, 14.4167648, 0.0, -20.2537324, -7.317758759999999, -6.75479184, -0.37645244, 19.2206428, 0.0, -1.2971458, -3.84209092, -1.83025296, 0.0159949844, 19.238501, 0.0, -8.1615556, 0.702595276, -2.2714198800000003, 18.5728386, 0.0
24.637184, -17.6652384, 1.55139294, 15.2547242, 14.3891862, 0.0, -20.292982600000002, -7.31397164, -6.72884406, -0.32067094, 19.2165412, 0.0, -1.2936048999999998, -3.90934228, -1.8345546400000001, 0.0151374196, 19.206803999999998, 0.0, -8.170337400000001, 0.721744964, -2.28059632, 18.5977394, 0.0
24.637184, -17.6363112, 1.59431522, 15.2281636, 14.3616076, 0.0, -20.3322328, -7.31018452, -6.70289628, -0.26488944000000003, 19.2124396, 0.0, -1.2900639999999999, -3.97659364, -1.83885632, 0.0142798548, 19.175107, 0.0, -8.1791192, 0.740894652, -2.28977276, 18.6226402, 0.0
24.637184, -17.607384, 1.6372375, 15.201603, 14.334029, 0.0, -20.371483, -7.3063974, -6.6769485, -0.20910794, 19.208338, 0.0, -1.2865231, -4.043845, -1.843158, 0.01342229, 19.14341, 0.0, -8.187901, 0.76004434, -2.2989492, 18.647541, 0.0
24.637184, -17.6019038, 1.66874204, 15.1959738, 14.2986282, 0.0, -20.418051600000002, -7.309644319999999, -6.65437066, -0.145070552, 19.2175832, 0.0, -1.27609004, -4.0431716, -1.84004382, 0.020760146, 19.150308, 0.0, -8.1536762, 0.77856976, -2.30242512, 18.6620032, 0.0
24.637184, -17.596423599999998, 1.70024658, 15.190344600000001, 14.2632274, 0.0, -20.464620200000002, -7.31289124, -6.63179282, -0.08103316399999999, 19.2268284, 0.0, -1.26565698, -4.0424982, -1.83692964, 0.028098002000000004, 19.157206, 0.0, -8.119451399999999, 0.79709518, -2.30590104, 18.6764654, 0.0
24.637184, -17.5909434, 1.73175112, 15.1847154, 14.2278266, 0.0, -20.5111888, -7.3161381599999995, -6.60921498, -0.01699577599999999, 19.2360736, 0.0, -1.25522392, -4.0418248000000006, -1.83381546, 0.035435858, 19.164104000000002, 0.0, -8.0852266, 0.8156205999999999, -2.30937696, 18.6909276, 0.0
24.637184, -17.5854632, 1.76325566, 15.1790862, 14.1924258, 0.0, -20.5577574, -7.31938508, -6.586637140000001, 0.04704161200000001, 19.2453188, 0.0, -1.24479086, -4.0411514, -1.83070128, 0.042773714000000004, 19.171002, 0.0, -8.0510018, 0.8341460199999999, -2.31285288, 18.7053898, 0.0
24.637184, -17.579983, 1.7947602, 15.173457, 14.157025, 0.0, -20.604326, -7.322632, -6.5640593, 0.111079, 19.254564, 0.0, -1.2343578, -4.040478, -1.8275871, 0.05011157, 19.1779, 0.0, -8.016777, 0.85267144, -2.3163288, 18.719852, 0.0
24.637184, -17.613695, 1.78239124, 15.2030376, 14.1372136, 0.0, -20.6453966, -7.3657563999999995, -6.56360076, 0.153245652, 19.248354199999998, 0.0, -1.21887156, -4.00283914, -1.83818014, 0.044658159600000004, 19.218354, 0.0, -7.98183448, 0.842102524, -2.33256604, 18.7511818, 0.0
24.637184, -17.647407, 1.77002228, 15.232618200000001, 14.1174022, 0.0, -20.6864672, -7.4088807999999995, -6.5631422200000005, 0.195412304, 19.242144399999997, 0.0, -1.20338532, -3.9652002800000004, -1.84877318, 0.0392047492, 19.258808000000002, 0.0, -7.946891959999999, 0.831533608, -2.34880328, 18.7825116, 0.0
24.637184, -17.681119, 1.75765332, 15.2621988, 14.0975908, 0.0, -20.7275378, -7.4520052, -6.56268368, 0.237578956, 19.2359346, 0.0, -1.18789908, -3.92756142, -1.8593662199999998, 0.0337513388, 19.299262, 0.0, -7.91194944, 0.820964692, -2.36504052, 18.8138414, 0.0
24.637184, -17.714831, 1.74528436, 15.291779400000001, 14.0777794, 0.0, -20.768608399999998, -7.4951296, -6.562225140000001, 0.27974560800000003, 19.2297248, 0.0, -1.17241284, -3.88992256, -1.86995926, 0.028297928400000002, 19.339716, 0.0, -7.8770069199999995, 0.810395776, -2.3812777599999997, 18.8451712, 0.0
24.637184, -17.748543, 1.7329154, 15.32136, 14.057968, 0.0, -20.809679, -7.538254, -6.5617666, 0.32191226, 19.223515, 0.0, -1.1569266, -3.8522837, -1.8805523, 0.022844518, 19.38017, 0.0, -7.8420644, 0.79982686, -2.397515, 18.876501, 0.0
24.637184, -17.814092000000002, 1.69436066, 15.3872779, 14.0545354, 0.0, -20.8524624, -7.6007589200000005, -6.5684968800000005, 0.357209808, 19.200530999999998, 0.0, -1.13137118, -3.81826004, -1.89323198, 0.0119900916, 19.419671, 0.0, -7.81998012, 0.785320148, -2.4059851599999997, 18.9163982, 0.0
24.637184, -17.879641000000003, 1.65580592, 15.4531958, 14.0511028, 0.0, -20.8952458, -7.66326384, -6.57522716, 0.392507356, 19.177547, 0.0, -1.10581576, -3.7842363800000003, -1.90591166, 0.0011356652000000002, 19.459172, 0.0, -7.79789584, 0.7708134360000001, -2.41445532, 18.956295400000002, 0.0
24.637184, -17.94519, 1.61725118, 15.5191137, 14.0476702, 0.0, -20.9380292, -7.72576876, -6.58195744, 0.427804904, 19.154563, 0.0, -1.08026034, -3.75021272, -1.91859134, -0.009718761200000002, 19.498673, 0.0, -7.77581156, 0.756306724, -2.42292548, 18.9961926, 0.0
24.637184, -18.010739, 1.5786964399999999, 15.585031599999999, 14.0442376, 0.0, -20.9808126, -7.78827368, -6.588687719999999, 0.463102452, 19.131579000000002, 0.0, -1.05470492, -3.71618906, -1.93127102, -0.0205731876, 19.538173999999998, 0.0, -7.75372728, 0.741800012, -2.4313956400000003, 19.036089800000003, 0.0
24.637184, -18.076288, 1.5401417, 15.6509495, 14.040805, 0.0, -21.023596, -7.8507786, -6.595418, 0.4984, 19.108595, 0.0, -1.0291495, -3.6821654, -1.9439507, -0.031427614, 19.577675, 0.0, -7.731643, 0.7272933, -2.4398658, 19.075987, 0.0
24.637184, -18.144013, 1.50103286, 15.7333024, 14.0300124, 0.0, -21.073076800000003, -7.91118108, -6.596111, 0.543796346, 19.085275, 0.0, -0.9896215599999999, -3.65809832, -1.94755972, -0.0379377992, 19.594709599999998, 0.0, -7.72643894, 0.72727624, -2.42928012, 19.0975496, 0.0
24.637184, -18.211738, 1.4619240199999999, 15.8156553, 14.0192198, 0.0, -21.1225576, -7.97158356, -6.596804, 0.589192692, 19.061955, 0.0, -0.95009362, -3.63403124, -1.95116874, -0.0444479844, 19.6117442, 0.0, -7.72123488, 0.72725918, -2.41869444, 19.1191122, 0.0
24.637184, -18.279463, 1.42281518, 15.8980082, 14.0084272, 0.0, -21.1720384, -8.03198604, -6.597497, 0.634589038, 19.038635, 0.0, -0.9105656799999999, -3.60996416, -1.95477776, -0.0509581696, 19.6287788, 0.0, -7.71603082, 0.72724212, -2.40810876, 19.140674800000003, 0.0
24.637184, -18.347188, 1.3837063399999998, 15.9803611, 13.9976346, 0.0, -21.2215192, -8.09238852, -6.59819, 0.679985384, 19.015315, 0.0, -0.87103774, -3.58589708, -1.9583867799999999, -0.057468354799999996, 19.6458134, 0.0, -7.71082676, 0.72722506, -2.39752308, 19.162237400000002, 0.0
24.637184, -18.414913, 1.3445975, 16.062714, 13.986842, 0.0, -21.271, -8.152791, -6.598883, 0.72538173, 18.991995, 0.0, -0.8315098, -3.56183, -1.9619958, -0.06397854, 19.662848, 0.0, -7.7056227, 0.727208, -2.3869374, 19.1838, 0.0
24.637184, -18.4255224, 1.3150120799999998, 16.130233, 13.9608806, 0.0, -21.319957000000002, -8.215339, -6.5936069999999996, 0.7808264039999999, 18.985538599999998, 0.0, -0.78771352, -3.54507466, -1.96536894, -0.075168374, 19.6621132, 0.0, -7.71487636, 0.7393471699999999, -2.3667205399999998, 19.185194600000003, 0.0
24.637184, -18.4361318, 1.28542666, 16.197752, 13.9349192, 0.0, -21.368914, -8.277887, -6.588331, 0.836271078, 18.9790822, 0.0, -0.7439172399999999, -3.52831932, -1.96874208, -0.086358208, 19.6613784, 0.0, -7.72413002, 0.7514863399999999, -2.34650368, 19.1865892, 0.0
24.637184, -18.4467412, 1.2558412399999999, 16.265271, 13.9089578, 0.0, -21.417871, -8.340435000000001, -6.583055, 0.891715752, 18.9726258, 0.0, -0.70012096, -3.51156398, -1.97211522, -0.097548042, 19.6606436, 0.0, -7.73338368, 0.76362551, -2.32628682, 19.1879838, 0.0
24.637184, -18.4573506, 1.22625582, 16.33279, 13.8829964, 0.0, -21.466828, -8.402983, -6.5777790000000005, 0.9471604259999999, 18.966169400000002, 0.0, -0.65632468, -3.49480864, -1.97548836, -0.10873787600000001, 19.6599088, 0.0, -7.74263734, 0.77576468, -2.3060699600000003, 19.1893784, 0.0
24.637184, -18.46796, 1.1966704, 16.400309, 13.857035, 0.0, -21.515785, -8.465531, -6.572503, 1.0026051, 18.959713, 0.0, -0.6125284, -3.4780533, -1.9788615, -0.11992771, 19.659174, 0.0, -7.751891, 0.78790385, -2.2858531, 19.190773, 0.0
24.637184, -18.451734000000002, 1.16247526, 16.4260708, 13.8403982, 0.0, -21.566552, -8.5359172, -6.5730346, 1.06872306, 19.0044166, 0.0, -0.5791412899999999, -3.49706384, -1.96573814, -0.12318099, 19.6545426, 0.0, -7.77544754, 0.788481872, -2.2785646, 19.1955768, 0.0
24.637184, -18.435508000000002, 1.1282801199999999, 16.4518326, 13.8237614, 0.0, -21.617319000000002, -8.6063034, -6.5735662, 1.13484102, 19.0491202, 0.0, -0.54575418, -3.51607438, -1.95261478, -0.12643427000000002, 19.6499112, 0.0, -7.79900408, 0.789059894, -2.2712761, 19.2003806, 0.0
24.637184, -18.419282, 1.09408498, 16.4775944, 13.8071246, 0.0, -21.668086, -8.676689600000001, -6.5740978, 1.20095898, 19.0938238, 0.0, -0.51236707, -3.53508492, -1.93949142, -0.12968755, 19.6452798, 0.0, -7.82256062, 0.789637916, -2.2639876, 19.2051844, 0.0
24.637184, -18.403056, 1.05988984, 16.5033562, 13.790487800000001, 0.0, -21.718853, -8.747075800000001, -6.5746294, 1.26707694, 19.1385274, 0.0, -0.47897996, -3.55409546, -1.92636806, -0.13294083, 19.6406484, 0.0, -7.8461171599999995, 0.790215938, -2.2566991, 19.209988199999998, 0.0
24.637184, -18.38683, 1.0256947, 16.529118, 13.773851, 0.0, -21.76962, -8.817462, -6.575161, 1.3331949, 19.183231, 0.0, -0.44559285, -3.573106, -1.9132447, -0.13619411, 19.636017, 0.0, -7.8696737, 0.79079396, -2.2494106, 19.214792, 0.0
24.637184, -18.3929056, 0.9756070200000001, 16.528247, 13.7942912, 0.0, -21.8279564, -8.889394600000001, -6.5826606, 1.40254224, 19.259816, 0.0, -0.41728437, -3.6168294000000003, -1.9001348599999999, -0.140360758, 19.621216399999998, 0.0, -7.90345856, 0.780852988, -2.25053752, 19.2279032, 0.0
24.637184, -18.398981199999998, 0.92551934, 16.527376, 13.8147314, 0.0, -21.8862928, -8.961327200000001, -6.5901602, 1.47188958, 19.336401, 0.0, -0.38897589, -3.6605528, -1.8870250199999998, -0.144527406, 19.6064158, 0.0, -7.93724342, 0.770912016, -2.25166444, 19.2410144, 0.0
24.637184, -18.4050568, 0.8754316600000001, 16.526505, 13.8351716, 0.0, -21.9446292, -9.0332598, -6.5976598, 1.54123692, 19.412986, 0.0, -0.36066741, -3.7042762000000002, -1.87391518, -0.14869405400000002, 19.5916152, 0.0, -7.9710282800000005, 0.7609710439999999, -2.2527913600000002, 19.2541256, 0.0
24.637184, -18.4111324, 0.82534398, 16.525634, 13.8556118, 0.0, -22.0029656, -9.1051924, -6.6051594, 1.61058426, 19.489570999999998, 0.0, -0.33235893000000005, -3.7479996, -1.86080534, -0.15286070200000001, 19.576814600000002, 0.0, -8.00481314, 0.7510300719999999, -2.25391828, 19.2672368, 0.0
24.637184, -18.417208, 0.7752563, 16.524763, 13.876052, 0.0, -22.061302, -9.177125, -6.612659, 1.6799316, 19.566156, 0.0, -0.30405045, -3.791723, -1.8476955, -0.15702735, 19.562014, 0.0, -8.038598, 0.7410891, -2.2550452, 19.280348, 0.0
24.637184, -18.4126132, 0.73258713, 16.5159552, 13.912426, 0.0, -22.1350252, -9.2371443, -6.6236786, 1.7400628, 19.5953528, 0.0, -0.26926360400000005, -3.80189236, -1.84938202, -0.16271037600000002, 19.555728000000002, 0.0, -8.0633018, 0.728222246, -2.25990702, 19.290111, 0.0
24.637184, -18.4080184, 0.6899179599999999, 16.5071474, 13.9488, 0.0, -22.2087484, -9.297163600000001, -6.6346982, 1.800194, 19.6245496, 0.0, -0.234476758, -3.81206172, -1.85106854, -0.168393402, 19.549442000000003, 0.0, -8.0880056, 0.715355392, -2.26476884, 19.299874, 0.0
24.637184, -18.4034236, 0.6472487899999999, 16.498339599999998, 13.985173999999999, 0.0, -22.2824716, -9.3571829, -6.6457178, 1.8603252000000001, 19.6537464, 0.0, -0.19968991200000002, -3.8222310800000003, -1.85275506, -0.174076428, 19.543156, 0.0, -8.1127094, 0.702488538, -2.2696306600000002, 19.309637000000002, 0.0
24.637184, -18.3988288, 0.60457962, 16.489531799999998, 14.021548, 0.0, -22.3561948, -9.4172022, -6.6567374, 1.9204564, 19.6829432, 0.0, -0.16490306600000001, -3.8324004400000002, -1.85444158, -0.17975945399999999, 19.53687, 0.0, -8.137413200000001, 0.689621684, -2.27449248, 19.3194, 0.0
24.637184, -18.394234, 0.56191045, 16.480724, 14.057922, 0.0, -22.429918, -9.4772215, -6.667757, 1.9805876, 19.71214, 0.0, -0.13011622, -3.8425698, -1.8561281, -0.18544248, 19.530584, 0.0, -8.162117, 0.67675483, -2.2793543, 19.329163, 0.0
24.637184, -18.3582296, 0.5505456999999999, 16.4484738, 14.082487, 0.0, -22.507483, -9.518896400000001, -6.66683796, 2.03306298, 19.696482, 0.0, -0.0982536148, -3.8175523, -1.86579538, -0.187525614, 19.55547, 0.0, -8.1696134, 0.673741434, -2.2809259600000003, 19.3260708, 0.0
24.637184, -18.322225200000002, 0.53918095, 16.4162236, 14.107052, 0.0, -22.585048, -9.560571300000001, -6.66591892, 2.08553836, 19.680824, 0.0, -0.06639100960000001, -3.7925348, -1.87546266, -0.189608748, 19.580356000000002, 0.0, -8.1771098, 0.670728038, -2.28249762, 19.3229786, 0.0
24.637184, -18.2862208, 0.5278162, 16.3839734, 14.131617, 0.0, -22.662613, -9.6022462, -6.66499988, 2.13801374, 19.665166, 0.0, -0.03452840440000002, -3.7675173, -1.8851299400000001, -0.191691882, 19.605242, 0.0, -8.1846062, 0.667714642, -2.28406928, 19.3198864, 0.0
24.637184, -18.2502164, 0.51645145, 16.3517232, 14.156182, 0.0, -22.740178, -9.6439211, -6.6640808400000004, 2.1904891199999996, 19.649508, 0.0, -0.002665799200000013, -3.7424998, -1.89479722, -0.193775016, 19.630128000000003, 0.0, -8.1921026, 0.664701246, -2.28564094, 19.3167942, 0.0
24.637184, -18.214212, 0.5050867, 16.319473, 14.180747, 0.0, -22.817743, -9.685596, -6.6631618, 2.2429645, 19.63385, 0.0, 0.029196806, -3.7174823, -1.9044645, -0.19585815, 19.655014, 0.0, -8.199599, 0.66168785, -2.2872126, 19.313702, 0.0
24.637184, -18.1636224, 0.52064472, 16.258587, 14.1877716, 0.0, -22.885935, -9.714321, -6.64326384, 2.29419674, 19.6198634, 0.0, 0.050998966800000003, -3.7105983, -1.90692998, -0.188425132, 19.6862698, 0.0, -8.197916399999999, 0.67588198, -2.2767741200000002, 19.3067992, 0.0
24.637184, -18.1130328, 0.53620274, 16.197701, 14.1947962, 0.0, -22.954127, -9.743046, -6.623365880000001, 2.34542898, 19.6058768, 0.0, 0.07280112760000002, -3.7037143, -1.90939546, -0.180992114, 19.717525600000002, 0.0, -8.1962338, 0.69007611, -2.2663356400000003, 19.2998964, 0.0
24.637184, -18.0624432, 0.55176076, 16.136815, 14.2018208, 0.0, -23.022319, -9.771771000000001, -6.60346792, 2.39666122, 19.591890199999998, 0.0, 0.09460328840000001, -3.6968303, -1.91186094, -0.173559096, 19.7487814, 0.0, -8.1945512, 0.7042702399999999, -2.25589716, 19.2929936, 0.0
24.637184, -18.0118536, 0.56731878, 16.075929, 14.208845400000001, 0.0, -23.090511, -9.800496, -6.58356996, 2.44789346, 19.5779036, 0.0, 0.11640544920000001, -3.6899463, -1.91432642, -0.166126078, 19.7800372, 0.0, -8.1928686, 0.71846437, -2.24545868, 19.2860908, 0.0
24.637184, -17.961264, 0.5828768, 16.015043, 14.21587, 0.0, -23.158703, -9.829221, -6.563672, 2.4991257, 19.563917, 0.0, 0.13820761, -3.6830623, -1.9167919, -0.15869306, 19.811293, 0.0, -8.191186, 0.7326585, -2.2350202, 19.279188, 0.0
24.637184, -17.9088854, 0.613197254, 15.936345, 14.210362400000001, 0.0, -23.226364399999998, -9.8471618, -6.53821006, 2.55546826, 19.5591604, 0.0, 0.147926222, -3.70622782, -1.91679798, -0.144221776, 19.8189192, 0.0, -8.1878342, 0.73791484, -2.23554334, 19.2731554, 0.0
24.637184, -17.8565068, 0.643517708, 15.857647, 14.204854800000001, 0.0, -23.2940258, -9.8651026, -6.51274812, 2.61181082, 19.5544038, 0.0, 0.157644834, -3.72939334, -1.91680406, -0.129750492, 19.8265454, 0.0, -8.1844824, 0.7431711799999999, -2.23606648, 19.2671228, 0.0
24.637184, -17.8041282, 0.673838162, 15.778948999999999, 14.1993472, 0.0, -23.3616872, -9.8830434, -6.48728618, 2.66815338, 19.5496472, 0.0, 0.167363446, -3.7525588599999997, -1.91681014, -0.11527920800000001, 19.834171599999998, 0.0, -8.1811306, 0.74842752, -2.23658962, 19.2610902, 0.0
24.637184, -17.7517496, 0.704158616, 15.700251, 14.1938396, 0.0, -23.4293486, -9.9009842, -6.46182424, 2.72449594, 19.5448906, 0.0, 0.177082058, -3.7757243799999998, -1.91681622, -0.10080792400000001, 19.8417978, 0.0, -8.1777788, 0.75368386, -2.23711276, 19.2550576, 0.0
24.637184, -17.699371, 0.73447907, 15.621553, 14.188332, 0.0, -23.49701, -9.918925, -6.4363623, 2.7808385, 19.540134, 0.0, 0.18680067, -3.7988899, -1.9168223, -0.08633664, 19.849424, 0.0, -8.174427, 0.7589402, -2.2376359, 19.249025, 0.0
24.637184, -17.6656182, 0.766759916, 15.533629000000001, 14.185828800000001, 0.0, -23.5608346, -9.9394932, -6.41100734, 2.83459398, 19.5418652, 0.0, 0.18932915, -3.81519452, -1.93905514, -0.08102349880000001, 19.8438946, 0.0, -8.1757238, 0.7359220599999999, -2.2671146799999997, 19.24019, 0.0
24.637184, -17.6318654, 0.7990407620000001, 15.445705, 14.1833256, 0.0, -23.6246592, -9.960061399999999, -6.38565238, 2.88834946, 19.5435964, 0.0, 0.19185763, -3.83149914, -1.96128798, -0.0757103576, 19.8383652, 0.0, -8.1770206, 0.7129039199999999, -2.29659346, 19.231355, 0.0
24.637184, -17.5981126, 0.8313216080000001, 15.357781000000001, 14.1808224, 0.0, -23.6884838, -9.9806296, -6.36029742, 2.94210494, 19.5453276, 0.0, 0.19438611, -3.8478037599999997, -1.9835208199999999, -0.0703972164, 19.8328358, 0.0, -8.1783174, 0.68988578, -2.32607224, 19.22252, 0.0
24.637184, -17.5643598, 0.863602454, 15.269857, 14.178319199999999, 0.0, -23.7523084, -10.0011978, -6.33494246, 2.99586042, 19.5470588, 0.0, 0.19691459, -3.86410838, -2.00575366, -0.06508407520000001, 19.8273064, 0.0, -8.1796142, 0.66686764, -2.35555102, 19.213685, 0.0
24.637184, -17.530607, 0.8958833, 15.181933, 14.175816, 0.0, -23.816133, -10.021766, -6.3095875, 3.0496159, 19.54879, 0.0, 0.19944307, -3.880413, -2.0279865, -0.059770934, 19.821777, 0.0, -8.180911, 0.6438495, -2.3850298, 19.20485, 0.0
24.637184, -17.5255792, 0.9212264400000001, 15.099963, 14.1871017, 0.0, -23.861277, -10.0569834, -6.275032, 3.09323156, 19.5524612, 0.0, 0.214222972, -3.88102488, -2.0592026999999997, -0.048958474919999995, 19.8123864, 0.0, -8.1873774, 0.620856948, -2.4125799199999998, 19.1870948, 0.0
24.637184, -17.5205514, 0.94656958, 15.017993, 14.1983874, 0.0, -23.906421, -10.0922008, -6.2404765, 3.13684722, 19.5561324, 0.0, 0.229002874, -3.88163676, -2.0904189, -0.03814601584, 19.8029958, 0.0, -8.1938438, 0.597864396, -2.4401300399999997, 19.1693396, 0.0
24.637184, -17.5155236, 0.9719127200000001, 14.936023, 14.2096731, 0.0, -23.951565, -10.1274182, -6.205921, 3.1804628800000003, 19.559803600000002, 0.0, 0.243782776, -3.88224864, -2.1216350999999998, -0.027333556760000002, 19.7936052, 0.0, -8.2003102, 0.574871844, -2.46768016, 19.1515844, 0.0
24.637184, -17.5104958, 0.99725586, 14.854053, 14.2209588, 0.0, -23.996709, -10.1626356, -6.171365499999999, 3.2240785400000003, 19.5634748, 0.0, 0.258562678, -3.88286052, -2.1528513, -0.01652109768, 19.7842146, 0.0, -8.2067766, 0.551879292, -2.49523028, 19.1338292, 0.0
24.637184, -17.505468, 1.022599, 14.772083, 14.2322445, 0.0, -24.041853, -10.197853, -6.13681, 3.2676942, 19.567146, 0.0, 0.27334258, -3.8834724, -2.1840675, -0.0057086386, 19.774824, 0.0, -8.213243, 0.52888674, -2.5227804, 19.116074, 0.0
24.637184, -17.5143182, 1.03875986, 14.712255, 14.25058, 0.0, -24.0806892, -10.2406898, -6.1029076, 3.3121033, 19.565686200000002, 0.0, 0.30348072, -3.86675452, -2.2132473999999998, 0.024907931120000004, 19.7708132, 0.0, -8.2107498, 0.5222725180000001, -2.53543618, 19.0934826, 0.0
24.637184, -17.5231684, 1.0549207200000001, 14.652427000000001, 14.2689155, 0.0, -24.1195254, -10.2835266, -6.0690052, 3.3565124, 19.564226400000003, 0.0, 0.33361886, -3.85003664, -2.2424272999999997, 0.055524500840000005, 19.7668024, 0.0, -8.2082566, 0.515658296, -2.54809196, 19.070891200000002, 0.0
24.637184, -17.5320186, 1.07108158, 14.592599, 14.287251, 0.0, -24.1583616, -10.3263634, -6.0351028, 3.4009215, 19.5627666, 0.0, 0.363757, -3.83331876, -2.2716072, 0.08614107056000002, 19.7627916, 0.0, -8.2057634, 0.509044074, -2.56074774, 19.0482998, 0.0
24.637184, -17.5408688, 1.08724244, 14.532771, 14.3055865, 0.0, -24.1971978, -10.3692002, -6.0012004, 3.4453306, 19.5613068, 0.0, 0.39389514000000003, -3.8166008799999998, -2.3007871, 0.11675764028000002, 19.7587808, 0.0, -8.2032702, 0.502429852, -2.57340352, 19.0257084, 0.0
24.637184, -17.549719, 1.1034033, 14.472943, 14.323922, 0.0, -24.236034, -10.412037, -5.967298, 3.4897397, 19.559847, 0.0, 0.42403328, -3.799883, -2.329967, 0.14737421, 19.75477, 0.0, -8.200777, 0.49581563, -2.5860593, 19.003117, 0.0
24.637184, -17.5531404, 1.1163726600000001, 14.434965, 14.3333756, 0.0, -24.2752182, -10.4610824, -5.944154, 3.54284948, 19.5495294, 0.0, 0.465132464, -3.7867632799999997, -2.35592178, 0.20249250800000002, 19.7590726, 0.0, -8.197048, 0.502306544, -2.58899134, 18.9910304, 0.0
24.637184, -17.5565618, 1.1293420200000002, 14.396987000000001, 14.3428292, 0.0, -24.3144024, -10.5101278, -5.92101, 3.59595926, 19.5392118, 0.0, 0.506231648, -3.77364356, -2.38187656, 0.25761080599999997, 19.7633752, 0.0, -8.193319, 0.508797458, -2.59192338, 18.9789438, 0.0
24.637184, -17.559983199999998, 1.14231138, 14.359009, 14.3522828, 0.0, -24.3535866, -10.5591732, -5.8978660000000005, 3.64906904, 19.5288942, 0.0, 0.547330832, -3.76052384, -2.40783134, 0.312729104, 19.7676778, 0.0, -8.189589999999999, 0.515288372, -2.59485542, 18.9668572, 0.0
24.637184, -17.5634046, 1.15528074, 14.321031000000001, 14.3617364, 0.0, -24.392770799999997, -10.608218599999999, -5.874722, 3.70217882, 19.5185766, 0.0, 0.588430016, -3.74740412, -2.4337861199999997, 0.367847402, 19.7719804, 0.0, -8.185861, 0.521779286, -2.5977874599999997, 18.9547706, 0.0
24.637184, -17.566826, 1.1682501, 14.283053, 14.37119, 0.0, -24.431955, -10.657264, -5.851578, 3.7552886, 19.508259, 0.0, 0.6295292, -3.7342844, -2.4597409, 0.4229657, 19.776283, 0.0, -8.182132, 0.5282702, -2.6007195, 18.942684, 0.0
24.637184, -17.5520036, 1.1885323, 14.2676242, 14.3612728, 0.0, -24.460646999999998, -10.712187199999999, -5.8345096, 3.82628222, 19.4955008, 0.0, 0.6827806200000001, -3.76167688, -2.4653608, 0.51789656, 19.7872678, 0.0, -8.2044448, 0.565077948, -2.57657326, 18.922734, 0.0
24.637184, -17.5371812, 1.2088145000000001, 14.2521954, 14.3513556, 0.0, -24.489338999999998, -10.7671104, -5.8174412, 3.89727584, 19.482742599999998, 0.0, 0.73603204, -3.78906936, -2.4709807, 0.61282742, 19.798252599999998, 0.0, -8.2267576, 0.601885696, -2.55242702, 18.902784, 0.0
24.637184, -17.5223588, 1.2290967, 14.236766600000001, 14.341438400000001, 0.0, -24.518031, -10.8220336, -5.8003728, 3.96826946, 19.4699844, 0.0, 0.78928346, -3.81646184, -2.4766006, 0.70775828, 19.8092374, 0.0, -8.2490704, 0.638693444, -2.52828078, 18.882834, 0.0
24.637184, -17.5075364, 1.2493789, 14.2213378, 14.331521200000001, 0.0, -24.546723, -10.8769568, -5.7833044000000005, 4.03926308, 19.4572262, 0.0, 0.8425348800000001, -3.84385432, -2.4822205, 0.80268914, 19.8202222, 0.0, -8.2713832, 0.675501192, -2.50413454, 18.862884, 0.0
24.637184, -17.492714, 1.2696611, 14.205909, 14.321604, 0.0, -24.575415, -10.93188, -5.766236, 4.1102567, 19.444468, 0.0, 0.8957863, -3.8712468, -2.4878404, 0.89762, 19.831207, 0.0, -8.293696, 0.71230894, -2.4799883, 18.842934, 0.0
24.637184, -17.4721992, 1.3018406, 14.223477, 14.294655800000001, 0.0, -24.5860396, -10.9913522, -5.74506106, 4.21377252, 19.4422864, 0.0, 0.95843732, -3.9872499400000003, -2.44361312, 1.0446666, 19.8769284, 0.0, -8.397372800000001, 0.764214238, -2.43631874, 18.8144584, 0.0
24.637184, -17.451684399999998, 1.3340201, 14.241045, 14.267707600000001, 0.0, -24.5966642, -11.0508244, -5.72388612, 4.31728834, 19.4401048, 0.0, 1.02108834, -4.10325308, -2.39938584, 1.1917132000000001, 19.9226498, 0.0, -8.5010496, 0.816119536, -2.39264918, 18.7859828, 0.0
24.637184, -17.4311696, 1.3661995999999998, 14.258613, 14.2407594, 0.0, -24.6072888, -11.1102966, -5.70271118, 4.420804159999999, 19.4379232, 0.0, 1.08373936, -4.21925622, -2.35515856, 1.3387598, 19.9683712, 0.0, -8.6047264, 0.868024834, -2.34897962, 18.7575072, 0.0
24.637184, -17.4106548, 1.3983790999999999, 14.276181, 14.2138112, 0.0, -24.6179134, -11.1697688, -5.68153624, 4.52431998, 19.4357416, 0.0, 1.1463903800000002, -4.33525936, -2.3109312799999997, 1.4858064, 20.014092599999998, 0.0, -8.7084032, 0.919930132, -2.30531006, 18.7290316, 0.0
24.637184, -17.39014, 1.4305586, 14.293749, 14.186863, 0.0, -24.628538, -11.229241, -5.6603613, 4.6278358, 19.43356, 0.0, 1.2090414, -4.4512625, -2.266704, 1.632853, 20.059814, 0.0, -8.81208, 0.97183543, -2.2616405, 18.700556, 0.0
24.637184, -17.4136456, 1.4495483999999998, 14.3647284, 14.1731852, 0.0, -24.630187199999998, -11.321254, -5.62409212, 4.75392632, 19.4688412, 0.0, 1.28004724, -4.7116762, -2.17525566, 1.7943374, 20.2430008, 0.0, -9.072284, 0.9648338639999999, -2.2588029, 18.8280168, 0.0
24.637184, -17.4371512, 1.4685382, 14.4357078, 14.1595074, 0.0, -24.631836399999997, -11.413267, -5.58782294, 4.88001684, 19.5041224, 0.0, 1.35105308, -4.9720899, -2.08380732, 1.9558218000000003, 20.4261876, 0.0, -9.332488, 0.9578322979999999, -2.2559653, 18.9554776, 0.0
24.637184, -17.4606568, 1.487528, 14.5066872, 14.1458296, 0.0, -24.6334856, -11.50528, -5.55155376, 5.00610736, 19.5394036, 0.0, 1.42205892, -5.2325036, -1.9923589800000001, 2.1173062000000002, 20.6093744, 0.0, -9.592692, 0.950830732, -2.2531277, 19.0829384, 0.0
24.637184, -17.4841624, 1.5065178000000001, 14.577666599999999, 14.1321518, 0.0, -24.6351348, -11.597293, -5.515284579999999, 5.13219788, 19.5746848, 0.0, 1.49306476, -5.4929173, -1.90091064, 2.2787906, 20.792561199999998, 0.0, -9.852896, 0.943829166, -2.2502901, 19.210399199999998, 0.0
24.637184, -17.507668, 1.5255076, 14.648646, 14.118474, 0.0, -24.636784, -11.689306, -5.4790154, 5.2582884, 19.609966, 0.0, 1.5640706, -5.753331, -1.8094623, 2.440275, 20.975748, 0.0, -10.1131, 0.9368276, -2.2474525, 19.33786, 0.0
24.637184, -17.6856628, 1.46597014, 14.7759006, 14.1609514, 0.0, -24.635423199999998, -11.8825632, -5.39418992, 5.35125812, 19.7577328, 0.0, 1.6201879399999999, -6.168868600000001, -1.6902316000000002, 2.5769383400000003, 21.5689898, 0.0, -10.513822399999999, 0.82563793, -2.34164286, 19.9244396, 0.0
24.637184, -17.8636576, 1.40643268, 14.9031552, 14.203428800000001, 0.0, -24.634062399999998, -12.0758204, -5.3093644399999995, 5.44422784, 19.9054996, 0.0, 1.67630528, -6.5844062, -1.5710009, 2.71360168, 22.1622316, 0.0, -10.9145448, 0.71444826, -2.43583322, 20.5110192, 0.0
24.637184, -18.0416524, 1.34689522, 15.0304098, 14.2459062, 0.0, -24.6327016, -12.269077600000001, -5.22453896, 5.53719756, 20.053266400000002, 0.0, 1.73242262, -6.9999438000000005, -1.4517702000000001, 2.85026502, 22.7554734, 0.0, -11.3152672, 0.60325859, -2.53002358, 21.0975988, 0.0
24.637184, -18.2196472, 1.2873577600000001, 15.1576644, 14.288383600000001, 0.0, -24.6313408, -12.4623348, -5.13971348, 5.63016728, 20.2010332, 0.0, 1.78853996, -7.415481400000001, -1.3325395000000002, 2.9869283600000003, 23.348715199999997, 0.0, -11.7159896, 0.49206892, -2.62421394, 21.6841784, 0.0
24.637184, -18.397642, 1.2278203, 15.284919, 14.330861, 0.0, -24.62998, -12.655592, -5.054888, 5.723137, 20.3488, 0.0, 1.8446573, -7.831019, -1.2133088, 3.1235917, 23.941957, 0.0, -12.116712, 0.38087925, -2.7184043, 22.270758, 0.0
24.637184, -18.8726314, 1.0210389800000002, 15.417355800000001, 14.4330438, 0.0, -24.6075442, -13.0318264, -4.86072454, 5.69887588, 20.6511714, 0.0, 1.85426804, -8.2752044, -1.1621263000000002, 3.18618992, 25.139886399999998, 0.0, -12.5032424, 0.236357276, -2.89082552, 23.4706134, 0.0
24.637184, -19.3476208, 0.81425766, 15.5497926, 14.5352266, 0.0, -24.5851084, -13.4080608, -4.66656108, 5.67461476, 20.9535428, 0.0, 1.86387878, -8.7193898, -1.1109438, 3.24878814, 26.337815799999998, 0.0, -12.8897728, 0.09183530200000001, -3.06324674, 24.670468800000002, 0.0
24.637184, -19.8226102, 0.6074763400000001, 15.6822294, 14.637409400000001, 0.0, -24.5626726, -13.784295199999999, -4.47239762, 5.6503536400000005, 21.2559142, 0.0, 1.87348952, -9.1635752, -1.0597613, 3.31138636, 27.5357452, 0.0, -13.276303200000001, -0.05268667199999999, -3.23566796, 25.8703242, 0.0
24.637184, -20.2975996, 0.40069502, 15.8146662, 14.7395922, 0.0, -24.5402368, -14.1605296, -4.27823416, 5.62609252, 21.5582856, 0.0, 1.88310026, -9.607760599999999, -1.0085788, 3.37398458, 28.7336746, 0.0, -13.6628336, -0.197208646, -3.40808918, 27.0701796, 0.0
24.637184, -20.772589, 0.1939137, 15.947103, 14.841775, 0.0, -24.517801, -14.536764, -4.0840707, 5.6018314, 21.860657, 0.0, 1.892711, -10.051946, -0.9573963, 3.4365828, 29.931604, 0.0, -14.049364, -0.34173062, -3.5805104, 28.270035, 0.0
24.6342964, -21.4695796, -0.10403228, 16.091092, 14.9796618, 0.0, -24.4407396, -15.059368, -3.8032578999999997, 5.46875512, 22.2933234, 0.0, 1.87327632, -10.280879599999999, -1.09061706, 3.50745596, 31.4738192, 0.0, -14.244519200000001, -0.382717576, -3.84176438, 29.826504, 0.0
24.6314088, -22.1665702, -0.40197826000000003, 16.235081, 15.117548600000001, 0.0, -24.3636782, -15.581972, -3.5224450999999997, 5.33567884, 22.7259898, 0.0, 1.85384164, -10.5098132, -1.22383782, 3.5783291200000003, 33.0160344, 0.0, -14.439674400000001, -0.42370453199999997, -4.10301836, 31.382973, 0.0
24.6285212, -22.863560800000002, -0.6999242400000001, 16.379070000000002, 15.2554354, 0.0, -24.2866168, -16.104576, -3.2416323, 5.20260256, 23.1586562, 0.0, 1.8344069600000001, -10.7387468, -1.35705858, 3.64920228, 34.558249599999996, 0.0, -14.6348296, -0.464691488, -4.364272339999999, 32.939442, 0.0
24.6256336, -23.5605514, -0.99787022, 16.523059, 15.3933222, 0.0, -24.2095554, -16.62718, -2.9608195, 5.06952628, 23.5913226, 0.0, 1.81497228, -10.9676804, -1.4902793399999998, 3.72007544, 36.1004648, 0.0, -14.8299848, -0.505678444, -4.62552632, 34.495911, 0.0
24.622746, -24.257542, -1.2958162, 16.667048, 15.531209, 0.0, -24.132494, -17.149784, -2.6800067, 4.93645, 24.023989, 0.0, 1.7955376, -11.196614, -1.6235001, 3.7909486, 37.64268, 0.0, -15.02514, -0.5466654, -4.8867803, 36.05238, 0.0
24.5806344, -24.9585552, -1.56707184, 16.8076124, 15.659071, 0.0, -24.0214112, -17.667080600000002, -2.4075318, 4.758484, 24.4417792, 0.0, 1.7917874200000001, -11.3352176, -1.89424452, 4.21973236, 38.981656, 0.0, -15.236957, -0.42313977999999997, -5.43422072, 37.449074, 0.0
24.5385228, -25.6595684, -1.83832748, 16.9481768, 15.786933, 0.0, -23.9103284, -18.1843772, -2.1350569, 4.580518, 24.859569399999998, 0.0, 1.78803724, -11.4738212, -2.1649889399999998, 4.64851612, 40.320632, 0.0, -15.448774, -0.29961415999999996, -5.98166114, 38.845768, 0.0
24.4964112, -26.3605816, -2.10958312, 17.0887412, 15.914795, 0.0, -23.7992456, -18.701673800000002, -1.862582, 4.402552, 25.2773596, 0.0, 1.78428706, -11.612424800000001, -2.43573336, 5.07729988, 41.659608000000006, 0.0, -15.660591, -0.17608853999999996, -6.52910156, 40.242462, 0.0
24.4542996, -27.0615948, -2.38083876, 17.2293056, 16.042657, 0.0, -23.6881628, -19.2189704, -1.5901071, 4.2245859999999995, 25.6951498, 0.0, 1.7805368799999999, -11.751028400000001, -2.70647778, 5.50608364, 42.998584, 0.0, -15.872408, -0.05256291999999996, -7.07654198, 41.639156, 0.0
24.412188, -27.762608, -2.6520944, 17.36987, 16.170519, 0.0, -23.57708, -19.736267, -1.3176322, 4.04662, 26.11294, 0.0, 1.7767867, -11.889632, -2.9772222, 5.9348674, 44.33756, 0.0, -16.084225, 0.0709627, -7.6239824, 43.03585, 0.0
24.300726400000002, -28.3073352, -2.8008766, 17.456570199999998, 16.2697342, 0.0, -23.4864782, -20.073133600000002, -1.104693546, 3.85182804, 26.354651999999998, 0.0, 1.78227118, -12.6752654, -3.07720296, 6.61874812, 45.0845332, 0.0, -16.9747534, 0.24924000000000002, -8.28768292, 43.895396000000005, 0.0
24.1892648, -28.8520624, -2.9496588, 17.543270399999997, 16.368949399999998, 0.0, -23.3958764, -20.410000200000002, -0.891754892, 3.65703608, 26.596363999999998, 0.0, 1.78775566, -13.4608988, -3.17718372, 7.302628840000001, 45.8315064, 0.0, -17.8652818, 0.4275173, -8.95138344, 44.754942, 0.0
24.0778032, -29.396789599999998, -3.0984410000000002, 17.6299706, 16.4681646, 0.0, -23.3052746, -20.7468668, -0.678816238, 3.4622441200000003, 26.838076, 0.0, 1.79324014, -14.2465322, -3.27716448, 7.98650956, 46.5784796, 0.0, -18.7558102, 0.6057946000000001, -9.61508396, 45.614488, 0.0
23.9663416, -29.9415168, -3.2472232, 17.7166708, 16.5673798, 0.0, -23.2146728, -21.0837334, -0.465877584, 3.26745216, 27.079788, 0.0, 1.79872462, -15.0321656, -3.37714524, 8.67039028, 47.3254528, 0.0, -19.6463386, 0.7840719, -10.278784479999999, 46.474033999999996, 0.0
23.85488, -30.486244, -3.3960054, 17.803371, 16.666595, 0.0, -23.124071, -21.4206, -0.25293893, 3.0726602, 27.3215, 0.0, 1.8042091, -15.817799, -3.477126, 9.354271, 48.072426, 0.0, -20.536867, 0.9623492, -10.942485, 47.33358, 0.0
23.763891, -30.7216956, -3.37302992, 17.8424394, 16.777583, 0.0, -23.140787800000002, -21.368304000000002, -0.159279072, 2.94235024, 27.3882986, 0.0, 1.84422182, -17.5772932, -2.9769074300000002, 9.356986000000001, 48.0185556, 0.0, -22.3935366, 0.7654863126, -10.889813199999999, 47.4106034, 0.0
23.672902, -30.9571472, -3.35005444, 17.881507799999998, 16.888571, 0.0, -23.1575046, -21.316008, -0.06561921399999998, 2.81204028, 27.4550972, 0.0, 1.88423454, -19.3367874, -2.4766888600000003, 9.359701000000001, 47.9646852, 0.0, -24.2502062, 0.5686234252, -10.8371414, 47.4876268, 0.0
23.581913, -31.1925988, -3.3270789599999997, 17.9205762, 16.999559, 0.0, -23.1742214, -21.263712, 0.02804064400000006, 2.68173032, 27.5218958, 0.0, 1.92424726, -21.096281599999998, -1.97647029, 9.362416, 47.910814800000004, 0.0, -26.1068758, 0.37176053780000007, -10.7844696, 47.564650199999996, 0.0
23.490924, -31.4280504, -3.3041034799999998, 17.959644599999997, 17.110547, 0.0, -23.190938199999998, -21.211416, 0.12170050200000004, 2.55142036, 27.5886944, 0.0, 1.96425998, -22.8557758, -1.47625172, 9.365131, 47.8569444, 0.0, -27.9635454, 0.17489765040000005, -10.7317978, 47.6416736, 0.0
23.399935, -31.663502, -3.281128, 17.998713, 17.221535, 0.0, -23.207655, -21.15912, 0.21536036, 2.4211104, 27.655493, 0.0, 2.0042727, -24.61527, -0.97603315, 9.367846, 47.803074, 0.0, -29.820215, -0.021965237, -10.679126, 47.718697, 0.0
23.3816022, -31.5196656, -3.1047967, 17.9253914, 17.3823634, 0.0, -23.3062134, -20.6922614, 0.1797012276, 2.37450482, 27.5736264, 0.0, 2.1100039, -27.333005, 0.2446576800000001, 8.6319488, 46.9648622, 0.0, -32.6404356, -0.8534704896, -9.8420697, 46.9862576, 0.0
23.3632694, -31.375829200000002, -2.9284654, 17.8520698, 17.5431918, 0.0, -23.4047718, -20.2254028, 0.1440420952, 2.32789924, 27.4917598, 0.0, 2.2157351, -30.050739999999998, 1.46534851, 7.8960516, 46.1266504, 0.0, -35.4606562, -1.6849757422000002, -9.0050134, 46.2538182, 0.0
23.3449366, -31.2319928, -2.7521341, 17.7787482, 17.704020200000002, 0.0, -23.5033302, -19.7585442, 0.1083829628, 2.2812936600000002, 27.4098932, 0.0, 2.3214663, -32.768474999999995, 2.68603934, 7.160154400000001, 45.2884386, 0.0, -38.2808768, -2.5164809948, -8.167957099999999, 45.5213788, 0.0
23.3266038, -31.088156400000003, -2.5758028, 17.7054266, 17.864848600000002, 0.0, -23.6018886, -19.2916856, 0.0727238304, 2.23468808, 27.3280266, 0.0, 2.4271974999999997, -35.48621, 3.9067301700000003, 6.4242572000000004, 44.4502268, 0.0, -41.1010974, -3.3479862474, -7.3309008, 44.7889394, 0.0
23.308271, -30.94432, -2.3994715, 17.632105, 18.025677, 0.0, -23.700447, -18.824827, 0.037064698, 2.1880825, 27.24616, 0.0, 2.5329287, -38.203945, 5.127421, 5.68836, 43.612015, 0.0, -43.921318, -4.1794915, -6.4938445, 44.0565, 0.0
23.4702868, -30.3749972, -2.01652798, 17.515032599999998, 18.22306, 0.0, -23.8231016, -18.0383742, -0.1263066016, 2.25762014, 27.136992, 0.0, 2.5764208799999997, -41.5288794, 6.807117, 5.0215554000000004, 42.4111948, 0.0, -47.3836716, -5.4579556, -5.61414908, 42.884746, 0.0
23.6323026, -29.8056744, -1.6335844600000002, 17.3979602, 18.420443000000002, 0.0, -23.9457562, -17.2519214, -0.28967790120000003, 2.3271577800000003, 27.027824, 0.0, 2.61991306, -44.8538138, 8.486813, 4.3547508, 41.2103746, 0.0, -50.8460252, -6.7364197, -4.73445366, 41.712992, 0.0
23.7943184, -29.2363516, -1.25064094, 17.2808878, 18.617826, 0.0, -24.0684108, -16.4654686, -0.45304920080000005, 2.39669542, 26.918656000000002, 0.0, 2.66340524, -48.1787482, 10.166509, 3.6879462, 40.0095544, 0.0, -54.3083788, -8.0148838, -3.8547582400000007, 40.541238, 0.0
23.9563342, -28.6670288, -0.86769742, 17.1638154, 18.815209000000003, 0.0, -24.1910654, -15.6790158, -0.6164205004000001, 2.46623306, 26.809488, 0.0, 2.70689742, -51.503682600000005, 11.846205, 3.0211416, 38.8087342, 0.0, -57.7707324, -9.2933479, -2.9750628200000007, 39.369484, 0.0
24.11835, -28.097706, -0.4847539, 17.046743, 19.012592, 0.0, -24.31372, -14.892563, -0.7797918, 2.5357707, 26.70032, 0.0, 2.7503896, -54.828617, 13.525901, 2.354337, 37.607914, 0.0, -61.233086, -10.571812, -2.0953674, 38.19773, 0.0
24.2099746, -27.3433824, -0.045191800000000004, 16.8535768, 19.1158892, 0.0, -24.3691492, -14.0655374, -1.0195408000000001, 2.59499782, 26.4922136, 0.0, 2.70647328, -57.726541600000004, 15.1168868, 2.24931292, 37.0066772, 0.0, -64.2887568, -11.860792, -1.6214677080000002, 37.579602, 0.0
24.3015992, -26.5890588, 0.3943703, 16.6604106, 19.2191864, 0.0, -24.424578399999998, -13.2385118, -1.2592898000000001, 2.65422494, 26.2841072, 0.0, 2.66255696, -60.6244662, 16.7078726, 2.14428884, 36.4054404, 0.0, -67.3444276, -13.149771999999999, -1.1475680160000001, 36.961474, 0.0
24.3932238, -25.834735199999997, 0.8339323999999999, 16.467244400000002, 19.322483599999998, 0.0, -24.4800076, -12.411486199999999, -1.4990388000000001, 2.71345206, 26.0760008, 0.0, 2.61864064, -63.522390800000004, 18.2988584, 2.03926476, 35.8042036, 0.0, -70.40009839999999, -14.438752, -0.6736683240000003, 36.343346, 0.0
24.4848484, -25.080411599999998, 1.2734945, 16.2740782, 19.4257808, 0.0, -24.5354368, -11.5844606, -1.7387878000000003, 2.77267918, 25.8678944, 0.0, 2.57472432, -66.4203154, 19.8898442, 1.93424068, 35.202966800000006, 0.0, -73.45576919999999, -15.727732, -0.19976863200000028, 35.725218, 0.0
24.576473, -24.326088, 1.7130566, 16.080912, 19.529078, 0.0, -24.590866, -10.757435, -1.9785368, 2.8319063, 25.659788, 0.0, 2.530808, -69.31824, 21.48083, 1.8292166, 34.60173, 0.0, -76.51144, -17.016712, 0.27413106, 35.10709, 0.0
24.588183, -23.6820798, 2.10347522, 15.9217746, 19.554231599999998, 0.0, -24.599704199999998, -10.05378374, -2.19210184, 2.83280864, 25.418419999999998, 0.0, 2.5073208, -71.406126, 22.628428, 2.07311792, 34.873790400000004, 0.0, -78.76872399999999, -17.950941399999998, 0.665560148, 35.3004028, 0.0
24.599893, -23.0380716, 2.49389384, 15.7626372, 19.579385199999997, 0.0, -24.608542399999997, -9.35013248, -2.40566688, 2.83371098, 25.177052, 0.0, 2.4838336, -73.494012, 23.776026, 2.31701924, 35.145850800000005, 0.0, -81.02600799999999, -18.885170799999997, 1.056989236, 35.4937156, 0.0
24.611603, -22.3940634, 2.8843124600000003, 15.603499800000002, 19.6045388, 0.0, -24.6173806, -8.64648122, -2.61923192, 2.83461332, 24.935684, 0.0, 2.4603463999999997, -75.58189800000001, 24.923624, 2.56092056, 35.4179112, 0.0, -83.283292, -19.819400199999997, 1.448418324, 35.687028399999996, 0.0
24.623313, -21.7500552, 3.2747310800000005, 15.444362400000001, 19.6296924, 0.0, -24.6262188, -7.94282996, -2.8327969599999996, 2.83551566, 24.694316, 0.0, 2.4368592, -77.669784, 26.071222, 2.80482188, 35.6899716, 0.0, -85.540576, -20.7536296, 1.839847412, 35.8803412, 0.0
24.635023, -21.106047, 3.6651497, 15.285225, 19.654846, 0.0, -24.635057, -7.2391787, -3.046362, 2.836418, 24.452948, 0.0, 2.413372, -79.75767, 27.21882, 3.0487232, 35.962032, 0.0, -87.79786, -21.687859, 2.2312765, 36.073654, 0.0
24.6354552, -20.7198904, 3.9549312600000004, 15.163959, 19.6486152, 0.0, -24.6354824, -6.73240446, -3.15134356, 2.7697450800000003, 24.289693, 0.0, 2.3421713, -81.03917, 27.8449996, 3.50843886, 36.871217, 0.0, -89.258232, -22.1638274, 2.6122554, 36.835259199999996, 0.0
24.6358874, -20.3337338, 4.24471282, 15.042693, 19.642384399999997, 0.0, -24.635907800000002, -6.22563022, -3.25632512, 2.70307216, 24.126438, 0.0, 2.2709706, -82.32067, 28.4711792, 3.96815452, 37.780402, 0.0, -90.718604, -22.639795799999998, 2.9932343, 37.5968644, 0.0
24.6363196, -19.947577199999998, 4.53449438, 14.921427000000001, 19.6361536, 0.0, -24.6363332, -5.71885598, -3.36130668, 2.6363992400000003, 23.963182999999997, 0.0, 2.1997698999999997, -83.60217, 29.0973588, 4.42787018, 38.689586999999996, 0.0, -92.178976, -23.1157642, 3.3742132, 38.3584696, 0.0
24.636751800000003, -19.561420599999998, 4.824275940000001, 14.800161000000001, 19.6299228, 0.0, -24.6367586, -5.21208174, -3.46628824, 2.56972632, 23.799927999999998, 0.0, 2.1285692, -84.88367000000001, 29.7235384, 4.88758584, 39.598772, 0.0, -93.639348, -23.5917326, 3.7551921, 39.120074800000005, 0.0
24.637184, -19.175264, 5.1140575, 14.678895, 19.623692, 0.0, -24.637184, -4.7053075, -3.5712698, 2.5030534, 23.636673, 0.0, 2.0573685, -86.16517, 30.349718, 5.3473015, 40.507957, 0.0, -95.09972, -24.067701, 4.136171, 39.88168, 0.0
24.637184, -19.0458482, 5.2955474, 14.5757238, 19.636289599999998, 0.0, -24.637184, -4.412357, -3.5579923, 2.39750356, 23.593200999999997, 0.0, 1.96864124, -86.683058, 30.538732, 5.77664328, 41.480110599999996, 0.0, -95.789308, -24.1398868, 4.4773265, 40.7206386, 0.0
24.637184, -18.916432399999998, 5.4770373, 14.4725526, 19.648887199999997, 0.0, -24.637184, -4.1194065, -3.5447148, 2.29195372, 23.549729, 0.0, 1.87991398, -87.200946, 30.727746, 6.20598506, 42.452264199999995, 0.0, -96.478896, -24.2120726, 4.818482, 41.5595972, 0.0
24.637184, -18.7870166, 5.6585272, 14.3693814, 19.6614848, 0.0, -24.637184, -3.826456, -3.5314373, 2.1864038800000003, 23.506256999999998, 0.0, 1.79118672, -87.718834, 30.91676, 6.635326839999999, 43.4244178, 0.0, -97.16848399999999, -24.2842584, 5.1596375000000005, 42.398555800000004, 0.0
24.637184, -18.6576008, 5.8400171, 14.2662102, 19.6740824, 0.0, -24.637184, -3.5335055, -3.5181598, 2.08085404, 23.462785, 0.0, 1.70245946, -88.236722, 31.105774, 7.06466862, 44.3965714, 0.0, -97.85807199999999, -24.3564442, 5.500793, 43.2375144, 0.0
24.637184, -18.528185, 6.021507, 14.163039, 19.68668, 0.0, -24.637184, -3.240555, -3.5048823, 1.9753042, 23.419313, 0.0, 1.6137322, -88.75461, 31.294788, 7.4940104, 45.368725, 0.0, -98.54766, -24.42863, 5.8419485, 44.076473, 0.0
24.637184, -18.5830086, 6.0792565199999995, 14.0789174, 19.735688, 0.0, -24.637184, -3.13344304, -3.4139898, 1.85581466, 23.423455, 0.0, 1.5574056, -88.7144912, 31.212790000000002, 7.56035392, 45.8220026, 0.0, -98.5943552, -24.3147314, 6.14988708, 44.4902264, 0.0
24.637184, -18.6378322, 6.13700604, 13.9947958, 19.784696, 0.0, -24.637184, -3.02633108, -3.3230972999999997, 1.73632512, 23.427597, 0.0, 1.501079, -88.6743724, 31.130792, 7.62669744, 46.2752802, 0.0, -98.6410504, -24.2008328, 6.45782566, 44.9039798, 0.0
24.637184, -18.6926558, 6.19475556, 13.910674199999999, 19.833703999999997, 0.0, -24.637184, -2.91921912, -3.2322048, 1.61683558, 23.431739, 0.0, 1.4447524, -88.63425360000001, 31.048794, 7.693040959999999, 46.7285578, 0.0, -98.6877456, -24.086934199999998, 6.76576424, 45.3177332, 0.0
24.637184, -18.7474794, 6.252505080000001, 13.8265526, 19.882711999999998, 0.0, -24.637184, -2.81210716, -3.1413122999999996, 1.49734604, 23.435881, 0.0, 1.3884258, -88.5941348, 30.966796, 7.75938448, 47.1818354, 0.0, -98.7344408, -23.9730356, 7.07370282, 45.731486600000004, 0.0
24.637184, -18.802303, 6.3102546, 13.742431, 19.93172, 0.0, -24.637184, -2.7049952, -3.0504198, 1.3778565, 23.440023, 0.0, 1.3320992, -88.554016, 30.884798, 7.825728, 47.635113, 0.0, -98.781136, -23.859137, 7.3816414, 46.14524, 0.0
24.637184, -18.9013468, 6.29841016, 13.6989298, 19.977816999999998, 0.0, -24.637184, -2.68561762, -2.95768264, 1.288782114, 23.4403156, 0.0, 1.31570352, -88.21574480000001, 30.7801276, 7.5564029999999995, 47.4652884, 0.0, -98.3696536, -23.731597, 7.74405192, 45.9213152, 0.0
24.637184, -19.0003906, 6.2865657200000005, 13.6554286, 20.023913999999998, 0.0, -24.637184, -2.66624004, -2.86494548, 1.199707728, 23.4406082, 0.0, 1.29930784, -87.8774736, 30.6754572, 7.287078, 47.2954638, 0.0, -97.95817120000001, -23.604057, 8.106462440000001, 45.6973904, 0.0
24.637184, -19.0994344, 6.27472128, 13.611927399999999, 20.070011, 0.0, -24.637184, -2.64686246, -2.77220832, 1.1106333419999999, 23.4409008, 0.0, 1.28291216, -87.53920240000001, 30.5707868, 7.017753, 47.125639199999995, 0.0, -97.5466888, -23.476517, 8.46887296, 45.4734656, 0.0
24.637184, -19.1984782, 6.26287684, 13.5684262, 20.116108, 0.0, -24.637184, -2.62748488, -2.67947116, 1.021558956, 23.4411934, 0.0, 1.26651648, -87.2009312, 30.4661164, 6.7484280000000005, 46.9558146, 0.0, -97.1352064, -23.348977, 8.83128348, 45.2495408, 0.0
24.637184, -19.297522, 6.2510324, 13.524925, 20.162205, 0.0, -24.637184, -2.6081073, -2.586734, 0.93248457, 23.441486, 0.0, 1.2501208, -86.86266, 30.361446, 6.479103, 46.78599, 0.0, -96.723724, -23.221437, 9.193694, 45.025616, 0.0
24.637184, -19.332793000000002, 6.198051319999999, 13.5276289, 20.160228, 0.0, -24.6371596, -2.60856464, -2.57712146, 0.891925136, 23.3847272, 0.0, 1.2480576399999999, -85.99326400000001, 30.2890336, 5.90279372, 46.085091999999996, 0.0, -95.730914, -23.1907426, 9.6073046, 44.1303708, 0.0
24.637184, -19.368064, 6.14507024, 13.5303328, 20.158251, 0.0, -24.6371352, -2.60902198, -2.56750892, 0.851365702, 23.3279684, 0.0, 1.24599448, -85.123868, 30.2166212, 5.32648444, 45.384194, 0.0, -94.738104, -23.160048200000002, 10.020915200000001, 43.2351256, 0.0
24.637184, -19.403335000000002, 6.09208916, 13.5330367, 20.156274, 0.0, -24.637110800000002, -2.6094793199999997, -2.55789638, 0.810806268, 23.271209600000002, 0.0, 1.24393132, -84.254472, 30.1442088, 4.75017516, 44.683296, 0.0, -93.745294, -23.1293538, 10.4345258, 42.3398804, 0.0
24.637184, -19.438606, 6.03910808, 13.5357406, 20.154297, 0.0, -24.6370864, -2.60993666, -2.54828384, 0.7702468339999999, 23.2144508, 0.0, 1.24186816, -83.385076, 30.0717964, 4.17386588, 43.982398, 0.0, -92.75248400000001, -23.098659400000003, 10.8481364, 41.4446352, 0.0
24.637184, -19.473877, 5.986127, 13.5384445, 20.15232, 0.0, -24.637062, -2.610394, -2.5386713, 0.7296874, 23.157692, 0.0, 1.239805, -82.51568, 29.999384, 3.5975566, 43.2815, 0.0, -91.759674, -23.067965, 11.261747, 40.54939, 0.0
24.637184, -19.422950800000002, 5.91389092, 13.5694158, 20.0622106, 0.0, -24.6367374, -2.61766614, -2.63491878, 0.739532608, 23.0093872, 0.0, 1.25680326, -80.896488, 29.973618, 2.897611676, 42.3751206, 0.0, -90.0224572, -23.1550118, 11.7405236, 39.315076000000005, 0.0
24.637184, -19.3720246, 5.84165484, 13.6003871, 19.9721012, 0.0, -24.636412800000002, -2.62493828, -2.7311662599999997, 0.749377816, 22.8610824, 0.0, 1.2738015200000001, -79.277296, 29.947851999999997, 2.197666752, 41.468741200000004, 0.0, -88.2852404, -23.2420586, 12.2193002, 38.080762, 0.0
24.637184, -19.3210984, 5.76941876, 13.6313584, 19.881991799999998, 0.0, -24.6360882, -2.63221042, -2.82741374, 0.759223024, 22.7127776, 0.0, 1.29079978, -77.658104, 29.922086, 1.497721828, 40.5623618, 0.0, -86.5480236, -23.3291054, 12.698076799999999, 36.846448, 0.0
24.637184, -19.270172199999998, 5.69718268, 13.6623297, 19.7918824, 0.0, -24.6357636, -2.63948256, -2.9236612199999996, 0.769068232, 22.5644728, 0.0, 1.30779804, -76.038912, 29.89632, 0.797776904, 39.6559824, 0.0, -84.8108068, -23.4161522, 13.1768534, 35.612134, 0.0
24.637184, -19.219246, 5.6249466, 13.693301, 19.701773, 0.0, -24.635439, -2.6467547, -3.0199087, 0.77891344, 22.416168, 0.0, 1.3247963, -74.41972, 29.870554, 0.09783198, 38.749603, 0.0, -83.07359, -23.503199, 13.65563, 34.37782, 0.0
24.637184, -19.0924278, 5.578673080000001, 13.768302, 19.5535484, 0.0, -24.6349392, -2.6414013599999997, -3.2097304199999996, 0.8696089119999999, 22.2338034, 0.0, 1.3510435, -72.002473, 29.486733599999997, -0.611524136, 38.2817694, 0.0, -80.560638, -23.394405199999998, 14.120444, 33.4667728, 0.0
24.637184, -18.9656096, 5.53239956, 13.843303, 19.4053238, 0.0, -24.6344394, -2.63604802, -3.39955214, 0.960304384, 22.0514388, 0.0, 1.3772907, -69.585226, 29.1029132, -1.320880252, 37.8139358, 0.0, -78.047686, -23.2856114, 14.585258, 32.5557256, 0.0
24.637184, -18.838791399999998, 5.48612604, 13.918304, 19.2570992, 0.0, -24.6339396, -2.63069468, -3.58937386, 1.0509998559999998, 21.8690742, 0.0, 1.4035379, -67.167979, 28.7190928, -2.030236368, 37.3461022, 0.0, -75.534734, -23.1768176, 15.050072, 31.6446784, 0.0
24.637184, -18.7119732, 5.43985252, 13.993305, 19.1088746, 0.0, -24.6334398, -2.6253413400000003, -3.7791955799999997, 1.141695328, 21.6867096, 0.0, 1.4297851, -64.750732, 28.3352724, -2.739592484, 36.8782686, 0.0, -73.021782, -23.068023800000002, 15.514885999999999, 30.733631199999998, 0.0
24.637184, -18.585155, 5.393579, 14.068306, 18.96065, 0.0, -24.63294, -2.619988, -3.9690173, 1.2323908, 21.504345, 0.0, 1.4560323, -62.333485, 27.951452, -3.4489486, 36.410435, 0.0, -70.50883, -22.95923, 15.9797, 29.822584, 0.0
24.637184, -18.4544284, 5.395803, 14.2141412, 18.8478184, 0.0, -24.630091200000003, -2.6293306000000003, -4.17000764, 1.39601778, 21.4084176, 0.0, 1.4535547, -59.3029346, 26.9360174, -4.18944888, 36.7975, 0.0, -67.360517, -22.2537854, 16.5373896, 29.7318908, 0.0
24.637184, -18.323701800000002, 5.398027, 14.3599764, 18.7349868, 0.0, -24.6272424, -2.6386732000000004, -4.37099798, 1.5596447599999999, 21.3124902, 0.0, 1.4510771, -56.2723842, 25.920582800000002, -4.92994916, 37.184565, 0.0, -64.212204, -21.548340800000002, 17.0950792, 29.641197599999998, 0.0
24.637184, -18.1929752, 5.400251, 14.5058116, 18.622155199999998, 0.0, -24.6243936, -2.6480158, -4.57198832, 1.72327174, 21.216562800000002, 0.0, 1.4485995, -53.241833799999995, 24.9051482, -5.67044944, 37.57163, 0.0, -61.063891, -20.8428962, 17.6527688, 29.5505044, 0.0
24.637184, -18.0622486, 5.402475, 14.6516468, 18.5093236, 0.0, -24.6215448, -2.6573584, -4.772978660000001, 1.88689872, 21.1206354, 0.0, 1.4461219, -50.2112834, 23.8897136, -6.41094972, 37.958695, 0.0, -57.915578000000004, -20.1374516, 18.2104584, 29.4598112, 0.0
24.637184, -17.931522, 5.404699, 14.797482, 18.396492, 0.0, -24.618696, -2.666701, -4.973969, 2.0505257, 21.024708, 0.0, 1.4436443, -47.180733, 22.874279, -7.15145, 38.34576, 0.0, -54.767265, -19.432007, 18.768148, 29.369118, 0.0
24.637184, -18.086944000000003, 5.27567866, 14.8524688, 18.262847599999997, 0.0, -24.5709524, -2.9434238, -4.951182660000001, 2.0372474, 20.9985608, 0.0, 1.3799556400000001, -44.1856224, 21.517858200000003, -7.6378563999999995, 39.499851, 0.0, -51.4489, -18.2965512, 19.2780704, 30.194899200000002, 0.0
24.637184, -18.242366, 5.14665832, 14.9074556, 18.1292032, 0.0, -24.5232088, -3.2201466000000005, -4.92839632, 2.0239691, 20.9724136, 0.0, 1.31626698, -41.190511799999996, 20.1614374, -8.1242628, 40.653942, 0.0, -48.130535, -17.1610954, 19.7879928, 31.0206804, 0.0
24.637184, -18.397788000000002, 5.01763798, 14.9624424, 17.995558799999998, 0.0, -24.475465200000002, -3.4968694000000005, -4.90560998, 2.0106908, 20.946266400000003, 0.0, 1.25257832, -38.1954012, 18.805016600000002, -8.6106692, 41.808032999999995, 0.0, -44.81217, -16.025639599999998, 20.2979152, 31.8464616, 0.0
24.637184, -18.55321, 4.8886176400000005, 15.0174292, 17.8619144, 0.0, -24.4277216, -3.7735922000000004, -4.88282364, 1.9974125, 20.920119200000002, 0.0, 1.18888966, -35.2002906, 17.4485958, -9.0970756, 42.962123999999996, 0.0, -41.493805, -14.890183799999999, 20.8078376, 32.6722428, 0.0
24.637184, -18.708632, 4.7595973, 15.072416, 17.72827, 0.0, -24.379978, -4.050315, -4.8600373, 1.9841342, 20.893972, 0.0, 1.125201, -32.20518, 16.092175, -9.583482, 44.116215, 0.0, -38.17544, -13.754728, 21.31776, 33.498024, 0.0
24.637184, -19.127776, 4.4824284400000005, 15.041797800000001, 17.593390199999998, 0.0, -24.266093, -4.53829592, -4.6713525, 1.8340479, 20.970224, 0.0, 1.0394748919999999, -29.8434848, 14.6376912, -9.6984411, 45.589368, 0.0, -35.3477582, -12.44365332, 21.496037, 35.0408402, 0.0
24.637184, -19.54692, 4.20525958, 15.0111796, 17.458510399999998, 0.0, -24.152208, -5.02627684, -4.4826677, 1.6839616, 21.046476000000002, 0.0, 0.953748784, -27.4817896, 13.1832074, -9.8134002, 47.062521, 0.0, -32.5200764, -11.13257864, 21.674314, 36.5836564, 0.0
24.637184, -19.966064000000003, 3.92809072, 14.980561400000001, 17.3236306, 0.0, -24.038323, -5.51425776, -4.2939829, 1.5338753, 21.122728, 0.0, 0.8680226759999999, -25.1200944, 11.7287236, -9.9283593, 48.535674, 0.0, -29.6923946, -9.821503960000001, 21.852591, 38.1264726, 0.0
24.637184, -20.385208000000002, 3.65092186, 14.9499432, 17.1887508, 0.0, -23.924438, -6.00223868, -4.1052981, 1.3837890000000002, 21.19898, 0.0, 0.782296568, -22.7583992, 10.2742398, -10.0433184, 50.008827, 0.0, -26.8647128, -8.51042928, 22.030867999999998, 39.669288800000004, 0.0
24.637184, -20.804352, 3.373753, 14.919325, 17.053871, 0.0, -23.810553, -6.4902196, -3.9166133, 1.2337027, 21.275232, 0.0, 0.69657046, -20.396704, 8.819756, -10.1582775, 51.48198, 0.0, -24.037031, -7.1993546, 22.209145, 41.212105, 0.0
24.637184, -21.105259800000002, 3.1194347999999996, 14.983524000000001, 17.016786800000002, 0.0, -23.7896602, -6.8951794799999995, -3.8231286399999997, 1.17607036, 21.3519872, 0.0, 0.649462656, -18.840706, 7.6518637, -9.842584, 52.7321806, 0.0, -22.0069438, -6.3790252800000005, 21.674818, 42.899624, 0.0
24.637184, -21.4061676, 2.8651166, 15.047723000000001, 16.9797026, 0.0, -23.768767399999998, -7.30013936, -3.72964398, 1.11843802, 21.4287424, 0.0, 0.602354852, -17.284708, 6.4839714, -9.5268905, 53.9823812, 0.0, -19.976856599999998, -5.55869596, 21.140491, 44.587143000000005, 0.0
