isaac-sim2real/sage/motion_files/h1_2/amass/0-E11-body_hook_right_t2_poses_action_sequence.txt
/h1_2/pelvis/left_hip_yaw_joint, /h1_2/left_hip_yaw_link/left_hip_pitch_joint, /h1_2/left_hip_pitch_link/left_hip_roll_joint, /h1_2/left_hip_roll_link/left_knee_joint, /h1_2/left_knee_link/left_ankle_pitch_joint, /h1_2/left_ankle_pitch_link/left_ankle_roll_joint, /h1_2/pelvis/right_hip_yaw_joint, /h1_2/right_hip_yaw_link/right_hip_pitch_joint, /h1_2/right_hip_pitch_link/right_hip_roll_joint, /h1_2/right_hip_roll_link/right_knee_joint, /h1_2/right_knee_link/right_ankle_pitch_joint, /h1_2/right_ankle_pitch_link/right_ankle_roll_joint, /h1_2/pelvis/torso_joint, /h1_2/torso_link/left_shoulder_pitch_joint, /h1_2/left_shoulder_pitch_link/left_shoulder_roll_joint, /h1_2/left_shoulder_roll_link/left_shoulder_yaw_joint, /h1_2/left_shoulder_yaw_link/left_elbow_joint, /h1_2/left_elbow_link/left_wrist_roll_joint, /h1_2/torso_link/right_shoulder_pitch_joint, /h1_2/right_shoulder_pitch_link/right_shoulder_roll_joint, /h1_2/right_shoulder_roll_link/right_shoulder_yaw_joint, /h1_2/right_shoulder_yaw_link/right_elbow_joint, /h1_2/right_elbow_link/right_wrist_roll_joint
0.4299999792196667, -0.32104802755672335, -0.036671840715950935, 0.5767095287089218, -0.13704263327471028, 0.0, -0.42027078093076436, -0.9566623312539911, -0.06704241276834239, 0.714770535422232, 0.4194161804625254, 0.0, -0.21086811459195445, -0.5003803114931679, 0.07976962245458984, -0.39898514679916947, -0.7132811587050426, 0.0, -0.2928887283254142, -0.08750061597216405, -0.3965973443962236, -0.4406657386384816, 0.0
0.4299999792196667, -0.321397313318608, -0.03677039841161351, 0.5775496638883203, -0.13737867931795514, 0.0, -0.42027624032066463, -0.9565612906529346, -0.06732933582165813, 0.7160607840344028, 0.4190249020788378, 0.0, -0.21116693764917618, -0.5002127598849765, 0.07830819997789797, -0.3995024903147287, -0.7135367307580707, 0.0, -0.29289383166814703, -0.08706734496667345, -0.3966158344143192, -0.441170603049889, 0.0
0.4299999792196667, -0.3217465990804926, -0.03686895610727608, 0.5783897990677188, -0.13771472536119997, 0.0, -0.42028169971056484, -0.9564602500518783, -0.0676162588749739, 0.7173510326465736, 0.4186336236951502, 0.0, -0.21146576070639786, -0.500045208276785, 0.0768467775012061, -0.4000198338302878, -0.7137923028110986, 0.0, -0.2928989350108798, -0.08663407396118286, -0.3966343244324148, -0.4416754674612963, 0.0
0.4299999792196667, -0.3220958848423772, -0.03696751380293864, 0.5792299342471172, -0.13805077140444483, 0.0, -0.42028715910046516, -0.9563592094508218, -0.06790318192828965, 0.7186412812587446, 0.41824234531146254, 0.0, -0.2117645837636196, -0.49987765666859346, 0.07538535502451424, -0.40053717734584693, -0.7140478748641267, 0.0, -0.2929040383536127, -0.08620080295569228, -0.3966528144505104, -0.4421803318727037, 0.0
0.4299999792196667, -0.3224451706042618, -0.03706607149860121, 0.5800700694265157, -0.13838681744768966, 0.0, -0.42029261849036537, -0.9562581688497654, -0.06819010498160541, 0.7199315298709152, 0.41785106692777496, 0.0, -0.21206340682084127, -0.4997101050604021, 0.07392393254782237, -0.4010545208614061, -0.7143034469171547, 0.0, -0.2929091416963455, -0.08576753195020169, -0.39667130446860605, -0.4426851962841111, 0.0
0.4299999792196667, -0.32279445636614645, -0.03716462919426378, 0.5809102046059142, -0.1387228634909345, 0.0, -0.42029807788026563, -0.9561571282487089, -0.06847702803492117, 0.721221778483086, 0.41745978854408733, 0.0, -0.212362229878063, -0.49954255345221066, 0.07246251007113048, -0.40157186437696524, -0.7145590189701827, 0.0, -0.2929142450390783, -0.08533426094471111, -0.39668979448670166, -0.4431900606955185, 0.0
0.4299374964324453, -0.3235364551723638, -0.03632761466356785, 0.5819646173482386, -0.13998407122061554, 0.0, -0.4199427148819255, -0.956395732210749, -0.06872689111596593, 0.7237976785101778, 0.41776440085843797, 0.0, -0.21333898768597834, -0.49989298065942606, 0.07333744955927471, -0.4019698692595901, -0.7142816896426993, 0.0, -0.29253761694913194, -0.08562538675086569, -0.39696107799365615, -0.44349863839792963, 0.0
0.42987501364522385, -0.3242784539785812, -0.035490600132871926, 0.5830190300905629, -0.1412452789502966, 0.0, -0.4195873518835855, -0.9566343361727891, -0.06897675419701069, 0.7263735785372699, 0.4180690131727885, 0.0, -0.21431574549389368, -0.5002434078666415, 0.07421238904741892, -0.40236787414221487, -0.7140043603152159, 0.0, -0.2921609888591856, -0.08591651255702024, -0.39723236150061064, -0.44380721610034074, 0.0
0.4298125308580025, -0.32502045278479846, -0.03465358560217599, 0.5840734428328872, -0.14250648667997762, 0.0, -0.4192319888852454, -0.9568729401348293, -0.06922661727805544, 0.7289494785643617, 0.41837362548713913, 0.0, -0.21529250330180905, -0.5005938350738568, 0.07508732853556313, -0.4027658790248396, -0.7137270309877326, 0.0, -0.29178436076923925, -0.08620763836317479, -0.39750364500756513, -0.4441157938027518, 0.0
0.4297500480707811, -0.32576245159101586, -0.03381657107148007, 0.5851278555752114, -0.14376769440965864, 0.0, -0.41887662588690533, -0.9571115440968694, -0.06947648035910022, 0.7315253785914535, 0.41867823780148966, 0.0, -0.2162692611097244, -0.5009442622810723, 0.07596226802370734, -0.4031638839074644, -0.7134497016602492, 0.0, -0.29140773267929293, -0.08649876416932935, -0.3977749285145196, -0.44442437150516295, 0.0
0.4296875652835596, -0.3265044503972332, -0.03297955654078414, 0.5861822683175358, -0.1450289021393397, 0.0, -0.4185212628885653, -0.9573501480589095, -0.06972634344014497, 0.7341012786185455, 0.41898285011584024, 0.0, -0.21724601891763978, -0.5012946894882877, 0.07683720751185157, -0.40356188879008925, -0.7131723723327658, 0.0, -0.2910311045893465, -0.08678988997548391, -0.3980462120214741, -0.44473294920757406, 0.0
0.4288507357577644, -0.3269975792147502, -0.029833193902348645, 0.588673132412812, -0.147939022246213, 0.0, -0.4180764866726456, -0.9587758202584011, -0.07011718374619032, 0.7375094703153775, 0.42169315445796973, 0.0, -0.21881725506740615, -0.5021855055385056, 0.07610975009083011, -0.4035257953811579, -0.7113908624053776, 0.0, -0.28991778000345036, -0.08677840082208389, -0.39731524718678785, -0.44423641699801564, 0.0
0.4280139062319692, -0.32749070803226715, -0.026686831263913153, 0.5911639965080884, -0.15084914235308627, 0.0, -0.4176317104567258, -0.9602014924578928, -0.07050802405223568, 0.7409176620122094, 0.4244034588000992, 0.0, -0.22038849121717258, -0.5030763215887235, 0.07538229266980868, -0.4034897019722267, -0.7096093524779894, 0.0, -0.28880445541755423, -0.08676691166868385, -0.3965842823521017, -0.4437398847884572, 0.0
0.42717707670617394, -0.32798383684978416, -0.023540468625477654, 0.5936548606033646, -0.15375926245995958, 0.0, -0.41718693424080605, -0.9616271646573844, -0.07089886435828102, 0.7443258537090414, 0.4271137631422286, 0.0, -0.22195972736693897, -0.5039671376389414, 0.07465483524878723, -0.4034536085632955, -0.7078278425506013, 0.0, -0.2876911308316581, -0.08675542251528383, -0.39585331751741537, -0.44324335257889896, 0.0
0.4263402471803788, -0.32847696566730117, -0.020394105987042162, 0.5961457246986408, -0.15666938256683288, 0.0, -0.4167421580248864, -0.9630528368568758, -0.07128970466432638, 0.7477340454058732, 0.42982406748435814, 0.0, -0.22353096351670537, -0.5048579536891593, 0.07392737782776579, -0.4034175151543643, -0.706046332623213, 0.0, -0.28657780624576196, -0.0867439333618838, -0.39512235268272916, -0.4427468203693406, 0.0
0.4255034176545835, -0.3289700944848181, -0.01724774334860667, 0.598636588793917, -0.15957950267370616, 0.0, -0.41629738180896664, -0.9644785090563675, -0.07168054497037173, 0.7511422371027052, 0.43253437182648763, 0.0, -0.22510219966647177, -0.5057487697393772, 0.07319992040674435, -0.40338142174543296, -0.7042648226958249, 0.0, -0.28546448165986577, -0.08673244420848376, -0.3943913878480429, -0.4422502881597822, 0.0
0.4242152285309301, -0.3295572965490176, -0.012816025652157097, 0.6039912589390357, -0.16433495241739607, 0.0, -0.4151546274812234, -0.9724002408812458, -0.07391833597504292, 0.7506327754940482, 0.43412122518240087, 0.0, -0.22796944052428209, -0.5149906371945376, 0.07072484176735487, -0.4009214918658191, -0.6961061344997203, 0.0, -0.2818525157915465, -0.08182378597239531, -0.3913572306818888, -0.43266937304412934, 0.0
0.42292703940727666, -0.3301444986132171, -0.00838430795570752, 0.6093459290841543, -0.16909040216108595, 0.0, -0.41401187315348004, -0.9803219727061242, -0.07615612697971412, 0.750123313885391, 0.4357080785383141, 0.0, -0.2308366813820924, -0.524232504649698, 0.06824976312796538, -0.39846156198620525, -0.6879474463036157, 0.0, -0.2782405499232272, -0.07691512773630685, -0.38832307351573486, -0.4230884579284765, 0.0
0.42163885028362313, -0.3307317006774166, -0.003952590259257943, 0.6147005992292729, -0.17384585190477583, 0.0, -0.41286911882573674, -0.9882437045310025, -0.07839391798438532, 0.7496138522767337, 0.4372949318942273, 0.0, -0.2337039222399027, -0.5334743721048584, 0.06577468448857589, -0.39600163210659134, -0.6797887581075109, 0.0, -0.2746285840549079, -0.07200646950021838, -0.38528891634958085, -0.4135075428128238, 0.0
0.4203506611599697, -0.3313189027416161, 0.0004791274371916318, 0.6200552693743915, -0.17860130164846574, 0.0, -0.4117263644979935, -0.9961654363558811, -0.08063170898905651, 0.7491043906680767, 0.43888178525014054, 0.0, -0.23657116309771295, -0.5427162395600187, 0.0632996058491864, -0.3935417022269775, -0.6716300699114063, 0.0, -0.2710166181865886, -0.06709781126412993, -0.3822547591834268, -0.40392662769717097, 0.0
0.41906247203631625, -0.33190610480581556, 0.004910845133641209, 0.6254099395195101, -0.18335675139215565, 0.0, -0.41058361017025025, -1.0040871681807595, -0.08286949999372771, 0.7485949290594195, 0.44046863860605384, 0.0, -0.23943840395552327, -0.5519581070151791, 0.06082452720979691, -0.39108177234736363, -0.6634713817153016, 0.0, -0.2674046523182694, -0.06218915302804147, -0.37922060201727276, -0.39434571258151824, 0.0
0.42025932458955434, -0.3308402950634757, 0.017957682899925845, 0.6345430555089787, -0.18550789063918968, 0.0, -0.4040312287699015, -1.0193780431360424, -0.08535804594269145, 0.7417353662200613, 0.43477621234408925, 0.0, -0.24722450624422918, -0.5702826399724501, 0.06126826216228491, -0.38470669545506647, -0.6509192250623707, 0.0, -0.2568784145198589, -0.05019703322726077, -0.37865346774881264, -0.37620204111331457, 0.0
0.4214561771427924, -0.32977448532113585, 0.03100452066621048, 0.6436761714984472, -0.18765902988622374, 0.0, -0.3974788473695528, -1.034668918091325, -0.08784659189165517, 0.7348758033807031, 0.4290837860821247, 0.0, -0.2550106085329351, -0.5886071729297208, 0.06171199711477289, -0.3783316185627694, -0.6383670684094398, 0.0, -0.24635217672144843, -0.03820491342648006, -0.37808633348035264, -0.3580583696451108, 0.0
0.42265302969603047, -0.32870867557879596, 0.044051358432495115, 0.652809287487916, -0.18981016913325774, 0.0, -0.3909264659692041, -1.0499597930466078, -0.0903351378406189, 0.7280162405413447, 0.42339135982016024, 0.0, -0.262796710821641, -0.6069317058869916, 0.06215573206726088, -0.3719565416704724, -0.6258149117565088, 0.0, -0.23582593892303794, -0.026212793625699355, -0.37751919921189264, -0.3399146981769072, 0.0
0.4238498822492686, -0.32764286583645613, 0.05709819619877975, 0.6619424034773845, -0.19196130838029177, 0.0, -0.38437408456885547, -1.065250668001891, -0.09282368378958263, 0.7211566777019867, 0.4176989335581957, 0.0, -0.27058281311034693, -0.6252562388442624, 0.06259946701974888, -0.3655814647781752, -0.613262755103578, 0.0, -0.22529970112462744, -0.01422067382491865, -0.3769520649434326, -0.32177102670870356, 0.0
0.4250467348025067, -0.32657705609411625, 0.07014503396506439, 0.6710755194668532, -0.19411244762732582, 0.0, -0.3778217031685068, -1.0805415429571736, -0.09531222973854635, 0.7142971148626285, 0.4120065072962311, 0.0, -0.2783689153990529, -0.6435807718015333, 0.06304320197223687, -0.35920638788587816, -0.600710598450647, 0.0, -0.21477346332621694, -0.0022285540241379445, -0.3763849306749725, -0.30362735524049983, 0.0
0.4242227509000062, -0.33499475464187534, 0.08935019583477508, 0.6718911921114556, -0.18808887655572187, 0.0, -0.37341838058272375, -1.0888654719455402, -0.09771941053217723, 0.7136653266173576, 0.4060805873962763, 0.0, -0.28103005032549516, -0.656069374035082, 0.07315350546968266, -0.3478948531531668, -0.5975826891783927, 0.0, -0.20432231657354427, 0.0031309152179182826, -0.38117038611916265, -0.29114260669393943, 0.0
0.4233987669975056, -0.3434124531896345, 0.10855535770448578, 0.6727068647560582, -0.18206530548411795, 0.0, -0.3690150579969407, -1.0971894009339067, -0.10012659132580806, 0.7130335383720865, 0.4001546674963214, 0.0, -0.2836911852519375, -0.6685579762686309, 0.08326380896712848, -0.3365833184204555, -0.5944547799061386, 0.0, -0.19387116982087163, 0.00849038445997451, -0.38595584156335283, -0.27865785814737903, 0.0
0.42257478309500507, -0.3518301517373935, 0.12776051957419648, 0.6735225374006606, -0.17604173441251403, 0.0, -0.3646117354111577, -1.1055133299222732, -0.10253377211943894, 0.7124017501268157, 0.39422874759636656, 0.0, -0.2863523201783797, -0.6810465785021796, 0.09337411246457429, -0.3252717836877442, -0.5913268706338844, 0.0, -0.18342002306819893, 0.013849853702030734, -0.390741297007543, -0.26617310960081864, 0.0
0.42175079919250447, -0.3602478502851527, 0.14696568144390718, 0.6743382100452632, -0.17001816334091008, 0.0, -0.36020841282537464, -1.1138372589106398, -0.10494095291306976, 0.7117699618815447, 0.3883028276964116, 0.0, -0.289013455104822, -0.6935351807357286, 0.1034844159620201, -0.31396024895503294, -0.5881989613616304, 0.0, -0.17296887631552624, 0.019209322944086962, -0.3955267524517332, -0.25368836105425824, 0.0
0.42092681529000403, -0.3686655488329118, 0.16617084331361787, 0.6751538826898658, -0.16399459226930616, 0.0, -0.3558050902395916, -1.1221611878990063, -0.10734813370670063, 0.7111381736362739, 0.3823769077964569, 0.0, -0.2916745900312643, -0.7060237829692773, 0.1135947194594659, -0.3026487142223216, -0.5850710520893762, 0.0, -0.16251772956285357, 0.02456879218614319, -0.40031220789592337, -0.2412036125076978, 0.0
0.41271941495447617, -0.3915664328273499, 0.1778201097285656, 0.6621798450501427, -0.15305193985532084, 0.0, -0.35865820440243623, -1.1206886187025136, -0.11363545334981234, 0.7227423931032275, 0.3742468953599624, 0.0, -0.28200652364474244, -0.7054515628113769, 0.12805435343321844, -0.2867465132619182, -0.5906390573196245, 0.0, -0.16288922987545756, 0.017159334917077378, -0.3971182972526758, -0.24166299014813974, 0.0
0.4045120146189483, -0.41446731682178795, 0.18946937614351336, 0.6492058074104198, -0.14210928744133552, 0.0, -0.3615113185652809, -1.1192160495060208, -0.11992277299292405, 0.7343466125701814, 0.36611688292346806, 0.0, -0.27233845725822053, -0.7048793426534766, 0.14251398740697097, -0.2708443123015148, -0.5962070625498729, 0.0, -0.1632607301880616, 0.009749877648011562, -0.39392438660942825, -0.24212236778858168, 0.0
0.39630461428342056, -0.437368200816226, 0.20111864255846107, 0.6362317697706967, -0.13116663502735024, 0.0, -0.3643644327281256, -1.1177434803095283, -0.12621009263603578, 0.7459508320371351, 0.35798687048697364, 0.0, -0.2626703908716987, -0.7043071224955763, 0.15697362138072352, -0.25494211134111133, -0.6017750677801214, 0.0, -0.16363223050066558, 0.002340420378945746, -0.3907304759661807, -0.24258174542902355, 0.0
0.3880972139478927, -0.4602690848106641, 0.21276790897340878, 0.6232577321309738, -0.12022398261336494, 0.0, -0.3672175468909702, -1.1162709111130356, -0.1324974122791475, 0.757555051504089, 0.3498568580504792, 0.0, -0.25300232448517684, -0.703734902337676, 0.17143325535447607, -0.23903991038070796, -0.6073430730103696, 0.0, -0.16400373081326958, -0.005069036890120069, -0.38753656532293307, -0.2430411230694655, 0.0
0.37988981361236485, -0.48316996880510216, 0.22441717538835654, 0.6102836944912507, -0.10928133019937963, 0.0, -0.3700706610538149, -1.114798341916543, -0.1387847319222592, 0.7691592709710426, 0.34172684561398486, 0.0, -0.24333425809865494, -0.7031626821797755, 0.18589288932822862, -0.2231377094203045, -0.6129110782406181, 0.0, -0.16437523112587357, -0.012478494159185883, -0.3843426546796855, -0.2435005007099074, 0.0
0.36529041018145414, -0.5144719043968938, 0.22770181522743976, 0.5895211599710881, -0.10052741875489918, 0.0, -0.37245070372290645, -1.1142025842483503, -0.14229034301101554, 0.7875871553452995, 0.3276551913516336, 0.0, -0.22635496907828526, -0.6913544232512882, 0.19059490756219793, -0.21610063612404298, -0.6133597151248432, 0.0, -0.17295210370141456, -0.025315715264312127, -0.36735503345746684, -0.2559061195188409, 0.0
0.35069100675054343, -0.5457738399886856, 0.23098645506652302, 0.5687586254509255, -0.09177350731041872, 0.0, -0.3748307463919981, -1.1136068265801573, -0.1457959540997719, 0.8060150397195565, 0.31358353708928244, 0.0, -0.2093756800579156, -0.6795461643228008, 0.19529692579616728, -0.20906356282778146, -0.6138083520090684, 0.0, -0.18152897627695558, -0.03815293636943837, -0.35036741223524814, -0.2683117383277744, 0.0
0.33609160331963267, -0.5770757755804772, 0.2342710949056063, 0.5479960909307627, -0.08301959586593827, 0.0, -0.3772107890610896, -1.1130110689119646, -0.14930156518852822, 0.8244429240938134, 0.2995118828269312, 0.0, -0.19239639103754594, -0.6677379053943133, 0.19999894403013663, -0.20202648953151994, -0.6142569888932935, 0.0, -0.1901058488524966, -0.05099015747456461, -0.33337979101302945, -0.28071735713670787, 0.0
0.3214921998887219, -0.6083777111722689, 0.23755573474468952, 0.5272335564106002, -0.07426568442145783, 0.0, -0.37959083173018127, -1.1124153112437718, -0.15280717627728457, 0.8428708084680704, 0.28544022856458, 0.0, -0.17541710201717625, -0.655929646465826, 0.20470096226410597, -0.1949894162352584, -0.6147056257775185, 0.0, -0.1986827214280376, -0.06382737857969085, -0.31639216979081075, -0.2931229759456414, 0.0
0.30689279645781115, -0.6396796467640606, 0.24084037458377275, 0.5064710218904375, -0.06551177297697737, 0.0, -0.3819708743992729, -1.111819553575579, -0.1563127873660409, 0.8612986928423273, 0.2713685743022288, 0.0, -0.15843781299680662, -0.6441213875373385, 0.20940298049807532, -0.18795234293899687, -0.6151542626617437, 0.0, -0.20725959400357863, -0.07666459968481708, -0.29940454856859205, -0.30552859475457483, 0.0
0.30077552913064315, -0.6625571468371805, 0.2457369411788034, 0.49439721111625917, -0.05352697793909485, 0.0, -0.38213888328372836, -1.1143629241560724, -0.15599364169500898, 0.8776763389442663, 0.2555009448236489, 0.0, -0.1500359889167261, -0.6315604553689285, 0.20555458534796386, -0.19387383668396868, -0.6141480698759934, 0.0, -0.20819754092491738, -0.08540050072768035, -0.27493949351719965, -0.32113304603524656, 0.0
0.2946582618034752, -0.6854346469103003, 0.25063350777383403, 0.4823234003420809, -0.041542182901212324, 0.0, -0.38230689216818375, -1.1169062947365656, -0.15567449602397707, 0.8940539850462056, 0.239633315345069, 0.0, -0.14163416483664557, -0.6189995232005187, 0.2017061901978524, -0.19979533042894046, -0.6131418770902433, 0.0, -0.20913548784625616, -0.09413640177054364, -0.25047443846580725, -0.33673749731591823, 0.0
0.28854099447630716, -0.7083121469834202, 0.2555300743688647, 0.47024958956790247, -0.0295573878633298, 0.0, -0.3824749010526393, -1.119449665317059, -0.15535535035294512, 0.9104316311481448, 0.22376568586648907, 0.0, -0.133232340756565, -0.6064385910321086, 0.19785779504774098, -0.20571682417391227, -0.612135684304493, 0.0, -0.2100734347675949, -0.10287230281340691, -0.22600938341441484, -0.35234194859658985, 0.0
0.28242372714913916, -0.7311896470565399, 0.26042664096389534, 0.45817577879372423, -0.01757259282544728, 0.0, -0.3826429099370948, -1.1219930358975518, -0.15503620468191318, 0.9268092772500841, 0.2078980563879092, 0.0, -0.12483051667648447, -0.5938776588636987, 0.19400939989762955, -0.21163831791888404, -0.6111294915187429, 0.0, -0.21101138168893366, -0.11160820385627017, -0.20154432836302247, -0.3679463998772615, 0.0
0.27630645982197116, -0.7540671471296598, 0.26532320755892597, 0.4461019680195458, -0.005587797787564765, 0.0, -0.3828109188215503, -1.1245364064780452, -0.15471705901088126, 0.9431869233520233, 0.19203042690932925, 0.0, -0.11642869259640395, -0.5813167266952888, 0.19016100474751813, -0.21755981166385582, -0.6101232987329925, 0.0, -0.21194932861027244, -0.12034410489913344, -0.17707927331163006, -0.3835508511579333, 0.0
0.2833819652683616, -0.7630092682484242, 0.26996479900353276, 0.44687669873055513, 0.0013952650034501533, 0.0, -0.3786193570339117, -1.1234718952606688, -0.15221483107684528, 0.9509436342961256, 0.18447675360776994, 0.0, -0.121363207187229, -0.5764657481003201, 0.1895185385778835, -0.22954277106915086, -0.6137594548647445, 0.0, -0.204176777057879, -0.13023653231380164, -0.1609115798467303, -0.3929210526729928, 0.0
0.29045747071475203, -0.7719513893671884, 0.27460639044813956, 0.4476514294415644, 0.008378327794465072, 0.0, -0.3744277952462732, -1.1224073840432924, -0.14971260314280935, 0.958700345240228, 0.1769230803062106, 0.0, -0.12629772177805404, -0.5716147695053516, 0.18887607240824889, -0.2415257304744459, -0.6173956109964963, 0.0, -0.19640422550548556, -0.14012895972846984, -0.14474388638183053, -0.4022912541880522, 0.0
0.29753297616114255, -0.7808935104859529, 0.2792479818927464, 0.44842616015257364, 0.015361390585479992, 0.0, -0.37023623345863454, -1.1213428728259163, -0.14721037520877336, 0.9664570561843302, 0.16936940700465125, 0.0, -0.1312322363688791, -0.5667637909103831, 0.18823360623861426, -0.2535086898797409, -0.6210317671282483, 0.0, -0.18863167395309213, -0.15002138714313806, -0.12857619291693073, -0.4116614557031118, 0.0
0.304608481607533, -0.7898356316047174, 0.2838895733373532, 0.44920089086358284, 0.022344453376494912, 0.0, -0.366044671670996, -1.1202783616085399, -0.1447081472747374, 0.9742137671284326, 0.1618157337030919, 0.0, -0.13616675095970415, -0.5619128123154145, 0.18759114006897962, -0.26549164928503594, -0.6246679232600002, 0.0, -0.18085912240069868, -0.15991381455780626, -0.11240849945203095, -0.4210316572181713, 0.0
0.3116839870539234, -0.7987777527234816, 0.28853116478196, 0.44997562157459214, 0.029327516167509823, 0.0, -0.36185310988335745, -1.1192138503911635, -0.14220591934070145, 0.9819704780725349, 0.1542620604015326, 0.0, -0.1411012655505292, -0.5570618337204459, 0.18694867389934502, -0.27747460869033097, -0.6283040793917521, 0.0, -0.17308657084830525, -0.16980624197247443, -0.09624080598713115, -0.43040185873323084, 0.0
0.32522690778201696, -0.7953324483454354, 0.28999752758763253, 0.4582299747576571, 0.024409541294061053, 0.0, -0.356383939157991, -1.1147095989053961, -0.14170439548948238, 0.9777740817228684, 0.15911569538762269, 0.0, -0.15324479175634922, -0.5536900426104936, 0.18207231123573545, -0.28741543164169603, -0.6275616966130994, 0.0, -0.17131035624986762, -0.17966289816599132, -0.0941115252436491, -0.442135106901126, 0.0
0.33876982851011045, -0.791887143967389, 0.29146389039330506, 0.46648432794072214, 0.019491566420612276, 0.0, -0.3509147684326246, -1.1102053474196287, -0.1412028716382633, 0.9735776853732017, 0.16396933037371278, 0.0, -0.16538831796216924, -0.5503182515005414, 0.17719594857212592, -0.29735625459306103, -0.6268193138344466, 0.0, -0.16953414165143002, -0.18951955435950818, -0.09198224450016704, -0.4538683550690212, 0.0
0.35231274923820405, -0.7884418395893428, 0.2929302531989776, 0.474738681123787, 0.014573591547163499, 0.0, -0.3454455977072582, -1.1057010959338611, -0.1407013477870442, 0.9693812890235353, 0.16882296535980285, 0.0, -0.1775318441679892, -0.5469464603905889, 0.17231958590851634, -0.30729707754442614, -0.6260769310557937, 0.0, -0.16775792705299236, -0.19937621055302504, -0.08985296375668497, -0.46560160323691646, 0.0
0.3658556699662976, -0.7849965352112963, 0.29439661600465017, 0.48299303430685203, 0.009655616673714722, 0.0, -0.33997642698189173, -1.101196844448094, -0.14019982393582514, 0.9651848926738686, 0.17367660034589297, 0.0, -0.18967537037380922, -0.5435746692806366, 0.1674432232449068, -0.31723790049579115, -0.625334548277141, 0.0, -0.1659817124545548, -0.20923286674654193, -0.08772368301320294, -0.47733485140481163, 0.0
0.3793985906943911, -0.78155123083325, 0.29586297881032275, 0.491247387489917, 0.004737641800265945, 0.0, -0.3345072562565253, -1.0966925929623264, -0.1396983000846061, 0.9609884963242021, 0.17853023533198306, 0.0, -0.2018188965796292, -0.5402028781706844, 0.1625668605812972, -0.3271787234471562, -0.6245921654984882, 0.0, -0.16420549785611713, -0.21908952294005882, -0.08559440226972087, -0.4890680995727068, 0.0
0.3875515402479152, -0.7660980262948975, 0.2903862717532462, 0.5024409868344125, -0.007574870255511633, 0.0, -0.332188712008957, -1.0911230134450929, -0.14235834941625364, 0.9461759812103057, 0.19238064118637596, 0.0, -0.2097443808623994, -0.5407020423367547, 0.154954655917943, -0.3350949714475248, -0.620215036814119, 0.0, -0.17586009450660048, -0.2351199253153382, -0.09772625920416204, -0.5053113169249989, 0.0
0.3957044898014393, -0.7506448217565452, 0.2849095646961696, 0.513634586178908, -0.01988738231128921, 0.0, -0.3298701677613886, -1.0855534339278592, -0.1450183987479012, 0.9313634660964095, 0.20623104704076883, 0.0, -0.2176698651451696, -0.5412012065028251, 0.1473424512545888, -0.3430112194478934, -0.61583790812975, 0.0, -0.18751469115708377, -0.2511503276906176, -0.1098581161386032, -0.5215545342772909, 0.0
0.4038574393549634, -0.735191617218193, 0.2794328576390931, 0.5248281855234036, -0.03219989436706679, 0.0, -0.32755162351382033, -1.0799838544106255, -0.14767844807954872, 0.9165509509825133, 0.22008145289516176, 0.0, -0.22559534942793974, -0.5417003706688954, 0.13973024659123456, -0.35092746744826214, -0.6114607794453808, 0.0, -0.1991692878075671, -0.267180730065897, -0.12198997307304436, -0.5377977516295831, 0.0
0.4120103889084875, -0.7197384126798406, 0.27395615058201656, 0.5360217848678992, -0.04451240642284437, 0.0, -0.32523307926625195, -1.0744142748933918, -0.1503384974111963, 0.901738435868617, 0.23393185874955463, 0.0, -0.23352083371070995, -0.5421995348349657, 0.13211804192788038, -0.3588437154486308, -0.6070836507610117, 0.0, -0.2108238844580504, -0.2832111324411764, -0.13412183000748554, -0.554040968981875, 0.0
0.42016333846201165, -0.7042852081414882, 0.26847944352494, 0.5472153842123948, -0.056824918478621936, 0.0, -0.3229145350186836, -1.0688446953761583, -0.15299854674284383, 0.8869259207547207, 0.24778226460394753, 0.0, -0.24144631799348015, -0.5426986990010362, 0.12450583726452616, -0.3667599634489994, -0.6027065220766425, 0.0, -0.22247848110853374, -0.2992415348164558, -0.1462536869419267, -0.5702841863341672, 0.0
0.4219737545324713, -0.6810504845490456, 0.25492098238518673, 0.5543928238684187, -0.06360179599560105, 0.0, -0.32381349128453285, -1.0640999828980264, -0.15573762283769244, 0.8687514058279758, 0.262295609340101, 0.0, -0.24223873238047058, -0.550731112625759, 0.12231121488450795, -0.37413169315735534, -0.5984621605884727, 0.0, -0.24317588343167046, -0.3149580397257641, -0.16746181798275753, -0.5807127939048796, 0.0
0.423784170602931, -0.6578157609566031, 0.2413625212454334, 0.5615702635244426, -0.07037867351258018, 0.0, -0.3247124475503821, -1.059355270419895, -0.15847669893254102, 0.850576890901231, 0.2768089540762544, 0.0, -0.2430311467674611, -0.558763526250482, 0.12011659250448974, -0.38150342286571126, -0.5942177991003028, 0.0, -0.26387328575480723, -0.3306745446350723, -0.18866994902358833, -0.5911414014755921, 0.0
0.4255945866733907, -0.6345810373641606, 0.2278040601056801, 0.5687477031804665, -0.07715555102955927, 0.0, -0.32561140381623127, -1.0546105579417633, -0.16121577502738965, 0.832402375974486, 0.2913222988124078, 0.0, -0.24382356115445153, -0.5667959398752048, 0.1179219701244715, -0.3888751525740672, -0.589973437612133, 0.0, -0.28457068807794395, -0.3463910495443805, -0.20987808006441916, -0.6015700090463044, 0.0
0.4274050027438504, -0.611346313771718, 0.2142455989659268, 0.5759251428364904, -0.08393242854653837, 0.0, -0.32651036008208045, -1.0498658454636318, -0.16395485112223826, 0.8142278610477409, 0.3058356435485612, 0.0, -0.24461597554144202, -0.5748283534999278, 0.11572734774445328, -0.3962468822824231, -0.5857290761239631, 0.0, -0.30526809040108066, -0.3621075544536887, -0.23108621110525, -0.6119986166170169, 0.0
0.42921541881431013, -0.5881115901792755, 0.2006871378261735, 0.5831025824925145, -0.0907093060635175, 0.0, -0.3274093163479297, -1.0451211329855001, -0.16669392721708684, 0.7960533461209961, 0.32034898828471464, 0.0, -0.2454083899284325, -0.5828607671246506, 0.11353272536443505, -0.40361861199077903, -0.5814847146357932, 0.0, -0.3259654927242174, -0.3778240593629969, -0.2522943421460808, -0.6224272241877293, 0.0
0.4286793234812676, -0.5680855252622597, 0.18369825298557635, 0.5818402172604734, -0.0905363753505714, 0.0, -0.32765730320002856, -1.0393202868704017, -0.16384570870279402, 0.7885810191252138, 0.33198187652996164, 0.0, -0.2431901741875858, -0.5893814847617096, 0.11223001265794405, -0.40711693947150096, -0.5789794515741881, 0.0, -0.33990187349756357, -0.3821357975416108, -0.26956396668751975, -0.6288003288579718, 0.0
0.42814322814822503, -0.5480594603452442, 0.16670936814497925, 0.5805778520284325, -0.0903634446376253, 0.0, -0.32790529005212743, -1.033519440755303, -0.16099749018850124, 0.7811086921294313, 0.34361476477520864, 0.0, -0.2409719584467391, -0.5959022023987686, 0.11092729995145303, -0.4106152669522229, -0.5764741885125828, 0.0, -0.35383825427090965, -0.38644753572022467, -0.28683359122895874, -0.6351734335282141, 0.0
0.4276071328151824, -0.5280333954282287, 0.1497204833043821, 0.5793154867963916, -0.09019051392467918, 0.0, -0.3281532769042263, -1.0277185946402048, -0.1581492716742084, 0.773636365133649, 0.35524765302045563, 0.0, -0.23875374270589242, -0.6024229200358276, 0.109624587244962, -0.41411359443294476, -0.5739689254509776, 0.0, -0.3677746350442558, -0.3907592738988386, -0.3041032157703976, -0.6415465381984563, 0.0
0.4270710374821398, -0.508007330511213, 0.13273159846378496, 0.5780531215643505, -0.09001758321173307, 0.0, -0.32840126375632517, -1.0219177485251063, -0.15530105315991558, 0.7661640381378667, 0.3668805412657027, 0.0, -0.23653552696504576, -0.6089436376728865, 0.10832187453847099, -0.4176119219136667, -0.5714636623893724, 0.0, -0.38171101581760186, -0.39507101207745243, -0.32137284031183655, -0.6479196428686986, 0.0
0.42653494214909726, -0.4879812655941974, 0.11574271362318783, 0.5767907563323096, -0.08984465249878697, 0.0, -0.32864925060842404, -1.0161169024100078, -0.1524528346456228, 0.7586917111420842, 0.3785134295109497, 0.0, -0.23431731122419908, -0.6154643553099455, 0.10701916183197997, -0.42111024939438857, -0.5689583993277673, 0.0, -0.39564739659094805, -0.39938275025606634, -0.3386424648532755, -0.6542927475389411, 0.0
0.425542261702416, -0.47447603350597145, 0.1017434025602001, 0.5702774772885225, -0.08784904512645177, 0.0, -0.33095883084495414, -1.003990096458422, -0.14449280191937522, 0.7629825926361368, 0.3872819846169202, 0.0, -0.2292972625845898, -0.6148045510395216, 0.10660917945283044, -0.4206589316844324, -0.5744115688745514, 0.0, -0.397375303966349, -0.3934059714617084, -0.35042100082460137, -0.6628929516759227, 0.0
0.42454958125573466, -0.46097080141774543, 0.08774409149721235, 0.5637641982447354, -0.08585343775411655, 0.0, -0.3332684110814842, -0.9918632905068361, -0.13653276919312762, 0.7672734741301893, 0.3960505397228908, 0.0, -0.22427721394498057, -0.6141447467690976, 0.10619919707368093, -0.4202076139744762, -0.5798647384213356, 0.0, -0.39910321134174986, -0.3874291926673505, -0.36219953679592737, -0.6714931558129044, 0.0
0.4235569008090534, -0.44746556932951953, 0.07374478043422461, 0.5572509192009486, -0.08385783038178134, 0.0, -0.33557799131801425, -0.9797364845552502, -0.12857273646688006, 0.7715643556242419, 0.40481909482886125, 0.0, -0.21925716530537137, -0.6134849424986738, 0.1057892146945314, -0.41975629626452, -0.5853179079681197, 0.0, -0.4008311187171508, -0.38145241387299245, -0.37397807276725326, -0.6800933599498861, 0.0
0.422564220362372, -0.4339603372412934, 0.05974546937123686, 0.5507376401571615, -0.08186222300944614, 0.0, -0.33788757155454435, -0.9676096786036642, -0.12061270374063252, 0.7758552371182945, 0.4135876499348318, 0.0, -0.2142371166657621, -0.6128251382282498, 0.10537923231538188, -0.4193049785545638, -0.5907710775149039, 0.0, -0.40255902609255173, -0.3754756350786345, -0.3857566087385792, -0.6886935640868677, 0.0
0.42157153991569074, -0.4204551051530675, 0.04574615830824911, 0.5442243611133745, -0.07986661563711091, 0.0, -0.3401971517910744, -0.9554828726520785, -0.11265267101438495, 0.780146118612347, 0.42235620504080235, 0.0, -0.20921706802615286, -0.6121653339578258, 0.10496924993623237, -0.4188536608446076, -0.596224247061688, 0.0, -0.4042869334679527, -0.3694988562842765, -0.3975351447099052, -0.6972937682238494, 0.0
0.422564220362372, -0.4111971876501057, 0.038339849089555116, 0.5403043725573463, -0.07892485098256634, 0.0, -0.3473241793569838, -0.9459452696271432, -0.10768901640636859, 0.7844696063474853, 0.4259600900346849, 0.0, -0.20345326477909878, -0.6071831868882529, 0.10206873507436448, -0.4209343830376407, -0.6037042988847398, 0.0, -0.3988057269520645, -0.3609220605032226, -0.4025393248159553, -0.699977990365637, 0.0
0.4235569008090534, -0.40193927014714403, 0.03093353987086113, 0.536384384001318, -0.07798308632802177, 0.0, -0.35445120692289306, -0.9364076666022079, -0.10272536179835225, 0.7887930940826235, 0.42956397502856747, 0.0, -0.19768946153204464, -0.60220103981868, 0.0991682202124966, -0.4230151052306737, -0.6111843507077914, 0.0, -0.39332452043617633, -0.35234526472216865, -0.40754350492200536, -0.7026622125074246, 0.0
0.42454958125573466, -0.3926813526441824, 0.02352723065216713, 0.5324643954452898, -0.0770413216734772, 0.0, -0.36157823448880244, -0.9268700635772725, -0.09776170719033589, 0.7931165818177618, 0.43316786002244995, 0.0, -0.19192565828499053, -0.5972188927491071, 0.09626770535062876, -0.4250958274237068, -0.6186644025308431, 0.0, -0.3878433139202881, -0.3437684689411148, -0.41254768502805556, -0.7053464346492123, 0.0
0.425542261702416, -0.38342343514122074, 0.01612092143347314, 0.5285444068892615, -0.07609955701893263, 0.0, -0.36870526205471166, -0.9173324605523372, -0.09279805258231953, 0.7974400695529003, 0.43677174501633254, 0.0, -0.18616185503793645, -0.5922367456795341, 0.09336719048876088, -0.4271765496167399, -0.6261444543538949, 0.0, -0.38236210740439985, -0.3351916731600608, -0.4175518651341055, -0.708030656791, 0.0
0.42653494214909726, -0.37416551763825895, 0.008714612214779148, 0.5246244183332334, -0.07515779236438805, 0.0, -0.37583228962062104, -0.9077948575274019, -0.08783439797430319, 0.8017635572880385, 0.440375630010215, 0.0, -0.18039805179088234, -0.5872545986099613, 0.090466675626893, -0.42925727180977297, -0.6336245061769465, 0.0, -0.3768809008885117, -0.3266148773790069, -0.4225560452401557, -0.7107148789327876, 0.0
0.4271797924384901, -0.3693555263554442, 0.004141051610019992, 0.523783536152915, -0.07540823908353468, 0.0, -0.3815051891389143, -0.9050975279629317, -0.08479233586290102, 0.8000612922900078, 0.4383850959609495, 0.0, -0.1749680776698572, -0.5840277989822891, 0.08824829338163569, -0.43269809418230015, -0.6359273110453204, 0.0, -0.3733512691823261, -0.3179942249645089, -0.42279694954615005, -0.7075138298928995, 0.0
0.42782464272788295, -0.3645455350726295, -0.0004325089947391632, 0.5229426539725966, -0.07565868580268131, 0.0, -0.3871780886572075, -0.9024001983984616, -0.08175027375149886, 0.7983590272919773, 0.43639456191168396, 0.0, -0.16953810354883206, -0.5808009993546168, 0.08602991113637837, -0.4361389165548274, -0.6382301159136943, 0.0, -0.36982163747614033, -0.30937357255001086, -0.42303785385214426, -0.7043127808530113, 0.0
0.42846949301727577, -0.35973554378981487, -0.005006069599498319, 0.5221017717922783, -0.07590913252182793, 0.0, -0.39285098817550074, -0.8997028688339914, -0.0787082116400967, 0.7966567622939467, 0.4344040278624185, 0.0, -0.16410812942780686, -0.5775741997269448, 0.08381152889112103, -0.4395797389273546, -0.640532920782068, 0.0, -0.3662920057699546, -0.3007529201355128, -0.4232787581581385, -0.7011117318131229, 0.0
0.42911434330666864, -0.3549255525070001, -0.009579630204257472, 0.5212608896119599, -0.07615957924097456, 0.0, -0.39852388769379393, -0.8970055392695212, -0.07566614952869453, 0.7949544972959159, 0.43241349381315297, 0.0, -0.15867815530678173, -0.5743474000992725, 0.08159314664586372, -0.4430205612998818, -0.642835725650442, 0.0, -0.36276237406376893, -0.2921322677210148, -0.4235196624641328, -0.6979106827732348, 0.0
0.4297591935960615, -0.35011556122418536, -0.01415319080901663, 0.5204200074316415, -0.07641002596012118, 0.0, -0.4041967872120872, -0.8943082097050511, -0.07262408741729237, 0.7932522322978853, 0.43042295976388745, 0.0, -0.15324818118575656, -0.5711206004716004, 0.0793747644006064, -0.446461383672409, -0.6451385305188158, 0.0, -0.35923274235758323, -0.2835116153065168, -0.4237605667701271, -0.6947096337333465, 0.0
0.42980735072078247, -0.3480827448284611, -0.016829785163841385, 0.5207204344464459, -0.07750486052792173, 0.0, -0.4073361214096249, -0.8933508163251866, -0.07053602681288637, 0.7885434282237843, 0.4286556428539764, 0.0, -0.14878163579314932, -0.570570612317712, 0.07909067017694227, -0.44934038804937776, -0.6446728103518721, 0.0, -0.35996743870621023, -0.2785800897665687, -0.42223499541490994, -0.6922943074880966, 0.0
0.4298555078455035, -0.34604992843273674, -0.019506379518666142, 0.5210208614612502, -0.07859969509572225, 0.0, -0.4104754556071626, -0.8923934229453222, -0.06844796620848036, 0.7838346241496832, 0.42688832594406556, 0.0, -0.14431509040054202, -0.5700206241638236, 0.07880657595327814, -0.4522193924263465, -0.6442070901849284, 0.0, -0.3607021350548373, -0.2736485642266206, -0.42070942405969264, -0.6898789812428467, 0.0
0.4299036649702246, -0.34401711203701235, -0.022182973873490892, 0.5213212884760544, -0.07969452966352276, 0.0, -0.4136147898047003, -0.8914360295654576, -0.06635990560407436, 0.779125820075582, 0.4251210090341546, 0.0, -0.13984854500793478, -0.5694706360099352, 0.07852248172961401, -0.45509839680331526, -0.6437413700179847, 0.0, -0.36143683140346433, -0.2687170386866725, -0.4191838527044754, -0.6874636549975968, 0.0
0.42995182209494565, -0.341984295641288, -0.02485956822831565, 0.5216217154908587, -0.08078936423132331, 0.0, -0.416754124002238, -0.8904786361855931, -0.06427184499966836, 0.7744170160014808, 0.4233536921242437, 0.0, -0.13538199961532751, -0.5689206478560467, 0.0782383875059499, -0.457977401180284, -0.643275649851041, 0.0, -0.3621715277520914, -0.26378551314672444, -0.41765828134925814, -0.6850483287523469, 0.0
0.4299999792196667, -0.33995147924556374, -0.027536162583140403, 0.521922142505663, -0.08188419879912384, 0.0, -0.41989345819977575, -0.8895212428057288, -0.062183784395262336, 0.7697082119273798, 0.4215863752143327, 0.0, -0.13091545422272022, -0.5683706597021583, 0.07795429328228577, -0.46085640555725277, -0.6428099296840973, 0.0, -0.3629062241007183, -0.2588539876067763, -0.41613270999404095, -0.6826330025070969, 0.0
0.4299999792196667, -0.3376932989555049, -0.02807273124947612, 0.5228389849056867, -0.08329138621650754, 0.0, -0.42148654936243557, -0.8877213161640735, -0.06080258318511158, 0.7650627667957846, 0.42182489889122726, 0.0, -0.12809721522898893, -0.5697431028501225, 0.07696153953177588, -0.46325444606159094, -0.6433024546176932, 0.0, -0.3647120290112943, -0.25889592437804326, -0.413468799994088, -0.68238092809389, 0.0
0.4299999792196667, -0.335435118665446, -0.028609299915811844, 0.5237558273057104, -0.08469857363389123, 0.0, -0.42307964052509556, -0.8859213895224182, -0.05942138197496083, 0.7604173216641894, 0.4220634225681218, 0.0, -0.1252789762352576, -0.5711155459980868, 0.07596878578126601, -0.46565248656592906, -0.6437949795512891, 0.0, -0.36651783392187026, -0.25893786114931017, -0.410804889994135, -0.682128853680683, 0.0
0.4299999792196667, -0.33317693837538714, -0.02914586858214756, 0.524672669705734, -0.08610576105127493, 0.0, -0.4246727316877553, -0.8841214628807631, -0.05804018076481007, 0.7557718765325943, 0.4223019462450164, 0.0, -0.1224607372415263, -0.5724879891460509, 0.07497603203075612, -0.46805052707026723, -0.6442875044848848, 0.0, -0.3683236388324461, -0.25897979792057707, -0.40814097999418214, -0.6818767792674758, 0.0
0.4299999792196667, -0.3309187580853283, -0.02968243724848328, 0.5255895121057577, -0.08751294846865862, 0.0, -0.42626582285041525, -0.8823215362391079, -0.05665897955465933, 0.751126431400999, 0.4225404699219109, 0.0, -0.11964249824779498, -0.5738604322940151, 0.07398327828024624, -0.4704485675746054, -0.6447800294184806, 0.0, -0.3701294437430221, -0.259021734691844, -0.40547706999422917, -0.6816247048542688, 0.0
0.4299999792196667, -0.32866057779526947, -0.030219005914819002, 0.5265063545057813, -0.08892013588604232, 0.0, -0.42785891401307513, -0.8805216095974527, -0.055277778344508574, 0.746480986269404, 0.4227789935988055, 0.0, -0.11682425925406369, -0.5752328754419794, 0.07299052452973634, -0.4728466080789435, -0.6452725543520763, 0.0, -0.37193524865359806, -0.2590636714631109, -0.40281315999427614, -0.6813726304410618, 0.0
0.4299999792196667, -0.32629987337429, -0.0287265336816683, 0.5269348607624139, -0.09004291282610143, 0.0, -0.42826223865925994, -0.8771234291092103, -0.053477475758932476, 0.7426829997187485, 0.42392833828980425, 0.0, -0.11561785276850017, -0.5757062122257788, 0.07238888859262288, -0.4741573573285083, -0.6455360711438595, 0.0, -0.3717741896702239, -0.2589894670446331, -0.3999108380185008, -0.6823967337955961, 0.0
0.4299999792196667, -0.3239391689533105, -0.027234061448517602, 0.5273633670190465, -0.09116568976616055, 0.0, -0.4286655633054448, -0.8737252486209678, -0.05167717317335637, 0.7388850131680933, 0.4250776829808031, 0.0, -0.11441144628293665, -0.5761795490095781, 0.07178725265550939, -0.4754681065780731, -0.6457995879356425, 0.0, -0.3716131306868499, -0.25891526262615533, -0.39700851604272536, -0.6834208371501304, 0.0
0.4299999792196667, -0.321578464532331, -0.025741589215366907, 0.5277918732756792, -0.09228846670621965, 0.0, -0.42906888795162973, -0.8703270681327251, -0.04987687058778028, 0.735087026617438, 0.42622702767180193, 0.0, -0.11320503979737313, -0.5766528857933776, 0.07118561671839593, -0.4767788558276378, -0.6460631047274258, 0.0, -0.3714520717034759, -0.25884105820767755, -0.39410619406694997, -0.6844449405046643, 0.0
0.4299999792196667, -0.3192177601113515, -0.024249116982216205, 0.5282203795323118, -0.09341124364627874, 0.0, -0.42947221259781465, -0.8669288876444827, -0.048076568002204195, 0.7312890400667825, 0.42737637236280074, 0.0, -0.1119986333118096, -0.5771262225771768, 0.07058398078128246, -0.47808960507720255, -0.6463266215192088, 0.0, -0.3712910127201019, -0.2587668537891997, -0.39120387209117463, -0.6854690438591986, 0.0
0.4299999792196667, -0.31685705569037204, -0.022756644749065507, 0.5286488857889444, -0.09453402058633788, 0.0, -0.42987553724399946, -0.8635307071562403, -0.04627626541662809, 0.7274910535161273, 0.4285257170537995, 0.0, -0.11079222682624608, -0.5775995593609763, 0.069982344844169, -0.4794003543267673, -0.646590138310992, 0.0, -0.37112995373672775, -0.25869264937072195, -0.38830155011539924, -0.6864931472137328, 0.0
0.4299999792196667, -0.3153172145231905, -0.020911239574398884, 0.5280827393768409, -0.09558952450851055, 0.0, -0.42990042563913283, -0.8602726626442988, -0.044591613583276894, 0.7238857582962092, 0.42965700107769866, 0.0, -0.11017193192316539, -0.5776569632400743, 0.06936573607646852, -0.4794614722665136, -0.6462226557463261, 0.0, -0.371167708699107, -0.2582105894313211, -0.38691069723448496, -0.686409371409637, 0.0
0.4299999792196667, -0.31377737335600897, -0.01906583439973226, 0.5275165929647376, -0.09664502843068325, 0.0, -0.4299253140342663, -0.8570146181323575, -0.042906961749925705, 0.7202804630762909, 0.43078828510159795, 0.0, -0.10955163702008469, -0.5777143671191725, 0.06874912730876805, -0.47952259020626, -0.6458551731816602, 0.0, -0.3712054636614861, -0.25772852949192027, -0.3855198443535706, -0.6863255956055414, 0.0
0.4299999792196667, -0.3122375321888274, -0.017220429225065642, 0.5269504465526342, -0.09770053235285593, 0.0, -0.4299502024293998, -0.8537565736204161, -0.04122230991657451, 0.7166751678563728, 0.43191956912549706, 0.0, -0.10893134211700402, -0.5777717709982705, 0.06813251854106757, -0.4795837081460063, -0.6454876906169942, 0.0, -0.3712432186238652, -0.25724646955251945, -0.3841289914726564, -0.6862418198014456, 0.0
0.4299999792196667, -0.31069769102164585, -0.015375024050399018, 0.5263843001405308, -0.09875603627502863, 0.0, -0.4299750908245332, -0.8504985291084748, -0.03953765808322331, 0.7130698726364547, 0.43305085314939623, 0.0, -0.10831104721392333, -0.5778291748773685, 0.06751590977336708, -0.4796448260857527, -0.6451202080523283, 0.0, -0.3712809735862444, -0.25676440961311864, -0.38273813859174205, -0.6861580439973499, 0.0
0.4299999792196667, -0.3091578498544643, -0.013529618875732395, 0.5258181537284273, -0.09981154019720131, 0.0, -0.4299999792196667, -0.8472404845965333, -0.03785300624987212, 0.7094645774165366, 0.4341821371732954, 0.0, -0.10769075231084264, -0.5778865787564667, 0.0668993010056666, -0.479705944025499, -0.6447527254876624, 0.0, -0.3713187285486236, -0.25628234967371777, -0.3813472857108278, -0.6860742681932541, 0.0
0.4299999792196667, -0.3078452365932584, -0.01184331442501907, 0.5255957184965777, -0.10071184176283794, 0.0, -0.4299999792196667, -0.8443781655672137, -0.03680746222360886, 0.7064490673481109, 0.43507437741218297, 0.0, -0.10704253144159834, -0.5757003374475166, 0.06680878788159232, -0.47999787477750455, -0.6452878294736899, 0.0, -0.3713885696439713, -0.25661669541720533, -0.38130531403297585, -0.6859403176638221, 0.0
0.4299999792196667, -0.30653262333205256, -0.010157009974305749, 0.525373283264728, -0.1016121433284746, 0.0, -0.4299999792196667, -0.841515846537894, -0.035761918197345595, 0.7034335572796852, 0.4359666176510705, 0.0, -0.10639431057235404, -0.5735140961385663, 0.06671827475751804, -0.4802898055295101, -0.6458229334597174, 0.0, -0.3714584107393191, -0.2569510411606929, -0.3812633423551239, -0.68580636713439, 0.0
0.4299999792196667, -0.3052200100708467, -0.008470705523592423, 0.5251508480328784, -0.10251244489411124, 0.0, -0.4299999792196667, -0.8386535275085744, -0.03471637417108234, 0.7004180472112593, 0.43685885788995804, 0.0, -0.10574608970310972, -0.5713278548296162, 0.06662776163344378, -0.48058173628151574, -0.6463580374457447, 0.0, -0.371528251834667, -0.2572853869041804, -0.38122137067727196, -0.685672416604958, 0.0
0.4299999792196667, -0.30390739680964085, -0.006784401072879099, 0.5249284128010288, -0.10341274645974789, 0.0, -0.4299999792196667, -0.8357912084792547, -0.033670830144819086, 0.6974025371428336, 0.43775109812884555, 0.0, -0.10509786883386543, -0.5691416135206661, 0.0665372485093695, -0.4808736670335213, -0.6468931414317722, 0.0, -0.3715980929300148, -0.25761973264766796, -0.38117939899942, -0.6855384660755259, 0.0
0.4299999792196667, -0.30259478354843494, -0.005098096622165775, 0.524705977569179, -0.10431304802538455, 0.0, -0.4299999792196667, -0.832928889449935, -0.03262528611855582, 0.6943870270744079, 0.43864333836773306, 0.0, -0.10444964796462113, -0.566955372211716, 0.0664467353852952, -0.48116559778552687, -0.6474282454177996, 0.0, -0.3716679340253626, -0.25795407839115553, -0.38113742732156797, -0.6854045155460939, 0.0
0.4299999792196667, -0.30223291396264346, -0.0036692024925151475, 0.5241374086400739, -0.1049712940658523, 0.0, -0.4299999792196667, -0.8307721860932455, -0.03161616013246468, 0.6921138055368554, 0.4391211082878325, 0.0, -0.10402696761703165, -0.5660951587646025, 0.06716573389356395, -0.4807664968361319, -0.6479541410466936, 0.0, -0.37139256993861686, -0.2573656895030647, -0.38049886021748236, -0.6853590287751283, 0.0
0.4299999792196667, -0.30187104437685197, -0.0022403083628645204, 0.5235688397109687, -0.10562954010632004, 0.0, -0.4299999792196667, -0.8286154827365563, -0.030607034146373533, 0.6898405839993029, 0.439598878207932, 0.0, -0.10360428726944215, -0.5652349453174892, 0.06788473240183267, -0.4803673958867368, -0.6484800366755875, 0.0, -0.3711172058518713, -0.2567773006149739, -0.37986029311339664, -0.6853135420041631, 0.0
0.4299999792196667, -0.3015091747910605, -0.0008114142332138937, 0.5230002707818635, -0.10628778614678781, 0.0, -0.4299999792196667, -0.826458779379867, -0.02959790816028239, 0.6875673624617503, 0.44007664812803143, 0.0, -0.10318160692185267, -0.5643747318703757, 0.06860373091010138, -0.4799682949373417, -0.6490059323044814, 0.0, -0.37084184176512563, -0.2561889117268831, -0.37922172600931103, -0.6852680552331974, 0.0
0.4299999792196667, -0.301147305205269, 0.0006174798964367336, 0.5224317018527582, -0.10694603218725554, 0.0, -0.4299999792196667, -0.8243020760231775, -0.02858878217419125, 0.6852941409241977, 0.4405544180481309, 0.0, -0.1027589265742632, -0.5635145184232623, 0.06932272941837012, -0.4795691939879467, -0.6495318279333754, 0.0, -0.37056647767837997, -0.2556005228387922, -0.37858315890522537, -0.6852225684622321, 0.0
0.4299999792196667, -0.30078543561947746, 0.0020463740260873607, 0.5218631329236532, -0.10760427822772331, 0.0, -0.4299999792196667, -0.8221453726664881, -0.027579656188100102, 0.6830209193866452, 0.4410321879682303, 0.0, -0.1023362462266737, -0.5626543049761489, 0.07004172792663885, -0.4791700930385517, -0.6500577235622693, 0.0, -0.37029111359163436, -0.2550121339507014, -0.37794459180113965, -0.6851770816912666, 0.0
0.4299999792196667, -0.30052306027302517, 0.0029282174957003964, 0.5213579683156144, -0.10801244197379227, 0.0, -0.4299999792196667, -0.8208155818747841, -0.026869914208052254, 0.681819501052084, 0.4412081171568313, 0.0, -0.10223256319712974, -0.5622882640534451, 0.0698118369972905, -0.47860210006809967, -0.6502357541272897, 0.0, -0.3704171682515303, -0.25399148285742756, -0.37764968351743017, -0.6853368316777015, 0.0
0.4299999792196667, -0.3002606849265729, 0.003810060965313432, 0.5208528037075756, -0.1084206057198612, 0.0, -0.4299999792196667, -0.8194857910830801, -0.026160172228004406, 0.6806180827175227, 0.4413840463454324, 0.0, -0.10212888016758577, -0.5619222231307414, 0.06958194606794217, -0.4780341070976476, -0.6504137846923101, 0.0, -0.3705432229114264, -0.25297083176415386, -0.37735477523372074, -0.6854965816641365, 0.0
0.4299999792196667, -0.2999983095801205, 0.0046919044349264675, 0.5203476390995369, -0.10882876946593015, 0.0, -0.4299999792196667, -0.818156000291376, -0.025450430247956554, 0.6794166643829613, 0.4415599755340333, 0.0, -0.10202519713804178, -0.5615561822080376, 0.06935205513859383, -0.4774661141271956, -0.6505918152573306, 0.0, -0.37066927757132245, -0.25195018067088004, -0.37705986695001126, -0.6856563316505717, 0.0
0.4299999792196667, -0.29973593423366823, 0.005573747904539503, 0.5198424744914981, -0.1092369332119991, 0.0, -0.4299999792196667, -0.816826209499672, -0.02474068826790871, 0.6782152460484, 0.44173590472263446, 0.0, -0.10192151410849783, -0.5611901412853338, 0.0691221642092455, -0.47689812115674357, -0.650769845822351, 0.0, -0.37079533223121847, -0.2509295295776063, -0.3767649586663018, -0.6858160816370067, 0.0
0.4299999792196667, -0.2994735588872159, 0.00645559137415254, 0.5193373098834594, -0.10964509695806804, 0.0, -0.4299999792196667, -0.815496418707968, -0.02403094628786086, 0.6770138277138387, 0.4419118339112354, 0.0, -0.10181783107895384, -0.56082410036263, 0.06889227327989715, -0.47633012818629156, -0.6509478763873714, 0.0, -0.37092138689111454, -0.24990887848433252, -0.37647005038259224, -0.6859758316234417, 0.0
