isaac-sim2real/sage/motion_files/h1_2/amass/0-guitar_right01_poses_action_sequence.txt
/h1_2/pelvis/left_hip_yaw_joint, /h1_2/left_hip_yaw_link/left_hip_pitch_joint, /h1_2/left_hip_pitch_link/left_hip_roll_joint, /h1_2/left_hip_roll_link/left_knee_joint, /h1_2/left_knee_link/left_ankle_pitch_joint, /h1_2/left_ankle_pitch_link/left_ankle_roll_joint, /h1_2/pelvis/right_hip_yaw_joint, /h1_2/right_hip_yaw_link/right_hip_pitch_joint, /h1_2/right_hip_pitch_link/right_hip_roll_joint, /h1_2/right_hip_roll_link/right_knee_joint, /h1_2/right_knee_link/right_ankle_pitch_joint, /h1_2/right_ankle_pitch_link/right_ankle_roll_joint, /h1_2/pelvis/torso_joint, /h1_2/torso_link/left_shoulder_pitch_joint, /h1_2/left_shoulder_pitch_link/left_shoulder_roll_joint, /h1_2/left_shoulder_roll_link/left_shoulder_yaw_joint, /h1_2/left_shoulder_yaw_link/left_elbow_joint, /h1_2/left_elbow_link/left_wrist_roll_joint, /h1_2/torso_link/right_shoulder_pitch_joint, /h1_2/right_shoulder_pitch_link/right_shoulder_roll_joint, /h1_2/right_shoulder_roll_link/right_shoulder_yaw_joint, /h1_2/right_shoulder_yaw_link/right_elbow_joint, /h1_2/right_elbow_link/right_wrist_roll_joint
0.4279503692658796, -0.004224356873349381, -0.013960119869167138, -0.09503085124719833, 0.34540287553782784, 0.0, -0.31917275854191807, -0.012246874132147596, -0.02411239905872218, -0.05446660515871767, 0.2559779118922924, 0.0, 0.07903565565359016, 0.05546668754675668, 0.1509636324613586, -0.00195604704137781, 1.1053290929664326, 0.0, 0.036434294423437506, -0.18169713525972675, -0.267770996928263, 0.9558851535913706, 0.0
0.4280592149793509, -0.004397762839450802, -0.01418824190731858, -0.09514124925650644, 0.3455676799977766, 0.0, -0.3189361547272007, -0.012548975266770394, -0.024094806488927926, -0.054809605291834165, 0.25580022341180536, 0.0, 0.07894446220017345, 0.05522334990271927, 0.15077938503354257, -0.0023343739300983064, 1.1047751533871177, 0.0, 0.03632729073045869, -0.181963388727777, -0.2681423576145268, 0.95569086004838, 0.0
0.4281680606928223, -0.004571168805552222, -0.014416363945470025, -0.09525164726581453, 0.3457324844577255, 0.0, -0.31869955091248336, -0.012851076401393198, -0.02407721391913368, -0.055152605424950644, 0.2556225349313183, 0.0, 0.07885326874675676, 0.05498001225868188, 0.15059513760572651, -0.002712700818818803, 1.1042212138078027, 0.0, 0.03622028703747986, -0.18222964219582727, -0.2685137183007907, 0.9554965665053896, 0.0
0.4282769064062937, -0.004744574771653643, -0.014644485983621464, -0.09536204527512261, 0.34589728891767435, 0.0, -0.31846294709776596, -0.013153177536015997, -0.024059621349339425, -0.05549560555806713, 0.2554448464508313, 0.0, 0.07876207529334005, 0.05473667461464447, 0.15041089017791048, -0.0030910277075392994, 1.1036672742284879, 0.0, 0.03611328334450105, -0.18249589566387747, -0.2688850789870545, 0.955302272962399, 0.0
0.4283857521197651, -0.0049179807377550625, -0.014872608021772909, -0.09547244328443072, 0.3460620933776231, 0.0, -0.3182263432830486, -0.013455278670638799, -0.02404202877954518, -0.05583860569118361, 0.25526715797034427, 0.0, 0.07867088183992335, 0.05449333697060707, 0.15022664275009445, -0.0034693545962597955, 1.1031133346491728, 0.0, 0.03600627965152222, -0.1827621491319277, -0.26925643967331836, 0.9551079794194085, 0.0
0.4284945978332365, -0.005091386703856483, -0.015100730059924352, -0.09558284129373881, 0.34622689783757193, 0.0, -0.3179897394683313, -0.013757379805261599, -0.024024436209750925, -0.056181605824300096, 0.2550894694898572, 0.0, 0.07857968838650664, 0.05424999932656967, 0.15004239532227842, -0.003847681484980292, 1.1025593950698578, 0.0, 0.035899275958543406, -0.18302840259997796, -0.26962780035958217, 0.9549136858764181, 0.0
0.428503757321151, -0.005369245215169082, -0.015532547555213874, -0.0956061854215501, 0.3464661545527523, 0.0, -0.3174823513108255, -0.014354478584451585, -0.024004850823016746, -0.0567806862503228, 0.2544480609897493, 0.0, 0.07833335436120942, 0.05434275031181085, 0.15007778361819188, -0.004089368012638725, 1.1024732595806135, 0.0, 0.035918867977528746, -0.18319991610557146, -0.2700062051947071, 0.9546685299483659, 0.0
0.4285129168090654, -0.005647103726481681, -0.015964365050503398, -0.09562952954936135, 0.3467054112679327, 0.0, -0.31697496315331974, -0.014951577363641569, -0.023985265436282564, -0.05737976667634549, 0.2538066524896414, 0.0, 0.0780870203359122, 0.05443550129705203, 0.1501131719141053, -0.004331054540297157, 1.102387124091369, 0.0, 0.03593845999651408, -0.1833714296111649, -0.27038461002983194, 0.9544233740203136, 0.0
0.42852207629697986, -0.0059249622377942806, -0.016396182545792923, -0.09565287367717266, 0.34694466798311313, 0.0, -0.31646757499581396, -0.015548676142831553, -0.023965680049548386, -0.05797884710236819, 0.2531652439895335, 0.0, 0.07784068631061494, 0.054528252282293216, 0.15014856021001877, -0.004572741067955589, 1.1023009886021244, 0.0, 0.03595805201549942, -0.18354294311675842, -0.2707630148649569, 0.9541782180922616, 0.0
0.4285312357848944, -0.006202820749106882, -0.016828000041082446, -0.09567621780498392, 0.34718392469829346, 0.0, -0.31596018683830823, -0.016145774922021537, -0.023946094662814204, -0.058577927528390895, 0.2525238354894256, 0.0, 0.07759435228531772, 0.05462100326753439, 0.1501839485059322, -0.00481442759561402, 1.10221485311288, 0.0, 0.03597764403448475, -0.1837144566223519, -0.27114141970008176, 0.9539330621642094, 0.0
0.4285403952728088, -0.00648067926041948, -0.017259817536371968, -0.0956995619327952, 0.34742318141347384, 0.0, -0.3154527986808024, -0.016742873701211525, -0.023926509276080025, -0.05917700795441359, 0.2518824269893177, 0.0, 0.0773480182600205, 0.054713754252775575, 0.15021933680184563, -0.0050561141232724535, 1.1021287176236356, 0.0, 0.03599723605347009, -0.1838859701279454, -0.2715198245352067, 0.9536879062361573, 0.0
0.42872744919006206, -0.006430932140749888, -0.017136085560644485, -0.09532349932952648, 0.347465770937881, 0.0, -0.3153688343811475, -0.016907971376474675, -0.024241855714396212, -0.059288493652911535, 0.2510050604463156, 0.0, 0.07673143183253443, 0.05527737971130742, 0.15035377602346825, -0.005286147820553605, 1.1026251102068538, 0.0, 0.036470476495094745, -0.18367776980147496, -0.27185514417241685, 0.95357566760262, 0.0
0.4289145031073153, -0.006381185021080292, -0.017012353584917, -0.09494743672625777, 0.3475083604622882, 0.0, -0.3152848700814925, -0.017073069051737826, -0.024557202152712395, -0.059399979351409476, 0.2501276939033136, 0.0, 0.07611484540504838, 0.05584100516983925, 0.15048821524509087, -0.005516181517834756, 1.103121502790072, 0.0, 0.0369437169367194, -0.18346956947500456, -0.27219046380962697, 0.9534634289690829, 0.0
0.4291015570245685, -0.006331437901410698, -0.016888621609189518, -0.09457137412298905, 0.34755094998669533, 0.0, -0.31520090578183757, -0.01723816672700098, -0.024872548591028585, -0.05951146504990742, 0.24925032736031155, 0.0, 0.07549825897756235, 0.05640463062837109, 0.1506226544667135, -0.005746215215115908, 1.1036178953732902, 0.0, 0.03741695737834406, -0.18326136914853416, -0.27252578344683714, 0.9533511903355456, 0.0
0.4292886109418218, -0.006281690781741103, -0.01676488963346203, -0.09419531151972035, 0.34759353951110256, 0.0, -0.3151169414821826, -0.01740326440226413, -0.025187895029344768, -0.05962295074840535, 0.2483729608173095, 0.0, 0.07488167255007629, 0.05696825608690292, 0.1507570936883361, -0.005976248912397061, 1.1041142879565085, 0.0, 0.03789019781996872, -0.18305316882206377, -0.27286110308404726, 0.9532389517020083, 0.0
0.429475664859075, -0.006231943662071509, -0.016641157657734548, -0.09381924891645163, 0.3476361290355097, 0.0, -0.31503297718252765, -0.017568362077527284, -0.02550324146766095, -0.0597344364469033, 0.24749559427430745, 0.0, 0.07426508612259022, 0.05753188154543476, 0.15089153290995874, -0.006206282609678213, 1.1046106805397267, 0.0, 0.03836343826159338, -0.18284496849559334, -0.2731964227212575, 0.9531267130684711, 0.0
0.4295734102785037, -0.00591525042298473, -0.016141694237510624, -0.0932201855946556, 0.3472497166297766, 0.0, -0.3152491466823627, -0.017431733340358038, -0.02609783849190113, -0.05950018673228103, 0.24643712887745997, 0.0, 0.07364158120994928, 0.05855590461482338, 0.15084165838125374, -0.006774316420834736, 1.1053146660748356, 0.0, 0.0389559391454019, -0.18231184022227917, -0.2733909606103433, 0.9529532866820173, 0.0
0.4296711556979324, -0.005598557183897949, -0.015642230817286697, -0.09262112227285955, 0.3468633042240436, 0.0, -0.3154653161821977, -0.01729510460318879, -0.026692435516141307, -0.059265937017658754, 0.2453786634806125, 0.0, 0.07301807629730833, 0.05957992768421199, 0.15079178385254874, -0.00734235023199126, 1.1060186516099446, 0.0, 0.03954844002921043, -0.18177871194896494, -0.27358549849942904, 0.9527798602955637, 0.0
0.4297689011173611, -0.005281863944811171, -0.015142767397062773, -0.09202205895106354, 0.34647689181831054, 0.0, -0.3156814856820327, -0.017158475866019544, -0.027287032540381482, -0.0590316873030365, 0.24432019808376504, 0.0, 0.07239457138466736, 0.06060395075360061, 0.15074190932384376, -0.007910384043147783, 1.1067226371450536, 0.0, 0.040140940913018966, -0.18124558367565077, -0.27378003638851484, 0.95260643390911, 0.0
0.42986664653678985, -0.00496517070572439, -0.014643303976838844, -0.0914229956292675, 0.34609047941257753, 0.0, -0.3158976551818677, -0.017021847128850298, -0.02788162956462166, -0.05879743758841423, 0.24326173268691756, 0.0, 0.0717710664720264, 0.06162797382298922, 0.15069203479513876, -0.008478417854304306, 1.1074266226801623, 0.0, 0.040733441796827495, -0.1807124554023366, -0.2739745742776006, 0.9524330075226565, 0.0
0.42996439195621855, -0.00464847746663761, -0.01414384055661492, -0.09082393230747146, 0.3457040670068445, 0.0, -0.31611382468170274, -0.016885218391681053, -0.02847622658886183, -0.05856318787379195, 0.24220326729007008, 0.0, 0.07114756155938545, 0.06265199689237784, 0.15064216026643376, -0.00904645166546083, 1.1081306082152713, 0.0, 0.041325942680636024, -0.18017932712902243, -0.2741691121666864, 0.9522595811362027, 0.0
0.4299715094089081, -0.004506983135486239, -0.013867586282137584, -0.09045330640482271, 0.3448121618711733, 0.0, -0.31584386064366277, -0.016977193578069722, -0.028733346399870536, -0.05857513185999505, 0.24122850788414824, 0.0, 0.06998178913133515, 0.06347243079517982, 0.15041256569399242, -0.010200108017843774, 1.1085596031640947, 0.0, 0.04189079091684181, -0.17967543312067913, -0.27442393721879454, 0.9518675627329123, 0.0
0.4299786268615977, -0.0043654888043348685, -0.013591332007660245, -0.09008268050217397, 0.3439202567355022, 0.0, -0.3155738966056228, -0.017069168764458395, -0.028990466210879237, -0.05858707584619815, 0.24025374847822642, 0.0, 0.06881601670328487, 0.0642928646979818, 0.15018297112155107, -0.011353764370226716, 1.1089885981129177, 0.0, 0.04245563915304759, -0.17917153911233585, -0.27467876227090277, 0.9514755443296218, 0.0
0.42998574431428743, -0.004223994473183498, -0.01331507773318291, -0.0897120545995252, 0.343028351599831, 0.0, -0.3153039325675828, -0.017161143950847065, -0.029247586021887942, -0.05859901983240125, 0.23927898907230463, 0.0, 0.06765024427523457, 0.0651132986007838, 0.1499533765491097, -0.012507420722609661, 1.1094175930617411, 0.0, 0.043020487389253376, -0.17866764510399255, -0.27493358732301093, 0.9510835259263314, 0.0
0.429992861766977, -0.004082500142032127, -0.013038823458705573, -0.08934142869687646, 0.3421364464641599, 0.0, -0.3150339685295428, -0.017253119137235737, -0.029504705832896643, -0.05861096381860435, 0.23830422966638282, 0.0, 0.06648447184718428, 0.06593373250358578, 0.14972378197666839, -0.013661077074992608, 1.1098465880105641, 0.0, 0.04358533562545916, -0.17816375109564928, -0.27518841237511915, 0.950691507523041, 0.0
0.4299999792196667, -0.003941005810880756, -0.012762569184228238, -0.0889708027942277, 0.34124454132848875, 0.0, -0.3147640044915029, -0.01734509432362441, -0.029761825643905344, -0.05862290780480744, 0.23732947026046097, 0.0, 0.065318699419134, 0.06675416640638776, 0.149494187404227, -0.014814733427375552, 1.1102755829593876, 0.0, 0.04415018386166494, -0.177659857087306, -0.27544323742722726, 0.9502994891197504, 0.0
0.4299999792196667, -0.0037745989641456835, -0.012703717065823423, -0.08867975238629684, 0.34049581602333423, 0.0, -0.3144563308696443, -0.017318529714277355, -0.030005894929965186, -0.05861063255511231, 0.2366386951224604, 0.0, 0.0643142156597873, 0.06736320672831989, 0.1493364515277488, -0.016136503383969093, 1.1104068247378203, 0.0, 0.04432468257841104, -0.17733898528564385, -0.2756349129763398, 0.9497262182736405, 0.0
0.4299999792196667, -0.0036081921174106113, -0.012644864947418611, -0.08838870197836597, 0.33974709071817966, 0.0, -0.31414865724778573, -0.0172919651049303, -0.03024996421602503, -0.05859835730541719, 0.23594791998445983, 0.0, 0.06330973190044062, 0.06797224705025202, 0.14917871565127055, -0.017458273340562637, 1.1105380665162532, 0.0, 0.04449918129515713, -0.1770181134839817, -0.27582658852545233, 0.9491529474275304, 0.0
0.4299999792196667, -0.0034417852706755386, -0.012586012829013797, -0.08809765157043509, 0.33899836541302514, 0.0, -0.3138409836259271, -0.017265400495583248, -0.030494033502084867, -0.05858608205572206, 0.23525714484645927, 0.0, 0.06230524814109392, 0.06858128737218415, 0.1490209797747923, -0.018780043297156178, 1.1106693082946864, 0.0, 0.04467368001190322, -0.17669724168231954, -0.27601826407456487, 0.9485796765814203, 0.0
0.4299999792196667, -0.003275378423940466, -0.012527160710608982, -0.08780660116250422, 0.33824964010787056, 0.0, -0.3135333100040686, -0.01723883588623619, -0.030738102788144702, -0.05857380680602693, 0.23456636970845865, 0.0, 0.061300764381747246, 0.06919032769411627, 0.14886324389831407, -0.020101813253749722, 1.110800550073119, 0.0, 0.04484817872864931, -0.17637636988065739, -0.27620993962367735, 0.9480064057353103, 0.0
0.4299999792196667, -0.003108971577205393, -0.01246830859220417, -0.08751555075457335, 0.33750091480271605, 0.0, -0.31322563638221, -0.017212271276889138, -0.030982172074204544, -0.05856153155633181, 0.23387559457045806, 0.0, 0.06029628062240055, 0.06979936801604841, 0.14870550802183582, -0.021423583210343263, 1.1109317918515522, 0.0, 0.04502267744539541, -0.17605549807899523, -0.27640161517278994, 0.9474331348892003, 0.0
0.4299999792196667, -0.0028287345311881758, -0.012468072623689302, -0.08726616414841439, 0.3371947177294047, 0.0, -0.3128640565210743, -0.017098133166620358, -0.031189882312220987, -0.05854419136114739, 0.23351351729048558, 0.0, 0.05950954553679607, 0.06992007777964315, 0.14864703600123552, -0.02242351933979096, 1.110632918179782, 0.0, 0.045099087610981865, -0.17588964991215372, -0.27647963139035403, 0.9471263409132847, 0.0
0.4299999792196667, -0.0025484974851709584, -0.012467836655174432, -0.08701677754225542, 0.3368885206560933, 0.0, -0.3125024766599387, -0.016983995056351574, -0.031397592550237434, -0.058526851165962984, 0.2331514400105131, 0.0, 0.0587228104511916, 0.07004078754323786, 0.14858856398063522, -0.02342345546923865, 1.110334044508012, 0.0, 0.04517549777656833, -0.17572380174531224, -0.2765576476079182, 0.946819546937369, 0.0
0.4299999792196667, -0.00226826043915374, -0.01246760068665956, -0.08676739093609645, 0.3365823235827819, 0.0, -0.312140896798803, -0.01686985694608279, -0.031605302788253874, -0.05850951097077856, 0.23278936273054063, 0.0, 0.05793607536558713, 0.0701614973068326, 0.1485300919600349, -0.024423391598686343, 1.1100351708362421, 0.0, 0.04525190794215479, -0.1755579535784707, -0.2766356638254824, 0.9465127529614535, 0.0
0.4299999792196667, -0.0019880233931365227, -0.012467364718144691, -0.08651800432993749, 0.33627612650947053, 0.0, -0.31177931693766736, -0.01675571883581401, -0.03181301302627031, -0.058492170775594154, 0.23242728545056815, 0.0, 0.05714934027998264, 0.07028220707042733, 0.14847161993943456, -0.025423327728134035, 1.1097362971644722, 0.0, 0.04532831810774125, -0.17539210541162922, -0.2767136800430465, 0.9462059589855379, 0.0
0.4299999792196667, -0.0017077863471193055, -0.012467128749629823, -0.08626861772377852, 0.33596992943615916, 0.0, -0.31141773707653164, -0.016641580725545228, -0.03202072326428676, -0.05847483058040974, 0.23206520817059567, 0.0, 0.05636260519437817, 0.07040291683402206, 0.14841314791883423, -0.02642326385758173, 1.1094374234927022, 0.0, 0.04540472827332772, -0.17522625724478771, -0.2767916962606106, 0.9458991650096225, 0.0
0.4299999792196667, -0.0014458691077077444, -0.01245500722853521, -0.086172386202943, 0.3362098598484308, 0.0, -0.3109601536345608, -0.016595632698965038, -0.032183605069531586, -0.058601060471362675, 0.2319708521805744, 0.0, 0.05566447419171215, 0.07024942245669201, 0.14836425775582737, -0.02710550084488155, 1.108848692520078, 0.0, 0.04555822369785531, -0.1751838178186962, -0.2768015608615429, 0.945849869930229, 0.0
0.4299999792196667, -0.0011839518682961836, -0.0124428857074406, -0.0860761546821075, 0.3364497902607025, 0.0, -0.3105025701925899, -0.016549684672384844, -0.0323464868747764, -0.05872729036231562, 0.23187649619055303, 0.0, 0.054966343189046106, 0.07009592807936198, 0.1483153675928205, -0.027787737832181372, 1.1082599615474538, 0.0, 0.04571171912238291, -0.1751413783926047, -0.27681142546247517, 0.9458005748508357, 0.0
0.4299999792196667, -0.0009220346288846223, -0.012430764186345988, -0.085979923161272, 0.33668972067297415, 0.0, -0.3100449867506191, -0.01650373664580465, -0.032509368680021224, -0.05885352025326855, 0.2317821402005317, 0.0, 0.05426821218638008, 0.06994243370203193, 0.14826647742981366, -0.02846997481948119, 1.1076712305748293, 0.0, 0.0458652145469105, -0.1750989389665132, -0.27682129006340744, 0.9457512797714425, 0.0
0.4299999792196667, -0.0006601173894730612, -0.012418642665251379, -0.08588369164043648, 0.3369296510852458, 0.0, -0.3095874033086482, -0.016457788619224454, -0.03267225048526604, -0.05897975014422149, 0.23168778421051037, 0.0, 0.05357008118371404, 0.0697889393247019, 0.14821758726680678, -0.02915221180678101, 1.1070824996022053, 0.0, 0.04601870997143809, -0.1750564995404217, -0.2768311546643397, 0.9457019846920491, 0.0
0.4299999792196667, -0.00039820015006150004, -0.012406521144156768, -0.08578746011960098, 0.33716958149751747, 0.0, -0.3091298198666773, -0.01641184059264426, -0.03283513229051086, -0.059105980035174435, 0.23159342822048906, 0.0, 0.05287195018104802, 0.06963544494737185, 0.1481686971037999, -0.02983444879408083, 1.106493768629581, 0.0, 0.046172205395965685, -0.17501406011433024, -0.276841019265272, 0.9456526896126558, 0.0
0.4299999792196667, -0.00018655424694168682, -0.012383067060602618, -0.08578416354170981, 0.33784039879552147, 0.0, -0.30872167113043997, -0.016267382482983494, -0.03297342729351699, -0.059204902504650665, 0.23208100689098474, 0.0, 0.05231047915694484, 0.06967844008629717, 0.14797563925391982, -0.030555258954113127, 1.1059502975351196, 0.0, 0.04623232326205064, -0.17508718242867177, -0.2768349559914505, 0.94555013057515, 0.0
0.4299999792196667, 2.509165617812641e-05, -0.012359612977048467, -0.08578086696381863, 0.3385112160935255, 0.0, -0.30831352239420257, -0.016122924373322727, -0.03311172229652311, -0.05930382497412691, 0.23256858556148036, 0.0, 0.05174900813284167, 0.0697214352252225, 0.14778258140403971, -0.03127606911414542, 1.105406826440658, 0.0, 0.046292441128135575, -0.17516030474301333, -0.27682889271762917, 0.9454475715376445, 0.0
0.4299999792196667, 0.0002367375592979396, -0.012336158893494318, -0.08577757038592747, 0.3391820333915295, 0.0, -0.3079053736579652, -0.01597846626366196, -0.03325001729952924, -0.05940274744360313, 0.233056164231976, 0.0, 0.051187537108738496, 0.06976443036414783, 0.1475895235541596, -0.031996879274177714, 1.1048633553461966, 0.0, 0.046352558994220514, -0.1752334270573549, -0.2768228294438077, 0.9453450125001387, 0.0
0.4299999792196667, 0.0004483834624177528, -0.012312704809940168, -0.08577427380803629, 0.3398528506895335, 0.0, -0.3074972249217278, -0.015834008154001194, -0.03338831230253536, -0.059501669913079376, 0.23354374290247162, 0.0, 0.05062606608463531, 0.06980742550307316, 0.14739646570427953, -0.03271768943421001, 1.104319884251735, 0.0, 0.046412676860305466, -0.17530654937169643, -0.2768167661699863, 0.945242453462633, 0.0
0.4299999792196667, 0.0006600293655375661, -0.012289250726386017, -0.08577097723014514, 0.3405236679875375, 0.0, -0.3070890761854904, -0.015689550044340424, -0.03352660730554148, -0.05960059238255561, 0.23403132157296727, 0.0, 0.050064595060532145, 0.06985042064199849, 0.14720340785439945, -0.033438499594242305, 1.1037764131572734, 0.0, 0.046472794726390404, -0.17537967168603802, -0.2768107028961649, 0.9451398944251272, 0.0
0.4299999792196667, 0.0006019372926434356, -0.012410314652192563, -0.08599903102592282, 0.341141095663723, 0.0, -0.30653475961505705, -0.015499699760559638, -0.0334161304073512, -0.05976690829763665, 0.23511656381119886, 0.0, 0.04982316296697206, 0.07042060365159591, 0.14709911046895874, -0.03418545478646948, 1.103400469236394, 0.0, 0.04633139862236933, -0.17545335250574018, -0.2764696725416422, 0.9447717102381021, 0.0
0.4299999792196667, 0.0005438452197493053, -0.012531378577999108, -0.08622708482170051, 0.3417585233399085, 0.0, -0.30598044304462363, -0.015309849476778855, -0.03330565350916091, -0.0599332242127177, 0.23620180604943045, 0.0, 0.049581730873411986, 0.07099078666119334, 0.14699481308351808, -0.034932409978696656, 1.1030245253155144, 0.0, 0.046190002518348275, -0.1755270333254424, -0.27612864218711947, 0.9444035260510769, 0.0
0.4299999792196667, 0.00048575314685517495, -0.012652442503805653, -0.08645513861747821, 0.3423759510160941, 0.0, -0.30542612647419026, -0.015119999192998067, -0.03319517661097063, -0.06009954012779874, 0.237287048287662, 0.0, 0.04934029877985191, 0.07156096967079079, 0.14689051569807737, -0.035679365170923814, 1.1026485813946347, 0.0, 0.0460486064143272, -0.17560071414514455, -0.2757876118325968, 0.9440353418640517, 0.0
0.4299999792196667, 0.00042766107396104456, -0.012773506429612199, -0.0866831924132559, 0.34299337869227964, 0.0, -0.30487180990375684, -0.014930148909217284, -0.03308469971278034, -0.06026585604287979, 0.2383722905258936, 0.0, 0.04909886668629184, 0.07213115268038821, 0.1467862183126367, -0.036426320363150994, 1.1022726374737553, 0.0, 0.04590721031030614, -0.1756743949648468, -0.2754465814780741, 0.9436671576770265, 0.0
0.4299999792196667, 0.0003695690010669141, -0.012894570355418744, -0.08691124620903358, 0.3436108063684651, 0.0, -0.3043174933333235, -0.014740298625436497, -0.032974222814590046, -0.06043217195796083, 0.23945753276412513, 0.0, 0.048857434592731765, 0.07270133568998564, 0.146681920927196, -0.037173275555378166, 1.1018966935528758, 0.0, 0.045765814206285074, -0.17574807578454898, -0.27510555112355145, 0.9432989734900012, 0.0
0.4299999792196667, -0.0001572434283391308, -0.0134384205004872, -0.08756051183236813, 0.3437857477007095, 0.0, -0.30331196726334747, -0.01479360461107725, -0.03250586789860757, -0.061033199124231205, 0.2404385299767936, 0.0, 0.04855632410699239, 0.0736088590790012, 0.146734835819458, -0.03786879763987832, 1.1011705946961439, 0.0, 0.04558463227476724, -0.17589226790603174, -0.27400758892573135, 0.9424608768551691, 0.0
0.4299999792196667, -0.0006840558577451757, -0.013982270645555654, -0.08820977745570267, 0.3439606890329539, 0.0, -0.3023064411933715, -0.014846910596718001, -0.032037512982625097, -0.06163422629050157, 0.24141952718946205, 0.0, 0.048255213621253026, 0.07451638246801674, 0.14678775071171996, -0.03856431972437846, 1.1004444958394122, 0.0, 0.045403450343249406, -0.1760364600275145, -0.27290962672791125, 0.941622780220337, 0.0
0.4299999792196667, -0.0012108682871512207, -0.01452612079062411, -0.0888590430790372, 0.34413563036519834, 0.0, -0.3013009151233955, -0.014900216582358749, -0.03156915806664263, -0.06223525345677195, 0.24240052440213047, 0.0, 0.04795410313551366, 0.07542390585703228, 0.1468406656039819, -0.039259841808878614, 1.0997183969826805, 0.0, 0.045222268411731575, -0.17618065214899728, -0.27181166453009115, 0.9407846835855047, 0.0
0.4299999792196667, -0.0017376807165572657, -0.015069970935692564, -0.08950830870237174, 0.34431057169744267, 0.0, -0.3002953890534195, -0.014953522567999502, -0.03110080315066015, -0.06283628062304232, 0.24338152161479892, 0.0, 0.04765299264977428, 0.07633142924604783, 0.14689358049624388, -0.039955363893378754, 1.0989922981259488, 0.0, 0.04504108648021375, -0.17632484427048004, -0.270713702332271, 0.9399465869506726, 0.0
0.4299999792196667, -0.0022644931459633107, -0.015613821080761018, -0.0901575743257063, 0.3444855130296871, 0.0, -0.29928986298344357, -0.015006828553640252, -0.030632448234677673, -0.0634373077893127, 0.2443625188274674, 0.0, 0.047351882164034916, 0.07723895263506338, 0.14694649538850585, -0.04065088597787891, 1.098266199269217, 0.0, 0.044859904548695914, -0.1764690363919628, -0.26961574013445094, 0.9391084903158404, 0.0
0.4299999792196667, -0.002703105906162549, -0.016018970468678843, -0.09072341530519061, 0.34435083644328623, 0.0, -0.2986485382591398, -0.014141551766740439, -0.030104325216592356, -0.0632760177243457, 0.24568028779128367, 0.0, 0.04743440831238621, 0.07876559003738771, 0.14718353204487772, -0.04099713696126016, 1.0960127662747237, 0.0, 0.04479163529687246, -0.17660607964482938, -0.26656639860380454, 0.9371382823710437, 0.0
0.4299999792196667, -0.003141718666361787, -0.016424119856596673, -0.09128925628467494, 0.34421615985688536, 0.0, -0.2980072135348359, -0.013276274979840628, -0.029576202198507037, -0.0631147276593787, 0.24699805675509995, 0.0, 0.04751693446073752, 0.08029222743971205, 0.14742056870124956, -0.04134338794464141, 1.0937593332802302, 0.0, 0.04472336604504899, -0.17674312289769598, -0.26351705707315815, 0.9351680744262468, 0.0
0.4299999792196667, -0.0035803314265610247, -0.016829269244514493, -0.09185509726415925, 0.3440814832704844, 0.0, -0.2973658888105321, -0.012410998192940812, -0.029048079180421724, -0.06295343759441169, 0.24831582571891622, 0.0, 0.04759946060908881, 0.08181886484203639, 0.14765760535762143, -0.04168963892802265, 1.091505900285737, 0.0, 0.04465509679322554, -0.17688016615056257, -0.2604677155425118, 0.9331978664814501, 0.0
0.4299999792196667, -0.004018944186760263, -0.01723441863243232, -0.09242093824364357, 0.3439468066840835, 0.0, -0.2967245640862282, -0.011545721406041001, -0.028519956162336404, -0.0627921475294447, 0.2496335946827325, 0.0, 0.04768198675744013, 0.08334550224436073, 0.14789464201399327, -0.042035889911403904, 1.0892524672912434, 0.0, 0.04458682754140208, -0.17701720940342916, -0.2574183740118654, 0.9312276585366532, 0.0
0.4299999792196667, -0.004457556946959502, -0.017639568020350146, -0.09298677922312788, 0.34381213009768263, 0.0, -0.29608323936192443, -0.010680444619141189, -0.027991833144251084, -0.06263085746447769, 0.25095136364654874, 0.0, 0.047764512905791416, 0.08487213964668505, 0.14813167867036514, -0.042382140894785154, 1.0869990342967502, 0.0, 0.044518558289578625, -0.17715425265629575, -0.254369032481219, 0.9292574505918566, 0.0
0.4299999792196667, -0.0045030264740719686, -0.017619864649358535, -0.09324474377349455, 0.343706980991567, 0.0, -0.2953735186748935, -0.00985944086633843, -0.027670803215758703, -0.06268531836939108, 0.25223781093160874, 0.0, 0.0478945060756775, 0.08708461046176588, 0.1482280836769283, -0.04183673806990754, 1.0808545782304944, 0.0, 0.04569078599240034, -0.1774786325697544, -0.24771637842468475, 0.9246828623372337, 0.0
0.4299999792196667, -0.0045484960011844345, -0.01760016127836692, -0.09350270832386123, 0.34360183188545135, 0.0, -0.2946637979878625, -0.009038437113535672, -0.027349773287266323, -0.06273977927430445, 0.2535242582166687, 0.0, 0.048024499245563596, 0.08929708127684668, 0.14832448868349146, -0.04129133524502993, 1.0747101221642388, 0.0, 0.046863013695222056, -0.17780301248321306, -0.2410637243681505, 0.9201082740826111, 0.0
0.4299999792196667, -0.004593965528296901, -0.0175804579073753, -0.0937606728742279, 0.3434966827793357, 0.0, -0.2939540773008315, -0.008217433360732912, -0.027028743358773942, -0.06279424017921784, 0.2548107055017287, 0.0, 0.048154492415449675, 0.09150955209192752, 0.14842089369005462, -0.04074593242015232, 1.0685656660979834, 0.0, 0.048035241398043764, -0.17812739239667172, -0.23441107031161623, 0.9155336858279882, 0.0
0.4299999792196667, -0.004639435055409367, -0.01756075453638369, -0.09401863742459457, 0.34339153367322006, 0.0, -0.2932443566138005, -0.007396429607930154, -0.026707713430281565, -0.06284870108413121, 0.2560971527867887, 0.0, 0.048284485585335775, 0.09372202290700833, 0.14851729869661778, -0.0402005295952747, 1.0624212100317278, 0.0, 0.04920746910086548, -0.1784517723101304, -0.22775841625508192, 0.9109590975733656, 0.0
0.4299999792196667, -0.004684904582521834, -0.017541051165392074, -0.09427660197496124, 0.3432863845671044, 0.0, -0.29253463592676954, -0.006575425855127395, -0.026386683501789184, -0.0629031619890446, 0.2573836000718487, 0.0, 0.04841447875522186, 0.09593449372208915, 0.14861370370318092, -0.03965512677039709, 1.0562767539654723, 0.0, 0.05037969680368721, -0.17877615222358906, -0.22110576219854766, 0.9063845093187428, 0.0
0.4299920693874967, -0.004574770048117617, -0.01733153608239614, -0.09453376088134517, 0.3433550283665853, 0.0, -0.2915227394050238, -0.006262392850734728, -0.026216214401220093, -0.06380267536399105, 0.2582286361357868, 0.0, 0.04925381701728389, 0.09819353760106188, 0.14887809315959002, -0.03606785870725694, 1.0430686606917399, 0.0, 0.053365285994614285, -0.1793250617639998, -0.20788326297716928, 0.8958886577026095, 0.0
0.42998415955532654, -0.004464635513713401, -0.01712202099940021, -0.09479091978772912, 0.3434236721660663, 0.0, -0.290510842883278, -0.005949359846342059, -0.026045745300651006, -0.06470218873893749, 0.2590736721997248, 0.0, 0.05009315527934593, 0.10045258148003461, 0.14914248261599916, -0.032480590644116784, 1.0298605674180072, 0.0, 0.05635087518554137, -0.17987397130441046, -0.19466076375579083, 0.8853928060864763, 0.0
0.4299762497231565, -0.004354500979309183, -0.016912505916404284, -0.09504807869411308, 0.3434923159655472, 0.0, -0.2894989463615323, -0.005636326841949392, -0.025875276200081915, -0.06560170211388393, 0.259918708263663, 0.0, 0.050932493541407955, 0.10271162535900734, 0.14940687207240824, -0.02889332258097664, 1.0166524741442748, 0.0, 0.059336464376468445, -0.1804228808448212, -0.18143826453441245, 0.8748969544703431, 0.0
0.42996833989098643, -0.004244366444904966, -0.01670299083340835, -0.09530523760049701, 0.34356095976502815, 0.0, -0.28848704983978646, -0.005323293837556726, -0.025704807099512825, -0.06650121548883037, 0.260763744327601, 0.0, 0.051771831803469996, 0.10497066923798008, 0.14967126152881738, -0.025306054517836483, 1.0034443808705424, 0.0, 0.062322053567395536, -0.18097179038523192, -0.16821576531303403, 0.8644011028542099, 0.0
0.42996043005881646, -0.004134231910500749, -0.01649347575041242, -0.09556239650688096, 0.34362960356450906, 0.0, -0.28747515331804074, -0.005010260833164058, -0.025534337998943737, -0.06740072886377682, 0.2616087803915391, 0.0, 0.05261117006553202, 0.10722971311695281, 0.1499356509852265, -0.021718786454696333, 0.9902362875968099, 0.0, 0.06530764275832261, -0.18152069992564265, -0.15499326609165562, 0.8539052512380765, 0.0
0.4298144158135946, -0.0038445918682318268, -0.015960341019379997, -0.0958817708160449, 0.34445804852857775, 0.0, -0.28661019955667894, -0.004590888198666369, -0.025490020947642945, -0.06867784806211658, 0.26260233350284645, 0.0, 0.05512391849523317, 0.10667556409812762, 0.15206177966407944, -0.011568057990181685, 0.9670279394200236, 0.0, 0.06954655637576533, -0.18314285780166523, -0.13334135786136891, 0.8337934313135934, 0.0
0.42966840156837277, -0.003554951825962905, -0.015427206288347579, -0.09620114512520886, 0.3452864934926464, 0.0, -0.28574524579531707, -0.004171515564168682, -0.02544570389634216, -0.06995496726045636, 0.26359588661415373, 0.0, 0.05763666692493429, 0.10612141507930241, 0.1541879083429324, -0.0014173295256670357, 0.9438195912432372, 0.0, 0.07378546999320805, -0.1847650156776878, -0.11168944963108221, 0.8136816113891103, 0.0
0.4295223873231509, -0.003265311783693983, -0.014894071557315158, -0.09652051943437277, 0.346114938456715, 0.0, -0.2848802920339552, -0.0037521429296709934, -0.025401386845041365, -0.07123208645879613, 0.26458943972546106, 0.0, 0.06014941535463544, 0.1055672660604772, 0.15631403702178534, 0.008733398938847612, 0.9206112430664507, 0.0, 0.07802438361065074, -0.1863871735537104, -0.0900375414007955, 0.7935697914646272, 0.0
0.42937637307792903, -0.002975671741425061, -0.01436093682628274, -0.09683989374353671, 0.3469433834207836, 0.0, -0.28401533827259334, -0.003332770295173306, -0.02535706979374058, -0.07250920565713591, 0.26558299283676834, 0.0, 0.06266216378433656, 0.105013117041652, 0.1584401657006383, 0.01888412740336226, 0.8974028948896642, 0.0, 0.08226329722809346, -0.188009331429733, -0.0683856331705088, 0.7734579715401443, 0.0
0.4292303588327072, -0.0026860316991561385, -0.013827802095250318, -0.09715926805270066, 0.3477718283848523, 0.0, -0.2831503845112315, -0.0029133976606756174, -0.025312752742439788, -0.07378632485547566, 0.26657654594807567, 0.0, 0.0651749122140377, 0.10445896802282678, 0.16056629437949124, 0.02903485586787691, 0.8741945467128779, 0.0, 0.08650221084553619, -0.18963148930575555, -0.04673372494022207, 0.7533461516156611, 0.0
0.42851734994536556, -0.0026647785805085085, -0.01257051444488243, -0.09797424815065602, 0.34905614985888334, 0.0, -0.2821586744676143, -0.0021492448666639206, -0.024739041375226527, -0.07528142625261158, 0.26792431363107516, 0.0, 0.06860644803868089, 0.09599138447438715, 0.16599753560955335, 0.046904500171541956, 0.8392490268680378, 0.0, 0.08901659988473419, -0.19296497741994365, -0.01888197506332871, 0.7215967450195845, 0.0
0.4278043410580238, -0.0026435254618608784, -0.011313226794514537, -0.09878922824861137, 0.3503404713329144, 0.0, -0.2811669644239971, -0.0013850920726522233, -0.02416533000801327, -0.07677652764974748, 0.26927208131407476, 0.0, 0.0720379838633241, 0.08752380092594754, 0.17142877683961544, 0.06477414447520702, 0.8043035070231979, 0.0, 0.0915309889239322, -0.19629846553413172, 0.008969774813564656, 0.689847338423508, 0.0
0.42709133217068207, -0.0026222723432132483, -0.010055939144146646, -0.09960420834656669, 0.3516247928069455, 0.0, -0.28017525438037993, -0.0006209392786405262, -0.023591618640800005, -0.07827162904688337, 0.27061984899707425, 0.0, 0.0754695196879673, 0.0790562173775079, 0.17686001806967752, 0.08264378877887206, 0.7693579871783578, 0.0, 0.09404537796313021, -0.19963195364831973, 0.036821524690458025, 0.6580979318274315, 0.0
0.42637832328334024, -0.0026010192245656183, -0.008798651493778755, -0.10041918844452205, 0.3529091142809765, 0.0, -0.27918354433676273, 0.0001432135153711706, -0.023017907273586744, -0.07976673044401929, 0.27196761668007385, 0.0, 0.0789010555126105, 0.07058863382906827, 0.18229125929973963, 0.1005134330825371, 0.7344124673335176, 0.0, 0.09655976700232823, -0.20296544176250783, 0.06467327456735138, 0.6263485252313551, 0.0
0.42566531439599853, -0.0025797661059179878, -0.007541363843410865, -0.10123416854247742, 0.35419343575500756, 0.0, -0.27819183429314553, 0.0009073663093828673, -0.02244419590637348, -0.08126183184115518, 0.27331538436307334, 0.0, 0.08233259133725371, 0.06212105028062865, 0.18772250052980172, 0.11838307738620214, 0.6994669474886775, 0.0, 0.09907415604152624, -0.2062989298766959, 0.09252502444424475, 0.5945991186352785, 0.0
0.42482056107539934, -0.001560815661467367, -0.0058589424989558166, -0.10222673030676957, 0.35544592591414076, 0.0, -0.2780796131129008, 0.002842143616578568, -0.021977258895875332, -0.08229477912807512, 0.27467374619463253, 0.0, 0.08590768677605876, 0.04390474972813004, 0.19846519057138606, 0.14211303920109564, 0.6532247282097681, 0.0, 0.09497704449168859, -0.21179223501495892, 0.11917914684171213, 0.5506384251705025, 0.0
0.42397580775480004, -0.000541865217016746, -0.004176521154500767, -0.10321929207106173, 0.35669841607327396, 0.0, -0.27796739193265607, 0.0047769209237742685, -0.021510321885377177, -0.08332772641499502, 0.2760321080261917, 0.0, 0.08948278221486379, 0.025688449175631428, 0.20920788061297035, 0.16584300101598912, 0.6069825089308586, 0.0, 0.09087993294185095, -0.21728554015322193, 0.1458332692391795, 0.5066777317057267, 0.0
0.4231310544342007, 0.00047708522743387515, -0.002494099810045718, -0.10421185383535393, 0.35795090623240705, 0.0, -0.27785517075241134, 0.006711698230969969, -0.021043384874879025, -0.08436067370191494, 0.27739046985775084, 0.0, 0.09305787765366884, 0.00747214862313282, 0.2199505706545547, 0.18957296283088262, 0.5607402896519491, 0.0, 0.08678282139201332, -0.22277884529148492, 0.17248739163664686, 0.46271703824095073, 0.0
0.4222863011136015, 0.0014960356718844957, -0.0008116784655906697, -0.10520441559964608, 0.35920339639154025, 0.0, -0.2777429495721666, 0.00864647553816567, -0.020576447864380874, -0.08539362098883484, 0.27874883168931003, 0.0, 0.09663297309247389, -0.01074415192936579, 0.23069326069613902, 0.2133029246457761, 0.5144980703730399, 0.0, 0.0826857098421757, -0.228272150429748, 0.19914151403411426, 0.4187563447761749, 0.0
0.4214415477930022, 0.002514986116335116, 0.0008707428788643788, -0.10619697736393824, 0.36045588655067345, 0.0, -0.2776307283919219, 0.01058125284536137, -0.02010951085388272, -0.08642656827575476, 0.28010719352086916, 0.0, 0.10020806853127892, -0.02896045248186439, 0.2414359507377233, 0.2370328864606696, 0.46825585109413037, 0.0, 0.07858859829233807, -0.233765455568011, 0.22579563643158163, 0.37479565131139897, 0.0
0.42206398805479944, 0.0058417076239197846, 0.0029172950437271732, -0.10611525895396476, 0.3623736892393498, 0.0, -0.27993679004468, 0.014279898291866084, -0.02114113622842717, -0.08609223440050613, 0.28122029470462107, 0.0, 0.10377384321374661, -0.05177269923210824, 0.2561526263317341, 0.2627324268546316, 0.4180880058457087, 0.0, 0.06351353336887745, -0.24070096117378195, 0.24395819236229188, 0.3242768995883493, 0.0
0.4226864283165967, 0.009168429131504455, 0.004963847208589969, -0.10603354054399128, 0.36429149192802623, 0.0, -0.282242851697438, 0.017978543738370798, -0.022172761602971627, -0.08575790052525749, 0.28233339588837303, 0.0, 0.1073396178962143, -0.07458494598235209, 0.2708693019257448, 0.2884319672485936, 0.3679201605972871, 0.0, 0.048438468445416855, -0.24763646677955292, 0.2621207482930022, 0.2737581478652997, 0.0
0.4233088685783939, 0.012495150639089124, 0.007010399373452761, -0.1059518221340178, 0.36620929461670265, 0.0, -0.284548913350196, 0.02167718918487551, -0.02320438697751608, -0.08542356665000887, 0.2834464970721248, 0.0, 0.11090539257868198, -0.09739719273259592, 0.2855859775197556, 0.3141315076425556, 0.3177523153488655, 0.0, 0.033363403521956256, -0.25457197238532386, 0.2802833042237124, 0.22323939614225005, 0.0
0.4239313088401912, 0.015821872146673792, 0.009056951538315558, -0.10587010372404432, 0.368127097305379, 0.0, -0.2868549750029541, 0.025375834631380226, -0.024236012352060535, -0.08508923277476024, 0.2845595982558768, 0.0, 0.11447116726114968, -0.12020943948283978, 0.30030265311376636, 0.3398310480365176, 0.26758447010044384, 0.0, 0.018288338598495654, -0.26150747799109486, 0.2984458601544227, 0.17272064441920043, 0.0
0.42455374910198834, 0.01914859365425846, 0.011103503703178353, -0.10578838531407087, 0.37004489999405543, 0.0, -0.28916103665571213, 0.029074480077884938, -0.025267637726604987, -0.0847548988995116, 0.2856726994396287, 0.0, 0.11803694194361737, -0.14302168623308362, 0.3150193287077771, 0.3655305884304796, 0.21741662485202223, 0.0, 0.0032132736750350504, -0.26844298359686586, 0.3166084160851329, 0.12220189269615077, 0.0
0.4249242685395528, 0.021585067006857236, 0.012201893855731047, -0.10528278332652156, 0.371992160349847, 0.0, -0.2909370802118831, 0.03154916881071953, -0.026155604003220236, -0.0851244758592799, 0.28646798663856793, 0.0, 0.12070488505040583, -0.16388630855185393, 0.33003696189668474, 0.38836947832988683, 0.17705288812213013, 0.0, -0.020947725193719634, -0.27902219213807433, 0.3223846460764612, 0.08104275985877411, 0.0
0.4252947879771172, 0.024021540359456015, 0.01330028400828374, -0.10477718133897229, 0.3739394207056386, 0.0, -0.292713123768054, 0.03402385754355412, -0.027043570279835484, -0.0854940528190482, 0.2872632738375072, 0.0, 0.12337282815719432, -0.18475093087062422, 0.3450545950855924, 0.4112083682292941, 0.13668915139223806, 0.0, -0.04510872406247433, -0.28960140067928286, 0.3281608760677895, 0.039883627021397444, 0.0
0.42566530741468156, 0.02645801371205479, 0.014398674160836435, -0.104271579351423, 0.3758866810614302, 0.0, -0.2944891673242249, 0.03649854627638872, -0.027931536556450733, -0.08586362977881651, 0.2880585610364464, 0.0, 0.12604077126398278, -0.20561555318939453, 0.36007222827450003, 0.43404725812870126, 0.09632541466234595, 0.0, -0.06926972293122903, -0.3001806092204914, 0.3339371060591178, -0.0012755058159792203, 0.0
0.42603582685224595, 0.028894487064653567, 0.01549706431338913, -0.10376597736387372, 0.3778339414172217, 0.0, -0.29626521088039587, 0.03897323500922331, -0.02881950283306598, -0.0862332067385848, 0.2888538482353857, 0.0, 0.12870871437077128, -0.22648017550816482, 0.37508986146340767, 0.4568861480281085, 0.055961677932453865, 0.0, -0.09343072179998371, -0.31075981776169986, 0.33971333605044607, -0.04243463865335589, 0.0
0.42640634628981033, 0.03133096041725235, 0.016595454465941822, -0.10326037537632443, 0.3797812017730133, 0.0, -0.29804125443656676, 0.041447923742057906, -0.029707469109681237, -0.0866027836983531, 0.2896491354343249, 0.0, 0.13137665747755972, -0.24734479782693516, 0.39010749465231537, 0.47972503792751575, 0.015597941202561747, 0.0, -0.1175917206687384, -0.3213390263029084, 0.3454895660417744, -0.08359377149073258, 0.0
0.424958983138375, 0.03051434913457808, 0.01617851258639997, -0.10301662478738602, 0.38131765700144593, 0.0, -0.29898528208501945, 0.04210078858337592, -0.02978574189064542, -0.08774579633482568, 0.2912166051635655, 0.0, 0.13386604153363027, -0.26096305394686176, 0.39940810639943936, 0.49429487199023925, -0.010329854049107778, 0.0, -0.13995071378981971, -0.32552098528900253, 0.34142392975966723, -0.11024257447370572, 0.0
0.4235116199869396, 0.02969773785190382, 0.015761570706858123, -0.10277287419844759, 0.3828541122298786, 0.0, -0.2999293097334722, 0.04275365342469392, -0.029864014671609616, -0.08888880897129826, 0.2927840748928061, 0.0, 0.13635542558970082, -0.27458131006678843, 0.40870871814656334, 0.5088647060529627, -0.03625764930077731, 0.0, -0.16230970691090107, -0.32970294427509655, 0.3373582934775601, -0.13689137745667884, 0.0
0.42206425683550425, 0.02888112656922955, 0.01534462882731627, -0.10252912360950917, 0.3843905674583113, 0.0, -0.3008733373819249, 0.043406518266011926, -0.0299422874525738, -0.09003182160777086, 0.2943515446220467, 0.0, 0.13884480964577134, -0.288199566186715, 0.41800932989368733, 0.5234345401156862, -0.06218544455244684, 0.0, -0.18466870003198238, -0.33388490326119064, 0.33329265719545287, -0.16354018043965202, 0.0
0.42061689368406885, 0.028064515286555288, 0.014927686947774419, -0.10228537302057074, 0.38592702268674395, 0.0, -0.30181736503037765, 0.04405938310732993, -0.030020560233537996, -0.09117483424424344, 0.2959190143512873, 0.0, 0.14133419370184186, -0.30181782230664167, 0.4273099416408113, 0.5380043741784096, -0.08811323980411637, 0.0, -0.20702769315306366, -0.3380668622472847, 0.32922702091334577, -0.19018898342262516, 0.0
0.41916953053263356, 0.027247904003881024, 0.014510745068232567, -0.1020416224316323, 0.3874634779151766, 0.0, -0.30276139267883034, 0.04471224794864794, -0.03009883301450218, -0.09231784688071602, 0.2974864840805279, 0.0, 0.1438235777579124, -0.3154360784265683, 0.4366105533879353, 0.5525742082411331, -0.11404103505578587, 0.0, -0.22938668627414502, -0.3422488212333788, 0.32516138463123856, -0.21683778640559834, 0.0
0.41703500332942, 0.024688347763503572, 0.01376820458162856, -0.10178662982791593, 0.38837525536971096, 0.0, -0.30323049878452285, 0.044007721012405056, -0.029352220255874254, -0.09378063176142201, 0.29947057437419505, 0.0, 0.14579636879000216, -0.320176525320008, 0.43842059246727655, 0.5590551498245392, -0.12618818456513303, 0.0, -0.24068712420347213, -0.3349187106463659, 0.32364962232106315, -0.22916017046250417, 0.0
0.41490047612620645, 0.02212879152312613, 0.013025664095024555, -0.10153163722419956, 0.3892870328242453, 0.0, -0.30369960489021536, 0.04330319407616216, -0.028605607497246322, -0.09524341664212797, 0.3014546646678622, 0.0, 0.1477691598220919, -0.3249169722134478, 0.44023063154661785, 0.5655360914079453, -0.13833533407448018, 0.0, -0.25198756213279927, -0.32758860005935303, 0.3221378600108877, -0.24148255451941006, 0.0
0.4127659489229929, 0.01956923528274869, 0.012283123608420548, -0.1012766446204832, 0.3901988102787796, 0.0, -0.3041687109959079, 0.04259866713991928, -0.027858994738618394, -0.09670620152283393, 0.3034387549615294, 0.0, 0.14974195085418163, -0.32965741910688756, 0.4420406706259591, 0.5720170329913513, -0.1504824835838273, 0.0, -0.26328800006212644, -0.3202584894723402, 0.3206260977007122, -0.2538049385763159, 0.0
0.4106314217197793, 0.01700967904237124, 0.011540583121816543, -0.10102165201676683, 0.3911105877333141, 0.0, -0.3046378171016004, 0.041894140203676385, -0.02711238197999046, -0.09816898640353992, 0.3054228452551965, 0.0, 0.15171474188627138, -0.33439786600032734, 0.4438507097053004, 0.5784979745747574, -0.1626296330931745, 0.0, -0.27458843799145355, -0.3129283788853273, 0.3191143353905368, -0.2661273226332218, 0.0
0.40849689451656573, 0.014450122801993799, 0.010798042635212538, -0.10076665941305044, 0.3920223651878484, 0.0, -0.305106923207293, 0.0411896132674335, -0.026365769221362533, -0.09963177128424588, 0.3074069355488636, 0.0, 0.15368753291836112, -0.33913831289376706, 0.4456607487846416, 0.5849789161581634, -0.1747767826025216, 0.0, -0.28588887592078066, -0.30559826829831443, 0.3176025730803614, -0.2784497066901277, 0.0
0.40749646480800555, 0.012704457015613098, 0.010793633340110055, -0.099733739004201, 0.3925909341169535, 0.0, -0.30585067432407936, 0.04012402867256714, -0.025473301740606392, -0.10076809232836634, 0.30895070719752066, 0.0, 0.15507717803143303, -0.33772678484253366, 0.443530543016656, 0.5881993872219679, -0.17692262652060511, 0.0, -0.2833433585853075, -0.29185547595494105, 0.3278443640985988, -0.2764426443728458, 0.0
0.4064960350994455, 0.010958791229232398, 0.01078922404500757, -0.09870081859535157, 0.3931595030460588, 0.0, -0.3065944254408657, 0.03905844407770078, -0.024580834259850252, -0.10190441337248676, 0.3104944788461777, 0.0, 0.15646682314450494, -0.33631525679130025, 0.44140033724867045, 0.5914198582857723, -0.17906847043868857, 0.0, -0.2807978412498343, -0.27811268361156755, 0.33808615511683626, -0.2744355820555639, 0.0
0.40549560539088525, 0.009213125442851699, 0.010784814749905086, -0.09766789818650214, 0.3937280719751639, 0.0, -0.30733817655765205, 0.03799285948283442, -0.023688366779094104, -0.10304073441660722, 0.3120382504948347, 0.0, 0.15785646825757685, -0.33490372874006685, 0.43927013148068483, 0.5946403293495767, -0.18121431435677207, 0.0, -0.27825232391436117, -0.26436989126819416, 0.3483279461350737, -0.27242851973828197, 0.0
0.4044951756823251, 0.007467459656471001, 0.010780405454802605, -0.09663497777765273, 0.3942966409042692, 0.0, -0.3080819276744384, 0.03692727488796806, -0.022795899298337963, -0.10417705546072763, 0.31358202214349173, 0.0, 0.15924611337064873, -0.3334922006888335, 0.4371399257126992, 0.5978608004133811, -0.18336015827485552, 0.0, -0.27570680657888796, -0.2506270989248207, 0.3585697371533112, -0.27042145742100004, 0.0
0.403494745973765, 0.005721793870090303, 0.01077599615970012, -0.0956020573688033, 0.3948652098333743, 0.0, -0.30882567879122474, 0.03586169029310171, -0.02190343181758182, -0.10531337650484808, 0.3151257937921488, 0.0, 0.16063575848372064, -0.3320806726376, 0.4350097199447136, 0.6010812714771855, -0.18550600219293903, 0.0, -0.27316128924341476, -0.23688430658144732, 0.3688115281715486, -0.2684143951037182, 0.0
0.4023438723743414, 0.003673655368489053, 0.011340536519825853, -0.09437492090958213, 0.39515883355475434, 0.0, -0.31024650246605434, 0.03545673655659303, -0.02060776989220301, -0.10545306044087294, 0.3168331726048877, 0.0, 0.1619357774490441, -0.33026281797386836, 0.43172840670318463, 0.6011638115881708, -0.18469293357958044, 0.0, -0.2585647446618188, -0.22903733418974884, 0.3887453943254983, -0.2521893675728904, 0.0
0.4011929987749179, 0.0016255168668878038, 0.011905076879951583, -0.09314778445036098, 0.3954524572761343, 0.0, -0.3116673261408839, 0.03505178282008436, -0.0193121079668242, -0.1055927443768978, 0.31854055141762666, 0.0, 0.1632357964143676, -0.3284449633101367, 0.4284470934616557, 0.6012463516991561, -0.18387986496622188, 0.0, -0.2439682000802228, -0.22119036179805035, 0.40867926047944814, -0.23596434004206257, 0.0
0.40004212517549426, -0.00042262163471344573, 0.012469617240077316, -0.0919206479911398, 0.39574608099751435, 0.0, -0.31308814981571337, 0.03464682908357567, -0.01801644604144539, -0.10573242831292266, 0.3202479302303656, 0.0, 0.16453581537969109, -0.3266271086464049, 0.42516578022012674, 0.6013288918101414, -0.18306679635286333, 0.0, -0.22937165549862684, -0.2133433894063519, 0.42861312663339785, -0.21973931251123477, 0.0
0.39889125157607075, -0.0024707601363146954, 0.013034157600203046, -0.09069351153191864, 0.3960397047188943, 0.0, -0.3145089734905429, 0.034241875347067, -0.016720784116066582, -0.10587211224894752, 0.32195530904310454, 0.0, 0.1658358343450146, -0.3248092539826732, 0.42188446697859777, 0.6014114319211268, -0.18225372773950477, 0.0, -0.21477511091703083, -0.20549641701465338, 0.44854699278734766, -0.20351428498040697, 0.0
0.39774037797664713, -0.004518898637915945, 0.013598697960328778, -0.08946637507269749, 0.39633332844027436, 0.0, -0.31592979716537245, 0.03383692161055832, -0.015425122190687772, -0.1060117961849724, 0.3236626878558435, 0.0, 0.16713585331033806, -0.3229913993189415, 0.4186031537370688, 0.6014939720321121, -0.1814406591261462, 0.0, -0.20017856633543485, -0.19764944462295495, 0.4684808589412975, -0.1872892574495792, 0.0
0.3946594704211492, -0.008611876131074133, 0.013509973798737796, -0.08927736743387957, 0.3959788695224868, 0.0, -0.31726242935309873, 0.033079719241226845, -0.013835784986902844, -0.10633172166911412, 0.3248621968002032, 0.0, 0.16819851796936586, -0.32618204619648783, 0.41621228304529784, 0.5974778786661521, -0.1819962846935186, 0.0, -0.18082637862766787, -0.19728630094680946, 0.4848652140888813, -0.16292219565436925, 0.0
0.39157856286565124, -0.01270485362423232, 0.013421249637146812, -0.08908835979506163, 0.3956244106046993, 0.0, -0.318595061540825, 0.032322516871895364, -0.012246447783117917, -0.10665164715325583, 0.32606170574456284, 0.0, 0.16926118262839362, -0.32937269307403416, 0.413821412353527, 0.5934617853001919, -0.182551910260891, 0.0, -0.16147419091990084, -0.196923157270664, 0.5012495692364651, -0.13855513385915935, 0.0
0.3884976553101533, -0.01679783111739051, 0.013332525475555832, -0.08889935215624371, 0.3952699516869118, 0.0, -0.3199276937285512, 0.03156531450256388, -0.010657110579332989, -0.10697157263739755, 0.32726121468892244, 0.0, 0.17032384728742136, -0.3325633399515805, 0.4114305416617559, 0.5894456919342319, -0.1831075358282634, 0.0, -0.14212200321213384, -0.19656001359451858, 0.517633924384049, -0.1141880720639494, 0.0
0.3854167477546554, -0.020890808610548702, 0.013243801313964852, -0.0887103445174258, 0.39491549276912424, 0.0, -0.32126032591627746, 0.030808112133232403, -0.009067773375548063, -0.10729149812153926, 0.3284607236332821, 0.0, 0.17138651194644916, -0.3357539868291268, 0.40903967096998495, 0.5854295985682718, -0.18366316139563577, 0.0, -0.12276981550436686, -0.19619686991837312, 0.534018279531633, -0.08982101026873947, 0.0
0.38233584019915745, -0.02498378610370689, 0.013155077152373868, -0.08852133687860787, 0.39456103385133673, 0.0, -0.32259295810400374, 0.030050909763900922, -0.007478436171763134, -0.10761142360568099, 0.32966023257764177, 0.0, 0.17244917660547693, -0.3389446337066732, 0.406648800278214, 0.5814135052023117, -0.18421878696300817, 0.0, -0.10341762779659987, -0.1958337262422277, 0.5504026346792168, -0.06545394847352955, 0.0
0.37981263166218326, -0.027725975167809346, 0.012294161489489183, -0.08813794284528324, 0.3947926809309784, 0.0, -0.3239721905827582, 0.029330480783777264, -0.007101878732744895, -0.10758161896711053, 0.3297599467284667, 0.0, 0.17292195837457416, -0.3418156025877658, 0.4069217523199334, 0.5788018014909445, -0.1858655644534594, 0.0, -0.08851346439648383, -0.19908991546917415, 0.5571013200494431, -0.049453355274676654, 0.0
0.3772894231252091, -0.030468164231911808, 0.011433245826604498, -0.0877545488119586, 0.3950243280106201, 0.0, -0.3253514230615127, 0.028610051803653603, -0.006725321293726655, -0.10755181432854008, 0.32985966087929164, 0.0, 0.1733947401436714, -0.34468657146885834, 0.40719470436165284, 0.5761900977795772, -0.1875123419439106, 0.0, -0.0736093009963678, -0.20234610469612066, 0.5638000054196695, -0.033452762075823754, 0.0
0.37476621458823484, -0.03321035329601426, 0.010572330163719815, -0.08737115477863396, 0.3952559750902618, 0.0, -0.32673065554026726, 0.027889622823529945, -0.0063487638547084155, -0.10752200968996962, 0.3299593750301166, 0.0, 0.1738675219127686, -0.3475575403499509, 0.40746765640337224, 0.57357839406821, -0.1891591194343618, 0.0, -0.05870513759625175, -0.20560229392306711, 0.5704986907898958, -0.017452168876970854, 0.0
0.37224300605126065, -0.03595254236011672, 0.009711414500835132, -0.08698776074530931, 0.3954876221699035, 0.0, -0.32810988801902174, 0.027169193843406284, -0.005972206415690176, -0.10749220505139917, 0.33005908918094157, 0.0, 0.17434030368186584, -0.35042850923104346, 0.4077406084450916, 0.5709666903568427, -0.19080589692481303, 0.0, -0.04380097419613571, -0.20885848315001362, 0.5771973761601222, -0.0014515756781179627, 0.0
0.3697197975142865, -0.03869473142421918, 0.008850498837950445, -0.08660436671198467, 0.39571926924954526, 0.0, -0.32948912049777623, 0.026448764863282622, -0.005595648976671936, -0.1074624004128287, 0.33015880333176645, 0.0, 0.17481308545096308, -0.353299478112136, 0.408013560486811, 0.5683549866454753, -0.19245267441526426, 0.0, -0.02889681079601967, -0.21211467237696008, 0.5838960615303486, 0.014549017520734927, 0.0
0.36847913719682335, -0.03897091372131816, 0.006876958438274383, -0.08634096022501028, 0.39594660187527597, 0.0, -0.3301024536315366, 0.025406253172061778, -0.006979360877858267, -0.10743555969239399, 0.3290482573100395, 0.0, 0.17467453772428126, -0.3521651851406064, 0.40886949438659853, 0.5681688577527256, -0.1930198470809678, 0.0, -0.024404523297928638, -0.22071874590889348, 0.5850844073488125, 0.016257825409065427, 0.0
0.3672384768793601, -0.03924709601841715, 0.004903418038598321, -0.0860775537380359, 0.39617393450100674, 0.0, -0.33071578676529695, 0.024363741480840934, -0.008363072779044599, -0.10740871897195926, 0.3279377112883125, 0.0, 0.17453598999759945, -0.35103089216907674, 0.40972542828638614, 0.5679827288599759, -0.19358701974667142, 0.0, -0.019912235799837606, -0.22932281944082678, 0.5862727531672763, 0.017966633297395923, 0.0
0.365997816561897, -0.03952327831551613, 0.0029298776389222593, -0.08581414725106151, 0.39640126712673757, 0.0, -0.3313291198990572, 0.02332122978962009, -0.009746784680230929, -0.10738187825152455, 0.3268271652665855, 0.0, 0.17439744227091764, -0.3498965991975472, 0.4105813621861736, 0.5677965999672262, -0.194154192412375, 0.0, -0.015419948301746575, -0.23792689297276012, 0.5874610989857402, 0.01967544118572642, 0.0
0.3647571562444338, -0.03979946061261512, 0.0009563372392461974, -0.08555074076408713, 0.3966285997524683, 0.0, -0.33194245303281755, 0.022278718098399247, -0.011130496581417262, -0.10735503753108983, 0.3257166192448585, 0.0, 0.17425889454423585, -0.3487623062260176, 0.4114372960859611, 0.5676104710744767, -0.1947213650780786, 0.0, -0.010927660803655544, -0.24653096650469344, 0.5886494448042041, 0.021384249074056918, 0.0
0.3635164959269706, -0.0400756429097141, -0.0010172031604298642, -0.08528733427711274, 0.39685593237819905, 0.0, -0.3325557861665779, 0.021236206407178403, -0.012514208482603593, -0.10732819681065511, 0.3246060732231315, 0.0, 0.17412034681755403, -0.34762801325448794, 0.4122932299857487, 0.5674243421817269, -0.1952885377437822, 0.0, -0.0064353733055645115, -0.25513504003662685, 0.5898377906226681, 0.023093056962387414, 0.0
0.3638635057795107, -0.03845986979716116, -0.0032971034516925675, -0.0850228565070435, 0.39705446707127184, 0.0, -0.3318466728541266, 0.02007869553004902, -0.01492900020331679, -0.10745074545314974, 0.32258293642343877, 0.0, 0.17345575336366262, -0.3439453475888289, 0.41280130580297975, 0.5694059192012711, -0.19496317695528392, 0.0, -0.01174295366461285, -0.2635712669997251, 0.5905113620502317, 0.0104383468570044, 0.0
0.36421051563205065, -0.03684409668460822, -0.00557700374295527, -0.08475837873697423, 0.3972530017643448, 0.0, -0.33113755954167534, 0.018921184652919625, -0.017343791924029985, -0.10757329409564435, 0.320559799623746, 0.0, 0.1727911599097712, -0.34026268192316983, 0.41330938162021086, 0.5713874962208154, -0.19463781616678563, 0.0, -0.01705053402366119, -0.2720074939628234, 0.5911849334777953, -0.002216363248378612, 0.0
0.36455752548459075, -0.03522832357205528, -0.007856904034217975, -0.08449390096690497, 0.3974515364574176, 0.0, -0.33042844622922407, 0.017763673775790238, -0.019758583644743182, -0.10769584273813901, 0.31853666282405324, 0.0, 0.1721265664558798, -0.3365800162575108, 0.4138174574374419, 0.5733690732403597, -0.19431245537828737, 0.0, -0.02235811438270953, -0.2804437209259217, 0.591858504905359, -0.014871073353761624, 0.0
0.36490453533713063, -0.03361255045950234, -0.010136804325480678, -0.0842294231968357, 0.39765007115049045, 0.0, -0.3297193329167728, 0.016606162898660848, -0.02217337536545638, -0.10781839138063364, 0.31651352602436045, 0.0, 0.17146197300198837, -0.3328973505918517, 0.41432553325467303, 0.5753506502599041, -0.19398709458978908, 0.0, -0.027665694741757868, -0.28887994788902, 0.5925320763329227, -0.027525783459144637, 0.0
0.36525154518967073, -0.0319967773469494, -0.01241670461674338, -0.08396494542676644, 0.3978486058435633, 0.0, -0.32901021960432153, 0.01544865202153146, -0.024588167086169576, -0.10794094002312826, 0.3144903892246677, 0.0, 0.17079737954809696, -0.3292146849261926, 0.4148336090719041, 0.5773322272794482, -0.1936617338012908, 0.0, -0.03297327510080621, -0.2973161748521183, 0.5932056477604863, -0.04018049356452766, 0.0
0.3679976636880511, -0.028363820613155902, -0.013321740318162889, -0.0840597782407394, 0.3972687516155148, 0.0, -0.3273743678749878, 0.01497810392481093, -0.026767094069290467, -0.10752892084474167, 0.3126114515277747, 0.0, 0.16931687957548322, -0.3242923293461345, 0.4155138092599668, 0.5814702284030017, -0.19410143809040425, 0.0, -0.044645356808801856, -0.2975315833883994, 0.5899676640629674, -0.06717965603594125, 0.0
0.3707437821864315, -0.024730863879362405, -0.014226776019582396, -0.08415461105471236, 0.39668889738746616, 0.0, -0.325738516145654, 0.014507555828090402, -0.028946021052411355, -0.10711690166635507, 0.3107325138308817, 0.0, 0.16783637960286954, -0.3193699737660764, 0.4161940094480295, 0.585608229526555, -0.1945411423795177, 0.0, -0.05631743851679751, -0.29774699192468057, 0.5867296803654484, -0.09417881850735484, 0.0
0.37348990068481197, -0.021097907145568903, -0.015131811721001906, -0.08424944386868533, 0.39610904315941764, 0.0, -0.3241026644163203, 0.014037007731369872, -0.03112494803553224, -0.10670488248796846, 0.30885357613398867, 0.0, 0.1663558796302558, -0.3144476181860183, 0.4168742096360923, 0.5897462306501083, -0.19498084666863108, 0.0, -0.06798952022479317, -0.29796240046096173, 0.5834916966679295, -0.12117798097876843, 0.0
0.3762360191831924, -0.017464950411775405, -0.016036847422421417, -0.0843442766826583, 0.39552918893136896, 0.0, -0.3224668126869865, 0.01356645963464934, -0.03330387501865313, -0.10629286330958188, 0.30697463843709566, 0.0, 0.1648753796576421, -0.3095252626059602, 0.417554409824155, 0.5938842317736617, -0.19542055095774455, 0.0, -0.0796616019327888, -0.29817780899724283, 0.5802537129704106, -0.14817714345018201, 0.0
0.37898213768157274, -0.013831993677981907, -0.016941883123840925, -0.08443910949663125, 0.39494933470332044, 0.0, -0.32083096095765284, 0.013095911537928813, -0.03548280200177402, -0.10588084413119526, 0.30509570074020265, 0.0, 0.16339487968502836, -0.3046029070259021, 0.41823461001221773, 0.5980222328972151, -0.195860255246858, 0.0, -0.09133368364078445, -0.298393217533524, 0.5770157292728916, -0.1751763059215956, 0.0
0.38320312222974146, -0.009316503458655596, -0.015815787265676222, -0.08509903035504922, 0.3934404626583863, 0.0, -0.3191328952218025, 0.014267482438446416, -0.03631709800762704, -0.10413719912192909, 0.30412093784362226, 0.0, 0.16136083806816914, -0.299278874390473, 0.41949198709325647, 0.6032136205094926, -0.19694032083852817, 0.0, -0.106952989069654, -0.29088437824978985, 0.5690334170696765, -0.21065889499320087, 0.0
0.3874241067779101, -0.004801013239329288, -0.014689691407511519, -0.08575895121346719, 0.39193159061345223, 0.0, -0.31743482948595214, 0.015439053338964021, -0.03715139401348006, -0.10239355411266296, 0.303146174947042, 0.0, 0.1593267964513099, -0.2939548417550439, 0.4207493641742953, 0.6084050081217701, -0.1980203864301983, 0.0, -0.12257229449852357, -0.28337553896605583, 0.5610511048664614, -0.24614148406480618, 0.0
0.39164509132607883, -0.0002855230200029793, -0.013563595549346818, -0.08641887207188516, 0.39042271856851796, 0.0, -0.3157367637501019, 0.016610624239481626, -0.037985690019333086, -0.10064990910339679, 0.3021714120504617, 0.0, 0.15729275483445068, -0.2886308091196148, 0.42200674125533405, 0.6135963957340477, -0.19910045202186843, 0.0, -0.13819159992739316, -0.2758666996823217, 0.5530687926632463, -0.2816240731364114, 0.0
0.39586607587424744, 0.0042299671993233316, -0.012437499691182114, -0.08707879293030314, 0.3889138465235839, 0.0, -0.31403869801425155, 0.017782195139999228, -0.038819986025186104, -0.09890626409413066, 0.30119664915388145, 0.0, 0.15525871321759144, -0.2833067764841857, 0.42326411833637273, 0.6187877833463252, -0.2001805176135386, 0.0, -0.15381090535626268, -0.26835786039858756, 0.5450864804600312, -0.3171066622080167, 0.0
0.40008706042241615, 0.008745457418649643, -0.011311403833017415, -0.08773871378872111, 0.38740497447864974, 0.0, -0.31234063227840125, 0.018953766040516833, -0.03965428203103912, -0.09716261908486448, 0.30022188625730106, 0.0, 0.15322467160073222, -0.2779827438487566, 0.4245214954174116, 0.6239791709586027, -0.20126058320520876, 0.0, -0.16943021078513226, -0.2608490211148535, 0.5371041682568161, -0.35258925127962193, 0.0
0.4021489330595277, 0.011405394351093364, -0.01028312893213143, -0.08894445355851036, 0.38586965720488936, 0.0, -0.31126154407111223, 0.020705046516194613, -0.03963972354161654, -0.09532850353755781, 0.2995608602564008, 0.0, 0.1513549946208503, -0.27376721519982966, 0.4253183080341171, 0.627409500411667, -0.20139825477660606, 0.0, -0.1770782400767129, -0.25745327710624677, 0.5318892850221482, -0.3800473609932839, 0.0
0.4042108056966392, 0.014065331283537083, -0.009254854031245444, -0.09015019332829963, 0.38433433993112903, 0.0, -0.3101824558638232, 0.022456326991872395, -0.039625165052193954, -0.09349438799025113, 0.2988998342555004, 0.0, 0.14948531764096837, -0.2695516865509027, 0.4261151206508225, 0.6308398298647311, -0.20153592634800338, 0.0, -0.18472626936829353, -0.25405753309764006, 0.5266744017874803, -0.4075054707069459, 0.0
0.40627267833375075, 0.016725268215980804, -0.008226579130359459, -0.09135593309808887, 0.3827990226573687, 0.0, -0.30910336765653407, 0.024207607467550175, -0.03961060656277137, -0.09166027244294445, 0.2982388082546001, 0.0, 0.14761564066108648, -0.26533615790197573, 0.426911933267528, 0.6342701593177954, -0.20167359791940068, 0.0, -0.19237429865987418, -0.25066178908903336, 0.5214595185528124, -0.4349635804206079, 0.0
0.40833455097086224, 0.01938520514842453, -0.007198304229473472, -0.09256167286787814, 0.3812637053836084, 0.0, -0.30802427944924504, 0.02595888794322795, -0.03959604807334878, -0.08982615689563775, 0.2975777822536997, 0.0, 0.14574596368120454, -0.2611206292530488, 0.4277087458842335, 0.6377004887708596, -0.201811269490798, 0.0, -0.20002232795145486, -0.2472660450804267, 0.5162446353181445, -0.46242169013426987, 0.0
0.4103964236079738, 0.022045142080868246, -0.006170029328587486, -0.09376741263766739, 0.379728388109848, 0.0, -0.306945191241956, 0.027710168418905737, -0.0395814895839262, -0.08799204134833108, 0.2969167562527994, 0.0, 0.14387628670132263, -0.25690510060412186, 0.42850555850093897, 0.6411308182239238, -0.20194894106219533, 0.0, -0.2076703572430355, -0.24387030107181995, 0.5110297520834767, -0.48987979984793184, 0.0
0.4102769732739673, 0.022789177337256827, -0.005154332422208679, -0.09424163604872678, 0.3794159008699124, 0.0, -0.3066732829071293, 0.028910485101643194, -0.039477855074535426, -0.08716538604487743, 0.2961778152634315, 0.0, 0.1429404537227739, -0.2547920200067569, 0.4291461606589325, 0.6416550313554188, -0.2008568571332959, 0.0, -0.20533233861167344, -0.24518877863931254, 0.5127314550854882, -0.5034854442186836, 0.0
0.41015752293996083, 0.023533212593645415, -0.004138635515829871, -0.09471585945978614, 0.3791034136299768, 0.0, -0.3064013745723026, 0.030110801784380657, -0.039374220565144655, -0.08633873074142379, 0.2954388742740637, 0.0, 0.14200462074422512, -0.2526789394093918, 0.42978676281692596, 0.6421792444869138, -0.19976477320439656, 0.0, -0.20299431998031134, -0.24650725620680514, 0.5144331580874997, -0.5170910885894352, 0.0
0.4100380726059543, 0.024277247850033996, -0.003122938609451063, -0.09519008287084553, 0.37879092639004125, 0.0, -0.3061294662374759, 0.03131111846711812, -0.039270586055753884, -0.08551207543797014, 0.2946999332846958, 0.0, 0.14106878776567638, -0.25056585881202675, 0.43042736497491946, 0.6427034576184087, -0.19867268927549714, 0.0, -0.20065630134894927, -0.2478257337742977, 0.5161348610895111, -0.5306967329601869, 0.0
0.40991862227194786, 0.025021283106422584, -0.002107241703072255, -0.09566430628190492, 0.3784784391501057, 0.0, -0.30585755790264924, 0.032511435149855585, -0.03916695154636312, -0.08468542013451649, 0.2939609922953279, 0.0, 0.14013295478712764, -0.2484527782146617, 0.4310679671329129, 0.6432276707499037, -0.19758060534659777, 0.0, -0.19831828271758717, -0.2491442113417903, 0.5178365640915226, -0.5443023773309387, 0.0
0.40979917193794135, 0.02576531836281117, -0.001091544796693447, -0.09613852969296428, 0.37816595191017016, 0.0, -0.3055856495678225, 0.03371175183259304, -0.03906331703697234, -0.08385876483106286, 0.2932220513059601, 0.0, 0.1391971218085789, -0.24633969761729663, 0.43170856929090645, 0.6437518838813988, -0.1964885214176984, 0.0, -0.1959802640862251, -0.25046268890928286, 0.519538267093534, -0.5579080217016904, 0.0
0.4082246650411566, 0.025249758922813406, -0.0008213638491340302, -0.09605336460678399, 0.37845497843430037, 0.0, -0.30612930217652623, 0.0343593628837967, -0.03928044891135691, -0.0836878415958224, 0.29184011356686496, 0.0, 0.13865125053733005, -0.24561391291983034, 0.43233751264949666, 0.6406127137448108, -0.19520489458470963, 0.0, -0.1908447025754019, -0.25147961896059134, 0.5210978444438971, -0.5612477266786741, 0.0
0.4066501581443721, 0.024734199482815643, -0.0005511829015746134, -0.09596819952060365, 0.37874400495843064, 0.0, -0.30667295478522993, 0.03500697393500036, -0.03949758078574147, -0.08351691836058195, 0.29045817582776984, 0.0, 0.1381053792660812, -0.244888128222364, 0.43296645600808686, 0.6374735436082228, -0.1939212677517209, 0.0, -0.18570914106457864, -0.2524965490118999, 0.5226574217942602, -0.5645874316556577, 0.0
0.40507565124758743, 0.02421864004281788, -0.0002810019540151965, -0.09588303443442335, 0.37903303148256084, 0.0, -0.3072166073939337, 0.035654584986204, -0.03971471266012602, -0.0833459951253415, 0.2890762380886748, 0.0, 0.13755950799483235, -0.24416234352489766, 0.433595399366677, 0.6343343734716347, -0.19263764091873212, 0.0, -0.1805735795537554, -0.25351347906320837, 0.5242169991446233, -0.5679271366326414, 0.0
0.4035011443508028, 0.023703080602820118, -1.0821006455779745e-05, -0.09579786934824303, 0.3793220580066912, 0.0, -0.30776026000263734, 0.03630219603740766, -0.03993184453451059, -0.08317507189010102, 0.28769430034957966, 0.0, 0.13701363672358352, -0.24343655882743132, 0.43422434272526717, 0.6311952033350466, -0.19135401408574332, 0.0, -0.17543801804293216, -0.2545304091145169, 0.5257765764949863, -0.5712668416096252, 0.0
0.4019266374540182, 0.023187521162822355, 0.000259359941103637, -0.0957127042620627, 0.37961108453082143, 0.0, -0.3083039126113411, 0.036949807088611314, -0.04014897640889515, -0.08300414865486057, 0.2863123626104846, 0.0, 0.13646776545233466, -0.242710774129965, 0.43485328608385737, 0.6280560331984587, -0.1900703872527546, 0.0, -0.17030245653210893, -0.25554733916582545, 0.5273361538453495, -0.5746065465866088, 0.0
0.4011969432190274, 0.023187027583709892, 0.00018605584862609222, -0.09484271592394054, 0.3802843627430707, 0.0, -0.3094343239706142, 0.0373283794753444, -0.04091761033576134, -0.08271188978095562, 0.28418070821921976, 0.0, 0.13529607705625182, -0.23942596673927355, 0.43487339576749884, 0.6218196227152325, -0.18751460738127967, 0.0, -0.16388802246517936, -0.2569229937196133, 0.5258888360724747, -0.5741333180132231, 0.0
0.4004672489840365, 0.02318653400459743, 0.00011275175614854748, -0.0939727275858184, 0.3809576409553201, 0.0, -0.3105647353298875, 0.037706951862077474, -0.04168624426262753, -0.08241963090705066, 0.2820490538279551, 0.0, 0.13412438866016896, -0.2361411593485821, 0.4348935054511403, 0.6155832122320064, -0.1849588275098048, 0.0, -0.15747358839824982, -0.2582986482734012, 0.5244415182995998, -0.5736600894398373, 0.0
0.3997375547490458, 0.023186040425484968, 3.944766367100275e-05, -0.09310273924769626, 0.3816309191675694, 0.0, -0.3116951466891606, 0.038085524248810565, -0.04245487818949373, -0.0821273720331457, 0.27991739943669025, 0.0, 0.13295270026408612, -0.2328563519578907, 0.4349136151347818, 0.6093468017487803, -0.18240304763832987, 0.0, -0.15105915433132025, -0.2596743028271892, 0.5229942005267251, -0.5731868608664515, 0.0
0.399007860514055, 0.0231855468463725, -3.385642880654201e-05, -0.0922327509095741, 0.3823041973798188, 0.0, -0.3128255580484338, 0.03846409663554365, -0.04322351211635992, -0.08183511315924075, 0.27778574504542547, 0.0, 0.13178101186800326, -0.22957154456719925, 0.4349337248184233, 0.6031103912655542, -0.17984726776685495, 0.0, -0.1446447202643907, -0.2610499573809771, 0.5215468827538502, -0.5727136322930657, 0.0
0.3982781662790642, 0.023185053267260038, -0.00010716052128408676, -0.09136276257145194, 0.38297747559206813, 0.0, -0.313955969407707, 0.038842669022276725, -0.04399214604322611, -0.0815428542853358, 0.2756540906541607, 0.0, 0.13060932347192042, -0.2262867371765078, 0.43495383450206476, 0.596873980782328, -0.17729148789538007, 0.0, -0.1382302861974611, -0.26242561193476505, 0.5200995649809754, -0.5722404037196801, 0.0
0.3985078446273097, 0.023167716213668275, -0.000743221731895225, -0.09076721189930846, 0.3833203315609884, 0.0, -0.3145552875475738, 0.038531957480322135, -0.04473299886625661, -0.08100020559001783, 0.2739110058955845, 0.0, 0.12901800032779281, -0.21553266235221274, 0.43217869815954063, 0.5881181281826534, -0.16853535953368373, 0.0, -0.12549210048461373, -0.2673489274459117, 0.5139782868871864, -0.5637795711047872, 0.0
0.39873752297555504, 0.02315037916007652, -0.0013792829425063632, -0.090171661227165, 0.3836631875299087, 0.0, -0.31515460568744064, 0.038221245938367544, -0.04547385168928711, -0.08045755689469987, 0.2721679211370082, 0.0, 0.1274266771836652, -0.20477858752791767, 0.4294035618170166, 0.5793622755829789, -0.1597792311719874, 0.0, -0.11275391477176634, -0.27227224295705843, 0.5078570087933973, -0.5553187384898941, 0.0
0.39896720132380054, 0.023133042106484755, -0.0020153441531175014, -0.08957611055502153, 0.3840060434988289, 0.0, -0.3157539238273075, 0.03791053439641295, -0.0462147045123176, -0.07991490819938189, 0.27042483637843195, 0.0, 0.1258353540395376, -0.19402451270362261, 0.42662842547449253, 0.5706064229833044, -0.15102310281029105, 0.0, -0.10001572905891894, -0.27719555846820515, 0.5017357306996082, -0.5468579058750014, 0.0
0.399196879672046, 0.023115705052892992, -0.00265140536372864, -0.08898055988287808, 0.38434889946774925, 0.0, -0.3163532419671743, 0.03759982285445836, -0.0469555573353481, -0.07937225950406393, 0.2686817516198557, 0.0, 0.12424403089541, -0.18327043787932748, 0.4238532891319685, 0.56185057038363, -0.14226697444859474, 0.0, -0.08727754334607153, -0.2821188739793518, 0.49561445260581904, -0.5383970732601083, 0.0
0.3994265580202914, 0.023098367999301234, -0.003287466574339778, -0.08838500921073461, 0.38469175543666945, 0.0, -0.3169525601070411, 0.03728911131250377, -0.0476964101583786, -0.07882961080874597, 0.2669386668612794, 0.0, 0.1226527077512824, -0.17251636305503246, 0.4210781527894444, 0.5530947177839554, -0.1335108460868984, 0.0, -0.07453935763322414, -0.28704218949049853, 0.48949317451203, -0.5299362406452154, 0.0
0.40047823408634864, 0.022380624382764693, -0.0041144096476804885, -0.08862651600438667, 0.38429409263857806, 0.0, -0.31585867848901217, 0.03548510234572814, -0.04766266596262054, -0.07861511682499288, 0.26658662347917667, 0.0, 0.12061491891251915, -0.15531053797720262, 0.4158246698530395, 0.542360206355246, -0.115016281408569, 0.0, -0.05756872635351558, -0.29476078942505435, 0.47567940660929503, -0.5107367043207498, 0.0
0.4015299101524058, 0.021662880766228153, -0.004941352721021198, -0.08886802279803872, 0.3838964298404867, 0.0, -0.3147647968709832, 0.03368109337895251, -0.04762892176686249, -0.07840062284123978, 0.26623458009707385, 0.0, 0.11857713007375587, -0.13810471289937282, 0.4105711869166345, 0.5316256949265366, -0.09652171673023964, 0.0, -0.040598095073807, -0.3024793893596101, 0.46186563870655994, -0.49153716799628416, 0.0
0.40258158621846307, 0.02094513714969161, -0.005768295794361909, -0.0891095295916908, 0.3834987670423952, 0.0, -0.31367091525295426, 0.031877084412176876, -0.047595177571104416, -0.07818612885748667, 0.26588253671497114, 0.0, 0.1165393412349926, -0.12089888782154298, 0.40531770398022954, 0.5208911834978269, -0.07802715205191027, 0.0, -0.023627463794098434, -0.3101979892941659, 0.4480518708038249, -0.47233763167181847, 0.0
0.40363326228452023, 0.02022739353315507, -0.00659523886770262, -0.08935103638534285, 0.3831011042443038, 0.0, -0.31257703363492534, 0.030073075445401252, -0.04756143337534636, -0.07797163487373358, 0.2655304933328684, 0.0, 0.11450155239622933, -0.10369306274371315, 0.40006422104382455, 0.5101566720691176, -0.05953258737358089, 0.0, -0.006656832514389873, -0.3179165892287217, 0.4342381029010899, -0.4531380953473528, 0.0
0.40468493835057745, 0.019509649916618525, -0.00742218194104333, -0.08959254317899491, 0.3827034414462125, 0.0, -0.3114831520168964, 0.028269066478625617, -0.0475276891795883, -0.0777571408899805, 0.26517844995076556, 0.0, 0.11246376355746608, -0.08648723766588333, 0.3948107381074196, 0.49942216064040806, -0.04103802269525153, 0.0, 0.010313798765318684, -0.3256351891632775, 0.4204243349983548, -0.43393855902288714, 0.0
0.4064540215336914, 0.018451579313247854, -0.008009783511108587, -0.09018432987407352, 0.3818683083804502, 0.0, -0.3089854532122694, 0.025434759111135827, -0.04658849015904417, -0.0776825734430183, 0.2661680690899389, 0.0, 0.10997523820338753, -0.06989215872498337, 0.39065481594310675, 0.4890919721862156, -0.014243488908527061, 0.0, 0.02493335327908077, -0.33343690865813025, 0.4003657301627651, -0.4063341243953964, 0.0
0.4082231047168054, 0.017393508709877183, -0.008597385081173844, -0.09077611656915215, 0.38103317531468794, 0.0, -0.3064877544076423, 0.02260045174364603, -0.04564929113850002, -0.07760800599605606, 0.26715768822911223, 0.0, 0.10748671284930897, -0.0532970797840834, 0.38649889377879393, 0.4787617837320231, 0.012551044878197406, 0.0, 0.03955290779284285, -0.341238628152983, 0.3803071253271752, -0.3787296897679058, 0.0
0.4099921878999193, 0.01633543810650651, -0.009184986651239103, -0.09136790326423075, 0.38019804224892556, 0.0, -0.30399005560301534, 0.019766144376156237, -0.04471009211795588, -0.07753343854909386, 0.2681473073682855, 0.0, 0.1049981874952304, -0.03670200084318344, 0.38234297161448105, 0.4684315952778307, 0.039345578664921874, 0.0, 0.05417246230660493, -0.3490403476478357, 0.3602485204915854, -0.3511252551404151, 0.0
0.4117612710830333, 0.015277367503135837, -0.009772588221304359, -0.09195968995930937, 0.3793629091831634, 0.0, -0.3014923567983883, 0.016931837008666444, -0.04377089309741174, -0.07745887110213166, 0.2691369265074588, 0.0, 0.10250966214115187, -0.020106921902283473, 0.3781870494501683, 0.45810140682363826, 0.06614011245164633, 0.0, 0.06879201682036701, -0.3568420671426885, 0.34018991565599566, -0.32352082051292447, 0.0
0.4135303542661473, 0.014219296899765164, -0.010360189791369618, -0.09255147665438798, 0.3785277761174011, 0.0, -0.29899465799376124, 0.014097529641176651, -0.0428316940768676, -0.07738430365516946, 0.2701265456466321, 0.0, 0.10002113678707332, -0.003511842961383516, 0.3740311272858554, 0.4477712183694457, 0.0929346462383708, 0.0, 0.08341157133412912, -0.3646437866375413, 0.32013131082040586, -0.2959163858854338, 0.0
0.4150784368780568, 0.013043590057612523, -0.010857363409428096, -0.09305213342603466, 0.37739811524970623, 0.0, -0.2965884842551088, 0.01123684044220039, -0.041762832102731844, -0.07708484459996832, 0.27114527687772866, 0.0, 0.09747615247515369, 0.008210305191721673, 0.3716460126899575, 0.43883679415268273, 0.12236670239208736, 0.0, 0.09365080719034165, -0.3696210118786236, 0.2999848286569781, -0.26569748992635767, 0.0
0.4166265194899662, 0.011867883215459885, -0.011354537027486573, -0.09355279019768135, 0.37626845438201145, 0.0, -0.2941823105164563, 0.008376151243224128, -0.040693970128596095, -0.0767853855447672, 0.27216400810882524, 0.0, 0.09493116816323408, 0.01993245334482686, 0.36926089809405965, 0.4299023699359196, 0.15179875854580388, 0.0, 0.10389004304655419, -0.37459823711970586, 0.27983834649355044, -0.23547859396728152, 0.0
0.4181746021018756, 0.010692176373307242, -0.011851710645545053, -0.09405344696932803, 0.37513879351431656, 0.0, -0.29177613677780384, 0.005515462044247866, -0.03962510815446034, -0.07648592648956606, 0.2731827393399218, 0.0, 0.09238618385131446, 0.03165460149793205, 0.3668757834981617, 0.4209679457191565, 0.1812308146995204, 0.0, 0.11412927890276672, -0.37957546236078826, 0.25969186433012276, -0.2052596980082054, 0.0
0.4197226847137851, 0.009516469531154603, -0.012348884263603534, -0.09455410374097473, 0.3740091326466218, 0.0, -0.2893699630391514, 0.002654772845271604, -0.03855624618032459, -0.07618646743436493, 0.27420147057101835, 0.0, 0.08984119953939484, 0.04337674965103723, 0.36449066890226384, 0.4120335215023935, 0.21066287085323693, 0.0, 0.12436851475897927, -0.3845526876018705, 0.239545382166695, -0.1750408020491293, 0.0
0.4212707673256945, 0.008340762689001961, -0.012846057881662012, -0.0950547605126214, 0.3728794717789269, 0.0, -0.286963789300499, -0.00020591635370465874, -0.037487384206188835, -0.07588700837916379, 0.2752202018021149, 0.0, 0.08729621522747523, 0.05509889780414242, 0.36210555430636593, 0.4030990972856304, 0.24009492700695345, 0.0, 0.13460775061519178, -0.3895299128429528, 0.2193989000032673, -0.1448219060900532, 0.0
0.42221951434444466, 0.007736729646880632, -0.01344263480740565, -0.09476457404267025, 0.372116822237, 0.0, -0.2860490273329437, -0.002184752201013661, -0.037156326663012045, -0.07490104779916852, 0.27552039494279945, 0.0, 0.08490069009165505, 0.06147559540918292, 0.3598694629033203, 0.39398492859052153, 0.26743752734005993, 0.0, 0.1404815619649991, -0.389567217510385, 0.20378695776944605, -0.11753227203170184, 0.0
0.4231682613631948, 0.007132696604759304, -0.014039211733149289, -0.09447438757271913, 0.371354172695073, 0.0, -0.28513426536538844, -0.004163588048322663, -0.03682526911983526, -0.07391508721917325, 0.275820588083484, 0.0, 0.08250516495583485, 0.06785229301422341, 0.3576333715002747, 0.38487075989541253, 0.29478012767316647, 0.0, 0.14635537331480641, -0.3896045221778171, 0.18817501553562485, -0.09024263797335048, 0.0
0.4241170083819448, 0.006528663562637976, -0.014635788658892925, -0.09418420110276798, 0.3705915231531461, 0.0, -0.28421950339783314, -0.0061424238956316645, -0.03649421157665847, -0.07292912663917797, 0.2761207812241685, 0.0, 0.08010963982001466, 0.0742289906192639, 0.35539728009722915, 0.3757565912003036, 0.3221227280062729, 0.0, 0.15222918466461371, -0.38964182684524923, 0.17256307330180354, -0.06295300391499914, 0.0
0.42506575540069497, 0.005924630520516648, -0.015232365584636564, -0.09389401463281687, 0.36982887361121913, 0.0, -0.28330474143027784, -0.008121259742940668, -0.036163154033481686, -0.0719431660591827, 0.276420974364853, 0.0, 0.07771411468419448, 0.08060568822430438, 0.3531611886941835, 0.3666424225051946, 0.3494653283393794, 0.0, 0.15810299601442104, -0.38967913151268135, 0.1569511310679823, -0.035663369856647816, 0.0
0.42601450241944505, 0.00532059747839532, -0.015828942510380202, -0.09360382816286571, 0.3690662240692921, 0.0, -0.2823899794627226, -0.010100095590249668, -0.035832096490304895, -0.07095720547918744, 0.27672116750553755, 0.0, 0.07531858954837428, 0.08698238582934488, 0.3509250972911379, 0.35752825381008563, 0.37680792867248586, 0.0, 0.16397680736422832, -0.3897164361801134, 0.14133918883416108, -0.008373735798296488, 0.0
0.426616169772485, 0.005030984209477123, -0.0158998037506758, -0.09284779341880382, 0.3683025028952045, 0.0, -0.28215718744709156, -0.011513781042971464, -0.035455778370833683, -0.06953532727642385, 0.27716635910981924, 0.0, 0.07303864151188456, 0.08969742699506425, 0.3490833106727028, 0.3483078818299928, 0.40664049949229153, 0.0, 0.16535128905675892, -0.3862763782617986, 0.12911220621949845, 0.016206735153816664, 0.0
0.4272178371255251, 0.004741370940558927, -0.015970664990971394, -0.09209175867474194, 0.36753878172111676, 0.0, -0.2819243954314606, -0.012927466495693261, -0.03507946025136248, -0.06811344907366026, 0.277611550714101, 0.0, 0.07075869347539486, 0.09241246816078363, 0.3472415240542678, 0.3390875098499, 0.43647307031209726, 0.0, 0.1667257707492895, -0.38283632034348386, 0.11688522360483584, 0.04078720610592982, 0.0
0.42781950447856504, 0.004451757671640731, -0.016041526231266992, -0.09133572393068003, 0.3667750605470292, 0.0, -0.2816916034158296, -0.014341151948415056, -0.03470314213189127, -0.06669157087089668, 0.2780567423183827, 0.0, 0.06847874543890513, 0.09512750932650305, 0.34539973743583274, 0.3298671378698072, 0.4663056411319029, 0.0, 0.16810025244182006, -0.37939626242516894, 0.10465824099017323, 0.06536767705804299, 0.0
0.4284211718316051, 0.004162144402722534, -0.01611238747156259, -0.09057968918661814, 0.3660113393729415, 0.0, -0.2814588114001986, -0.01575483740113685, -0.034326824012420064, -0.0652696926681331, 0.27850193392266437, 0.0, 0.06619879740241541, 0.09784255049222242, 0.3435579508173977, 0.32064676588971436, 0.4961382119517086, 0.0, 0.1694747341343506, -0.3759562045068542, 0.09243125837551061, 0.08994814801015612, 0.0
0.42902283918464507, 0.0038725311338043368, -0.01618324871185818, -0.08982365444255626, 0.3652476181988538, 0.0, -0.28122601938456765, -0.01716852285385865, -0.03395050589294886, -0.06384781446536951, 0.27894712552694606, 0.0, 0.06391884936592568, 0.10055759165794179, 0.34171616419896267, 0.31142639390962157, 0.5259707827715142, 0.0, 0.17084921582688117, -0.3725161465885393, 0.080204275760848, 0.11452861896226928, 0.0
0.4292062767796882, 0.002742641509295111, -0.015937617041958542, -0.08914106210622072, 0.3641761012298599, 0.0, -0.2807597616562143, -0.018593879148755606, -0.03271641115506585, -0.0625775247403928, 0.2798236019520296, 0.0, 0.06171543157367496, 0.10071008107468854, 0.3404776645991135, 0.3017878305687754, 0.5606059830753497, 0.0, 0.1682811977066913, -0.36892885618518473, 0.06788494323760631, 0.1420538051697439, 0.0
0.42938971437473133, 0.001612751884785885, -0.015691985372058903, -0.08845846976988518, 0.363104584260866, 0.0, -0.28029350392786107, -0.020019235443652566, -0.03148231641718284, -0.06130723501541608, 0.2807000783771132, 0.0, 0.05951201378142424, 0.10086257049143528, 0.3392391649992642, 0.2921492672279292, 0.5952411833791853, 0.0, 0.16571317958650142, -0.3653415657818302, 0.05556561071436462, 0.16957899137721852, 0.0
0.42957315196977447, 0.00048286226027665876, -0.015446353702159262, -0.08777587743354967, 0.3620330672918721, 0.0, -0.2798272461995077, -0.02144459173854952, -0.030248221679299834, -0.06003694529043936, 0.2815765548021967, 0.0, 0.05730859598917351, 0.10101505990818205, 0.3380006653994151, 0.2825107038870831, 0.6298763836830207, 0.0, 0.1631451614663115, -0.36175427537847554, 0.04324627819112293, 0.19710417758469312, 0.0
0.4297565895648176, -0.0006470273642325674, -0.015200722032259622, -0.08709328509721413, 0.36096155032287824, 0.0, -0.27936098847115454, -0.022869948033446476, -0.029014126941416828, -0.05876665556546265, 0.2824530312272801, 0.0, 0.055105178196922795, 0.10116754932492879, 0.33676216579956586, 0.2728721405462369, 0.6645115839868563, 0.0, 0.16057714334612164, -0.35816698497512095, 0.030926945667881237, 0.2246293637921677, 0.0
0.4299400271598606, -0.0017769169887417936, -0.014955090362359981, -0.08641069276087861, 0.3598900333538843, 0.0, -0.2788947307428012, -0.024295304328343433, -0.027780032203533814, -0.057496365840485925, 0.2833295076523637, 0.0, 0.05290176040467207, 0.10132003874167553, 0.3355236661997167, 0.2632335772053907, 0.6991467842906918, 0.0, 0.15800912522593175, -0.35457969457176636, 0.01860761314463955, 0.2521545499996424, 0.0
0.42995201757182183, -0.0035996795741806394, -0.015352148718024828, -0.08528920143034652, 0.3597831284465412, 0.0, -0.27940564097473747, -0.02565046452792273, -0.027078582980893894, -0.05654337453006083, 0.2843901058415571, 0.0, 0.051289978161986736, 0.10001081979679892, 0.33361378730584434, 0.2517907727689784, 0.731394430028335, 0.0, 0.1534826487174695, -0.3521552402545285, 0.004814732644260685, 0.2848925233013532, 0.0
0.42996400798378304, -0.005422442159619486, -0.015749207073689674, -0.08416771009981443, 0.35967622353919804, 0.0, -0.2799165512066738, -0.027005624727502026, -0.02637713375825397, -0.055590383219635726, 0.2854507040307505, 0.0, 0.049678195919301414, 0.09870160085192232, 0.331703908411972, 0.2403479683325661, 0.7636420757659782, 0.0, 0.14895617220900725, -0.3497307859372907, -0.008978147856118179, 0.31763049660306397, 0.0
0.42997599839574424, -0.007245204745058331, -0.01614626542935452, -0.08304621876928235, 0.3595693186318549, 0.0, -0.2804274614386101, -0.02836078492708132, -0.02567568453561405, -0.054637391909210624, 0.2865113022199439, 0.0, 0.048066413676616085, 0.09739238190704573, 0.3297940295180996, 0.22890516389615378, 0.7958897215036217, 0.0, 0.14442969570054498, -0.34730633162005287, -0.02277102835649704, 0.3503684699047748, 0.0
0.4299879888077055, -0.009067967330497176, -0.016543323785019364, -0.08192472743875025, 0.35946241372451165, 0.0, -0.2809383716705464, -0.029715945126660617, -0.024974235312974127, -0.05368440059878553, 0.2875719004091373, 0.0, 0.04645463143393076, 0.09608316296216914, 0.3278841506242273, 0.21746235945974146, 0.828137367241265, 0.0, 0.13990321919208276, -0.344881877302815, -0.03656390885687591, 0.38310644320648574, 0.0
0.4299999792196667, -0.010890729915936023, -0.01694038214068421, -0.08080323610821817, 0.3593555088171685, 0.0, -0.2814492819024827, -0.031071105326239915, -0.024272786090334206, -0.052731409288360426, 0.28863249859833073, 0.0, 0.04484284919124543, 0.09477394401729253, 0.325974271730355, 0.20601955502332917, 0.8603850129789082, 0.0, 0.1353767426836205, -0.3424574229855772, -0.05035678935725477, 0.41584441650819653, 0.0
0.4299999792196667, -0.013051640702946614, -0.017336092962540177, -0.07965638584178629, 0.35938039023098495, 0.0, -0.28241504588143973, -0.03226168865680485, -0.02358307246158469, -0.05211489756096636, 0.2895719081055827, 0.0, 0.04382729969537525, 0.09409764149851534, 0.3225504244301326, 0.1940698127243581, 0.8868134063591616, 0.0, 0.13143584508315337, -0.3396402556240066, -0.06558840165778618, 0.4511335079069502, 0.0
0.4299999792196667, -0.015212551489957206, -0.01773180378439614, -0.07850953557535442, 0.35940527164480146, 0.0, -0.28338080986039677, -0.033452271987369796, -0.02289335883283518, -0.051498385833572295, 0.29051131761283455, 0.0, 0.042811750199505054, 0.09342133897973813, 0.31912657712991027, 0.18212007042538703, 0.9132417997394149, 0.0, 0.12749494748268622, -0.336823088262436, -0.08082001395831757, 0.48642259930570386, 0.0
0.4299999792196667, -0.017373462276967795, -0.01812751460625211, -0.07736268530892257, 0.35943015305861786, 0.0, -0.2843465738393538, -0.034642855317934734, -0.022203645204085666, -0.05088187410617822, 0.2914507271200866, 0.0, 0.04179620070363488, 0.09274503646096097, 0.31570272982968806, 0.17017032812641594, 0.9396701931196684, 0.0, 0.1235540498822191, -0.3340059209008654, -0.096051626258849, 0.5217116907044576, 0.0
0.4299999792196667, -0.01953437306397839, -0.018523225428108074, -0.07621583504249069, 0.35945503447243426, 0.0, -0.28531233781831083, -0.03583343864849967, -0.021513931575336154, -0.05026536237878415, 0.2923901366273384, 0.0, 0.04078065120776469, 0.09206873394218378, 0.31227888252946573, 0.15822058582744486, 0.9660985864999216, 0.0, 0.11961315228175197, -0.33118875353929483, -0.1112832385593804, 0.5570007821032112, 0.0
0.4299999792196667, -0.021695283850988976, -0.01891893624996404, -0.07506898477605882, 0.3594799158862507, 0.0, -0.2862781017972679, -0.03702402197906461, -0.020824217946586638, -0.04964885065139008, 0.2933295461345904, 0.0, 0.039765101711894506, 0.09139243142340657, 0.3088550352292434, 0.1462708435284738, 0.992526979880175, 0.0, 0.11567225468128482, -0.3283715861777242, -0.1265148508599118, 0.5922898735019649, 0.0
0.4299999792196667, -0.023753360047911575, -0.018786438881667186, -0.07430897766261939, 0.3590307938004935, 0.0, -0.2876389803936084, -0.037168062605968305, -0.01981732996128874, -0.04853675617355073, 0.29406569110649655, 0.0, 0.03955605490073689, 0.09126249305685899, 0.3033793579164255, 0.137255676889855, 1.0121592705926727, 0.0, 0.11247333389588648, -0.3236123769948256, -0.14442139142396399, 0.6233078719497251, 0.0
0.4299999792196667, -0.025811436244834167, -0.01865394151337034, -0.07354897054917994, 0.35858167171473637, 0.0, -0.288999858989949, -0.03731210323287199, -0.018810441975990844, -0.04742466169571138, 0.2948018360784027, 0.0, 0.03934700808957926, 0.09113255469031141, 0.29790368060360767, 0.12824051025123615, 1.0317915613051705, 0.0, 0.10927441311048813, -0.31885316781192685, -0.16232793198801623, 0.6543258703974852, 0.0
0.4299999792196667, -0.027869512441756762, -0.018521444145073486, -0.07278896343574051, 0.3581325496289791, 0.0, -0.29036073758628955, -0.03745614385977569, -0.017803553990692944, -0.046312567217872025, 0.2955379810503089, 0.0, 0.03913796127842164, 0.09100261632376386, 0.2924280032907897, 0.11922534361261732, 1.051423852017668, 0.0, 0.10607549232508978, -0.31409395862902817, -0.18023447255206845, 0.6853438688452455, 0.0
0.4299999792196667, -0.029927588638679354, -0.018388946776776636, -0.07202895632230108, 0.3576834275432219, 0.0, -0.2917216161826301, -0.03760018448667937, -0.01679666600539505, -0.04520047274003268, 0.29627412602221503, 0.0, 0.038928914467264014, 0.09087267795721628, 0.28695232597797193, 0.11021017697399849, 1.0710561427301655, 0.0, 0.10287657153969142, -0.3093347494461295, -0.19814101311612062, 0.7163618672930058, 0.0
0.4299999792196667, -0.03198566483560195, -0.018256449408479786, -0.07126894920886165, 0.35723430545746476, 0.0, -0.29308249477897064, -0.037744225113583066, -0.015789778020097154, -0.04408837826219332, 0.29701027099412125, 0.0, 0.038719867656106396, 0.0907427395906687, 0.281476648665154, 0.10119501033537966, 1.0906884334426632, 0.0, 0.09967765075429307, -0.3045755402632308, -0.2160475536801728, 0.7473798657407661, 0.0
0.4299999792196667, -0.03349732382228567, -0.017856167569312846, -0.07067371374318109, 0.35707087282630795, 0.0, -0.29424295721730465, -0.03755815416576455, -0.014758442474928286, -0.04310944333056902, 0.2984678478123392, 0.0, 0.03850135068842745, 0.090520794447273, 0.27557988274502443, 0.0963531339815261, 1.1034547699200818, 0.0, 0.09699001021063244, -0.2987067502256815, -0.23610343231147105, 0.7700280190781983, 0.0
0.4299999792196667, -0.0350089828089694, -0.01745588573014591, -0.07007847827750055, 0.35690744019515125, 0.0, -0.29540341965563865, -0.03737208321794603, -0.013727106929759418, -0.04213050839894472, 0.29992542463055727, 0.0, 0.03828283372074851, 0.09029884930387728, 0.2696831168248949, 0.09151125762767257, 1.1162211063975005, 0.0, 0.09430236966697181, -0.2928379601881322, -0.25615931094276917, 0.7926761724156306, 0.0
0.4299999792196667, -0.03652064179565311, -0.01705560389097897, -0.06948324281181997, 0.35674400756399444, 0.0, -0.2965638820939726, -0.037186012270127515, -0.012695771384590548, -0.04115157346732043, 0.3013830014487753, 0.0, 0.03806431675306957, 0.09007690416048157, 0.2637863509047654, 0.086669381273819, 1.1289874428749194, 0.0, 0.0916147291233112, -0.2869691701505829, -0.27621518957406743, 0.8153243257530628, 0.0
0.4299999792196667, -0.038032300782336846, -0.01665532205181203, -0.06888800734613942, 0.3565805749328378, 0.0, -0.2977243445323067, -0.036999941322309, -0.011664435839421682, -0.04017263853569613, 0.3028405782669933, 0.0, 0.037845799785390634, 0.08985495901708587, 0.2578895849846358, 0.08182750491996547, 1.141753779352338, 0.0, 0.08892708857965055, -0.2811003801130335, -0.2962710682053656, 0.8379724790904952, 0.0
0.4299999792196667, -0.039543959769020566, -0.01625504021264509, -0.06829277188045887, 0.356417142301681, 0.0, -0.29888480697064074, -0.036813870374490486, -0.010633100294252813, -0.03919370360407183, 0.3042981550852113, 0.0, 0.037627282817711695, 0.08963301387369016, 0.25199281906450627, 0.07698562856611191, 1.1545201158297567, 0.0, 0.08623944803598993, -0.2752315900754842, -0.3163269468366638, 0.8606206324279275, 0.0
0.4299999792196667, -0.040072451749709755, -0.01591887618514282, -0.06769486955168126, 0.3565009111244597, 0.0, -0.29959063208278125, -0.03725824970253831, -0.010159324350707061, -0.039266185033512056, 0.30508320418275836, 0.0, 0.03678277209787845, 0.08978865221347335, 0.2465801341750514, 0.07465044400038923, 1.1616658428532718, 0.0, 0.084376227378077, -0.2701580593116061, -0.33231309813408805, 0.874023050660577, 0.0
0.4299999792196667, -0.04060094373039894, -0.015582712157640545, -0.06709696722290366, 0.35658467994723847, 0.0, -0.3002964571949217, -0.03770262903058614, -0.009685548407161307, -0.039338666462952275, 0.3058682532803055, 0.0, 0.035938261378045205, 0.08994429055325653, 0.24116744928559647, 0.07231525943466655, 1.168811569876787, 0.0, 0.08251300672016405, -0.26508452854772796, -0.34829924943151247, 0.8874254688932265, 0.0
0.4299999792196667, -0.04112943571108814, -0.01524654813013827, -0.06649906489412606, 0.35666844877001713, 0.0, -0.3010022823070623, -0.03814700835863396, -0.009211772463615556, -0.0394111478923925, 0.3066533023778525, 0.0, 0.035093750658211964, 0.09009992889303972, 0.23575476439614163, 0.06998007486894384, 1.1759572969003023, 0.0, 0.08064978606225112, -0.2600109977838499, -0.3642854007289368, 0.9008278871258759, 0.0
0.4299999792196667, -0.04165792769177733, -0.014910384102635997, -0.06590116256534845, 0.3567522175927959, 0.0, -0.3017081074192028, -0.038591387686681786, -0.008737996520069801, -0.039483629321832726, 0.30743835147539955, 0.0, 0.034249239938378716, 0.09025556723282292, 0.23034207950668673, 0.06764489030322116, 1.1831030239238174, 0.0, 0.07878656540433819, -0.2549374670199718, -0.3802715520263611, 0.9142303053585255, 0.0
0.4299999792196667, -0.042186419672466516, -0.014574220075133724, -0.06530326023657085, 0.3568359864155746, 0.0, -0.3024139325313433, -0.03903576701472962, -0.008264220576524048, -0.039556110751272945, 0.3082234005729466, 0.0, 0.033404729218545474, 0.09041120557260612, 0.22492939461723183, 0.06530970573749847, 1.1902487509473325, 0.0, 0.07692334474642525, -0.24986393625609365, -0.3962577033237854, 0.9276327235911749, 0.0
0.4299999792196667, -0.04199225528384065, -0.014348293486648367, -0.06478177680002598, 0.3561846923705834, 0.0, -0.3029419958591682, -0.03966848970928206, -0.008432014226976172, -0.040042403114109865, 0.3081119159216462, 0.0, 0.03224031640198249, 0.09019425800499056, 0.22148490007195842, 0.06407446676175786, 1.1934581461517038, 0.0, 0.07548104654047919, -0.2470087032635371, -0.4046229582181807, 0.9336098060728228, 0.0
0.4299999792196667, -0.04179809089521479, -0.014122366898163007, -0.06426029336348109, 0.35553339832559216, 0.0, -0.3034700591869931, -0.040301212403834503, -0.008599807877428294, -0.04052869547694679, 0.3080004312703458, 0.0, 0.0310759035854195, 0.08997731043737503, 0.21804040552668502, 0.06283922778601723, 1.196667541356075, 0.0, 0.07403874833453311, -0.2441534702709805, -0.4129882131125759, 0.9395868885544706, 0.0
0.4299999792196667, -0.041603926506588916, -0.01389644030967765, -0.06373880992693622, 0.35488210428060096, 0.0, -0.303998122514818, -0.04093393509838694, -0.008767601527880416, -0.04101498783978371, 0.3078889466190454, 0.0, 0.029911490768856512, 0.08976036286975947, 0.2145959109814116, 0.06160398881027662, 1.1998769365604465, 0.0, 0.07259645012858705, -0.24129823727842392, -0.42135346800697104, 0.9455639710361184, 0.0
0.4299999792196667, -0.04140976211796306, -0.013670513721192289, -0.06321732649039133, 0.35423081023560976, 0.0, -0.30452618584264296, -0.04156665779293939, -0.008935395178332538, -0.04150128020262063, 0.307777461967745, 0.0, 0.028747077952293528, 0.08954341530214391, 0.2111514164361382, 0.060368749834536, 1.2030863317648177, 0.0, 0.07115415192264099, -0.23844300428586737, -0.42971872290136626, 0.9515410535177662, 0.0
0.4299999792196667, -0.04121559772933719, -0.013444587132706931, -0.06269584305384644, 0.3535795161906185, 0.0, -0.30505424917046786, -0.042199380487491826, -0.00910318882878466, -0.04198757256545755, 0.3076659773164447, 0.0, 0.027582665135730544, 0.08932646773452838, 0.20770692189086476, 0.05913351085879539, 1.206295726969189, 0.0, 0.06971185371669492, -0.23558777129331077, -0.4380839777957615, 0.957518135999414, 0.0
0.4299999792196667, -0.041074088877046444, -0.013663426741951396, -0.06222888859005577, 0.3523674688009126, 0.0, -0.30562924091122035, -0.04200117950137195, -0.009435649965745902, -0.04179669218835223, 0.30689734827650034, 0.0, 0.027128982504637886, 0.08844116971727357, 0.20691165214521803, 0.05870429180969623, 1.2072910044657972, 0.0, 0.06782054407886623, -0.23536191870678572, -0.4410002658962113, 0.9591999073413677, 0.0
0.4299999792196667, -0.040932580024755694, -0.013882266351195863, -0.0617619341262651, 0.3511554214112066, 0.0, -0.3062042326519729, -0.04180297851525207, -0.009768111102707144, -0.04160581181124692, 0.30612871923655605, 0.0, 0.026675299873545225, 0.08755587170001877, 0.2061163823995713, 0.05827507276059708, 1.2082862819624054, 0.0, 0.06592923444103753, -0.23513606612026064, -0.44391655399666113, 0.9608816786833215, 0.0
