isaac-sim2real/sage/motion_files/h1_2/amass/0-punching03_poses_action_sequence.txt
left_hip_yaw_joint, left_hip_pitch_joint, left_hip_roll_joint, left_knee_joint, left_ankle_pitch_joint, left_ankle_roll_joint, right_hip_yaw_joint, right_hip_pitch_joint, right_hip_roll_joint, right_knee_joint, right_ankle_pitch_joint, right_ankle_roll_joint, torso_joint, left_shoulder_pitch_joint, left_shoulder_roll_joint, left_shoulder_yaw_joint, left_elbow_joint, left_wrist_roll_joint, right_shoulder_pitch_joint, right_shoulder_roll_joint, right_shoulder_yaw_joint, right_elbow_joint, right_wrist_roll_joint
0.4299999792196667, -0.19426844515586908, 0.03998603596058746, 0.10020334916098152, 0.3582717989780202, 0.0, -0.24586657376366602, -0.18864331878986143, 0.006006125283999774, 0.12027579445753964, 0.47777389945012627, 0.0, -0.04775223451450364, 0.05798262678739631, 0.497280606741626, 0.2496625601669986, 0.03858090628639187, 0.0, 0.020971284625347437, -0.5440767935251185, -0.21343720434430508, -0.059105170202401504, 0.0
0.4299999792196667, -0.19395074636278706, 0.03983192373670221, 0.10040541989111894, 0.35826213334462265, 0.0, -0.24623971468576691, -0.18858074175486042, 0.005586576825033241, 0.12026173967013917, 0.4777201293465309, 0.0, -0.047627635110137914, 0.05807332386917375, 0.49691774580881937, 0.24935376953441873, 0.03828453332237411, 0.0, 0.020544668211228856, -0.5442073197185581, -0.21356445630006798, -0.0595307963167025, 0.0
0.4299999792196667, -0.19363304756970504, 0.03967781151281696, 0.1006074906212563, 0.35825246771122515, 0.0, -0.24661285560786775, -0.18851816471985944, 0.005167028366066706, 0.12024768488273872, 0.4776663592429355, 0.0, -0.04750303570577218, 0.05816402095095118, 0.4965548848760127, 0.2490449789018389, 0.03798816035835636, 0.0, 0.020118051797110275, -0.5443378459119976, -0.2136917082558309, -0.059956422431003506, 0.0
0.4299999792196667, -0.19331534877662299, 0.03952369928893171, 0.10080956135139373, 0.3582428020778276, 0.0, -0.24698599652996864, -0.1884555876848584, 0.0047474799071001725, 0.12023363009533825, 0.47761258913933996, 0.0, -0.04737843630140645, 0.05825471803272863, 0.4961920239432061, 0.24873618826925903, 0.037691787394338594, 0.0, 0.019691435382991698, -0.5444683721054374, -0.2138189602115938, -0.060382048545304504, 0.0
0.4299999792196667, -0.19299764998354096, 0.039369587065046466, 0.1010116320815311, 0.35823313644443006, 0.0, -0.2473591374520695, -0.18839301064985745, 0.004327931448133638, 0.1202195753079378, 0.47755881903574454, 0.0, -0.047253836897040734, 0.05834541511450606, 0.49582916301039937, 0.2484273976366792, 0.037395414430320836, 0.0, 0.019264818968873117, -0.544598898298877, -0.21394621216735668, -0.0608076746596055, 0.0
0.4299999792196667, -0.19267995119045894, 0.03921547484116121, 0.10121370281166853, 0.3582234708110325, 0.0, -0.24773227837417042, -0.1883304336148564, 0.0039083829891671034, 0.12020552052053733, 0.4775050489321491, 0.0, -0.047129237492675016, 0.058436112196283495, 0.4954663020775928, 0.24811860700409938, 0.037099041466303086, 0.0, 0.018838202554754532, -0.5447294244923166, -0.21407346412311962, -0.061233300773906506, 0.0
0.4299999792196667, -0.19224298706827112, 0.03922158454074075, 0.10142638619085559, 0.3581348674262258, 0.0, -0.24802890406186384, -0.18807319477239273, 0.003509396393744655, 0.1203729988249002, 0.47753847198732485, 0.0, -0.04697306578027241, 0.05862902483476983, 0.4951863233403048, 0.24799225214757195, 0.03678354492967123, 0.0, 0.018785677219981617, -0.5446053560171094, -0.2141820829437882, -0.0614905458995555, 0.0
0.4299999792196667, -0.19180602294608334, 0.03922769424032028, 0.10163906957004266, 0.3580462640414191, 0.0, -0.24832552974955727, -0.18781595592992903, 0.0031104097983222063, 0.12054047712926308, 0.4775718950425005, 0.0, -0.046816894067869805, 0.05882193747325616, 0.49490634460301697, 0.24786589729104458, 0.036468048393039375, 0.0, 0.018733151885208695, -0.5444812875419021, -0.2142907017644568, -0.06174779102520449, 0.0
0.4299999792196667, -0.19136905882389554, 0.03923380393989981, 0.10185175294922975, 0.3579576606566123, 0.0, -0.24862215543725072, -0.18755871708746538, 0.0027114232028997583, 0.12070795543362595, 0.47760531809767615, 0.0, -0.046660722355467206, 0.05901485011174251, 0.494626365865729, 0.24773954243451723, 0.03615255185640751, 0.0, 0.01868062655043578, -0.5443572190666949, -0.21439932058512545, -0.06200503615085349, 0.0
0.4299999792196667, -0.19093209470170774, 0.03923991363947934, 0.10206443632841682, 0.35786905727180557, 0.0, -0.24891878112494414, -0.18730147824500165, 0.002312436607477309, 0.12087543373798884, 0.4776387411528518, 0.0, -0.0465045506430646, 0.05920776275022884, 0.49434638712844114, 0.24761318757798986, 0.03583705531977566, 0.0, 0.01862810121566286, -0.5442331505914875, -0.2145079394057941, -0.062262281276502476, 0.0
0.4299999792196667, -0.19049513057951992, 0.039246023339058876, 0.1022771197076039, 0.35778045388699886, 0.0, -0.24921540681263762, -0.18704423940253795, 0.0019134500120548607, 0.12104291204235168, 0.47767216420802755, 0.0, -0.046348378930661994, 0.05940067538871518, 0.49406640839115323, 0.24748683272146246, 0.035521558783143795, 0.0, 0.018575575880889938, -0.5441090821162803, -0.2146165582264627, -0.06251952640215148, 0.0
0.4299999792196667, -0.190075099641735, 0.039367546775150884, 0.1024107990128702, 0.35764018526567454, 0.0, -0.24922118036180324, -0.18683154485324366, 0.0016394888872844759, 0.12126889936829502, 0.4777252990117753, 0.0, -0.0461103861829259, 0.05974522537420743, 0.4939446437505585, 0.24760216756909278, 0.035280843670840445, 0.0, 0.01877677010667699, -0.5438652875450447, -0.21473375708573408, -0.06277469772758325, 0.0
0.4299999792196667, -0.18965506870395005, 0.0394890702112429, 0.1025444783181365, 0.35749991664435027, 0.0, -0.24922695391096883, -0.18661885030394937, 0.0013655277625140912, 0.12149488669423834, 0.47777843381552293, 0.0, -0.0458723934351898, 0.060089775359699685, 0.493822879109964, 0.24771750241672305, 0.03504012855853708, 0.0, 0.018977964332464035, -0.5436214929738091, -0.21485095594500553, -0.06302986905301503, 0.0
0.4299999792196667, -0.18923503776616507, 0.03961059364733491, 0.1026781576234028, 0.3573596480230259, 0.0, -0.24923272746013442, -0.18640615575465508, 0.0010915666377437063, 0.12172087402018168, 0.4778315686192707, 0.0, -0.04563440068745371, 0.060434325345191935, 0.49370111446936926, 0.24783283726435335, 0.034799413446233725, 0.0, 0.019179158558251086, -0.5433776984025737, -0.21496815480427695, -0.0632850403784468, 0.0
0.4299999792196667, -0.1888150068283801, 0.03973211708342692, 0.1028118369286691, 0.35721937940170173, 0.0, -0.2492385010093, -0.18619346120536082, 0.0008176055129733215, 0.12194686134612501, 0.4778847034230184, 0.0, -0.04539640793971761, 0.06077887533068419, 0.4935793498287747, 0.2479481721119836, 0.03455869833393037, 0.0, 0.01938035278403813, -0.543133903831338, -0.21508535366354833, -0.06354021170387857, 0.0
0.4299999792196667, -0.18839497589059517, 0.03985364051951893, 0.10294551623393541, 0.3570791107803774, 0.0, -0.2492442745584656, -0.1859807666560665, 0.0005436443882029368, 0.12217284867206833, 0.4779378382267661, 0.0, -0.045158415191981514, 0.061123425316176455, 0.49345758518818, 0.2480635069596139, 0.03431798322162701, 0.0, 0.01958154700982518, -0.5428901092601024, -0.21520255252281978, -0.06379538302931036, 0.0
0.4299999792196667, -0.18812146534351518, 0.03985848799698342, 0.10298881087136037, 0.35696203060349513, 0.0, -0.24901108809842368, -0.18593217668969098, 0.00033119917664558776, 0.12235586878435437, 0.47793897269077995, 0.0, -0.04486909510347107, 0.06145906260331047, 0.4935172056354281, 0.24829905659546303, 0.034124086217442555, 0.0, 0.019842895055479762, -0.5427937042535392, -0.2153741148976323, -0.06394566285922408, 0.0
0.4299999792196667, -0.1878479547964351, 0.039863335474447904, 0.10303210550878535, 0.35684495042661285, 0.0, -0.2487779016383817, -0.18588358672331545, 0.0001187539650882387, 0.12253888889664039, 0.47794010715479374, 0.0, -0.04457977501496062, 0.0617946998904445, 0.4935768260826762, 0.24853460623131218, 0.03393018921325809, 0.0, 0.020104243101134345, -0.5426972992469761, -0.21554567727244486, -0.06409594268913779, 0.0
0.4299999792196667, -0.1875744442493551, 0.03986818295191239, 0.10307540014621033, 0.35672787024973057, 0.0, -0.24854471517833976, -0.18583499675693993, -9.369124646911037e-05, 0.12272190900892643, 0.4779412416188075, 0.0, -0.04429045492645018, 0.062130337177578515, 0.49363644652992433, 0.24877015586716134, 0.033736292209073634, 0.0, 0.02036559114678893, -0.5426008942404129, -0.21571723964725736, -0.06424622251905152, 0.0
0.4299999792196667, -0.18730093370227505, 0.03987303042937688, 0.10311869478363529, 0.35661079007284824, 0.0, -0.2483115287182978, -0.1857864067905644, -0.00030613645802645946, 0.12290492912121245, 0.47794237608282136, 0.0, -0.044001134837939736, 0.06246597446471254, 0.4936960669771725, 0.2490057055030105, 0.03354239520488918, 0.0, 0.020626939192443513, -0.5425044892338498, -0.21588880202206992, -0.06439650234896524, 0.0
0.4299999792196667, -0.18702742315519502, 0.039877877906841365, 0.10316198942106027, 0.35649370989596596, 0.0, -0.24807834225825584, -0.18573781682418888, -0.0005185816695838085, 0.12308794923349849, 0.4779435105468351, 0.0, -0.043711814749429284, 0.06280161175184655, 0.4937556874244206, 0.24924125513885964, 0.03334849820070472, 0.0, 0.0208882872380981, -0.5424080842272866, -0.21606036439688245, -0.06454678217887896, 0.0
0.4299999792196667, -0.18680942804096243, 0.039977759958340346, 0.10313570406439355, 0.35626742097712794, 0.0, -0.24745006736076916, -0.1857620699194746, -0.0005348502500607905, 0.12331469193794208, 0.47787138307016713, 0.0, -0.043399806427840464, 0.06322363829909824, 0.49387642232075657, 0.24949853412389614, 0.03302938254933592, 0.0, 0.021318635166157444, -0.5422579021358109, -0.21624489805869582, -0.06478439165231131, 0.0
0.4299999792196667, -0.1865914329267298, 0.04007764200983933, 0.1031094187077268, 0.35604113205828986, 0.0, -0.24682179246328254, -0.18578632301476034, -0.0005511188305377725, 0.12354143464238568, 0.4777992555934993, 0.0, -0.043087798106251636, 0.06364566484634993, 0.4939971572170926, 0.24975581310893263, 0.03271026689796713, 0.0, 0.021748983094216787, -0.5421077200443354, -0.21642943172050919, -0.06502200112574366, 0.0
0.4299999792196667, -0.1863734378124972, 0.040177524061338316, 0.10308313335106006, 0.3558148431394518, 0.0, -0.24619351756579586, -0.18581057611004606, -0.0005673874110147546, 0.12376817734682927, 0.4777271281168313, 0.0, -0.042775789784662815, 0.0640676913936016, 0.49411789211342855, 0.25001309209396916, 0.03239115124659834, 0.0, 0.022179331022276132, -0.5419575379528597, -0.21661396538232255, -0.06525961059917604, 0.0
0.4299999792196667, -0.18615544269826462, 0.0402774061128373, 0.10305684799439331, 0.35558855422061364, 0.0, -0.24556524266830923, -0.1858348292053318, -0.0005836559914917367, 0.12399492005127287, 0.4776550006401634, 0.0, -0.042463781463073995, 0.0644897179408533, 0.4942386270097645, 0.25027037107900557, 0.03207203559522955, 0.0, 0.02260967895033547, -0.5418073558613842, -0.21679849904413592, -0.0654972200726084, 0.0
0.4299999792196667, -0.18593744758403202, 0.04037728816433628, 0.10303056263772657, 0.3553622653017756, 0.0, -0.24493696777082255, -0.18585908230061748, -0.0005999245719687189, 0.12422166275571646, 0.47758287316349546, 0.0, -0.042151773141485174, 0.06491174448810498, 0.4943593619061005, 0.2505276500640421, 0.03175291994386076, 0.0, 0.023040026878394817, -0.5416571737699085, -0.21698303270594926, -0.06573482954604075, 0.0
0.4299999792196667, -0.18562155346139653, 0.04040334034501495, 0.10295746196546776, 0.3549911315083145, 0.0, -0.24441835365556797, -0.18588663057753096, -0.0007848641415155571, 0.12450011258457963, 0.4773757968290634, 0.0, -0.04190363130414873, 0.06528494370420287, 0.4943105345749466, 0.25053772061382606, 0.031184725213347197, 0.0, 0.02335455336102842, -0.5416682112320982, -0.21731163980685628, -0.06622270841316773, 0.0
0.4299999792196667, -0.1853056593387611, 0.04042939252569362, 0.10288436129320892, 0.3546199977148535, 0.0, -0.24389973954031335, -0.18591417885444442, -0.0009698037110623954, 0.1247785624134428, 0.47716872049463127, 0.0, -0.04165548946681229, 0.06565814292030077, 0.49426170724379287, 0.2505477911636101, 0.030616530482833637, 0.0, 0.023669079843662018, -0.5416792486942877, -0.21764024690776326, -0.06671058728029472, 0.0
0.4299999792196667, -0.18498976521612562, 0.04045544470637228, 0.10281126062095008, 0.3542488639213923, 0.0, -0.24338112542505874, -0.18594172713135793, -0.0011547432806092335, 0.12505701224230598, 0.47696164416019915, 0.0, -0.041407347629475844, 0.06603134213639866, 0.4942128799126391, 0.2505578617133941, 0.03004833575232008, 0.0, 0.02398360632629562, -0.5416902861564774, -0.21796885400867025, -0.0671984661474217, 0.0
0.4299999792196667, -0.18467387109349018, 0.04048149688705095, 0.10273815994869126, 0.3538777301279312, 0.0, -0.24286251130980416, -0.1859692754082714, -0.001339682850156072, 0.12533546207116913, 0.47675456782576703, 0.0, -0.04115920579213941, 0.06640454135249656, 0.49416405258148527, 0.25056793226317814, 0.029480141021806523, 0.0, 0.024298132808929215, -0.5417013236186671, -0.2182974611095772, -0.06768634501454868, 0.0
0.4299999792196667, -0.18435797697085474, 0.040507549067729624, 0.10266505927643244, 0.3535065963344702, 0.0, -0.24234389719454955, -0.18599682368518486, -0.0015246224197029102, 0.12561391190003232, 0.47654749149133485, 0.0, -0.040911063954802956, 0.06677774056859445, 0.49411522525033147, 0.25057800281296216, 0.028911946291292966, 0.0, 0.024612659291562814, -0.5417123610808566, -0.21862606821048422, -0.06817422388167567, 0.0
0.4299999792196667, -0.18388816226148588, 0.04061566523357367, 0.10266120000439043, 0.3529742918565629, 0.0, -0.24195349322081716, -0.1859045097303884, -0.0018131037378814332, 0.12605334042712396, 0.47620264933772594, 0.0, -0.040604945421307916, 0.06709444557120038, 0.493993170885081, 0.25050239864042423, 0.02830338000078568, 0.0, 0.02486925759819102, -0.5416532467790917, -0.21881823943310433, -0.0686003310087185, 0.0
0.4299999792196667, -0.18341834755211706, 0.04072378139941771, 0.10265734073234842, 0.3524419873786557, 0.0, -0.24156308924708483, -0.1858121957755919, -0.002101585056059956, 0.12649276895421557, 0.4758578071841169, 0.0, -0.040298826887812875, 0.06741115057380632, 0.49387111651983057, 0.25042679446788635, 0.02769481371027839, 0.0, 0.025125855904819232, -0.5415941324773266, -0.21901041065572435, -0.06902643813576136, 0.0
0.4299999792196667, -0.1829485328427482, 0.040831897565261746, 0.10265348146030641, 0.3519096829007485, 0.0, -0.24117268527335248, -0.18571988182079543, -0.002390066374238479, 0.12693219748130719, 0.4755129650305078, 0.0, -0.039992708354317834, 0.06772785557641227, 0.4937490621545801, 0.25035119029534847, 0.027086247419771104, 0.0, 0.025382454211447438, -0.5415350181755615, -0.2192025818783445, -0.0694525452628042, 0.0
0.4299999792196667, -0.18247871813337935, 0.040940013731105784, 0.10264962218826439, 0.3513773784228412, 0.0, -0.24078228129962015, -0.18562756786599893, -0.002678547692417002, 0.12737162600839882, 0.47516812287689875, 0.0, -0.03968658982082279, 0.0680445605790182, 0.4936270077893296, 0.2502755861228106, 0.026477681129263814, 0.0, 0.025639052518075644, -0.5414759038737965, -0.21939475310096457, -0.06987865238984704, 0.0
0.4299999792196667, -0.18200890342401052, 0.04104812989694983, 0.10264576291622238, 0.35084507394493397, 0.0, -0.2403918773258878, -0.18553525391120246, -0.0029670290105955253, 0.1278110545354904, 0.4748232807232897, 0.0, -0.039380471287327745, 0.06836126558162414, 0.49350495342407913, 0.25019998195027265, 0.025869114838756528, 0.0, 0.02589565082470385, -0.5414167895720314, -0.21958692432358465, -0.0703047595168899, 0.0
0.4299999792196667, -0.1814362783497237, 0.041210492990340956, 0.10277959476326531, 0.35015401082760683, 0.0, -0.23975656351552782, -0.18562636009815653, -0.0032002539027876087, 0.1284323376439936, 0.4742432519623159, 0.0, -0.038814347215438756, 0.06882930354581444, 0.4933372028483529, 0.25014403716642925, 0.02544771172311365, 0.0, 0.025953321390111646, -0.5412175113686972, -0.21945558829737205, -0.07076330638060786, 0.0
0.4299999792196667, -0.18086365327543688, 0.04137285608373208, 0.10291342661030824, 0.3494629477102797, 0.0, -0.23912124970516788, -0.18571746628511063, -0.0034334787949796917, 0.12905362075249677, 0.4736632232013422, 0.0, -0.03824822314354976, 0.06929734151000476, 0.49316945227262676, 0.25008809238258584, 0.025026308607470776, 0.0, 0.02601099195551945, -0.541018233165363, -0.2193242522711595, -0.07122185324432583, 0.0
0.4299999792196667, -0.18029102820115003, 0.04153521917712321, 0.10304725845735116, 0.3487718845929525, 0.0, -0.2384859358948079, -0.18580857247206475, -0.0036667036871717747, 0.12967490386099992, 0.4730831944403684, 0.0, -0.03768209907166078, 0.06976537947419507, 0.49300170169690055, 0.25003214759874237, 0.024604905491827905, 0.0, 0.02606866252092724, -0.5408189549620288, -0.21919291624494694, -0.0716804001080438, 0.0
0.4299999792196667, -0.1797184031268632, 0.04169758227051434, 0.1031810903043941, 0.34808082147562536, 0.0, -0.23785062208444796, -0.18589967865901885, -0.003899928579363858, 0.1302961869695031, 0.4725031656793946, 0.0, -0.03711597499977179, 0.07023341743838538, 0.49283395112117445, 0.249976202814899, 0.02418350237618503, 0.0, 0.02612633308633504, -0.5406196767586946, -0.21906158021873437, -0.07213894697176176, 0.0
0.4299999792196667, -0.1791457780525764, 0.041859945363905464, 0.10331492215143702, 0.3473897583582982, 0.0, -0.23721530827408802, -0.18599078484597298, -0.0041331534715559415, 0.13091747007800628, 0.4719231369184208, 0.0, -0.03654985092788279, 0.07070145540257569, 0.49266620054544824, 0.24992025803105555, 0.02376209926054216, 0.0, 0.026184003651742838, -0.5404203985553604, -0.21893024419252177, -0.07259749383547974, 0.0
0.4299999792196667, -0.1786092219526113, 0.04197455939055468, 0.10356216200261602, 0.34651311787226496, 0.0, -0.23613777340983325, -0.1864727051590336, -0.004296258294972581, 0.13188888159335693, 0.4712116045796263, 0.0, -0.035809540204117966, 0.07150809596829916, 0.4924163427003912, 0.24982488975006806, 0.023321067473999656, 0.0, 0.026156760807448456, -0.5402992168547359, -0.21868193270918204, -0.07339175233735787, 0.0
0.4299999792196667, -0.17807266585264622, 0.04208917341720389, 0.10380940185379504, 0.3456364773862318, 0.0, -0.2350602385455785, -0.1869546254720943, -0.00445936311838922, 0.13286029310870756, 0.4705000722408317, 0.0, -0.03506922948035314, 0.07231473653402264, 0.4921664848553342, 0.24972952146908056, 0.022880035687457154, 0.0, 0.026129517963154082, -0.5401780351541114, -0.2184336212258423, -0.07418601083923598, 0.0
0.4299999792196667, -0.17753610975268108, 0.042203787443853114, 0.10405664170497404, 0.3447598369001985, 0.0, -0.23398270368132373, -0.187436545785155, -0.004622467941805861, 0.13383170462405822, 0.4697885399020372, 0.0, -0.03432891875658831, 0.0731213770997461, 0.4919166270102773, 0.24963415318809312, 0.02243900390091465, 0.0, 0.0261022751188597, -0.540056853453487, -0.21818530974250258, -0.0749802693411141, 0.0
0.4299999792196667, -0.176999553652716, 0.042318401470502316, 0.10430388155615308, 0.34388319641416537, 0.0, -0.232905168817069, -0.18791846609821566, -0.0047855727652225, 0.13480311613940887, 0.46907700756324267, 0.0, -0.033588608032823486, 0.0739280176654696, 0.4916667691652202, 0.24953878490710563, 0.02199797211437215, 0.0, 0.026075032274565323, -0.5399356717528624, -0.21793699825916282, -0.07577452784299223, 0.0
0.4299999792196667, -0.17646299755275088, 0.04243301549715154, 0.10455112140733208, 0.3430065559281322, 0.0, -0.23182763395281422, -0.18840038641127635, -0.004948677588639139, 0.13577452765475953, 0.4683654752244481, 0.0, -0.03284829730905865, 0.07473465823119306, 0.4914169113201632, 0.24944341662611816, 0.02155694032782965, 0.0, 0.026047789430270942, -0.539814490052238, -0.21768868677582306, -0.07656878634487035, 0.0
0.4299999792196667, -0.175978700101249, 0.04255613416417987, 0.10500987875775783, 0.3420611739041799, 0.0, -0.23065541497663875, -0.1891347581286625, -0.005175115558595332, 0.13714500416572262, 0.4674841886719461, 0.0, -0.03207871881000128, 0.07601355696723816, 0.4913919147146162, 0.24958733298557914, 0.020917156031123638, 0.0, 0.026558696171548737, -0.5396987188722947, -0.217216023689115, -0.07800229751616433, 0.0
0.4299999792196667, -0.1754944026497471, 0.0426792528312082, 0.1054686361081836, 0.34111579188022767, 0.0, -0.22948319600046332, -0.18986912984604862, -0.0054015535285515245, 0.1385154806766857, 0.46660290211944405, 0.0, -0.03130914031094391, 0.07729245570328326, 0.49136691810906913, 0.24973124934504007, 0.020277371734417626, 0.0, 0.02706960291282653, -0.5395829476923514, -0.2167433606024069, -0.0794358086874583, 0.0
0.4299999792196667, -0.17501010519824522, 0.04280237149823654, 0.10592739345860935, 0.3401704098562754, 0.0, -0.22831097702428782, -0.19060350156343478, -0.005627991498507718, 0.13988595718764882, 0.4657216155669421, 0.0, -0.030539561811886537, 0.07857135443932836, 0.491341921503522, 0.24987516570450102, 0.01963758743771162, 0.0, 0.02758050965410433, -0.5394671765124082, -0.21627069751569877, -0.08086931985875227, 0.0
0.4299999792196667, -0.17452580774674334, 0.042925490165264875, 0.10638615080903512, 0.3392250278323231, 0.0, -0.2271387580481124, -0.19133787328082089, -0.00585442946846391, 0.1412564336986119, 0.46484032901444, 0.0, -0.02976998331282917, 0.07985025317537346, 0.49131692489797496, 0.25001908206396195, 0.018997803141005607, 0.0, 0.028091416395382124, -0.5393514053324648, -0.2157980344289907, -0.08230283103004625, 0.0
0.4299999792196667, -0.17404151029524145, 0.04304860883229321, 0.10684490815946088, 0.3382796458083709, 0.0, -0.22596653907193695, -0.19207224499820705, -0.006080867438420103, 0.14262691020957502, 0.46395904246193803, 0.0, -0.029000404813771797, 0.08112915191141858, 0.4912919282924279, 0.25016299842342293, 0.018358018844299596, 0.0, 0.028602323136659922, -0.5392356341525215, -0.21532537134228263, -0.08373634220134023, 0.0
0.4299999792196667, -0.17384800738640208, 0.043670171542542546, 0.10756734077756581, 0.33736550168737084, 0.0, -0.2246829401642162, -0.192606050459271, -0.005992979149914487, 0.14447629599157324, 0.4628472677284176, 0.0, -0.028050179152079406, 0.08274292871637308, 0.491613651814765, 0.25038918960382284, 0.017116799881849457, 0.0, 0.029097229048421283, -0.5392970383262652, -0.21409688644168134, -0.08683833682486078, 0.0
0.4299999792196667, -0.1736545044775627, 0.044291734252791884, 0.10828977339567077, 0.33645135756637073, 0.0, -0.22339934125649547, -0.19313985592033497, -0.0059050908614088704, 0.14632568177357147, 0.4617354929948972, 0.0, -0.027099953490387015, 0.0843567055213276, 0.49193537533710213, 0.25061538078422285, 0.015875580919399314, 0.0, 0.029592134960182644, -0.5393584425000089, -0.21286840154108008, -0.08994033144838133, 0.0
0.4299999792196667, -0.17346100156872335, 0.04491329696304122, 0.10901220601377572, 0.33553721344537074, 0.0, -0.22211574234877476, -0.19367366138139894, -0.005817202572903254, 0.1481750675555697, 0.4606237182613769, 0.0, -0.026149727828694624, 0.0859704823262821, 0.49225709885943925, 0.2508415719646228, 0.014634361956949175, 0.0, 0.030087040871944006, -0.5394198466737525, -0.21163991664047888, -0.09304232607190187, 0.0
0.4299999792196667, -0.173267498659884, 0.04553485967329056, 0.10973463863188065, 0.3346230693243706, 0.0, -0.22083214344105404, -0.19420746684246287, -0.005729314284397637, 0.15002445333756795, 0.4595119435278565, 0.0, -0.025199502167002234, 0.0875842591312366, 0.49257882238177636, 0.25106776314502277, 0.013393142994499037, 0.0, 0.03058194678370537, -0.5394812508474962, -0.21041143173987764, -0.09614432069542239, 0.0
0.4299999792196667, -0.17307399575104465, 0.04615642238353991, 0.11045707124998562, 0.33370892520337053, 0.0, -0.2195485445333333, -0.19474127230352684, -0.005641425995892019, 0.15187383911956615, 0.4584001687943361, 0.0, -0.024249276505309843, 0.0891980359361911, 0.49290054590411353, 0.25129395432542273, 0.012151924032048898, 0.0, 0.031076852695466728, -0.5395426550212399, -0.20918294683927638, -0.09924631531894296, 0.0
0.4299999792196667, -0.17350971545347577, 0.047539438037981024, 0.11147452001314782, 0.3330683823865716, 0.0, -0.21838655667723303, -0.19477436374614468, -0.0049855809350630624, 0.1539655429242528, 0.4567237800477955, 0.0, -0.023041815491812265, 0.09112565784723926, 0.4934425718659544, 0.25099320966069455, 0.009541817946209646, 0.0, 0.030768204830819698, -0.5409869533745087, -0.20724224194015534, -0.10434718317489505, 0.0
0.4299999792196667, -0.1739454351559069, 0.04892245369242215, 0.11249196877631003, 0.3324278395697727, 0.0, -0.21722456882113278, -0.19480745518876247, -0.004329735874234105, 0.15605724672893942, 0.455047391301255, 0.0, -0.02183435447831469, 0.0930532797582874, 0.49398459782779525, 0.2506924649959664, 0.006931711860370397, 0.0, 0.03045955696617267, -0.5424312517277776, -0.20530153704103424, -0.10944805103084715, 0.0
0.4299999792196667, -0.17438115485833802, 0.050305469346863294, 0.11350941753947222, 0.3317872967529738, 0.0, -0.21606258096503253, -0.19484054663138026, -0.0036738908134051475, 0.15814895053362604, 0.4533710025547144, 0.0, -0.020626893464817116, 0.0949809016693355, 0.4945266237896361, 0.25039172033123824, 0.004321605774531148, 0.0, 0.03015090910152564, -0.5438755500810465, -0.20336083214191314, -0.11454891888679924, 0.0
0.4299999792196667, -0.17481687456076914, 0.05168848500130441, 0.11452686630263442, 0.3311467539361748, 0.0, -0.21490059310893225, -0.1948736380739981, -0.00301804575257619, 0.16024065433831267, 0.45169461380817383, 0.0, -0.019419432451319538, 0.09690852358038363, 0.49506864975147685, 0.2500909756665101, 0.0017114996886918974, 0.0, 0.029842261236878605, -0.5453198484343152, -0.20142012724279204, -0.11964978674275131, 0.0
0.4299999792196667, -0.17525259426320028, 0.053071500655745535, 0.11554431506579663, 0.3305062111193759, 0.0, -0.21373860525283198, -0.1949067295166159, -0.002362200691747233, 0.16233235814299926, 0.4500182250616333, 0.0, -0.018211971437821963, 0.09883614549143176, 0.49561067571331774, 0.24979023100178194, -0.0008986063971473525, 0.0, 0.029533613372231576, -0.5467641467875842, -0.19947942234367097, -0.12475065459870341, 0.0
0.4299999792196667, -0.17684908183658454, 0.05481742331968554, 0.11664694706656338, 0.33039652415720505, 0.0, -0.21322589384110763, -0.1941316986089753, -0.001014815829265816, 0.1643037214957609, 0.4472279671864699, 0.0, -0.016621513627937498, 0.10067594138732197, 0.49637411763472516, 0.24801724526246052, -0.005945316148848651, 0.0, 0.02729904773601806, -0.5511202861423687, -0.19658814132074373, -0.1314939854911958, 0.0
0.4299999792196667, -0.1784455694099688, 0.05656334598362556, 0.11774957906733012, 0.3302868371950342, 0.0, -0.21271318242938328, -0.1933566677013347, 0.00033256903321560074, 0.1662750848485225, 0.4444377093113066, 0.0, -0.015031055818053038, 0.1025157372832122, 0.4971375595561325, 0.2462442595231391, -0.010992025900549948, 0.0, 0.025064482099804553, -0.5554764254971534, -0.19369686029781646, -0.1382373163836882, 0.0
0.4299999792196667, -0.18004205698335304, 0.05830926864756556, 0.11885221106809686, 0.3301771502328634, 0.0, -0.21220047101765888, -0.19258163679369414, 0.001679953895697018, 0.1682464482012841, 0.44164745143614326, 0.0, -0.013440598008168572, 0.10435553317910243, 0.4979010014775399, 0.24447127378381764, -0.016038735652251244, 0.0, 0.022829916463591036, -0.559832564851938, -0.19080557927488917, -0.14498064727618057, 0.0
0.4299999792196667, -0.1816385445567373, 0.060055191311505565, 0.1199548430688636, 0.3300674632706926, 0.0, -0.21168775960593453, -0.19180660588605347, 0.0030273387581784346, 0.1702178115540457, 0.43885719356097996, 0.0, -0.01185014019828411, 0.10619532907499267, 0.4986644433989472, 0.24269828804449625, -0.021085445403952543, 0.0, 0.020595350827377523, -0.5641887042067226, -0.1879142982519619, -0.15172397816867295, 0.0
0.4299999792196667, -0.1832350321301216, 0.06180111397544557, 0.12105747506963033, 0.32995777630852174, 0.0, -0.21117504819421018, -0.1910315749784129, 0.00437472362065985, 0.17218917490680732, 0.4360669356858166, 0.0, -0.010259682388399647, 0.10803512497088287, 0.4994278853203546, 0.2409253023051748, -0.02613215515565384, 0.0, 0.018360785191164006, -0.5685448435615073, -0.18502301722903466, -0.15846730906116532, 0.0
0.42989674299441116, -0.18582652841940928, 0.06423716635462877, 0.12212233744725223, 0.33074450790346765, 0.0, -0.21271267628390017, -0.18830269335172517, 0.00634254898158816, 0.17431770166805252, 0.432110721075834, 0.0, -0.008205563928188674, 0.10813156453496522, 0.5005836423510253, 0.23617115283177767, -0.0342469493682684, 0.0, 0.0113628099579542, -0.5781350438287807, -0.18130626877374262, -0.16507128937552, 0.0
0.42979350676915573, -0.18841802470869698, 0.06667321873381196, 0.12318719982487411, 0.3315312394984137, 0.0, -0.2142503043735902, -0.18557381172503748, 0.008310374342516467, 0.17644622842929772, 0.4281545064658513, 0.0, -0.006151445467977704, 0.10822800409904758, 0.5017393993816959, 0.23141700335838047, -0.042361743580882946, 0.0, 0.004364834724744394, -0.5877252440960541, -0.17758952031845066, -0.1716752696898746, 0.0
0.42969027054390024, -0.19100952099798468, 0.06910927111299517, 0.12425206220249599, 0.33231797109335964, 0.0, -0.21578793246328018, -0.1828449300983498, 0.010278199703444775, 0.17857475519054292, 0.42419829185586877, 0.0, -0.00409732700776673, 0.10832444366312993, 0.5028951564123665, 0.22666285388498333, -0.050476537793497506, 0.0, -0.0026331405084654117, -0.5973154443633274, -0.1738727718631586, -0.17827925000422923, 0.0
0.4295870343186448, -0.19360101728727241, 0.07154532349217836, 0.12531692458011787, 0.3331047026883056, 0.0, -0.2173255605529702, -0.1801160484716621, 0.012246025064373084, 0.18070328195178811, 0.4202420772458861, 0.0, -0.0020432085475557593, 0.10842088322721227, 0.5040509134430371, 0.22190870441158614, -0.05859133200611205, 0.0, -0.00963111574167522, -0.6069056446306008, -0.1701560234078666, -0.18488323031858386, 0.0
0.4294837980933893, -0.19619251357656012, 0.07398137587136155, 0.12638178695773974, 0.3338914342832516, 0.0, -0.21886318864266016, -0.1773871668449744, 0.014213850425301393, 0.1828318087130333, 0.41628586263590345, 0.0, 1.0909912655211769e-05, 0.10851732279129463, 0.5052066704737078, 0.21715455493818903, -0.06670612621872661, 0.0, -0.016629090974885033, -0.6164958448978742, -0.1664392749525746, -0.19148721063293855, 0.0
0.4278071789633875, -0.19992995116480528, 0.07691391089275236, 0.1275232811577631, 0.33602250573454623, 0.0, -0.22300997924432658, -0.17284160341581234, 0.016723142265325536, 0.18519474715545536, 0.4112992998833229, 0.0, 0.002813258549404953, 0.10562812918215275, 0.5065660515775501, 0.20838953063329527, -0.07652027945616721, 0.0, -0.030657344379072995, -0.6326704952451725, -0.16250096393005894, -0.19276160118352573, 0.0
0.4261305598333857, -0.20366738875305043, 0.07984644591414317, 0.12866477535778645, 0.3381535771858408, 0.0, -0.22715676984599298, -0.16829603998665027, 0.01923243410534968, 0.1875576855978774, 0.4063127371307425, 0.0, 0.005615607186154694, 0.10273893557301085, 0.5079254326813925, 0.19962450632840154, -0.08633443269360781, 0.0, -0.04468559778326096, -0.6488451455924706, -0.15856265290754326, -0.19403599173411293, 0.0
0.4244539407033839, -0.20740482634129556, 0.08277898093553399, 0.12980626955780977, 0.3402846486371354, 0.0, -0.23130356044765932, -0.16375047655748823, 0.021741725945373828, 0.18992062404029947, 0.4013261743781621, 0.0, 0.008417955822904435, 0.09984974196386899, 0.5092848137852347, 0.19085948202350778, -0.09614858593104841, 0.0, -0.058713851187448915, -0.6650197959397689, -0.15462434188502755, -0.19531038228470016, 0.0
0.4227773215733821, -0.21114226392954072, 0.08571151595692479, 0.13094776375783315, 0.34241572008842996, 0.0, -0.23545035104932574, -0.15920491312832616, 0.02425101778539797, 0.19228356248272152, 0.39633961162558157, 0.0, 0.011220304459654178, 0.09696054835472707, 0.5106441948890771, 0.18209445771861402, -0.10596273916848903, 0.0, -0.07274210459163687, -0.6811944462870672, -0.1506860308625119, -0.19658477283528733, 0.0
0.4211007024433802, -0.21487970151778588, 0.0886440509783156, 0.1320892579578565, 0.3445467915397247, 0.0, -0.23959714165099216, -0.1546593496991641, 0.026760309625422116, 0.19464650092514357, 0.3913530488730011, 0.0, 0.014022653096403917, 0.09407135474558521, 0.5120035759929193, 0.17332943341372026, -0.11577689240592964, 0.0, -0.08677035799582485, -0.6973690966343653, -0.14674771983999624, -0.19785916338587456, 0.0
0.41453589429875737, -0.2205455254712915, 0.09126015187220039, 0.13369388225621354, 0.34779202184429786, 0.0, -0.2461993312575343, -0.1489541127204899, 0.02987549265490243, 0.1970991213658501, 0.3858627177757835, 0.0, 0.017663866005504222, 0.0878667378781451, 0.5125224728515129, 0.15989021212126564, -0.12643384733679994, 0.0, -0.10658571873702515, -0.7172116471618508, -0.14046447972947812, -0.1913776947130344, 0.0
0.4079710861541345, -0.22621134942479715, 0.09387625276608516, 0.1352985065545706, 0.3510372521488711, 0.0, -0.25280152086407637, -0.14324887574181572, 0.03299067568438274, 0.19955174180655663, 0.3803723866785658, 0.0, 0.021305078914604526, 0.08166212101070498, 0.5130413697101063, 0.14645099082881105, -0.13709080226767023, 0.0, -0.12640107947822543, -0.7370541976893362, -0.13418123961896003, -0.18489622604019426, 0.0
0.40140627800951156, -0.2318771733783028, 0.09649235365996994, 0.13690313085292766, 0.3542824824534443, 0.0, -0.2594037104706185, -0.13754363876314152, 0.036105858713863064, 0.20200436224726318, 0.37488205558134824, 0.0, 0.02494629182370483, 0.07545750414326487, 0.5135602665686997, 0.13301176953635646, -0.14774775719854055, 0.0, -0.14621644021942576, -0.7568967482168216, -0.12789799950844194, -0.1784147573673541, 0.0
0.3948414698648887, -0.23754299733180848, 0.09910845455385472, 0.1385077551512847, 0.35752771275801754, 0.0, -0.2660059000771606, -0.13183840178446735, 0.03922104174334338, 0.2044569826879697, 0.36939172448413066, 0.0, 0.028587504732805132, 0.06925288727582476, 0.5140791634272931, 0.11957254824390186, -0.15840471212941085, 0.0, -0.16603180096062606, -0.7767392987443069, -0.12161475939792384, -0.17193328869451394, 0.0
0.38827666172026576, -0.24320882128531413, 0.10172455544773952, 0.14011237944964175, 0.3607729430625908, 0.0, -0.2726080896837027, -0.12613316480579317, 0.04233622477282369, 0.2069096031286762, 0.36390139338691296, 0.0, 0.03222871764190543, 0.06304827040838465, 0.5145980602858865, 0.10613332695144725, -0.1690616670602811, 0.0, -0.18584716170182633, -0.7965818492717924, -0.11533151928740573, -0.1654518200216738, 0.0
0.37694616573056083, -0.25052109111671306, 0.10406646616333354, 0.14215794023956416, 0.3644467808528932, 0.0, -0.28092720505399216, -0.1195634365780089, 0.04633762037208686, 0.20885494711294908, 0.35893824597157725, 0.0, 0.03649500849399493, 0.053656137085944584, 0.5136808723106709, 0.08830106843811797, -0.1796595680777785, 0.0, -0.20957596706155748, -0.8167607387087713, -0.10618112418927653, -0.15066981326310236, 0.0
0.3656156697408558, -0.2578333609481121, 0.10640837687892755, 0.14420350102948654, 0.3681206186431957, 0.0, -0.28924632042428167, -0.11299370835022465, 0.050339015971350015, 0.210800291097222, 0.35397509855624154, 0.0, 0.040761299346084426, 0.0442640037635045, 0.5127636843354555, 0.07046880992478868, -0.19025746909527586, 0.0, -0.2333047724212886, -0.8369396281457498, -0.09703072909114731, -0.13588780650453097, 0.0
0.3542851737511508, -0.26514563077951103, 0.10875028759452159, 0.14624906181940894, 0.3717944564334982, 0.0, -0.29756543579457106, -0.10642398012244039, 0.05434041157061317, 0.21274563508149483, 0.3490119511409059, 0.0, 0.04502759019817392, 0.03487187044106443, 0.5118464963602399, 0.052636551411459405, -0.2008553701127732, 0.0, -0.2570335777810197, -0.8571185175827287, -0.08788033399301812, -0.12110579974595957, 0.0
0.34295467776144584, -0.2724579006109101, 0.1110921983101156, 0.1482946226093313, 0.3754682942238006, 0.0, -0.3058845511648606, -0.09985425189465613, 0.05834180716987634, 0.21469097906576776, 0.3440488037255701, 0.0, 0.04929388105026342, 0.025479737118624345, 0.5109293083850244, 0.03480429289813012, -0.2114532711302706, 0.0, -0.2807623831407508, -0.8772974070197075, -0.07872993889488891, -0.10632379298738814, 0.0
0.33162418177174086, -0.27977017044230906, 0.11343410902570963, 0.15034018339925373, 0.37914213201410313, 0.0, -0.3142036665351501, -0.09328452366687186, 0.062343202769139495, 0.21663632305004063, 0.3390856563102344, 0.0, 0.05356017190235292, 0.016087603796184267, 0.5100121204098088, 0.016972034384800827, -0.22205117214776798, 0.0, -0.3044911885004819, -0.8974762964566863, -0.06957954379675972, -0.09154178622881673, 0.0
0.318056470386952, -0.28760361653230454, 0.11589677418532723, 0.15244696335801905, 0.38300720203988803, 0.0, -0.3233532444701235, -0.08542610121714861, 0.0675845902247623, 0.21737995548443784, 0.3365556060825924, 0.0, 0.058210749000080685, 0.004216812862190561, 0.5080314684147681, -0.0031522469811020044, -0.23065121920511694, 0.0, -0.3291357890626855, -0.9157959215481005, -0.05919025360717283, -0.0659289806701643, 0.0
0.30448875900216316, -0.2954370626223001, 0.11835943934494483, 0.1545537433167844, 0.38687227206567304, 0.0, -0.3325028224050969, -0.07756767876742535, 0.07282597768038512, 0.21812358791883504, 0.33402555585495036, 0.0, 0.06286132609780844, -0.0076539780718031455, 0.5060508164197274, -0.02327652834700484, -0.23925126626246593, 0.0, -0.35378038962488906, -0.9341155466395148, -0.04880096341758593, -0.04031617511151184, 0.0
0.29092104761737425, -0.3032705087122956, 0.12082210450456243, 0.15666052327554977, 0.39073734209145805, 0.0, -0.34165240034007033, -0.0697092563177021, 0.07806736513600793, 0.21886722035323228, 0.3314955056273084, 0.0, 0.0675119031955362, -0.019524769005796853, 0.5040701644246867, -0.043400809712907676, -0.24785131331981494, 0.0, -0.3784249901870926, -0.9524351717309288, -0.03841167322799904, -0.014703369552859398, 0.0
0.2773533362325854, -0.3111039548022911, 0.12328476966418005, 0.15876730323431512, 0.39460241211724306, 0.0, -0.3508019782750437, -0.06185083386797884, 0.08330875259163073, 0.21961085278762948, 0.3289654553996664, 0.0, 0.07216248029326396, -0.03139555993979056, 0.5020895124296458, -0.0635250910788105, -0.25645136037716393, 0.0, -0.40306959074929616, -0.9707547968223431, -0.02802238303841214, 0.010909436005793059, 0.0
0.26378562484779655, -0.3189374008922866, 0.12574743482379766, 0.16087408319308044, 0.39846748214302796, 0.0, -0.3599515562100171, -0.05399241141825557, 0.08855014004725353, 0.22035448522202675, 0.32643540517202435, 0.0, 0.07681305739099172, -0.04326635087378427, 0.5001088604346051, -0.08364937244471335, -0.2650514074345129, 0.0, -0.4277141913114998, -0.9890744219137574, -0.017633092848825246, 0.0365222415644455, 0.0
0.2485492146371514, -0.32761711873933064, 0.1277671951095195, 0.1626333331911887, 0.401970644185778, 0.0, -0.36792507544446074, -0.046526379650552216, 0.0953339370965851, 0.21863449466011287, 0.32772135329291824, 0.0, 0.08185488215461224, -0.056451863775786114, 0.4968027635176979, -0.10426424512884028, -0.27225232875029315, 0.0, -0.4525226922530996, -1.0070001122303625, -0.010602344276707094, 0.075837768103109, 0.0
0.23331280442650626, -0.33629683658637466, 0.12978695539524138, 0.16439258318929692, 0.4054738062285279, 0.0, -0.3758985946789043, -0.03906034788284885, 0.10211773414591667, 0.21691450409819898, 0.3290073014138122, 0.0, 0.08689670691823277, -0.06963737667778797, 0.4934966666007907, -0.1248791178129672, -0.2794532500660734, 0.0, -0.47733119319469947, -1.0249258025469674, -0.003571595704588943, 0.11515329464177247, 0.0
0.2180763942158611, -0.3449765544334187, 0.13180671568096322, 0.16615183318740515, 0.40897696827127783, 0.0, -0.3838721139133478, -0.031594316115145495, 0.10890153119524824, 0.21519451353628508, 0.33029324953470607, 0.0, 0.0919385316818533, -0.08282288957978981, 0.49019056968388336, -0.1454939904970941, -0.2866541713818537, 0.0, -0.5021396941362993, -1.0428514928635726, 0.0034591528675292065, 0.15446882118043598, 0.0
0.202839984005216, -0.35365627228046276, 0.13382647596668512, 0.1679110831855134, 0.41248013031402775, 0.0, -0.3918456331477914, -0.024128284347442137, 0.11568532824457982, 0.2134745229743712, 0.33157919765559996, 0.0, 0.09698035644547381, -0.09600840248179165, 0.48688447276697616, -0.16610886318122103, -0.2938550926976339, 0.0, -0.5269481950778991, -1.0607771831801776, 0.01048990143964736, 0.19378434771909947, 0.0
0.18760357379457085, -0.3623359901275067, 0.13584623625240697, 0.16967033318362162, 0.4159832923567777, 0.0, -0.39981915238223503, -0.016662252579738777, 0.12246912529391138, 0.21175453241245734, 0.3328651457764939, 0.0, 0.10202218120909434, -0.1091939153837935, 0.4835783758500689, -0.186723735865348, -0.30105601401341414, 0.0, -0.551756696019499, -1.0787028734967827, 0.01752065001176551, 0.23309987425776293, 0.0
0.17107475181067996, -0.37130060854032926, 0.13674581036481137, 0.17153972392950623, 0.4192737301796361, 0.0, -0.4045417620107194, -0.011852153679922381, 0.1297865892251643, 0.20795678671723875, 0.33721820986113654, 0.0, 0.10771387652716816, -0.12071011964189843, 0.4786840293138468, -0.20644557593110696, -0.30858153515413883, 0.0, -0.5781561099528523, -1.0969507725372571, 0.01386076194004253, 0.28195733328510425, 0.0
0.1545459298267891, -0.3802652269531519, 0.1376453844772158, 0.17340911467539083, 0.42256416800249447, 0.0, -0.40926437163920376, -0.007042054780105986, 0.13710405315641722, 0.20415904102202023, 0.3415712739457791, 0.0, 0.11340557184524197, -0.13222632390000336, 0.4737896827776247, -0.22616741599686593, -0.3161070562948635, 0.0, -0.6045555238862055, -1.1151986715777311, 0.010200873868319547, 0.3308147923124456, 0.0
0.1380171078428982, -0.38922984536597444, 0.13854495858962018, 0.1752785054212754, 0.42585460582535284, 0.0, -0.41398698126768807, -0.002231955880289592, 0.14442151708767015, 0.20036129532680166, 0.3459243380304217, 0.0, 0.11909726716331577, -0.14374252815810828, 0.46889533624140256, -0.2458892560626249, -0.32363257743558815, 0.0, -0.6309549378195586, -1.1334465706182055, 0.0065409857965965665, 0.3796722513397869, 0.0
0.12148828585900731, -0.398194463778797, 0.1394445327020246, 0.17714789616715998, 0.42914504364821116, 0.0, -0.41870959089617255, 0.0025781430195268022, 0.15173898101892305, 0.19656354963158312, 0.3502774021150643, 0.0, 0.12478896248138957, -0.1552587324162132, 0.46400098970518044, -0.2656110961283839, -0.33115809857631284, 0.0, -0.657354351752912, -1.15169446965868, 0.0028810977248735843, 0.42852971036712817, 0.0
0.10495946387511644, -0.4071590821916196, 0.140344106814429, 0.17901728691304458, 0.4324354814710696, 0.0, -0.4234322005246569, 0.007388241919343198, 0.159056444950176, 0.19276580393636458, 0.35463046619970695, 0.0, 0.13048065779946338, -0.16677493667431817, 0.45910664316895833, -0.2853329361941429, -0.3386836197170375, 0.0, -0.6837537656862651, -1.169942368699154, -0.0007787903468493977, 0.4773871693944694, 0.0
0.08960482541000706, -0.4155399961800637, 0.14082812850390908, 0.18078270141407085, 0.4354827704945156, 0.0, -0.4246689163980105, 0.009400852708130363, 0.16563039862007933, 0.18949374093987117, 0.3599399148639063, 0.0, 0.13570009634347896, -0.17172452288136586, 0.4551531931605109, -0.301420428289255, -0.34784888816198634, 0.0, -0.7046180424298435, -1.183226383795348, -0.018318895543786896, 0.5202422177220579, 0.0
0.07425018694489767, -0.4239209101685078, 0.14131215019338914, 0.18254811591509715, 0.43853005951796165, 0.0, -0.42590563227136413, 0.011413463496917525, 0.17220435228998268, 0.1862216779433778, 0.36524936352810583, 0.0, 0.14091953488749454, -0.1766741090884136, 0.4511997431520634, -0.3175079203843672, -0.3570141566069352, 0.0, -0.725482319173422, -1.1965103988915426, -0.035859000740724394, 0.5630972660496465, 0.0
0.058895548479788284, -0.4323018241569519, 0.14179617188286925, 0.18431353041612342, 0.4415773485414078, 0.0, -0.42714234814471785, 0.013426074285704689, 0.178778305959886, 0.18294961494688444, 0.37055881219230513, 0.0, 0.14613897343151014, -0.18162369529546135, 0.4472462931436159, -0.3335954124794793, -0.36617942505188394, 0.0, -0.7463465959170004, -1.2097944139877368, -0.05339910593766189, 0.605952314377235, 0.0
0.0435409100146789, -0.4406827381453959, 0.14228019357234933, 0.1860789449171497, 0.4446246375648537, 0.0, -0.4283790640180714, 0.015438685074491849, 0.18535225962978935, 0.17967755195039106, 0.3758682608565046, 0.0, 0.15135841197552571, -0.1865732815025091, 0.4432928431351684, -0.3496829045745915, -0.3753446934968329, 0.0, -0.7672108726605789, -1.2230784290839312, -0.07093921113459938, 0.6488073627048235, 0.0
0.02818627154956951, -0.44906365213384003, 0.1427642152618294, 0.18784435941817598, 0.44767192658829974, 0.0, -0.42961577989142513, 0.017451295863279013, 0.1919262132996927, 0.17640548895389768, 0.381177709520704, 0.0, 0.15657785051954126, -0.1915228677095568, 0.439339393126721, -0.3657703966697037, -0.3845099619417818, 0.0, -0.7880751494041571, -1.2363624441801253, -0.08847931633153687, 0.691662411032412, 0.0
0.017246694405726223, -0.45532773655768577, 0.14349863410310534, 0.18933171155343304, 0.4499152785610337, 0.0, -0.4296926197570734, 0.017958601292178245, 0.19729928968710284, 0.17502354423348557, 0.385961189252181, 0.0, 0.16040457217100146, -0.1900677692588766, 0.43929082759495497, -0.3749798149634109, -0.39290569028491673, 0.0, -0.7997793867092257, -1.244884607664933, -0.11298174446726807, 0.7213822126385878, 0.0
0.006307117261882933, -0.46159182098153156, 0.1442330529443813, 0.19081906368869006, 0.45215863053376765, 0.0, -0.4297694596227218, 0.018465906721077476, 0.20267236607451294, 0.17364159951307348, 0.3907446689836579, 0.0, 0.16423129382246163, -0.1886126708081964, 0.439242262063189, -0.38418923325711823, -0.4013014186280518, 0.0, -0.8114836240142943, -1.2534067711497412, -0.13748417260299928, 0.7511020142447637, 0.0
-0.004632459881960357, -0.46785590540537736, 0.14496747178565722, 0.1923064158239471, 0.4544019825065015, 0.0, -0.42984629948837005, 0.018973212149976708, 0.2080454424619231, 0.17225965479266134, 0.39552814871513475, 0.0, 0.16805801547392177, -0.1871575723575162, 0.439193696531423, -0.39339865155082554, -0.40969714697118675, 0.0, -0.8231878613193627, -1.261928934634549, -0.16198660073873047, 0.7808218158509396, 0.0
-0.015572037025803648, -0.47411998982922315, 0.1457018906269332, 0.19379376795920417, 0.45664533447923544, 0.0, -0.4299231393540184, 0.01948051757887594, 0.21341851884933322, 0.17087771007224925, 0.4003116284466118, 0.0, 0.17188473712538194, -0.185702473906836, 0.439145130999657, -0.40260806984453273, -0.4180928753143217, 0.0, -0.8348920986244314, -1.2704510981193573, -0.18648902887446167, 0.8105416174571153, 0.0
-0.026511614169646938, -0.48038407425306884, 0.14643630946820912, 0.19528112009446122, 0.4588886864519693, 0.0, -0.4299999792196667, 0.019987823007775168, 0.21879159523674335, 0.16949576535183716, 0.40509510817808864, 0.0, 0.17571145877684213, -0.18424737545615583, 0.43909656546789105, -0.4118174881382401, -0.4264886036574568, 0.0, -0.8465963359294998, -1.278973261604165, -0.2109914570101929, 0.8402614190632912, 0.0
-0.03230270179983162, -0.4834123391876681, 0.1469674567928223, 0.19627138151479925, 0.45997759388163006, 0.0, -0.4299999792196667, 0.019329886239650866, 0.22153690390235087, 0.16944188703782806, 0.40781128380782183, 0.0, 0.1776751042836514, -0.1813404842083987, 0.441256417398551, -0.414294913198276, -0.4310870889601978, 0.0, -0.8509482760221042, -1.2826758379859309, -0.22803891160982848, 0.8560384101031565, 0.0
-0.0380937894300163, -0.4864406041222675, 0.14749860411743548, 0.1972616429351373, 0.4610665013112908, 0.0, -0.4299999792196667, 0.018671949471526565, 0.22428221256795833, 0.16938800872381904, 0.41052745943755503, 0.0, 0.1796387497904607, -0.1784335929606416, 0.443416269329211, -0.4167723382583119, -0.4356855742629389, 0.0, -0.8553002161147085, -1.2863784143676966, -0.245086366209464, 0.8718154011430218, 0.0
-0.043884877060200986, -0.4894688690568668, 0.14802975144204863, 0.19825190435547535, 0.46215540874095157, 0.0, -0.4299999792196667, 0.01801401270340226, 0.22702752123356573, 0.16933413040980996, 0.41324363506728823, 0.0, 0.18160239529727, -0.1755267017128845, 0.445576121259871, -0.4192497633183477, -0.4402840595656799, 0.0, -0.8596521562073127, -1.2900809907494626, -0.2621338208090996, 0.8875923921828871, 0.0
-0.04967596469038567, -0.49249713399146605, 0.14856089876666181, 0.19924216577581338, 0.4632443161706123, 0.0, -0.4299999792196667, 0.017356075935277958, 0.22977282989917325, 0.16928025209580091, 0.4159598106970214, 0.0, 0.1835660408040793, -0.1726198104651274, 0.44773597319053104, -0.4217271883783836, -0.44488254486842094, 0.0, -0.864004096299917, -1.2937835671312283, -0.27918127540873516, 0.9033693832227526, 0.0
-0.05546705232057035, -0.4955253989260654, 0.149092046091275, 0.20023242719615142, 0.46433322360027307, 0.0, -0.4299999792196667, 0.016698139167153656, 0.2325181385647807, 0.16922637378179184, 0.41867598632675457, 0.0, 0.1855296863108886, -0.16971291921737028, 0.449895825121191, -0.4242046134384194, -0.449481030171162, 0.0, -0.8683560363925215, -1.297486143512994, -0.2962287300083707, 0.9191463742626179, 0.0
-0.056872954477492875, -0.49527187938023765, 0.14892396041233244, 0.2004354299321094, 0.46440407000527006, 0.0, -0.4299999792196667, 0.01654374584053908, 0.2328252187746936, 0.1707347536438769, 0.4184792597947868, 0.0, 0.18554262618196288, -0.1670940352214603, 0.451334632668633, -0.42279978745151364, -0.4514792157438683, 0.0, -0.8673011559019576, -1.2974145850136625, -0.3012933299224663, 0.9210385101393145, 0.0
-0.058278856634415406, -0.49501835983440995, 0.1487558747333899, 0.20063843266806736, 0.464474916410267, 0.0, -0.4299999792196667, 0.016389352513924503, 0.23313229898460647, 0.17224313350596201, 0.41828253326281895, 0.0, 0.18555556605303714, -0.1644751512255503, 0.4527734402160751, -0.421394961464608, -0.45347740131657455, 0.0, -0.8662462754113937, -1.2973430265143304, -0.306357929836562, 0.9229306460160112, 0.0
-0.05968475879133793, -0.4947648402885823, 0.14858778905444728, 0.2008414354040253, 0.4645457628152639, 0.0, -0.4299999792196667, 0.01623495918730993, 0.2334393791945194, 0.17375151336804706, 0.4180858067308512, 0.0, 0.18556850592411145, -0.16185626722964025, 0.4542122477635172, -0.4199901354777022, -0.4554755868892808, 0.0, -0.8651913949208297, -1.2972714680149988, -0.3114225297506576, 0.9248227818927076, 0.0
-0.06109066094826046, -0.49451132074275456, 0.14841970337550472, 0.20104443813998327, 0.4646166092202609, 0.0, -0.4299999792196667, 0.016080565860695357, 0.23374645940443228, 0.17525989323013214, 0.41788908019888343, 0.0, 0.1855814457951857, -0.15923738323373027, 0.4556510553109593, -0.41858530949079653, -0.457473772461987, 0.0, -0.864136514430266, -1.297199909515667, -0.3164871296647533, 0.9267149177694042, 0.0
-0.06249656310518299, -0.4942578011969269, 0.14825161769656217, 0.20124744087594124, 0.4646874556252578, 0.0, -0.4299999792196667, 0.015926172534080782, 0.2340535396143452, 0.1767682730922172, 0.4176923536669156, 0.0, 0.18559438566626002, -0.15661849923782026, 0.45708986285840125, -0.41718048350389075, -0.45947195803469326, 0.0, -0.863081633939702, -1.2971283510163354, -0.3215517295788489, 0.9286070536461009, 0.0
-0.06039551794927385, -0.49080625203081696, 0.1469581437159337, 0.20082467326188913, 0.4643497797935575, 0.0, -0.4299999792196667, 0.016687270583022468, 0.23142163546221528, 0.17969362294214342, 0.41410727285039406, 0.0, 0.18427077683076656, -0.154058921529893, 0.45750107988346367, -0.41262536614240325, -0.4598724447755144, 0.0, -0.8565900598104929, -1.2930020645427214, -0.31476788959441776, 0.9166558138546315, 0.0
-0.05829447279336471, -0.48735470286470695, 0.14566466973530515, 0.20040190564783708, 0.4640121039618571, 0.0, -0.4299999792196667, 0.017448368631964153, 0.2287897313100854, 0.18261897279206962, 0.4105221920338725, 0.0, 0.1829471679952731, -0.15149934382196573, 0.4579122969085261, -0.40807024878091575, -0.4602729315163355, 0.0, -0.8500984856812837, -1.2888757780691074, -0.3079840496099866, 0.9047045740631622, 0.0
-0.05619342763745556, -0.483903153698597, 0.14437119575467666, 0.19997913803378498, 0.4636744281301568, 0.0, -0.4299999792196667, 0.018209466680905843, 0.2261578271579555, 0.1855443226419958, 0.40693711121735104, 0.0, 0.1816235591597797, -0.14893976611403853, 0.45832351393358844, -0.40351513141942835, -0.4606734182571567, 0.0, -0.8436069115520746, -1.2847494915954933, -0.3012002096255554, 0.8927533342716929, 0.0
-0.05409238248154641, -0.48045160453248703, 0.14307772177404812, 0.19955637041973293, 0.46333675229845644, 0.0, -0.4299999792196667, 0.01897056472984753, 0.22352592300582563, 0.188469672491922, 0.40335203040082945, 0.0, 0.18029995032428622, -0.14638018840611128, 0.4587347309586508, -0.39896001405794074, -0.4610739049979778, 0.0, -0.8371153374228654, -1.2806232051218793, -0.2944163696411242, 0.8808020944802237, 0.0
-0.05199133732563726, -0.477000055366377, 0.14178424779341964, 0.19913360280568082, 0.4629990764667561, 0.0, -0.4299999792196667, 0.019731662778789214, 0.22089401885369572, 0.19139502234184821, 0.39976694958430786, 0.0, 0.1789763414887928, -0.143820610698184, 0.4591459479837132, -0.39440489669645334, -0.4614743917387989, 0.0, -0.8306237632936561, -1.2764969186482653, -0.28763252965669306, 0.8688508546887544, 0.0
-0.04548858680602999, -0.4707185700098889, 0.14003420615244494, 0.19764545130962638, 0.4616908579446067, 0.0, -0.4299999792196667, 0.019920166715585007, 0.2152573872772589, 0.19520595225423634, 0.3929152546892177, 0.0, 0.1761035365213271, -0.14026647805995882, 0.45950700424607327, -0.3858831416186903, -0.46093493490161697, 0.0, -0.8177045150298117, -1.2681428443330585, -0.27176557736586293, 0.8428395949997276, 0.0
-0.038985836286422715, -0.4644370846534007, 0.13828416451147021, 0.1961572998135719, 0.46038263942245733, 0.0, -0.4299999792196667, 0.020108670652380808, 0.20962075570082214, 0.19901688216662447, 0.3860635597941275, 0.0, 0.17323073155386148, -0.13671234542173363, 0.45986806050843343, -0.37736138654092727, -0.4603954780644351, 0.0, -0.8047852667659673, -1.2597887700178516, -0.2558986250750328, 0.816828335310701, 0.0
-0.03248308576681544, -0.4581555992969127, 0.13653412287049552, 0.19466914831751742, 0.45907442090030803, 0.0, -0.4299999792196667, 0.0202971745891766, 0.20398412412438532, 0.20282781207901257, 0.3792118648990373, 0.0, 0.17035792658639579, -0.13315821278350845, 0.4602291167707934, -0.36883963146316423, -0.4598560212272531, 0.0, -0.7918660185021229, -1.2514346957026445, -0.2400316727842027, 0.7908170756216744, 0.0
-0.025980335247208164, -0.4518741139404244, 0.1347840812295208, 0.193180996821463, 0.45776620237815874, 0.0, -0.4299999792196667, 0.0204856785259724, 0.19834749254794856, 0.2066387419914007, 0.37236017000394706, 0.0, 0.16748512161893017, -0.12960408014528327, 0.4605901730331535, -0.36031787638540125, -0.45931656439007124, 0.0, -0.7789467702382786, -1.2430806213874377, -0.22416472049337258, 0.7648058159326477, 0.0
-0.019477584727600885, -0.44559262858393633, 0.13303403958854607, 0.1916928453254085, 0.45645798385600933, 0.0, -0.4299999792196667, 0.020674182462768198, 0.19271086097151174, 0.21044967190378883, 0.3655084751088568, 0.0, 0.1646123166514645, -0.12604994750705809, 0.4609512292955136, -0.35179612130763815, -0.4587771075528893, 0.0, -0.7660275219744341, -1.2347265470722308, -0.2082977682025424, 0.7387945562436209, 0.0
-0.009072617990672577, -0.43621642313625, 0.1301081616019882, 0.19038488162132994, 0.45376873865663436, 0.0, -0.4299126883224574, 0.018954904344254984, 0.18348765457671373, 0.21591481091858317, 0.3569427970751381, 0.0, 0.15980054164215426, -0.11993692132997241, 0.46307574179947925, -0.33790916825870854, -0.45837138831497065, 0.0, -0.7453581321857918, -1.2203063226329884, -0.191516135625566, 0.6993537175081251, 0.0
0.0013323487462557312, -0.4268402176885636, 0.12718228361543035, 0.18907691791725137, 0.4510794934572595, 0.0, -0.4298253974252481, 0.017235626225741773, 0.17426444818191567, 0.2213799499333775, 0.3483771190414194, 0.0, 0.15498876663284397, -0.11382389515288678, 0.4652002543034448, -0.32402221520977886, -0.45796566907705205, 0.0, -0.7246887423971498, -1.2058860981937458, -0.1747345030485896, 0.6599128787726294, 0.0
0.011737315483184038, -0.41746401224087715, 0.1242564056288725, 0.18776895421317283, 0.4483902482578846, 0.0, -0.4297381065280389, 0.015516348107228562, 0.16504124178711763, 0.22684508894817185, 0.3398114410077007, 0.0, 0.15017699162353376, -0.10771086897580112, 0.4673247668074104, -0.31013526216084925, -0.45755994983913345, 0.0, -0.7040193526085073, -1.1914658737545032, -0.1579528704716132, 0.6204720400371336, 0.0
0.022142282220112348, -0.4080878067931908, 0.12133052764231464, 0.18646099050909426, 0.4457010030585096, 0.0, -0.4296508156308297, 0.013797069988715351, 0.15581803539231956, 0.23231022796296616, 0.331245762973982, 0.0, 0.14536521661422347, -0.10159784279871545, 0.469449279311376, -0.29624830911191957, -0.4571542306012149, 0.0, -0.6833499628198652, -1.1770456493152606, -0.14117123789463676, 0.581031201301638, 0.0
0.03254724895704065, -0.39871160134550443, 0.11840464965575678, 0.1851530268050157, 0.44301175785913477, 0.0, -0.4295635247336204, 0.012077791870202139, 0.14659482899752152, 0.2377753669777605, 0.32268008494026323, 0.0, 0.14055344160491323, -0.09548481662162982, 0.4715737918153416, -0.2823613560629899, -0.4567485113632963, 0.0, -0.662680573031223, -1.1626254248760182, -0.12438960531766036, 0.5415903625661422, 0.0
0.046438689945608895, -0.3877600442616755, 0.11499372931117229, 0.18413986666489146, 0.43843211862165676, 0.0, -0.4281583217555962, 0.007460919174725493, 0.13504504634993747, 0.24343418168899014, 0.31609194872485824, 0.0, 0.13436304149142816, -0.08671052461840796, 0.4747997501943143, -0.26413245318609435, -0.45510666617331114, 0.0, -0.6371099426558133, -1.1422901644100363, -0.11295240618067375, 0.4947245929960313, 0.0
0.06033013093417713, -0.37680848717784643, 0.1115828089665878, 0.18312670652476729, 0.4338524793841787, 0.0, -0.42675311877757205, 0.002844046479248846, 0.12349526370235342, 0.24909299640021976, 0.30950381250945314, 0.0, 0.1281726413779431, -0.07793623261518613, 0.478025708573287, -0.2459035503091988, -0.453464820983326, 0.0, -0.6115393122804036, -1.1219549039440544, -0.10151520704368715, 0.44785882342592037, 0.0
0.07422157192274537, -0.3658569300940175, 0.1081718886220033, 0.18211354638464305, 0.42927284014670075, 0.0, -0.42534791579954784, -0.0017728262162278003, 0.11194548105476937, 0.2547518111114494, 0.30291567629404814, 0.0, 0.12198224126445804, -0.06916194061196429, 0.48125166695225974, -0.22767464743230323, -0.451822975793341, 0.0, -0.5859686819049938, -1.1016196434780725, -0.09007800790670054, 0.4009930538558094, 0.0
0.0881130129113136, -0.3549053730101885, 0.10476096827741882, 0.18110038624451888, 0.4246932009092228, 0.0, -0.42394271282152374, -0.006389698911704447, 0.1003956984071853, 0.26041062582267904, 0.29632754007864304, 0.0, 0.11579184115097299, -0.06038764860874245, 0.4844776253312324, -0.20944574455540765, -0.45018113060335596, 0.0, -0.5603980515295841, -1.0812843830120906, -0.07864080876971392, 0.35412728428569845, 0.0
0.10200445389988183, -0.34395381592635954, 0.10135004793283432, 0.18008722610439465, 0.4201135616717448, 0.0, -0.42253750984349947, -0.011006571607181092, 0.08884591575960125, 0.2660694405339087, 0.28973940386323804, 0.0, 0.10960144103748791, -0.05161335660552061, 0.48770358371020506, -0.1912168416785121, -0.44853928541337085, 0.0, -0.5348274211541744, -1.0609491225461087, -0.06720360963272733, 0.30726151471558744, 0.0
0.11677335777362682, -0.3332080401426577, 0.09676873317927441, 0.17930612494161557, 0.41315991162307003, 0.0, -0.4171441806554493, -0.02049078291590278, 0.07659189799482526, 0.2676889524907852, 0.2876171585419708, 0.0, 0.10277832660703082, -0.04153685083308102, 0.49264150413653246, -0.17001873231824627, -0.4401081548116884, 0.0, -0.5089696596822021, -1.041857674462219, -0.059337427798215554, 0.26617051953220866, 0.0
0.13154226164737182, -0.32246226435895586, 0.09218741842571448, 0.17852502377883658, 0.4062062615743953, 0.0, -0.4117508514673989, -0.029974994224624477, 0.06433788023004924, 0.2693084644476618, 0.2854949132207035, 0.0, 0.09595521217657371, -0.03146034506064144, 0.49757942456285986, -0.14882062295798038, -0.43167702421000587, 0.0, -0.4831118982102299, -1.0227662263783293, -0.051471245963703775, 0.22507952434882986, 0.0
0.1463111655211168, -0.311716488575254, 0.08760610367215457, 0.17774392261605754, 0.3992526115257207, 0.0, -0.40635752227934874, -0.03945920553334616, 0.05208386246527324, 0.27092797640453836, 0.2833726678994362, 0.0, 0.08913209774611662, -0.021383839288201846, 0.5025173449891873, -0.1276225135977145, -0.4232458936083235, 0.0, -0.4572541367382576, -1.0036747782944397, -0.043605064129192, 0.1839885291654511, 0.0
0.16108006939486177, -0.30097071279155224, 0.08302478891859466, 0.17696282145327852, 0.39229896147704596, 0.0, -0.4009641930912983, -0.048943416842067856, 0.03982984470049723, 0.27254748836141496, 0.28125042257816896, 0.0, 0.08230898331565953, -0.01130733351576226, 0.5074552654155147, -0.10642440423744862, -0.414814763006641, 0.0, -0.4313963752662852, -0.9845833302105501, -0.035738882294680224, 0.14289753398207228, 0.0
0.17584897326860677, -0.29022493700785035, 0.07844347416503475, 0.17618172029049947, 0.3853453114283712, 0.0, -0.39557086390324814, -0.05842762815078955, 0.027575826935721227, 0.2741670003182915, 0.2791281772569017, 0.0, 0.07548586888520242, -0.0012308277433226633, 0.5123931858418421, -0.08522629487718275, -0.4063836324049585, 0.0, -0.40553861379431294, -0.9654918821266604, -0.027872700460168452, 0.10180653879869342, 0.0
0.19001634836845435, -0.2795729307835412, 0.07244615982669782, 0.17627095897515394, 0.37746598063234077, 0.0, -0.3860575872774271, -0.06955795058325405, 0.016660068649245754, 0.27359122317937556, 0.28172378728723635, 0.0, 0.06806738634404162, 0.005580852808311814, 0.5180831791148293, -0.06587056100944154, -0.391788836643273, 0.0, -0.3815003475955692, -0.951157555811884, -0.022274473115573862, 0.07414398470711134, 0.0
0.20418372346830194, -0.268920924559232, 0.06644884548836089, 0.1763601976598084, 0.36958664983631034, 0.0, -0.37654431065160615, -0.08068827301571854, 0.00574431036277028, 0.27301544604045963, 0.284319397317571, 0.0, 0.06064890380288083, 0.012392533359946294, 0.5237731723878166, -0.046514827141700334, -0.3771940408815876, 0.0, -0.35746208139682545, -0.9368232294971076, -0.016676245770979273, 0.04648143061552927, 0.0
0.21835109856814955, -0.2582689183349228, 0.06045153115002395, 0.1764494363444629, 0.36170731904027986, 0.0, -0.3670310340257851, -0.09181859544818306, -0.005171447923705192, 0.27243966890154375, 0.28691500734790565, 0.0, 0.05323042126172003, 0.01920421391158077, 0.5294631656608039, -0.027159093273959142, -0.3625992451199021, 0.0, -0.3334238151980818, -0.9224889031823315, -0.011078018426384683, 0.01881887652394719, 0.0
0.2325184736679971, -0.24761691211061357, 0.05445421681168702, 0.17653867502911735, 0.35382798824424944, 0.0, -0.3575177573999641, -0.10294891788064757, -0.016087206210180668, 0.2718638917626278, 0.28951061737824035, 0.0, 0.04581193872055923, 0.026015894463215252, 0.5351531589337911, -0.007803359406217935, -0.34800444935821656, 0.0, -0.3093855489993381, -0.9081545768675549, -0.005479791081790092, -0.008843677567634883, 0.0
0.2466858487678447, -0.2369649058863044, 0.048456902473350084, 0.17662791371377182, 0.34594865744821895, 0.0, -0.34800448077414314, -0.11407924031311205, -0.027002964496656137, 0.2712881146237119, 0.292106227408575, 0.0, 0.03839345617939842, 0.03282757501484972, 0.5408431522067784, 0.011552374461523263, -0.3334096535965311, 0.0, -0.28534728280059435, -0.8938202505527785, 0.00011843626280449818, -0.03650623165921695, 0.0
0.2595672408402133, -0.22646252150278096, 0.041916058048422924, 0.17691435016929213, 0.3384729096071027, 0.0, -0.335158511904273, -0.12440179120649779, -0.03575218240171212, 0.2710643058177409, 0.29785017928071694, 0.0, 0.030182465003467548, 0.03251679400879091, 0.5472409288513269, 0.024419584337456043, -0.31622352909716606, 0.0, -0.2658665634616569, -0.8821193049386793, 0.005462649100158169, -0.05295496153093137, 0.0
0.2724486329125819, -0.21596013711925746, 0.03537521362349578, 0.17720078662481242, 0.3309971617659864, 0.0, -0.32231254303440277, -0.13472434209988352, -0.04450140030676812, 0.2708404970117699, 0.3035941311528588, 0.0, 0.02197147382753667, 0.032206013002732084, 0.5536387054958755, 0.037286794213388826, -0.29903740459780104, 0.0, -0.2463858441227194, -0.87041835932458, 0.01080686193751184, -0.06940369140264578, 0.0
0.2853300249849506, -0.20545775273573394, 0.02883436919856862, 0.17748722308033274, 0.3235214139248701, 0.0, -0.3094665741645326, -0.14504689299326923, -0.053250618211824106, 0.2706166882057989, 0.3093380830250008, 0.0, 0.013760482651605793, 0.03189523199667327, 0.560036482140424, 0.05015400408932161, -0.281851280098436, 0.0, -0.22690512478378191, -0.8587174137104807, 0.01615107477486551, -0.0858524212743602, 0.0
0.2982114170573192, -0.1949553683522105, 0.022293524773641465, 0.17777365953585303, 0.3160456660837538, 0.0, -0.2966206052946625, -0.15536944388665497, -0.0619998361168801, 0.2703928793998279, 0.31508203489714276, 0.0, 0.00554949147567492, 0.031584450990614445, 0.5664342587849726, 0.06302121396525438, -0.26466515559907106, 0.0, -0.20742440544484447, -0.8470164680963814, 0.02149528761221918, -0.1023011511460746, 0.0
0.31109280912968784, -0.18445298396868703, 0.015752680348714312, 0.17806009599137332, 0.3085699182426375, 0.0, -0.2837746364247923, -0.1656919947800407, -0.0707490540219361, 0.2701690705938569, 0.3208259867692847, 0.0, -0.0026614997002559573, 0.03127366998455563, 0.5728320354295211, 0.07588842384118717, -0.24747903109970604, 0.0, -0.18794368610590698, -0.8353155224822821, 0.026839500449572853, -0.11874988101778904, 0.0
0.32332671197483465, -0.17359908119809978, 0.01054641258283306, 0.17778176484489933, 0.30334949882358236, 0.0, -0.2683372690040725, -0.17483554085711925, -0.07647493859472722, 0.2711751289892548, 0.32807323261407134, 0.0, -0.011373721861157423, 0.01922168106201497, 0.5852353748384514, 0.08099739351552701, -0.22725764987675826, 0.0, -0.1769687555727353, -0.8238738909071273, 0.036219047853710946, -0.13287046733104915, 0.0
0.3355606148199814, -0.16274517842751254, 0.005340144816951806, 0.17750343369842525, 0.29812907940452715, 0.0, -0.25289990158335274, -0.18397908693419776, -0.08220082316751834, 0.2721811873846526, 0.33532047845885804, 0.0, -0.02008594402205889, 0.007169692139474314, 0.5976387142473818, 0.08610636318986686, -0.20703626865381045, 0.0, -0.16599382503956361, -0.8124322593319722, 0.045598595257849046, -0.14699105364430928, 0.0
0.34779451766512814, -0.1518912756569253, 0.0001338770510705524, 0.1772251025519512, 0.29290865998547194, 0.0, -0.237462534162633, -0.19312263301127633, -0.08792670774030947, 0.27318724578005044, 0.34256772430364474, 0.0, -0.028798166182960352, -0.0048822967830663465, 0.6100420536563123, 0.0912153328642067, -0.18681488743086266, 0.0, -0.15501889450639192, -0.8009906277568173, 0.05497814266198714, -0.16111163995756939, 0.0
0.36002842051027495, -0.14103737288633805, -0.005072390714810701, 0.17694677140547715, 0.2876882405664168, 0.0, -0.22202516674191325, -0.20226617908835484, -0.0936525923131006, 0.2741933041754483, 0.34981497014843144, 0.0, -0.03751038834386181, -0.016934285705607, 0.6224453930652426, 0.09632430253854657, -0.16659350620791485, 0.0, -0.14404396397322022, -0.7895489961816622, 0.06435769006612523, -0.17523222627082952, 0.0
0.3722623233554217, -0.1301834701157508, -0.010278658480691955, 0.17666844025900313, 0.2824678211473616, 0.0, -0.20658779932119348, -0.21140972516543333, -0.09937847688589173, 0.2751993625708461, 0.3570622159932181, 0.0, -0.046222610504763284, -0.02898627462814765, 0.634848732474173, 0.10143327221288641, -0.14637212498496704, 0.0, -0.13306903344004853, -0.7781073646065073, 0.07373723747026333, -0.18935281258408965, 0.0
0.3804780942900421, -0.11946204726016789, -0.015085394898984627, 0.17511814456960217, 0.28109030956324954, 0.0, -0.1901910408167474, -0.22008731022013145, -0.10264374601373877, 0.27695749904889155, 0.36463297257749594, 0.0, -0.05527852883608693, -0.05461503075083407, 0.6584254184269588, 0.10271776158759152, -0.11658806649929174, 0.0, -0.1322006064734752, -0.7683172264014424, 0.08776036634342134, -0.20070767337015244, 0.0
0.3886938652246625, -0.10874062440458498, -0.0198921313172773, 0.1735678488802012, 0.2797127979791375, 0.0, -0.17379428231230132, -0.22876489527482952, -0.10590901514158585, 0.27871563552693707, 0.3722037291617738, 0.0, -0.06433444716741057, -0.08024378687352049, 0.6820021043797446, 0.10400225096229661, -0.08680400801361646, 0.0, -0.1313321795069019, -0.7585270881963777, 0.10178349521657935, -0.2120625341562153, 0.0
0.3969096361592829, -0.09801920154900205, -0.024698867735569972, 0.17201755319080023, 0.27833528639502547, 0.0, -0.15739752380785524, -0.2374424803295276, -0.10917428426943292, 0.28047377200498247, 0.37977448574605166, 0.0, -0.07339036549873422, -0.10587254299620691, 0.7055787903325303, 0.1052867403370017, -0.05701994952794117, 0.0, -0.1304637525403286, -0.7487369499913127, 0.11580662408973735, -0.2234173949422781, 0.0
0.4051254070939033, -0.08729777869341915, -0.029505604153862646, 0.17046725750139924, 0.2769577748109134, 0.0, -0.14100076530340916, -0.24612006538422568, -0.11243955339727998, 0.282231908483028, 0.3873452423303295, 0.0, -0.08244628383005786, -0.13150129911889333, 0.7291554762853162, 0.1065712297117068, -0.027235891042265883, 0.0, -0.12959532557375525, -0.7389468117862478, 0.1298297529628954, -0.23477225572834096, 0.0
0.4133411780285236, -0.07657635583783623, -0.03431234057215532, 0.16891696181199828, 0.27558026322680135, 0.0, -0.12460400679896308, -0.2547976504389238, -0.11570482252512705, 0.28399004496107344, 0.3949159989146074, 0.0, -0.0915022021613815, -0.15713005524157977, 0.7527321622381019, 0.1078557190864119, 0.002548167443409406, 0.0, -0.12872689860718192, -0.729156673581183, 0.14385288183605338, -0.24612711651440375, 0.0
0.41620994081344165, -0.06665086944367432, -0.0397981313698568, 0.1654250536522652, 0.27927179516506057, 0.0, -0.10782589455108796, -0.26390539283172687, -0.11703965836556686, 0.2851399900453349, 0.40269664879473005, 0.0, -0.10094535494851588, -0.19185606153573803, 0.7855401214974885, 0.10809678675522413, 0.04505087484516429, 0.0, -0.13508758700512558, -0.7214399097330003, 0.1606605037618554, -0.25297429798804827, 0.0
0.4190787035983597, -0.05672538304951239, -0.04528392216755828, 0.1619331454925321, 0.2829633271033198, 0.0, -0.09104778230321282, -0.27301313522452997, -0.1183744942060067, 0.28628993512959644, 0.4104772986748527, 0.0, -0.11038850773565026, -0.22658206782989623, 0.818348080756875, 0.10833785442403641, 0.08755358224691918, 0.0, -0.14144827540306923, -0.7137231458848176, 0.1774681256876574, -0.2598214794616929, 0.0
0.4219474663832778, -0.046799896655350476, -0.050769712965259756, 0.15844123733279902, 0.2866548590415789, 0.0, -0.07426967005533766, -0.2821208776173331, -0.1197093300464465, 0.28743988021385797, 0.41825794855497544, 0.0, -0.11983166052278464, -0.2613080741240545, 0.8511560400162617, 0.10857892209284867, 0.13005628964867405, 0.0, -0.14780896380101288, -0.7060063820366349, 0.1942757476134594, -0.26666866093533736, 0.0
0.42481622916819584, -0.03687441026118855, -0.05625550376296124, 0.15494932917306592, 0.2903463909798381, 0.0, -0.05749155780746253, -0.2912286200101362, -0.12104416588688632, 0.28858982529811944, 0.42603859843509806, 0.0, -0.12927481330991902, -0.2960340804182127, 0.8839639992756483, 0.10881998976166092, 0.17255899705042893, 0.0, -0.1541696521989565, -0.6982896181884523, 0.2110833695392614, -0.27351584240898197, 0.0
0.4276849919531139, -0.026948923867026634, -0.06174129456066271, 0.15145742101333284, 0.29403792291809727, 0.0, -0.0407134455595874, -0.30033636240293937, -0.12237900172732616, 0.28973977038238097, 0.4338192483152208, 0.0, -0.1387179660970534, -0.330760086712371, 0.9167719585350347, 0.10906105743047319, 0.2150617044521838, 0.0, -0.16053034059690016, -0.6905728543402696, 0.22789099146506342, -0.2803630238826265, 0.0
0.42812648345938137, -0.020974517079841885, -0.06805577606479152, 0.14503884004410053, 0.3021393643147366, 0.0, -0.024833623559918905, -0.310284239975141, -0.1230329930041434, 0.28912862938216116, 0.4403811312880173, 0.0, -0.1476854084526057, -0.3618248355494752, 0.9486283468329414, 0.11191830802364508, 0.263491990654441, 0.0, -0.1679755835733501, -0.6861467063385289, 0.24256492743635139, -0.28822601141554127, 0.0
0.4285679749656488, -0.015000110292657133, -0.07437025756892031, 0.13862025907486825, 0.3102408057113758, 0.0, -0.008953801560250413, -0.3202321175473426, -0.12368698428096064, 0.2885174883819413, 0.4469430142608139, 0.0, -0.156652850808158, -0.39288958438657934, 0.9804847351308481, 0.11477555861681694, 0.31192227685669816, 0.0, -0.1754208265498, -0.6817205583367882, 0.25723886340763924, -0.2960889989484561, 0.0
0.4290094664719163, -0.009025703505472384, -0.0806847390730491, 0.13220167810563593, 0.31834224710801506, 0.0, 0.006926020439418076, -0.3301799951195442, -0.12434097555777789, 0.2879063473817215, 0.4535048972336104, 0.0, -0.1656202931637103, -0.4239543332236835, 1.0123411234287547, 0.11763280920998884, 0.3603525630589554, 0.0, -0.18286606952624998, -0.6772944103350478, 0.2719127993789272, -0.3039519864813708, 0.0
0.4294509579781837, -0.003051296718287634, -0.08699922057717789, 0.12578309713640362, 0.3264436885046543, 0.0, 0.022805842439086572, -0.34012787269174577, -0.12499496683459513, 0.28729520638150163, 0.46006678020640696, 0.0, -0.17458773551926257, -0.4550190820607876, 1.0441975117266615, 0.12049005980316072, 0.40878284926121256, 0.0, -0.19031131250269986, -0.6728682623333071, 0.28658673535021506, -0.31181497401428554, 0.0
0.42989244948445127, 0.0029231100688971155, -0.0933137020813067, 0.11936451616717135, 0.33454512990129354, 0.0, 0.03868566443875506, -0.3500757502639474, -0.12564895811141238, 0.2866840653812818, 0.4666286631792035, 0.0, -0.1835551778748149, -0.48608383089789176, 1.0760539000245684, 0.12334731039633261, 0.4572131354634697, 0.0, -0.1977565554791498, -0.6684421143315665, 0.30126067132150297, -0.31967796154720035, 0.0
0.4299139554314943, 0.006795329068018025, -0.09873964169923294, 0.11427158746492072, 0.3434255012711223, 0.0, 0.05113381936502061, -0.35839655860361125, -0.12580683151983568, 0.2858387570459804, 0.4715601258872985, 0.0, -0.19079495720106152, -0.5059517445500672, 1.0983892030935807, 0.1314037387043654, 0.49674064375896093, 0.0, -0.20069557125711915, -0.6675419537885335, 0.31095951135339606, -0.329471838247523, 0.0
0.4299354613785374, 0.010667548067138937, -0.10416558131715917, 0.1091786587626701, 0.35230587264095115, 0.0, 0.06358197429128615, -0.3667173669432752, -0.12596470492825898, 0.284993448710679, 0.4764915885953936, 0.0, -0.19803473652730819, -0.5258196582022426, 1.120724506162593, 0.13946016701239813, 0.5362681520544523, 0.0, -0.20363458703508847, -0.6666417932455003, 0.3206583513852891, -0.33926571494784563, 0.0
0.4299569673255805, 0.014539767066259849, -0.10959152093508542, 0.10408573006041948, 0.36118624401078003, 0.0, 0.07603012921755169, -0.3750381752829391, -0.12612257833668228, 0.28414814037537756, 0.4814230513034885, 0.0, -0.20527451585355483, -0.545687571854418, 1.1430598092316053, 0.14751659532043088, 0.5757956603499436, 0.0, -0.20657360281305776, -0.6657416327024673, 0.3303571914171821, -0.34905959164816824, 0.0
0.42997847327262356, 0.018411986065380758, -0.11501746055301167, 0.09899280135816887, 0.3700666153806088, 0.0, 0.08847828414381721, -0.38335898362260307, -0.12628045174510555, 0.28330283204007617, 0.4863545140115836, 0.0, -0.2125142951798015, -0.5655554855065934, 1.1653951123006177, 0.15557302362846367, 0.6153231686454348, 0.0, -0.20951261859102707, -0.6648414721594341, 0.34005603144907515, -0.35885346834849086, 0.0
0.4299999792196667, 0.022284205064501666, -0.1204434001709379, 0.09389987265591823, 0.3789469867504376, 0.0, 0.10092643907008277, -0.39167979196226693, -0.12643832515352885, 0.2824575237047748, 0.4912859767196786, 0.0, -0.21975407450604814, -0.5854233991587687, 1.18773041536963, 0.16362945193649645, 0.6548506769409261, 0.0, -0.21245163436899642, -0.663941311616401, 0.34975487148096823, -0.3686473450488135, 0.0
0.4299999792196667, 0.0247384060753788, -0.12434018457456089, 0.09138118801236522, 0.3860620937175558, 0.0, 0.10869606545064986, -0.39701741373125204, -0.12644343652477624, 0.2820232718242446, 0.49528064093308266, 0.0, -0.22430422116982593, -0.5941980070665852, 1.2002029570834019, 0.17275837913576025, 0.6800835826154163, 0.0, -0.21091885131330995, -0.665953194533077, 0.3536834540382333, -0.3762170265102721, 0.0
0.4299999792196667, 0.027192607086255934, -0.12823696897818385, 0.08886250336881221, 0.393177200684674, 0.0, 0.11646569183121697, -0.40235503550023716, -0.12644854789602364, 0.2815890199437143, 0.4992753051464867, 0.0, -0.22885436783360372, -0.6029726149744017, 1.212675498797174, 0.1818873063350241, 0.7053164882899067, 0.0, -0.2093860682576235, -0.6679650774497529, 0.35761203659549834, -0.38378670797173076, 0.0
0.4299999792196667, 0.02964680809713307, -0.13213375338180683, 0.0863438187252592, 0.4002923076517922, 0.0, 0.12423531821178405, -0.40769265726922227, -0.12645365926727103, 0.2811547680631842, 0.5032699693598908, 0.0, -0.2334045144973815, -0.6117472228822181, 1.2251480405109458, 0.1910162335342879, 0.730549393964397, 0.0, -0.20785328520193705, -0.6699769603664288, 0.36154061915276337, -0.3913563894331894, 0.0
0.4299999792196667, 0.032101009108010205, -0.13603053778542984, 0.08382513408170618, 0.40740741461891034, 0.0, 0.13200494459235113, -0.4130302790382074, -0.12645877063851843, 0.2807205161826539, 0.5072646335732949, 0.0, -0.23795466116115935, -0.6205218307900346, 1.237620582224718, 0.2001451607335517, 0.7557822996388872, 0.0, -0.20632050214625053, -0.6719888432831046, 0.3654692017100284, -0.39892607089464804, 0.0
0.4299999792196667, 0.03455521011888733, -0.1399273221890528, 0.08130644943815317, 0.4145225215860286, 0.0, 0.13977457097291823, -0.41836790080719255, -0.12646388200976583, 0.2802862643021238, 0.511259297786699, 0.0, -0.24250480782493714, -0.629296438697851, 1.2500931239384898, 0.20927408793281552, 0.7810152053133775, 0.0, -0.20478771909056412, -0.6740007261997806, 0.3693977842672935, -0.4064957523561067, 0.0
0.4299999792196667, 0.03509930708841861, -0.14210023965449323, 0.08052718505987894, 0.4183651292243404, 0.0, 0.142790545298925, -0.42110576738886957, -0.12664594742695098, 0.2797132482740845, 0.5132697495333882, 0.0, -0.24422843565301217, -0.6295168388757928, 1.255027448986558, 0.21504841900591767, 0.791646941283754, 0.0, -0.20183915636158642, -0.6768017737003799, 0.36900540283551864, -0.4115919357483464, 0.0
0.4299999792196667, 0.035643404057949885, -0.14427315711993363, 0.0797479206816047, 0.42220773686265217, 0.0, 0.14580651962493174, -0.4238436339705465, -0.12682801284413617, 0.27914023224604523, 0.5152802012800775, 0.0, -0.24595206348108717, -0.6297372390537347, 1.2599617740346265, 0.22082275007901978, 0.8022786772541305, 0.0, -0.19889059363260866, -0.6796028212009789, 0.3686130214037438, -0.41668811914058607, 0.0
0.4299999792196667, 0.036187501027481146, -0.14644607458537404, 0.07896865630333044, 0.42605034450096396, 0.0, 0.1488224939509385, -0.42658150055222344, -0.12701007826132138, 0.278567216218006, 0.5172906530267668, 0.0, -0.24767569130916225, -0.6299576392316766, 1.2648960990826945, 0.2265970811521219, 0.8129104132245072, 0.0, -0.19594203090363094, -0.6824038687015782, 0.3682206399719689, -0.42178430253282584, 0.0
0.4299999792196667, 0.03673159799701243, -0.14861899205081444, 0.07818939192505621, 0.42989295213927575, 0.0, 0.15183846827694522, -0.42931936713390034, -0.12719214367850656, 0.2779942001899667, 0.519301104773456, 0.0, -0.24939931913723726, -0.6301780394096184, 1.269830424130763, 0.23237141222522406, 0.8235421491948837, 0.0, -0.19299346817465318, -0.6852049162021772, 0.3678282585401941, -0.4268804859250656, 0.0
0.4299999792196667, 0.0372756949665437, -0.15079190951625487, 0.07741012754678198, 0.43373555977758765, 0.0, 0.154854442602952, -0.43205723371557736, -0.12737420909569175, 0.27742118416192746, 0.5213115565201453, 0.0, -0.25112294696531234, -0.6303984395875603, 1.2747647491788312, 0.23814574329832616, 0.8341738851652601, 0.0, -0.19004490544567545, -0.6880059637027764, 0.3674358771084192, -0.43197666931730533, 0.0
0.4299999792196667, 0.03729950719166036, -0.15151507621984323, 0.07876855954057707, 0.433468084579061, 0.0, 0.15409565721998897, -0.43238084917482367, -0.1269955787640275, 0.27661125365056394, 0.5217070935072078, 0.0, -0.25036985135571077, -0.6245748169257233, 1.2736793289170159, 0.23957563046796132, 0.8302320206523875, 0.0, -0.1868407601916942, -0.6905424786299679, 0.3654247377020046, -0.4359186280779577, 0.0
0.4299999792196667, 0.03732331941677701, -0.15223824292343155, 0.08012699153437215, 0.43320060938053434, 0.0, 0.15333687183702593, -0.43270446463407, -0.12661694843236326, 0.27580132313920047, 0.5221026304942703, 0.0, -0.24961675574610923, -0.6187511942638863, 1.2725939086552007, 0.24100551763759645, 0.8262901561395147, 0.0, -0.18363661493771294, -0.6930789935571592, 0.36341359829559006, -0.43986058683861007, 0.0
0.4299999792196667, 0.037347131641893676, -0.1529614096270199, 0.08148542352816723, 0.43293313418200774, 0.0, 0.15257808645406287, -0.4330280800933162, -0.12623831810069902, 0.274991392627837, 0.5224981674813327, 0.0, -0.24886366013650774, -0.6129275716020495, 1.2715084883933854, 0.2424354048072316, 0.822348291626642, 0.0, -0.18043246968373164, -0.6956155084843506, 0.3614024588891755, -0.44380254559926235, 0.0
0.4299999792196667, 0.03737094386701033, -0.15368457633060825, 0.08284385552196231, 0.43266565898348114, 0.0, 0.15181930107109984, -0.43335169555256253, -0.12585968776903475, 0.27418146211647354, 0.5228937044683952, 0.0, -0.2481105645269062, -0.6071039489402125, 1.27042306813157, 0.24386529197686674, 0.8184064271137692, 0.0, -0.1772283244297504, -0.698152023411542, 0.35939131948276093, -0.4477445043599147, 0.0
0.4299999792196667, 0.03739475609212699, -0.15440774303419655, 0.0842022875157574, 0.4323981837849545, 0.0, 0.1510605156881368, -0.4336753110118088, -0.12548105743737054, 0.2733715316051101, 0.5232892414554577, 0.0, -0.24735746891730462, -0.6012803262783755, 1.2693376478697547, 0.2452951791465019, 0.8144645626008965, 0.0, -0.17402417917576912, -0.7006885383387333, 0.35738018007634637, -0.4516864631205671, 0.0
0.4299999792196667, 0.03642433382939637, -0.15216018830862385, 0.0870812562880094, 0.42744336508080927, 0.0, 0.14609400327800326, -0.4310821636410487, -0.12432525258467839, 0.27290172736771673, 0.5226974352126915, 0.0, -0.24428401042705422, -0.5920156613325256, 1.2604852331838843, 0.2386384671994567, 0.795712832383932, 0.0, -0.17388085622825386, -0.7021175371357794, 0.3561704853904721, -0.45572839085011513, 0.0
0.4299999792196667, 0.03545391156666575, -0.14991263358305115, 0.0899602250602614, 0.42248854637666405, 0.0, 0.1411274908678697, -0.42848901627028857, -0.12316944773198622, 0.2724319231303234, 0.5221056289699252, 0.0, -0.24121055193680377, -0.5827509963866757, 1.251632818498014, 0.23198175525241155, 0.7769611021669676, 0.0, -0.1737375332807386, -0.7035465359328251, 0.35496079070459785, -0.4597703185796632, 0.0
0.4299999792196667, 0.034483489303935126, -0.14766507885747845, 0.0928391938325134, 0.41753372767251884, 0.0, 0.13616097845773611, -0.42589586889952846, -0.12201364287929409, 0.27196211889293004, 0.521513822727159, 0.0, -0.23813709344655334, -0.5734863314408257, 1.2427804038121435, 0.22532504330536643, 0.758209371950003, 0.0, -0.17359421033322334, -0.7049755347298711, 0.35375109601872357, -0.46381224630921125, 0.0
0.4299999792196667, 0.03351306704120452, -0.14541752413190576, 0.09571816260476539, 0.4125789089683737, 0.0, 0.13119446604760254, -0.42330272152876847, -0.1208578380266019, 0.2714923146555367, 0.5209220164843927, 0.0, -0.2350636349563029, -0.5642216664949758, 1.2339279891262733, 0.21866833135832128, 0.7394576417330386, 0.0, -0.17345088738570805, -0.7064045335269169, 0.3525414013328493, -0.4678541740387594, 0.0
0.4299999792196667, 0.03254264477847389, -0.14316996940633306, 0.0985971313770174, 0.40762409026422847, 0.0, 0.12622795363746897, -0.42070957415800836, -0.11970203317390976, 0.2710225104181434, 0.5203302102416265, 0.0, -0.23199017646605244, -0.5549570015491259, 1.225075574440403, 0.21201161941127608, 0.7207059115160741, 0.0, -0.17330756443819278, -0.7078335323239628, 0.351331706646975, -0.47189610176830743, 0.0
0.4299999792196667, 0.028543290516303867, -0.13747024417743667, 0.10297271649219603, 0.39927690650890835, 0.0, 0.11599741161532647, -0.4152018700534163, -0.11820211711149932, 0.27036435024787486, 0.5176846715773801, 0.0, -0.22639962856318532, -0.5428110318823531, 1.2083136068371745, 0.19894057637172727, 0.6872073359436489, 0.0, -0.17730815229907812, -0.7105493449252116, 0.349404203418316, -0.47503854614257224, 0.0
0.4299999792196667, 0.024543936254133838, -0.13177051894854028, 0.10734830160737467, 0.39092972275358834, 0.0, 0.10576686959318397, -0.4096941659488244, -0.11670220104908886, 0.26970619007760627, 0.5150391329131335, 0.0, -0.22080908066031818, -0.5306650622155803, 1.1915516392339462, 0.1858695333321784, 0.6537087603712237, 0.0, -0.18130874015996343, -0.7132651575264604, 0.34747670018965704, -0.478180990516837, 0.0
0.4299999792196667, 0.02054458199196381, -0.1260707937196439, 0.1117238867225533, 0.3825825389982683, 0.0, 0.09553632757104147, -0.40418646184423235, -0.11520228498667841, 0.2690480299073377, 0.5123935942488871, 0.0, -0.21521853275745104, -0.5185190925488075, 1.174789671630718, 0.17279849029262956, 0.6202101847987985, 0.0, -0.18530932802084876, -0.715980970127709, 0.34554919696099806, -0.4813234348911018, 0.0
0.4299999792196667, 0.016545227729793777, -0.12037106849074751, 0.11609947183773195, 0.37423535524294826, 0.0, 0.08530578554889898, -0.39867875773964045, -0.11370236892426795, 0.2683898697370692, 0.5097480555846405, 0.0, -0.20962798485458392, -0.5063731228820346, 1.1580277040274896, 0.15972744725308075, 0.5867116092263732, 0.0, -0.18930991588173413, -0.7186967827289579, 0.34362169373233903, -0.4844658792653665, 0.0
0.4299999792196667, 0.01254587346762375, -0.11467134326185112, 0.12047505695291058, 0.36588817148762814, 0.0, 0.07507524352675647, -0.3931710536350485, -0.1122024528618575, 0.2677317095668006, 0.5071025169203941, 0.0, -0.20403743695171678, -0.49422715321526184, 1.141265736424261, 0.1466564042135319, 0.553213033653948, 0.0, -0.19331050374261946, -0.7214125953302066, 0.34169419050368005, -0.48760832363963125, 0.0
0.4299236245555504, 0.004569526101660244, -0.10587827675186558, 0.12630581347353212, 0.3575638899427528, 0.0, 0.05951024586761172, -0.3840627317929337, -0.10969333611326391, 0.2671043055886107, 0.5016485689567636, 0.0, -0.19589644290356883, -0.4787837574273057, 1.1188331591747183, 0.13315225772010064, 0.5086746711133471, 0.0, -0.20083937417017872, -0.7284756565790304, 0.3361296270627166, -0.486429692323784, 0.0
0.4298472698914341, -0.0034068212643032615, -0.09708521024188002, 0.13213656999415369, 0.34923960839787743, 0.0, 0.04394524820846698, -0.3749544099508189, -0.10718421936467035, 0.26647690161042076, 0.496194620993133, 0.0, -0.1877554488554209, -0.46334036163934955, 1.0964005819251752, 0.1196481112266694, 0.464136308572746, 0.0, -0.20836824459773792, -0.735538717827854, 0.3305650636217532, -0.4852510610079367, 0.0
0.4297709152273179, -0.011383168630266765, -0.08829214373189449, 0.13796732651477525, 0.3409153268530021, 0.0, 0.02838025054932223, -0.36584608810870417, -0.10467510261607674, 0.26584949763223087, 0.49074067302950247, 0.0, -0.17961445480727298, -0.4478969658513935, 1.0739680046756324, 0.10614396473323817, 0.4195979460321451, 0.0, -0.21589711502529718, -0.7426017790766778, 0.32500050018078974, -0.4840724296920894, 0.0
0.42969456056320166, -0.019359515996230273, -0.07949907722190895, 0.14379808303539682, 0.3325910453081267, 0.0, 0.012815252890177481, -0.3567377662665893, -0.10216598586748317, 0.2652220936540409, 0.48528672506587195, 0.0, -0.171473460759125, -0.43245357006343726, 1.0515354274260895, 0.09263981823980694, 0.3750595834915441, 0.0, -0.2234259854528564, -0.7496648403255015, 0.31943593673982634, -0.4828937983762422, 0.0
0.42961820589908545, -0.027335863362193777, -0.0707060107119234, 0.14962883955601838, 0.3242667637632513, 0.0, -0.0027497447689672667, -0.3476294444244746, -0.09965686911888959, 0.26459468967585104, 0.4798327771022414, 0.0, -0.16333246671097706, -0.4170101742754811, 1.0291028501765465, 0.07913567174637569, 0.33052122095094305, 0.0, -0.23095485588041567, -0.7567279015743253, 0.3138713732988629, -0.48171516706039486, 0.0
0.42829903718120904, -0.0392938729367657, -0.059151272027395375, 0.1541948442813798, 0.32014734341491474, 0.0, -0.02200996001305923, -0.3348148635558723, -0.0947601747657577, 0.26439944667374743, 0.47156762033110655, 0.0, -0.15348594040843874, -0.39923845341482844, 1.0048886268639339, 0.06454597489428673, 0.28681508864449246, 0.0, -0.24190127995091454, -0.7655162940925739, 0.30734953166976553, -0.474159301625295, 0.0
0.4269798684633327, -0.05125188251133762, -0.04759653334286736, 0.1587608490067412, 0.3160279230665781, 0.0, -0.04127017525715119, -0.32200028268727005, -0.0898634804126258, 0.2642042036716438, 0.46330246355997173, 0.0, -0.14363941410590048, -0.38146673255417585, 0.980674403551321, 0.04995627804219778, 0.24310895633804175, 0.0, -0.2528477040214134, -0.7743046866108227, 0.3008276900406682, -0.4666034361901952, 0.0
0.4256606997454563, -0.06320989208590953, -0.03604179465833936, 0.16332685373210265, 0.31190850271824144, 0.0, -0.06053039050124315, -0.3091857018186677, -0.08496678605949391, 0.2640089606695402, 0.45503730678883697, 0.0, -0.13379288780336218, -0.3636950116935232, 0.9564601802387082, 0.035366581190108826, 0.1994028240315911, 0.0, -0.2637941280919122, -0.7830930791290713, 0.294305848411571, -0.45904757075509534, 0.0
0.4243415310275799, -0.07516790166048146, -0.024487055973811345, 0.16789285845746407, 0.3077890823699048, 0.0, -0.0797906057453351, -0.2963711209500654, -0.08007009170636202, 0.26381371766743666, 0.44677215001770215, 0.0, -0.12394636150082387, -0.3459232908328705, 0.9322459569260954, 0.020776884338019868, 0.1556966917251405, 0.0, -0.2747405521624111, -0.7918814716473201, 0.2877840067824737, -0.4514917053199955, 0.0
0.4230223623097035, -0.08712591123505337, -0.012932317289283329, 0.17245886318282547, 0.3036696620215682, 0.0, -0.09905082098942708, -0.2835565400814631, -0.07517339735323013, 0.26361847466533306, 0.43850699324656733, 0.0, -0.11409983519828558, -0.32815156997221784, 0.9080317336134826, 0.006187187485930918, 0.11199055941868986, 0.0, -0.28568697623290995, -0.8006698641655687, 0.2812621651533764, -0.44393583988489566, 0.0
0.4168937573237146, -0.10315464507556786, -0.001637412751816717, 0.1731367874615436, 0.3064315059365091, 0.0, -0.11926434124942388, -0.26885849064122963, -0.06697947410112036, 0.26344379862313494, 0.42798635446439726, 0.0, -0.10332801980027569, -0.31162828312551677, 0.8875985497044883, -0.009042627928322387, 0.07858618834170691, 0.0, -0.3002405926962239, -0.8122355886505405, 0.2732329419905261, -0.4239936764356819, 0.0
0.4107651523377257, -0.11918337891608236, 0.009657491785649895, 0.17381471174026178, 0.3091933498514499, 0.0, -0.1394778615094207, -0.2541604412009961, -0.05878555084901059, 0.2632691225809369, 0.4174657156822271, 0.0, -0.09255620440226578, -0.29510499627881565, 0.8671653657954941, -0.024272443342575695, 0.04518181726472395, 0.0, -0.3147942091595378, -0.8238013131355122, 0.2652037188276759, -0.40405151298646813, 0.0
0.40463654735173665, -0.13521211275659686, 0.020952396323116507, 0.1744926360189799, 0.3119551937663908, 0.0, -0.15969138176941752, -0.2394623917607627, -0.05059162759690082, 0.26309444653873876, 0.40694507690005705, 0.0, -0.0817843890042559, -0.2785817094321145, 0.8467321818864997, -0.039502258756828994, 0.011777446187740985, 0.0, -0.3293478256228518, -0.835367037620484, 0.2571744956648257, -0.3841093495372544, 0.0
0.3985079423657477, -0.15124084659711137, 0.03224730086058312, 0.17517056029769806, 0.3147170376813317, 0.0, -0.17990490202941437, -0.22476434232052922, -0.04239770434479104, 0.26291977049654064, 0.3964244381178869, 0.0, -0.071012573606246, -0.2620584225854134, 0.8262989979775054, -0.05473207417108231, -0.02162692488924198, 0.0, -0.34390144208616574, -0.8469327621054558, 0.24914527250197546, -0.36416718608804066, 0.0
0.39237933737975883, -0.16726958043762585, 0.043542205398049726, 0.1758484845764162, 0.3174788815962725, 0.0, -0.20011842228941118, -0.21006629288029574, -0.03420378109268127, 0.2627450944543425, 0.3859037993357169, 0.0, -0.06024075820823611, -0.24553513573871233, 0.805865814068511, -0.06996188958533563, -0.05503129596622492, 0.0, -0.3584550585494797, -0.8584984865904275, 0.24111604933912525, -0.3442250226388269, 0.0
0.37909923182108907, -0.1844393546925582, 0.05279995325500814, 0.1745930901894077, 0.3260320316566204, 0.0, -0.21853814899474425, -0.19437387002400655, -0.02201897889724915, 0.26261582489796437, 0.37681803063819636, 0.0, -0.048966710041171556, -0.23424786108260373, 0.7917100872960913, -0.08408233627225559, -0.07664135888049753, 0.0, -0.37557973349654045, -0.8752158435779748, 0.23232561478565175, -0.30948592288462023, 0.0
0.3658191262624193, -0.20160912894749056, 0.06205770111196656, 0.1733376958023992, 0.3345851817169683, 0.0, -0.23695787570007737, -0.17868144716771733, -0.009834176701817037, 0.2624865553415861, 0.3677322619406758, 0.0, -0.037692661874107025, -0.22296058642649513, 0.7775543605236714, -0.09820278295917555, -0.09825142179477013, 0.0, -0.3927044084436012, -0.8919332005655223, 0.22353518023217822, -0.2747468231304135, 0.0
0.3525390207037496, -0.21877890320242285, 0.071315448968925, 0.1720823014153907, 0.34313833177731623, 0.0, -0.25537760240541046, -0.16298902431142814, 0.002350625493615079, 0.26235728578520795, 0.35864649324315534, 0.0, -0.026418613707042477, -0.21167331177038654, 0.7633986337512517, -0.11232322964609551, -0.11986148470904272, 0.0, -0.40982908339066204, -0.9086505575530697, 0.21474474567870466, -0.2400077233762068, 0.0
0.33925891514507983, -0.23594867745735518, 0.0805731968258834, 0.1708269070283822, 0.35169148183766413, 0.0, -0.27379732911074356, -0.1472966014551389, 0.014535427689047194, 0.2622280162288297, 0.34956072454563486, 0.0, -0.015144565539977934, -0.20038603711427794, 0.7492429069788318, -0.12644367633301548, -0.14147154762331532, 0.0, -0.4269537583377228, -0.9253679145406172, 0.20595431112523113, -0.2052686236220001, 0.0
0.32597880958641007, -0.25311845171228753, 0.08983094468284182, 0.1695715126413737, 0.36024463189801204, 0.0, -0.29221705581607665, -0.1316041785988497, 0.026720229884479318, 0.2620987466724515, 0.3404749558481143, 0.0, -0.003870517372913386, -0.18909876245816934, 0.7350871802064122, -0.14056412301993546, -0.1630816105375879, 0.0, -0.4440784332847836, -0.9420852715281645, 0.1971638765717576, -0.17052952386779338, 0.0
0.3073029558133469, -0.26849011097732817, 0.09602154585825673, 0.16927064929425642, 0.3698906408134472, 0.0, -0.3078515756291017, -0.11643656507852798, 0.04099757678423167, 0.26006786410153837, 0.337188036609028, 0.0, 0.007347197220763557, -0.18395698408455052, 0.7247256491295123, -0.1535114361781519, -0.17714427984494985, 0.0, -0.4622690506192074, -0.963739431931318, 0.1875852164214984, -0.12104808973611066, 0.0
0.2886271020402835, -0.28386177024236886, 0.10221214703367162, 0.16896978594713913, 0.3795366497288824, 0.0, -0.32348609544212675, -0.10126895155820625, 0.055274923683984005, 0.25803698153062526, 0.33390111736994166, 0.0, 0.0185649118144405, -0.17881520571093168, 0.7143641180526127, -0.16645874933636837, -0.1912069491523118, 0.0, -0.4804596679536312, -0.9853935923344713, 0.17800655627123918, -0.07156665560442792, 0.0
0.2699512482672203, -0.29923342950740955, 0.10840274820908649, 0.16866892260002184, 0.38918265864431745, 0.0, -0.3391206152551518, -0.08610133803788453, 0.06955227058373635, 0.2560060989597121, 0.3306141981308553, 0.0, 0.029782626408117442, -0.1736734273373128, 0.7040025869757127, -0.17940606249458482, -0.20526961845967376, 0.0, -0.49865028528805505, -1.007047752737625, 0.16842789612097994, -0.022085221472745168, 0.0
0.25127539449415703, -0.31460508877245025, 0.11459334938450139, 0.16836805925290454, 0.3988286675597527, 0.0, -0.35475513506817685, -0.07093372451756282, 0.08382961748348869, 0.253975216388799, 0.32732727889176894, 0.0, 0.04100034100179438, -0.168531648963694, 0.693641055898813, -0.19235337565280125, -0.21933228776703567, 0.0, -0.5168409026224788, -1.0287019131407784, 0.15884923597072073, 0.02739621265893756, 0.0
0.23259954072109373, -0.32997674803749094, 0.1207839505599163, 0.16806719590578728, 0.40847467647518787, 0.0, -0.3703896548812019, -0.055766110997241075, 0.09810696438324105, 0.2519443338178859, 0.3240403596526826, 0.0, 0.05221805559547133, -0.16338987059007515, 0.6832795248219132, -0.20530068881101776, -0.23339495707439764, 0.0, -0.5350315199569027, -1.050356073543932, 0.1492705758204615, 0.07687764679062027, 0.0
0.21108785712983413, -0.34320776446561907, 0.12358016140409234, 0.169319288129851, 0.41571500034416115, 0.0, -0.37973188924032747, -0.045854848687417064, 0.11049430261358915, 0.2454280266278467, 0.3272165133161204, 0.0, 0.06295663992452326, -0.15936641891598868, 0.6747640180228724, -0.2162908176713158, -0.24417397788969145, 0.0, -0.5511789710931378, -1.071112890365465, 0.13309296644194943, 0.13512307234134543, 0.0
0.18957617353857456, -0.3564387808937472, 0.12637637224826836, 0.1705713803539147, 0.4229553242131345, 0.0, -0.38907412359945304, -0.03594358637759304, 0.12288164084393725, 0.23891171943780745, 0.33039266697955816, 0.0, 0.07369522425357518, -0.15534296724190222, 0.6662485112238314, -0.22728094653161385, -0.2549529987049853, 0.0, -0.567326422229373, -1.091869707186998, 0.11691535706343738, 0.19336849789207053, 0.0
0.168064489947315, -0.3696697973218753, 0.12917258309244442, 0.17182347257797848, 0.43019564808210775, 0.0, -0.39841635795857855, -0.026032324067769022, 0.13526897907428534, 0.23239541224776825, 0.333568820642996, 0.0, 0.08443380858262708, -0.15131951556781575, 0.6577330044247905, -0.23827107539191192, -0.2657320195202791, 0.0, -0.5834738733656082, -1.1126265240085311, 0.10073774768492531, 0.25161392344279576, 0.0
0.1465528063560554, -0.3829008137500035, 0.13196879393662045, 0.17307556480204217, 0.43743597195108097, 0.0, -0.4077585923177041, -0.016121061757945, 0.14765631730463344, 0.22587910505772898, 0.33674497430643374, 0.0, 0.09517239291167902, -0.14729606389372932, 0.6492174976257497, -0.24926120425220996, -0.276511040335573, 0.0, -0.5996213245018432, -1.1333833408300642, 0.08456013830641325, 0.3098593489935209, 0.0
0.12504112276479581, -0.39613183017813164, 0.13476500478079648, 0.1743276570261059, 0.4446762958200543, 0.0, -0.4171008266768297, -0.006209799448120981, 0.16004365553498154, 0.21936279786768983, 0.33992112796987156, 0.0, 0.10591097724073095, -0.14327261221964285, 0.6407019908267088, -0.260251333112508, -0.2872900611508668, 0.0, -0.6157687756380784, -1.1541401576515975, 0.06838252892790118, 0.36810477454424606, 0.0
