isaac-sim2real/sage/motion_files/h1_2/amass/0-punch_right02_poses_action_sequence.txt
left_hip_yaw_joint, left_hip_pitch_joint, left_hip_roll_joint, left_knee_joint, left_ankle_pitch_joint, left_ankle_roll_joint, right_hip_yaw_joint, right_hip_pitch_joint, right_hip_roll_joint, right_knee_joint, right_ankle_pitch_joint, right_ankle_roll_joint, torso_joint, left_shoulder_pitch_joint, left_shoulder_roll_joint, left_shoulder_yaw_joint, left_elbow_joint, left_wrist_roll_joint, right_shoulder_pitch_joint, right_shoulder_roll_joint, right_shoulder_yaw_joint, right_elbow_joint, right_wrist_roll_joint
0.4299999792196667, -0.03359108325876866, -0.015436704195604008, -0.0677820641067158, 0.3783460175290984, 0.0, -0.325524535288701, -0.06540970786764999, -0.018881755500908804, -0.04057585078267718, 0.3181842389601735, 0.0, -0.03196452366237254, 0.0015584797826096678, 0.13476350030698125, 0.20183299883998534, 1.1800445089426226, 0.0, -0.009981215106243953, -0.15194353011659834, -0.35435166730499335, 1.0103484146992414, 0.0
0.4299999792196667, -0.03302621687113866, -0.015737690064834782, -0.06738617875193463, 0.37826776394675593, 0.0, -0.32640893899924706, -0.06530153794566498, -0.019360905278314862, -0.03995103826936062, 0.31797065952894843, 0.0, -0.03139264105114952, 0.0021245812908820896, 0.13550264235827894, 0.20215426159539993, 1.1811584478844153, 0.0, -0.010487254333677446, -0.1529702235397425, -0.3546975845814216, 1.010607980065598, 0.0
0.4299999792196667, -0.03246135048350866, -0.01603867593406556, -0.06699029339715347, 0.3781895103644135, 0.0, -0.32729334270979316, -0.06519336802367999, -0.01984005505572092, -0.03932622575604407, 0.3177570800977234, 0.0, -0.0308207584399265, 0.0026906827991545106, 0.13624178440957663, 0.2024755243508145, 1.1822723868262082, 0.0, -0.01099329356111094, -0.15399691696288662, -0.3550435018578499, 1.0108675454319547, 0.0
0.4299999792196667, -0.03189648409587865, -0.016339661803296338, -0.06659440804237231, 0.3781112567820711, 0.0, -0.32817774642033926, -0.065085198101695, -0.020319204833126978, -0.03870141324272752, 0.31754350066649834, 0.0, -0.030248875828703482, 0.0032567843074269324, 0.13698092646087434, 0.20279678710622914, 1.183386325768001, 0.0, -0.011499332788544432, -0.15502361038603082, -0.35538941913427813, 1.011127110798311, 0.0
0.4299999792196667, -0.031331617708248646, -0.016640647672527112, -0.06619852268759115, 0.3780330031997287, 0.0, -0.32906215013088536, -0.06497702817970999, -0.020798354610533035, -0.038076600729410964, 0.3173299212352733, 0.0, -0.02967699321748046, 0.003822885815699354, 0.13772006851217203, 0.20311804986164372, 1.184500264709794, 0.0, -0.012005372015977928, -0.15605030380917498, -0.35573533641070637, 1.0113866761646677, 0.0
0.4299999792196667, -0.03076675132061864, -0.01694163354175789, -0.06580263733280997, 0.3779547496173863, 0.0, -0.3299465538414314, -0.06486885825772498, -0.021277504387939093, -0.03745178821609441, 0.31711634180404824, 0.0, -0.029105110606257437, 0.004388987323971774, 0.13845921056346971, 0.20343931261705833, 1.1856142036515867, 0.0, -0.012511411243411421, -0.15707699723231913, -0.35608125368713467, 1.0116462415310243, 0.0
0.4299999792196667, -0.03135388217538464, -0.01737871041221537, -0.06494728218420238, 0.37775435440333077, 0.0, -0.3304553976035334, -0.06572497087922793, -0.021379680849272747, -0.037170007600886734, 0.3170313791760612, 0.0, -0.029169826018657988, 0.00439209418457325, 0.1388546623784647, 0.2033131427654316, 1.1865150378917113, 0.0, -0.012572955881253288, -0.15845859288688086, -0.3569864931382911, 1.0122487640953979, 0.0
0.4299999792196667, -0.03194101303015063, -0.017815787282672853, -0.0640919270355948, 0.37755395918927526, 0.0, -0.3309642413656353, -0.06658108350073089, -0.021481857310606402, -0.03688822698567905, 0.3169464165480741, 0.0, -0.029234541431058532, 0.004395201045174725, 0.13925011419345965, 0.203186972913805, 1.1874158721318355, 0.0, -0.012634500519095152, -0.15984018854144255, -0.35789173258944745, 1.0128512866597714, 0.0
0.4299999792196667, -0.03252814388491662, -0.01825286415313034, -0.06323657188698723, 0.37735356397521985, 0.0, -0.33147308512773727, -0.06743719612223383, -0.021584033771940056, -0.03660644637047136, 0.316861453920087, 0.0, -0.029299256843459083, 0.0043983079057761994, 0.13964556600845462, 0.2030608030621783, 1.18831670637196, 0.0, -0.012696045156937018, -0.16122178419600425, -0.3587969720406038, 1.0134538092241447, 0.0
0.4299999792196667, -0.03311527473968262, -0.01868994102358782, -0.06238121673837963, 0.37715316876116434, 0.0, -0.3319819288898392, -0.06829330874373678, -0.021686210233273707, -0.036324665755263684, 0.3167764912920999, 0.0, -0.029363972255859627, 0.004401414766377675, 0.1400410178234496, 0.20293463321055166, 1.1892175406120842, 0.0, -0.012757589794778883, -0.16260337985056594, -0.35970221149176024, 1.0140563317885183, 0.0
0.4299999792196667, -0.03370240559444861, -0.019127017894045303, -0.06152586158977205, 0.3769527735471088, 0.0, -0.3324907726519411, -0.06914942136523974, -0.02178838669460736, -0.036042885140056005, 0.3166915286641129, 0.0, -0.02942868766826018, 0.00440452162697915, 0.14043646963844456, 0.202808463358925, 1.1901183748522086, 0.0, -0.01281913443262075, -0.16398497550512767, -0.3606074509429166, 1.0146588543528918, 0.0
0.4299999792196667, -0.03558729975101282, -0.019785138968938618, -0.06014871233601273, 0.37704133853467203, 0.0, -0.3327845918501974, -0.07049209268682347, -0.021585528122845612, -0.035775634390871176, 0.31727017512431904, 0.0, -0.029418480982794516, 0.0038746694413907103, 0.14023474797415755, 0.20235597278771145, 1.1903451140659937, 0.0, -0.012945180365870527, -0.164660442360259, -0.3607837815572456, 1.0150662386349167, 0.0
0.4299999792196667, -0.03747219390757703, -0.020443260043831932, -0.058771563082253404, 0.37712990352223524, 0.0, -0.3330784110484536, -0.07183476400840719, -0.021382669551083866, -0.035508383641686354, 0.31784882158452527, 0.0, -0.029408274297328858, 0.0033448172558022712, 0.14003302630987055, 0.20190348221649787, 1.1905718532797789, 0.0, -0.013071226299120305, -0.16533590921539032, -0.3609601121715746, 1.0154736229169417, 0.0
0.4299999792196667, -0.03935708806414123, -0.021101381118725244, -0.057394413828494084, 0.37721846850979845, 0.0, -0.33337223024670987, -0.07317743532999091, -0.021179810979322113, -0.03524113289250152, 0.31842746804473143, 0.0, -0.029398067611863192, 0.0028149650702138317, 0.13983130464558358, 0.20145099164528435, 1.1907985924935636, 0.0, -0.013197272232370083, -0.1660113760705217, -0.36113644278590357, 1.015881007198967, 0.0
0.4299999792196667, -0.041241982220705437, -0.021759502193618555, -0.05601726457473475, 0.37730703349736167, 0.0, -0.3336660494449661, -0.07452010665157464, -0.020976952407560364, -0.03497388214331668, 0.31900611450493765, 0.0, -0.029387860926397526, 0.002285112884625392, 0.13962958298129657, 0.20099850107407077, 1.1910253317073487, 0.0, -0.01332331816561986, -0.166686842925653, -0.36131277340023255, 1.016288391480992, 0.0
0.4299999792196667, -0.04312687637726965, -0.02241762326851187, -0.05464011532097544, 0.3773955984849249, 0.0, -0.3339598686432223, -0.07586277797315837, -0.020774093835798615, -0.03470663139413186, 0.3195847609651438, 0.0, -0.029377654240931864, 0.001755260699036953, 0.13942786131700957, 0.20054601050285722, 1.1912520709211338, 0.0, -0.013449364098869642, -0.16736230978078434, -0.3614891040145616, 1.0166957757630168, 0.0
0.4299999792196667, -0.044954465789437265, -0.023394218411740945, -0.053526337647605456, 0.377463593021924, 0.0, -0.3342945599619017, -0.07723532235021922, -0.02043959240894179, -0.03437381770066172, 0.3199847939203595, 0.0, -0.02899856034981829, 0.0012426286718682923, 0.13883271451405502, 0.19988959566184067, 1.1911842264824506, 0.0, -0.013941132606767617, -0.16765116700797716, -0.36095729521016184, 1.0167544851483954, 0.0
0.4299999792196667, -0.046782055201604895, -0.024370813554970016, -0.052412559974235474, 0.37753158755892324, 0.0, -0.33462925128058113, -0.0786078667272801, -0.020105090982084965, -0.034041004007191566, 0.320384826875575, 0.0, -0.02861946645870471, 0.0007299966446996318, 0.13823756771110046, 0.19923318082082409, 1.191116382043767, 0.0, -0.014432901114665594, -0.16794002423516996, -0.3604254864057621, 1.016813194533774, 0.0
0.4299999792196667, -0.04860964461377251, -0.02534740869819909, -0.05129878230086551, 0.3775995820959224, 0.0, -0.33496394259926066, -0.07998041110434095, -0.019770589555228146, -0.03370819031372142, 0.3207848598307907, 0.0, -0.028240372567591134, 0.00021736461753097124, 0.1376424209081459, 0.19857676597980756, 1.1910485376050834, 0.0, -0.014924669622563573, -0.16822888146236278, -0.3598936776013625, 1.0168719039191527, 0.0
0.4299999792196667, -0.05043723402594014, -0.026324003841428162, -0.050185004627495526, 0.37766757663292166, 0.0, -0.33529863391794007, -0.08135295548140181, -0.01943608812837132, -0.03337537662025128, 0.3211848927860062, 0.0, -0.02786127867647755, -0.0002952674096376894, 0.13704727410519135, 0.197920351138791, 1.1909806931663998, 0.0, -0.01541643813046155, -0.16851773868955558, -0.35936186879696275, 1.0169306133045313, 0.0
0.4299999792196667, -0.05226482343810776, -0.027300598984657237, -0.04907122695412555, 0.3777355711699208, 0.0, -0.33563332523661954, -0.08272549985846267, -0.019101586701514496, -0.033042562926781135, 0.3215849257412219, 0.0, -0.027482184785363975, -0.0008078994368063498, 0.1364521273022368, 0.19726393629777444, 1.1909128487277163, 0.0, -0.01590820663835953, -0.1688065959167484, -0.3588300599925631, 1.0169893226899098, 0.0
0.4299999792196667, -0.05246448247228476, -0.027607979042135616, -0.048507622090478895, 0.3774707488718572, 0.0, -0.33656569408566894, -0.08361918976782691, -0.019077006182461106, -0.032478275639396946, 0.320784737657743, 0.0, -0.027373060517343985, -0.000830617190383693, 0.13594432375636906, 0.19666170345805678, 1.1908658644642527, 0.0, -0.015952464697531598, -0.16918261837744436, -0.35850493656884314, 1.0170414661466425, 0.0
0.4299999792196667, -0.05266414150646175, -0.027915359099613995, -0.04794401722683223, 0.37720592657379365, 0.0, -0.33749806293471823, -0.08451287967719115, -0.019052425663407722, -0.03191398835201275, 0.3199845495742642, 0.0, -0.02726393624932399, -0.0008533349439610364, 0.1354365202105013, 0.19605947061833912, 1.190818880200789, 0.0, -0.01599672275670367, -0.16955864083814023, -0.3581798131451231, 1.017093609603375, 0.0
0.4299999792196667, -0.05286380054063876, -0.02822273915709238, -0.04738041236318557, 0.37694110427572997, 0.0, -0.33843043178376764, -0.08540656958655539, -0.019027845144354332, -0.03134970106462856, 0.3191843614907853, 0.0, -0.027154811981303997, -0.0008760526975383797, 0.13492871666463355, 0.19545723777862148, 1.1907718959373252, 0.0, -0.016040980815875745, -0.1699346632988362, -0.35785468972140316, 1.0171457530601073, 0.0
0.4299999792196667, -0.05306345957481575, -0.028530119214570764, -0.046816807499538905, 0.3766762819776664, 0.0, -0.33936280063281704, -0.08630025949591963, -0.01900326462530095, -0.030785413777244367, 0.31838417340730646, 0.0, -0.027045687713284004, -0.000898770451115723, 0.1344209131187658, 0.19485500493890381, 1.1907249116738616, 0.0, -0.016085238875047817, -0.17031068575953207, -0.35752956629768307, 1.0171978965168402, 0.0
0.4299999792196667, -0.053263118608992736, -0.028837499272049146, -0.04625320263589224, 0.37641145967960277, 0.0, -0.34029516948186644, -0.08719394940528387, -0.01897868410624756, -0.030221126489860174, 0.3175839853238276, 0.0, -0.026936563445264013, -0.0009214882046930662, 0.13391310957289804, 0.19425277209918615, 1.190677927410398, 0.0, -0.01612949693421989, -0.17068670822022802, -0.35720444287396313, 1.0172500399735727, 0.0
0.4299999792196667, -0.05295501389080893, -0.028915581812124867, -0.04631794841702178, 0.3758361223636584, 0.0, -0.34142169922888316, -0.08777152912025124, -0.01891154373338429, -0.029490589609906515, 0.31555499818048216, 0.0, -0.026710952063241564, -0.0008390369239853599, 0.13387415731465202, 0.19375715095149731, 1.190406842870978, 0.0, -0.0160978261896132, -0.17080550580109424, -0.3569093356227189, 1.0173820008276575, 0.0
0.4299999792196667, -0.05264690917262512, -0.028993664352200594, -0.04638269419815131, 0.375260785047714, 0.0, -0.3425482289758999, -0.08834910883521863, -0.01884440336052102, -0.028760052729952853, 0.3135260110371367, 0.0, -0.026485340681219115, -0.0007565856432776535, 0.13383520505640603, 0.19326152980380848, 1.1901357583315586, 0.0, -0.01606615544500651, -0.1709243033819605, -0.3566142283714747, 1.0175139616817424, 0.0
0.4299999792196667, -0.05233880445444131, -0.029071746892276318, -0.04644743997928084, 0.3746854477317696, 0.0, -0.34367475872291664, -0.08892668855018603, -0.01877726298765775, -0.028029515849999194, 0.3114970238937913, 0.0, -0.026259729299196666, -0.0006741343625699473, 0.13379625279816001, 0.19276590865611964, 1.1898646737921386, 0.0, -0.016034484700399823, -0.17104310096282674, -0.35631912112023045, 1.017645922535827, 0.0
0.4299999792196667, -0.0520306997362575, -0.029149829432352038, -0.04651218576041037, 0.37411011041582515, 0.0, -0.34480128846993346, -0.0895042682651534, -0.018710122614794482, -0.02729897897004553, 0.3094680367504458, 0.0, -0.02603411791717422, -0.000591683081862241, 0.133757300539914, 0.19227028750843084, 1.189593589252719, 0.0, -0.016002813955793133, -0.17116189854369301, -0.35602401386898624, 1.017777883389912, 0.0
0.4299999792196667, -0.05172259501807368, -0.02922791197242776, -0.046576931541539905, 0.37353477309988076, 0.0, -0.3459278182169502, -0.09008184798012078, -0.018642982241931214, -0.026568442090091873, 0.30743904960710033, 0.0, -0.025808506535151772, -0.0005092318011545346, 0.13371834828166798, 0.191774666360742, 1.1893225047132991, 0.0, -0.015971143211186443, -0.17128069612455923, -0.35572890661774204, 1.0179098442439967, 0.0
0.4299999792196667, -0.05146686797980807, -0.02918783083522156, -0.04673461575627228, 0.3729035992105065, 0.0, -0.34717467445325795, -0.09017518679225404, -0.01841258970495585, -0.02522004434323235, 0.30540130789222686, 0.0, -0.02534086336443826, -0.0005376166318317866, 0.13381111148421393, 0.1910613607674274, 1.188660117355582, 0.0, -0.016150145366094874, -0.17093599708794885, -0.35514933164237383, 1.0180420703881277, 0.0
0.4299999792196667, -0.05121114094154246, -0.02914774969801536, -0.046892299971004664, 0.3722724253211323, 0.0, -0.34842153068956566, -0.09026852560438729, -0.018182197167980488, -0.023871646596372833, 0.3033635661773534, 0.0, -0.024873220193724753, -0.0005660014625090386, 0.13390387468675988, 0.19034805517411285, 1.1879977299978652, 0.0, -0.0163291475210033, -0.1705912980513385, -0.3545697566670056, 1.0181742965322589, 0.0
0.4299999792196667, -0.050955413903276854, -0.029107668560809163, -0.047049984185737054, 0.3716412514317581, 0.0, -0.34966838692587343, -0.09036186441652053, -0.01795180463100513, -0.022523248849513313, 0.30132582446247996, 0.0, -0.02440557702301124, -0.0005943862931862904, 0.13399663788930585, 0.1896347495807983, 1.1873353426401485, 0.0, -0.01650814967591173, -0.1702465990147281, -0.35399018169163726, 1.0183065226763899, 0.0
0.4299999792196667, -0.050699686865011244, -0.029067587423602964, -0.04720766840046942, 0.37101007754238385, 0.0, -0.35091524316218115, -0.0904552032286538, -0.017721412094029765, -0.021174851102653797, 0.2992880827476065, 0.0, -0.02393793385229773, -0.0006227711238635422, 0.1340894010918518, 0.1889214439874837, 1.1866729552824316, 0.0, -0.01668715183082016, -0.16990189997811772, -0.353410606716269, 1.0184387488205209, 0.0
0.4299999792196667, -0.050443959826745634, -0.029027506286396765, -0.04736535261520181, 0.3703789036530096, 0.0, -0.3521620993984889, -0.09054854204078705, -0.017491019557054406, -0.01982645335579428, 0.297250341032733, 0.0, -0.023470290681584217, -0.0006511559545407942, 0.13418216429439772, 0.18820813839416914, 1.1860105679247148, 0.0, -0.01686615398572859, -0.16955720094150736, -0.35283103174090075, 1.018570974964652, 0.0
0.4299999792196667, -0.04995734422893124, -0.028760289396599425, -0.04725699349952589, 0.36969697558898734, 0.0, -0.3535866057180401, -0.09071527090076913, -0.017356499212528152, -0.018287744209165596, 0.2957734434196954, 0.0, -0.02341181970818146, -0.0006394466034210173, 0.13414202625945792, 0.1869051698224098, 1.185021001145419, 0.0, -0.016906881104197538, -0.16908854513076182, -0.35220113194188046, 1.018519826345593, 0.0
0.4299999792196667, -0.049470728631116845, -0.028493072506802088, -0.047148634383849974, 0.3690150475249652, 0.0, -0.35501111203759134, -0.09088199976075119, -0.0172219788680019, -0.016749035062536916, 0.2942965458066578, 0.0, -0.023353348734778692, -0.0006277372523012404, 0.1341018882245181, 0.18560220125065044, 1.1840314343661233, 0.0, -0.016947608222666485, -0.16861988932001634, -0.35157123214286023, 1.0184686777265342, 0.0
0.4299999792196667, -0.04898411303330247, -0.028225855617004744, -0.04704027526817405, 0.368333119460943, 0.0, -0.3564356183571426, -0.09104872862073324, -0.017087458523475648, -0.015210325915908231, 0.2928196481936202, 0.0, -0.02329487776137593, -0.0006160279011814635, 0.1340617501895783, 0.18429923267889106, 1.1830418675868275, 0.0, -0.016988335341135436, -0.1681512335092708, -0.35094133234383995, 1.018417529107475, 0.0
0.4299999792196667, -0.04849749743548808, -0.027958638727207403, -0.046931916152498136, 0.36765119139692076, 0.0, -0.3578601246766938, -0.0912154574807153, -0.016952938178949398, -0.01367161676927955, 0.2913427505805827, 0.0, -0.023236406787973167, -0.0006043185500616867, 0.13402161215463848, 0.1829962641071317, 1.1820523008075317, 0.0, -0.017029062459604383, -0.1676825776985253, -0.3503114325448197, 1.0183663804884164, 0.0
0.4299999792196667, -0.04801088183767368, -0.027691421837410062, -0.04682355703682222, 0.36696926333289853, 0.0, -0.3592846309962451, -0.09138218634069738, -0.016818417834423144, -0.012132907622650868, 0.289865852967545, 0.0, -0.0231779358145704, -0.0005926091989419098, 0.13398147411969866, 0.1816932955353724, 1.181062734028236, 0.0, -0.01706978957807333, -0.16721392188777978, -0.34968153274579944, 1.0183152318693574, 0.0
0.4299999792196667, -0.04758822068870597, -0.027481591024352447, -0.04631742132758767, 0.3660615106076193, 0.0, -0.36077676184299406, -0.09216616520234712, -0.016723739970781176, -0.01076746649129953, 0.2892246608882644, 0.0, -0.023507365314620932, -0.0002986575895366406, 0.13399681312036274, 0.17957805422039333, 1.179405055211277, 0.0, -0.016832649598209758, -0.16691196247389223, -0.34879574673448577, 1.0178547616528038, 0.0
0.4299999792196667, -0.047165559539738264, -0.027271760211294835, -0.04581128561835313, 0.36515375788234, 0.0, -0.3622688926897431, -0.09295014406399683, -0.016629062107139204, -0.00940202535994819, 0.2885834688089837, 0.0, -0.02383679481467146, -4.705980131371412e-06, 0.13401215212102682, 0.17746281290541432, 1.1777473763943178, 0.0, -0.016595509618346185, -0.1666100030600047, -0.3479099607231721, 1.0173942914362502, 0.0
0.4299999792196667, -0.046742898390770546, -0.027061929398237212, -0.04530514990911859, 0.36424600515706074, 0.0, -0.36376102353649203, -0.09373412292564656, -0.016534384243497235, -0.008036584228596853, 0.2879422767297031, 0.0, -0.02416622431472199, 0.0002892456292738977, 0.1340274911216909, 0.17534757159043535, 1.1760896975773585, 0.0, -0.016358369638482615, -0.16630804364611715, -0.3470241747118585, 1.0169338212196963, 0.0
0.4299999792196667, -0.046320237241802835, -0.0268520985851796, -0.044799014199884045, 0.3633382524317815, 0.0, -0.3652531543832411, -0.09451810178729628, -0.016439706379855264, -0.006671143097245512, 0.28730108465042237, 0.0, -0.024495653814772516, 0.000583197238679167, 0.13404283012235496, 0.17323233027545631, 1.1744320187603992, 0.0, -0.016121229658619042, -0.16600608423222962, -0.3461383887005448, 1.0164733510031427, 0.0
0.4299999792196667, -0.045897576092835124, -0.02664226777212198, -0.044292878490649494, 0.36243049970650226, 0.0, -0.3667452852299901, -0.09530208064894602, -0.016345028516213295, -0.005305701965894173, 0.2866598925711417, 0.0, -0.024825083314823044, 0.0008771488480844362, 0.13405816912301904, 0.1711170889604773, 1.17277433994344, 0.0, -0.01588408967875547, -0.16570412481834207, -0.3452526026892312, 1.0160128807865891, 0.0
0.4299999792196667, -0.04603638073198284, -0.026651877205917614, -0.042942927400755705, 0.3609033156670562, 0.0, -0.3683474800300284, -0.09671466043558667, -0.016108807452200898, -0.0039020344796766803, 0.28677880185308013, 0.0, -0.02530347108147768, 0.001870125347985438, 0.1343187038452422, 0.16788056435821302, 1.1694003043400696, 0.0, -0.014875774921700651, -0.16574295490354046, -0.3434460263431258, 1.0146244713666275, 0.0
0.4299999792196667, -0.04617518537113055, -0.02666148663971324, -0.04159297631086191, 0.3593761316276101, 0.0, -0.3699496748300667, -0.09812724022222732, -0.0158725863881885, -0.002498366993459188, 0.28689771113501844, 0.0, -0.02578185884813232, 0.0028631018478864393, 0.13457923856746534, 0.16464403975594874, 1.1660262687366993, 0.0, -0.013867460164645835, -0.16578178498873883, -0.3416394499970205, 1.013236061946666, 0.0
0.4299999792196667, -0.04631399001027825, -0.026671096073508874, -0.040243025220968114, 0.3578489475881641, 0.0, -0.37155186963010495, -0.09953982000886798, -0.015636365324176102, -0.0010946995072416952, 0.2870166204169568, 0.0, -0.026260246614786955, 0.0038560783477874414, 0.13483977328968852, 0.1614075151536845, 1.1626522331333289, 0.0, -0.012859145407591015, -0.1658206150739372, -0.3398328736509152, 1.0118476525267046, 0.0
0.4299999792196667, -0.04645279464942595, -0.0266807055073045, -0.03889307413107432, 0.356321763548718, 0.0, -0.37315406443014315, -0.10095239979550864, -0.015400144260163704, 0.0003089679789757978, 0.28713552969889516, 0.0, -0.026738634381441598, 0.004849054847688442, 0.13510030801191167, 0.1581709905514202, 1.1592781975299586, 0.0, -0.011850830650536196, -0.16585944515913556, -0.33802629730480993, 1.0104592431067432, 0.0
0.4299999792196667, -0.04659159928857366, -0.02669031494110013, -0.03754312304118052, 0.3547945795092719, 0.0, -0.3747562592301815, -0.1023649795821493, -0.01516392319615131, 0.0017126354651932913, 0.2872544389808335, 0.0, -0.027217022148096234, 0.005842031347589444, 0.13536084273413482, 0.15493446594915594, 1.1559041619265882, 0.0, -0.010842515893481381, -0.16589827524433393, -0.3362197209587046, 1.0090708336867815, 0.0
0.4299999792196667, -0.048122909286371446, -0.027031176347751224, -0.034204455138838394, 0.35214867432588254, 0.0, -0.37657812116987577, -0.10425446151118528, -0.014701093154822608, 0.00362847227085079, 0.28779155358615927, 0.0, -0.027490186072786818, 0.008019121755645044, 0.13557410626076527, 0.14978829807246832, 1.1488421408939986, 0.0, -0.008402910652259656, -0.1661581757139069, -0.3313570905456497, 1.0049610231213064, 0.0
0.4299999792196667, -0.04965421928416923, -0.027372037754402313, -0.03086578723649626, 0.3495027691424932, 0.0, -0.37839998310957007, -0.1061439434402213, -0.014238263113493908, 0.005544309076508289, 0.28832866819148506, 0.0, -0.027763349997477406, 0.010196212163700641, 0.1357873697873957, 0.14464213019578073, 1.1417801198614093, 0.0, -0.00596330541103793, -0.1664180761834799, -0.3264944601325948, 1.0008512125558313, 0.0
0.4299999792196667, -0.051185529281967006, -0.027712899161053406, -0.02752711933415412, 0.34685686395910376, 0.0, -0.3802218450492643, -0.1080334253692573, -0.013775433072165206, 0.007460145882165788, 0.28886578279681074, 0.0, -0.02803651392216799, 0.012373302571756242, 0.13600063331402612, 0.13949596231909314, 1.1347180988288192, 0.0, -0.0035237001698162043, -0.16667797665305287, -0.32163182971954, 0.9967414019903561, 0.0
0.4299999792196667, -0.05271683927976477, -0.02805376056770449, -0.024188451431811985, 0.3442109587757144, 0.0, -0.38204370698895856, -0.10992290729829328, -0.013312603030836508, 0.009375982687823288, 0.28940289740213654, 0.0, -0.028309677846858575, 0.014550392979811836, 0.13621389684065657, 0.13434979444240552, 1.12765607779623, 0.0, -0.0010840949285944785, -0.16693787712262587, -0.31676919930648517, 0.992631591424881, 0.0
0.4299999792196667, -0.054248149277562545, -0.028394621974355584, -0.02084978352946985, 0.34156505359232503, 0.0, -0.38386556892865287, -0.11181238922732929, -0.012849772989507806, 0.011291819493480786, 0.2899400120074622, 0.0, -0.02858284177154916, 0.016727483387867437, 0.13642716036728703, 0.12920362656571793, 1.1205940567636403, 0.0, 0.0013555103126272464, -0.16719777759219884, -0.31190656889343027, 0.9885217808594059, 0.0
0.4299189715077646, -0.05890973521408019, -0.029356614296799075, -0.013491632692133947, 0.33803667852320074, 0.0, -0.3854392869366156, -0.11462349331507844, -0.012004621175333718, 0.013837497050179297, 0.29169247267478027, 0.0, -0.02809212255559748, 0.020842084184007605, 0.13655802131487718, 0.1215728149472082, 1.1068503219424708, 0.0, 0.006003473186388197, -0.16750965047623767, -0.2998978484283758, 0.9779376749243164, 0.0
0.42983796379586253, -0.06357132115059783, -0.030318606619242565, -0.006133481854798044, 0.3345083034540765, 0.0, -0.3870130049445784, -0.11743459740282759, -0.011159469361159633, 0.016383174606877805, 0.2934449333420982, 0.0, -0.0276014033396458, 0.024956684980147772, 0.13668888226246736, 0.11394200332869849, 1.0931065871213015, 0.0, 0.01065143606014915, -0.16782152336027656, -0.28788912796332133, 0.9673535689892266, 0.0
0.4297569560839604, -0.06823290708711546, -0.03128059894168604, 0.001224668982537861, 0.3309799283849522, 0.0, -0.3885867229525411, -0.12024570149057677, -0.010314317546985545, 0.01892885216357632, 0.2951973940094162, 0.0, -0.027110684123694127, 0.02907128577628794, 0.13681974321005755, 0.10631119171018874, 1.079362852300132, 0.0, 0.015299398933910103, -0.16813339624431542, -0.27588040749826687, 0.9567694630541371, 0.0
0.42967594837205836, -0.0728944930236331, -0.03224259126412953, 0.008582819819873763, 0.327451553315828, 0.0, -0.3901604409605039, -0.12305680557832592, -0.00946916573281146, 0.02147452972027483, 0.2969498546767342, 0.0, -0.026619964907742447, 0.0331858865724281, 0.13695060415764773, 0.09868038009167904, 1.0656191174789624, 0.0, 0.019947361807671055, -0.1684452691283543, -0.2638716870332124, 0.9461853571190474, 0.0
0.4295949406601563, -0.07755607896015074, -0.03320458358657302, 0.015940970657209667, 0.3239231782467037, 0.0, -0.39173415896846653, -0.12586790966607506, -0.008624013918637373, 0.02402020727697334, 0.2987023153440521, 0.0, -0.026129245691790762, 0.03730048736856827, 0.13708146510523792, 0.0910495684731693, 1.051875382657793, 0.0, 0.02459532468143201, -0.16875714201239314, -0.25186296656815793, 0.9356012511839579, 0.0
0.42829728487063995, -0.08787432831506202, -0.03588143171227102, 0.028544922259528142, 0.32029238376641395, 0.0, -0.39206931105406856, -0.13089648249375105, -0.007261733002602743, 0.026445345065146265, 0.300826573029947, 0.0, -0.02373647608179363, 0.04227550721160776, 0.13698152615600534, 0.08064056793127378, 1.0282616294023532, 0.0, 0.030325856367889495, -0.16906862394267957, -0.22901654173330396, 0.9145600050355442, 0.0
0.4269996290811237, -0.09819257766997329, -0.03855827983796901, 0.04114887386184662, 0.3166615892861241, 0.0, -0.3924044631396705, -0.135925055321427, -0.005899452086568112, 0.02887048285331919, 0.30295083071584183, 0.0, -0.02134370647179649, 0.047250527054647246, 0.1368815872067727, 0.07023156738937826, 1.0046478761469135, 0.0, 0.03605638805434697, -0.169380105872966, -0.20617011689845002, 0.8935187588871306, 0.0
0.42570197329160736, -0.10851082702488454, -0.041235127963667004, 0.05375282546416508, 0.31303079480583434, 0.0, -0.39273961522527245, -0.140953628149103, -0.004537171170533482, 0.03129562064149211, 0.30507508840173664, 0.0, -0.018950936861799352, 0.052225546897686735, 0.13678164825754013, 0.05982256684748275, 0.9810341228914738, 0.0, 0.041786919740804465, -0.16969158780325239, -0.18332369206359603, 0.872477512738717, 0.0
0.4244043175020911, -0.11882907637979581, -0.043911976089365, 0.06635677706648356, 0.30940000032554454, 0.0, -0.39307476731087443, -0.14598220097677897, -0.003174890254498851, 0.033720758429665036, 0.30719934608763144, 0.0, -0.016558167251802213, 0.057200566740726225, 0.13668170930830753, 0.049413566305587235, 0.9574203696360343, 0.0, 0.04751745142726195, -0.17000306973353885, -0.16047726722874212, 0.8514362665903032, 0.0
0.4231066617125748, -0.12914732573470708, -0.046588824215062996, 0.07896072866880204, 0.30576920584525474, 0.0, -0.3934099193964764, -0.15101077380445496, -0.0018126093384642208, 0.03614589621783796, 0.3093236037735263, 0.0, -0.014165397641805076, 0.06217558658376573, 0.13658177035907493, 0.03900456576369172, 0.9338066163805946, 0.0, 0.05324798311371945, -0.17031455166382525, -0.13763084239388818, 0.8303950204418896, 0.0
0.41836845233123615, -0.14518232984509233, -0.0511233927680692, 0.09513504565821314, 0.30109856164991927, 0.0, -0.39239673831240124, -0.1577453955039799, -0.00023811418774545028, 0.037669573890816765, 0.3065075289880675, 0.0, -0.008479908854177699, 0.06345537369240009, 0.13654463149792176, 0.025691352007243352, 0.8981732273709585, 0.0, 0.0537675575091285, -0.1713170757674878, -0.10743244707220596, 0.7966342161306694, 0.0
0.4136302429498974, -0.16121733395547752, -0.055657961321075394, 0.11130936264762424, 0.2964279174545838, 0.0, -0.3913835572283259, -0.16448001720350483, 0.0013363809629733203, 0.03919325156379557, 0.3036914542026086, 0.0, -0.0027944200665503205, 0.06473516080103446, 0.13650749263676856, 0.012378138250794982, 0.8625398383613226, 0.0, 0.05428713190453755, -0.17231959987115036, -0.07723405175052377, 0.762873411819449, 0.0
0.4088920335685588, -0.17725233806586274, -0.0601925298740816, 0.12748367963703536, 0.2917572732592483, 0.0, -0.39037037614425074, -0.17121463890302976, 0.00291087611369209, 0.040716929236774384, 0.30087537941714976, 0.0, 0.002891068721077057, 0.06601494790966883, 0.13647035377561537, -0.000935075505653378, 0.8269064493516864, 0.0, 0.05480670629994659, -0.17332212397481292, -0.04703565642884157, 0.7291126075082287, 0.0
0.40415382418722007, -0.19328734217624796, -0.06472709842708779, 0.14365799662644646, 0.2870866290639128, 0.0, -0.3893571950601754, -0.17794926060255467, 0.0044853712644108605, 0.04224060690975318, 0.29805930463169095, 0.0, 0.008576557508704436, 0.0672947350183032, 0.13643321491446217, -0.014248289262101747, 0.7912730603420502, 0.0, 0.05532628069535565, -0.17432464807847545, -0.016837261107159367, 0.6953518031970083, 0.0
0.39941561480588145, -0.20932234628663318, -0.06926166698009399, 0.15983231361585756, 0.28241598486857733, 0.0, -0.38834401397610024, -0.1846838823020796, 0.006059866415129632, 0.04376428458273199, 0.29524322984623214, 0.0, 0.014262046296331814, 0.06857452212693757, 0.136396076053309, -0.027561503018550107, 0.7556396713324143, 0.0, 0.05584585509076469, -0.175327172182138, 0.013361134214522822, 0.661590998885788, 0.0
0.3937338978842071, -0.22399761219881112, -0.07323081378170221, 0.1784314915842222, 0.276103926579582, 0.0, -0.3897029866728976, -0.1864715148444838, 0.00575721201113395, 0.04776526200110637, 0.28593729833554804, 0.0, 0.020600662003917684, 0.06322505061952896, 0.13710090807310515, -0.045865607245992195, 0.7071636156158528, 0.0, 0.04517066227206251, -0.1786506944662972, 0.0369281845535742, 0.6143876407504392, 0.0
0.38805218096253286, -0.23867287811098903, -0.07719996058331041, 0.1970306695525869, 0.26979186829058666, 0.0, -0.3910619593696949, -0.18825914738688795, 0.0054545576071382655, 0.05176623941948076, 0.27663136682486394, 0.0, 0.026939277711503548, 0.057875579112120344, 0.13780574009290128, -0.06416971147343428, 0.6586875598992912, 0.0, 0.03449546945336033, -0.18197421675045636, 0.06049523489262558, 0.5671842826150905, 0.0
0.38237046404085845, -0.253348144023167, -0.08116910738491863, 0.21562984752095155, 0.2634798100015913, 0.0, -0.3924209320664923, -0.19004677992929211, 0.005151903203142584, 0.055767216837855134, 0.26732543531417985, 0.0, 0.03327789341908941, 0.052526107604711735, 0.1385105721126974, -0.08247381570087638, 0.6102115041827298, 0.0, 0.02382027663465815, -0.18529773903461558, 0.08406228523167697, 0.5199809244797419, 0.0
0.3766887471191842, -0.26802340993534496, -0.08513825418652685, 0.23422902548931618, 0.257167751712596, 0.0, -0.3937799047632896, -0.19183441247169628, 0.0048492487991469, 0.05976819425622953, 0.2580195038034958, 0.0, 0.039616509126675276, 0.04717663609730312, 0.13921540413249353, -0.10077791992831846, 0.5617354484661684, 0.0, 0.01314508381595597, -0.18862126131877474, 0.10762933557072835, 0.47277756634439316, 0.0
0.37100703019750986, -0.28269867584752284, -0.08910740098813505, 0.25282820345768087, 0.25085569342360065, 0.0, -0.395138877460087, -0.19362204501410044, 0.004546594395151217, 0.0637691716746039, 0.2487135722928117, 0.0, 0.045955124834261146, 0.04182716458989451, 0.13992023615228966, -0.11908202415576055, 0.5132593927496069, 0.0, 0.0024698909972537867, -0.19194478360293388, 0.13119638590977975, 0.4255742082090445, 0.0
0.37146026776964325, -0.2886746238651569, -0.09108886979726571, 0.27288627422251954, 0.2448749160799264, 0.0, -0.3998406269133516, -0.1869231886016074, 0.0034518198038451012, 0.07583776461245048, 0.24187778432852416, 0.0, 0.048425049516369494, 0.02687241421767281, 0.14109584804853098, -0.14317971043795424, 0.4547292806104695, 0.0, -0.02066533601710837, -0.19861743913269606, 0.14232809518086786, 0.36997121917435327, 0.0
0.37191350534177664, -0.2946505718827909, -0.09307033860639638, 0.2929443449873582, 0.23889413873625212, 0.0, -0.40454237636661605, -0.18022433218911435, 0.002357045212538986, 0.08790635755029706, 0.23504199636423664, 0.0, 0.05089497419847784, 0.011917663845451116, 0.14227145994477233, -0.167277396720148, 0.3961991684713321, 0.0, -0.04380056303147052, -0.20529009466245818, 0.153459804451956, 0.31436823013966214, 0.0
0.3723667429139101, -0.3006265199004249, -0.09505180741552702, 0.3130024157521969, 0.23291336139257782, 0.0, -0.4092441258198806, -0.17352547577662125, 0.00126227062123287, 0.09997495048814363, 0.2282062083999491, 0.0, 0.05336489888058618, -0.0030370865267705803, 0.14344707184101368, -0.1913750830023417, 0.3376690563321947, 0.0, -0.06693579004583268, -0.21196275019222025, 0.16459151372304415, 0.2587652411049709, 0.0
0.3728199804860435, -0.3066024679180589, -0.09703327622465768, 0.33306048651703557, 0.22693258404890354, 0.0, -0.41394587527314514, -0.1668266193641282, 0.0001674960299267547, 0.1120435434259902, 0.22137042043566157, 0.0, 0.055834823562694536, -0.017991836898992277, 0.144622683737255, -0.21547276928453543, 0.2791389441930573, 0.0, -0.09007101706019485, -0.21863540572198237, 0.17572322299413226, 0.20316225207027974, 0.0
0.37327321805817687, -0.31257841593569297, -0.09901474503378835, 0.3531185572818743, 0.2209518067052293, 0.0, -0.4186476247264097, -0.16012776295163517, -0.0009272785613793603, 0.12411213636383679, 0.21453463247137405, 0.0, 0.05830474824480288, -0.03294658727121396, 0.14579829563349633, -0.23957045556672918, 0.22060883205391985, 0.0, -0.11320624407455698, -0.2253080612517445, 0.18685493226522043, 0.14755926303558856, 0.0
0.37990683057257185, -0.3139209615935705, -0.09313059260816298, 0.36586058132281263, 0.21205302560245043, 0.0, -0.4187883122267544, -0.1521049032592377, 0.0014403977797554223, 0.14131547469654837, 0.21564537396997727, 0.0, 0.05562282435257424, -0.05940904459154433, 0.1456657518394414, -0.26216514597851437, 0.16293578478792525, 0.0, -0.14326449992927956, -0.23770216437827332, 0.18695754191727437, 0.09849057867711732, 0.0
0.38654044308696683, -0.31526350725144814, -0.08724644018253759, 0.37860260536375107, 0.2031542444996716, 0.0, -0.4189289997270991, -0.14408204356684026, 0.0038080741208902044, 0.15851881302925996, 0.21675611546858048, 0.0, 0.0529409004603456, -0.0858715019118747, 0.14553320804538644, -0.28475983639029956, 0.10526273752193072, 0.0, -0.1733227557840021, -0.25009626750480213, 0.1870601515693284, 0.049421894318646055, 0.0
0.3931740556013619, -0.3166060529093257, -0.08136228775691223, 0.39134462940468945, 0.19425546339689276, 0.0, -0.419069687227444, -0.13605918387444277, 0.006175750462024987, 0.17572215136197153, 0.21786685696718366, 0.0, 0.05025897656811695, -0.11233395923220509, 0.1454006642513315, -0.3073545268020847, 0.047589690255936165, 0.0, -0.20338101163872468, -0.262490370631331, 0.1871627612213824, 0.00035320996017481373, 0.0
0.3998076681157568, -0.3179485985672033, -0.07547813533128686, 0.40408665344562783, 0.18535668229411392, 0.0, -0.41921037472778866, -0.12803632418204533, 0.00854342680315977, 0.19292548969468312, 0.21897759846578688, 0.0, 0.04757705267588831, -0.13879641655253544, 0.14526812045727652, -0.32994921721386994, -0.01008335701005843, 0.0, -0.23343926749344726, -0.2748844737578598, 0.1872653708734364, -0.04871547439829643, 0.0
0.4064412806301519, -0.31929114422508087, -0.06959398290566148, 0.41682867748656627, 0.17645790119133506, 0.0, -0.41935106222813345, -0.12001346448964788, 0.010911103144294552, 0.21012882802739472, 0.2200883399643901, 0.0, 0.04489512878365967, -0.1652588738728658, 0.1451355766632216, -0.35254390762565513, -0.06775640427605298, 0.0, -0.26349752334816984, -0.2872785768843886, 0.1873679805254904, -0.09778415875676769, 0.0
0.41019476826619833, -0.3237862920734699, -0.0590166668249609, 0.42107160780474945, 0.1673243069816514, 0.0, -0.4123298400121385, -0.11765108280725721, 0.01323644174920138, 0.22590441582254145, 0.22792078074473648, 0.0, 0.03778994666623953, -0.195780203975386, 0.13958226885060426, -0.3731406079416103, -0.11394915394264389, 0.0, -0.2905706378634514, -0.30529247963204803, 0.1807689133129801, -0.13338578417028088, 0.0
0.4139482559022449, -0.32828143992185876, -0.04843935074426033, 0.42531453812293274, 0.15819071277196778, 0.0, -0.4053086177961437, -0.11528870112486655, 0.015561780354108209, 0.2416800036176882, 0.23575322152508285, 0.0, 0.03068476454881938, -0.2263015340779062, 0.13402896103798692, -0.3937373082575655, -0.16014190360923483, 0.0, -0.3176437523787329, -0.32330638237970744, 0.17416984610046982, -0.16898740958379405, 0.0
0.4177017435382913, -0.33277658777024777, -0.03786203466355975, 0.429557468441116, 0.14905711856228412, 0.0, -0.39828739558014864, -0.11292631944247589, 0.017887118959015035, 0.2574555914128349, 0.2435856623054292, 0.0, 0.02357958243139923, -0.2568228641804264, 0.12847565322536958, -0.41433400857352065, -0.20633465327582576, 0.0, -0.3447168668940145, -0.3413202851273668, 0.16757077888795952, -0.20458903499730724, 0.0
0.42145523117433786, -0.33727173561863666, -0.027284718582859184, 0.43380039875929916, 0.13992352435260044, 0.0, -0.3912661733641538, -0.11056393776008522, 0.02021245756392186, 0.2732311792079817, 0.25141810308577556, 0.0, 0.016474400313979086, -0.28734419428294655, 0.12292234541275227, -0.4349307088894758, -0.25252740294241666, 0.0, -0.37178998140929603, -0.3593341878750262, 0.16097171167544927, -0.2401906604108205, 0.0
0.4252087188103843, -0.3417668834670256, -0.016707402502158616, 0.43804332907748245, 0.1307899301429168, 0.0, -0.3842449511481589, -0.10820155607769456, 0.022537796168828686, 0.28900676700312844, 0.25925054386612195, 0.0, 0.009369218196558941, -0.31786552438546684, 0.11736903760013494, -0.455527409205431, -0.2987201526090076, 0.0, -0.3988630959245776, -0.3773480906226856, 0.15437264446293897, -0.2757922858243336, 0.0
0.4255872493092153, -0.3474702354901077, -0.006875578678706195, 0.43854246531828484, 0.12641656787907352, 0.0, -0.37374854102666505, -0.11316883119671126, 0.02361203445519228, 0.29735580080745555, 0.26623387149339756, 0.0, 0.0017091413858439665, -0.33926688431844443, 0.11639951941795686, -0.47385060524049477, -0.33062875766747546, 0.0, -0.41559874047202733, -0.3970704891938052, 0.14936480963743518, -0.29711962285307564, 0.0
0.42596577980804634, -0.35317358751318967, 0.0029562451447462286, 0.43904160155908717, 0.1220432056152302, 0.0, -0.3632521309051711, -0.11813610631572793, 0.024686272741555878, 0.3057048346117827, 0.27321719912067316, 0.0, -0.005950935424871009, -0.3606682442514221, 0.11543000123577875, -0.4921738012755586, -0.3625373627259434, 0.0, -0.43233438501947713, -0.4167928877649248, 0.14435697481193138, -0.3184469598818177, 0.0
0.4263443103068774, -0.3588769395362717, 0.012788068968198653, 0.43954073779988956, 0.1176698433513869, 0.0, -0.35275572078367723, -0.12310338143474464, 0.025760511027919472, 0.3140538684161099, 0.2802005267479488, 0.0, -0.013611012235585987, -0.3820696041843997, 0.11446048305360067, -0.5104969973106225, -0.3944459677844112, 0.0, -0.4490700295669268, -0.4365152863360444, 0.13934913998642762, -0.33977429691055977, 0.0
0.42672284080570844, -0.36458029155935373, 0.022619892791651077, 0.4400398740406919, 0.11329648108754362, 0.0, -0.3422593106621833, -0.12807065655376132, 0.02683474931428307, 0.32240290222043705, 0.2871838543752244, 0.0, -0.02127108904630096, -0.4034709641173774, 0.11349096487142259, -0.5288201933456862, -0.42635457284287914, 0.0, -0.46580567411437657, -0.4562376849071641, 0.13434130516092382, -0.3611016339393018, 0.0
0.42710137130453946, -0.37028364358243576, 0.032451716615103494, 0.4405390102814943, 0.10892311882370032, 0.0, -0.3317629005406894, -0.133037931672778, 0.02790898760064667, 0.33075193602476427, 0.2941671820025001, 0.0, -0.02893116585701593, -0.42487232405035497, 0.1125214466892445, -0.54714338938075, -0.458263177901347, 0.0, -0.4825413186618263, -0.47596008347828367, 0.12933347033542006, -0.38242897096804385, 0.0
0.42593489097094456, -0.37794263703237746, 0.04268269217703219, 0.44086076521975787, 0.10947565864895517, 0.0, -0.32387046232197647, -0.144284871769873, 0.028750129485957714, 0.3300051829416644, 0.3003917940599827, 0.0, -0.033118154882014264, -0.43457767066969943, 0.12041390934256696, -0.5637014327141754, -0.4765339966055585, 0.0, -0.4904828599737148, -0.49542524844292735, 0.12532634447115673, -0.38942495572305497, 0.0
0.4247684106373497, -0.3856016304823191, 0.05291366773896089, 0.44118252015802156, 0.11002819847421004, 0.0, -0.3159780241032636, -0.15553181186696802, 0.029591271371268758, 0.3292584298585646, 0.3066164061174653, 0.0, -0.037305143907012596, -0.44428301728904385, 0.12830637199588943, -0.5802594760476008, -0.49480481530976994, 0.0, -0.49842440128560334, -0.5148904134075711, 0.12131921860689343, -0.39642094047806603, 0.0
0.4236019303037548, -0.39326062393226074, 0.06314464330088958, 0.44150427509628526, 0.11058073829946492, 0.0, -0.3080855858845506, -0.16677875196406303, 0.0304324132565798, 0.3285116767754649, 0.312841018174948, 0.0, -0.04149213293201093, -0.4539883639083883, 0.13619883464921187, -0.5968175193810259, -0.5130756340139814, 0.0, -0.506365942597492, -0.5343555783722148, 0.11731209274263012, -0.4034169252330771, 0.0
0.4224354499701599, -0.4009196173822025, 0.07337561886281828, 0.4418260300345489, 0.11113327812471979, 0.0, -0.3001931476658377, -0.17802569206115804, 0.03127355514189085, 0.3277649236923651, 0.31906563023243073, 0.0, -0.04567912195700926, -0.4636937105277328, 0.1440912973025343, -0.6133755627144513, -0.5313464527181929, 0.0, -0.5143074839093805, -0.5538207433368585, 0.1133049668783668, -0.41041290998808816, 0.0
0.42126896963656496, -0.40857861083214414, 0.08360659442474697, 0.4421477849728125, 0.11168581794997466, 0.0, -0.2923007094471248, -0.18927263215825305, 0.03211469702720189, 0.3270181706092653, 0.3252902422899133, 0.0, -0.049866110982007585, -0.4733990571470773, 0.15198375995585678, -0.6299336060478766, -0.5496172714224044, 0.0, -0.522249025221269, -0.5732859083015022, 0.10929784101410349, -0.4174088947430992, 0.0
0.41431953281270456, -0.422346249682749, 0.08964230495943022, 0.4415404592623376, 0.11584796291120256, 0.0, -0.2870056073893767, -0.20263716976481724, 0.03851784509705636, 0.32074640673671073, 0.33220833649106646, 0.0, -0.04599362400503333, -0.47718308106371665, 0.15800813038825814, -0.6448530470130671, -0.5561983250917047, 0.0, -0.5327387612037033, -0.5985657528608955, 0.09798421921667265, -0.41018753911243666, 0.0
0.4073700959888442, -0.43611388853335376, 0.09567801549411346, 0.4409331335518626, 0.12001010787243044, 0.0, -0.2817105053316287, -0.21600170737138144, 0.044920993166910825, 0.31447464286415616, 0.3391264306922194, 0.0, -0.042121137028059065, -0.48096710498035605, 0.16403250082065945, -0.6597724879782575, -0.5627793787610051, 0.0, -0.5432284971861375, -0.623845597420289, 0.08667059741924178, -0.402966183481774, 0.0
0.40042065916498387, -0.4498815273839586, 0.10171372602879673, 0.44032580784138764, 0.12417225283365833, 0.0, -0.27641540327388064, -0.22936624497794567, 0.051324141236765285, 0.3082028789916017, 0.34604452489337256, 0.0, -0.038248650051084805, -0.48475112889699545, 0.17005687125306082, -0.6746919289434479, -0.5693604324303058, 0.0, -0.5537182331685718, -0.6491254419796825, 0.07535697562181094, -0.3957448278511114, 0.0
0.3934712223411234, -0.46364916623456337, 0.10774943656347998, 0.43971848213091264, 0.12833439779488623, 0.0, -0.2711203012161326, -0.24273078258450986, 0.057727289306619745, 0.30193111511904713, 0.3529626190945256, 0.0, -0.034376163074110545, -0.4885351528136348, 0.17608124168546216, -0.6896113699086384, -0.5759414860996062, 0.0, -0.5642079691510061, -0.6744052865390759, 0.06404335382438009, -0.38852347222044875, 0.0
0.386521785517263, -0.4774168050851682, 0.11378514709816323, 0.43911115642043763, 0.13249654275611414, 0.0, -0.2658251991583846, -0.25609532019107406, 0.06413043737647421, 0.29565935124649256, 0.35988071329567867, 0.0, -0.030503676097136282, -0.4923191767302742, 0.18210561211786352, -0.7045308108738288, -0.5825225397689067, 0.0, -0.5746977051334404, -0.6996851310984694, 0.05272973202694925, -0.3813021165897862, 0.0
0.3735785948267398, -0.49600837341799414, 0.11411939719760777, 0.4360381133185492, 0.13594212743403833, 0.0, -0.2632391378243876, -0.26750728815026215, 0.07207342591537849, 0.2900586594900128, 0.3636291708928209, 0.0, -0.018990409228162457, -0.49342939113944334, 0.1820553605980401, -0.71825361221595, -0.5820593363667443, 0.0, -0.5898900283271802, -0.7229822746462803, 0.03461909719802488, -0.3659618348540379, 0.0
0.3606354041362166, -0.5145999417508201, 0.1144536472970523, 0.4329650702166607, 0.13938771211196255, 0.0, -0.2606530764903906, -0.27891925610945023, 0.08001641445428279, 0.28445796773353316, 0.3673776284899632, 0.0, -0.007477142359188633, -0.4945396055486124, 0.18200510907821668, -0.7319764135580711, -0.581596132964582, 0.0, -0.6050823515209199, -0.7462794181940912, 0.01650846236910052, -0.3506215531182896, 0.0
0.3476922134456933, -0.5331915100836462, 0.11478789739649685, 0.42989202711477226, 0.14283329678988674, 0.0, -0.2580670151563936, -0.2903312240686383, 0.08795940299318708, 0.2788572759770534, 0.3711260860871054, 0.0, 0.004036124509785193, -0.49564981995778146, 0.18195485755839325, -0.7456992149001921, -0.5811329295624198, 0.0, -0.6202746747146597, -0.7695765617419021, -0.0016021724598238524, -0.3352812713825412, 0.0
0.3347490227551701, -0.5517830784164721, 0.11512214749594138, 0.42681898401288376, 0.14627888146781093, 0.0, -0.25548095382239655, -0.3017431920278264, 0.09590239153209136, 0.2732565842205737, 0.37487454368424766, 0.0, 0.015549391378759016, -0.4967600343669506, 0.18190460603856984, -0.7594220162423132, -0.5806697261602575, 0.0, -0.6354669979083996, -0.7928737052897129, -0.019712807288748215, -0.31994098964679296, 0.0
0.3218058320646468, -0.570374646749298, 0.11545639759538594, 0.4237459409109953, 0.14972446614573515, 0.0, -0.2528948924883996, -0.31315515998701443, 0.10384538007099565, 0.267655892464094, 0.37862300128138987, 0.0, 0.027062658247732848, -0.4978702487761197, 0.1818543545187464, -0.7731448175844343, -0.5802065227580953, 0.0, -0.6506593211021392, -0.8161708488375237, -0.037823442117672586, -0.3046007079110446, 0.0
0.3138558433591786, -0.5831809547572459, 0.11644566208365523, 0.42224060490312576, 0.15108889474177423, 0.0, -0.2519327256330309, -0.31908461941469235, 0.10885223646492076, 0.2643849918568824, 0.37847129028148946, 0.0, 0.03531639672583527, -0.494906815841915, 0.1824678098255544, -0.7814084454471443, -0.5810704677191494, 0.0, -0.6586643854174834, -0.8283523918051106, -0.04803948394438952, -0.29776597761628376, 0.0
0.30590585465371045, -0.5959872627651936, 0.11743492657192452, 0.4207352688952562, 0.15245332333781333, 0.0, -0.25097055877766217, -0.32501407884237027, 0.11385909285884589, 0.2611140912496709, 0.3783195792815891, 0.0, 0.04357013520393769, -0.4919433829077102, 0.18308126513236236, -0.7896720733098544, -0.5819344126802035, 0.0, -0.6666694497328275, -0.8405339347726977, -0.05825552577110645, -0.290931247321523, 0.0
0.29795586594824225, -0.6087935707731416, 0.11842419106019382, 0.4192299328873865, 0.15381775193385241, 0.0, -0.2500083919222935, -0.33094353827004813, 0.118865949252771, 0.25784319064245936, 0.3781678682816888, 0.0, 0.05182387368204011, -0.4889799499735056, 0.18369472043917032, -0.7979357011725644, -0.5827983576412578, 0.0, -0.6746745140481717, -0.8527154777402846, -0.06847156759782337, -0.28409651702676214, 0.0
0.29000587724277405, -0.6215998787810894, 0.11941345554846311, 0.41772459687951696, 0.15518218052989152, 0.0, -0.2490462250669248, -0.3368729976977261, 0.12387280564669612, 0.2545722900352478, 0.3780161572817885, 0.0, 0.06007761216014253, -0.4860165170393009, 0.1843081757459783, -0.8061993290352746, -0.583662302602312, 0.0, -0.6826795783635157, -0.8648970207078714, -0.07868760942454031, -0.2772617867320013, 0.0
0.2820558885373059, -0.6344061867890373, 0.12040272003673243, 0.4162192608716474, 0.15654660912593057, 0.0, -0.24808405821155613, -0.34280245712540397, 0.12887966204062123, 0.2513013894280362, 0.3778644462818881, 0.0, 0.06833135063824496, -0.4830530841050961, 0.18492163105278625, -0.8144629568979848, -0.5845262475633661, 0.0, -0.6906846426788598, -0.8770785636754583, -0.08890365125125725, -0.27042705643724047, 0.0
0.2838185698527235, -0.6365081670923597, 0.12354623883568472, 0.41842149288720426, 0.15495416373509394, 0.0, -0.24522475860184242, -0.34220045815980604, 0.13070012387718954, 0.2532053237304763, 0.37818433720851063, 0.0, 0.06587436792160599, -0.47552258179468626, 0.19262073565959728, -0.8116349894390027, -0.5844749104487481, 0.0, -0.6869753816860589, -0.8763458570021786, -0.0857594845860866, -0.278251332567346, 0.0
0.2855812511681412, -0.638610147395682, 0.12668975763463702, 0.42062372490276123, 0.1533617183442573, 0.0, -0.2423654589921287, -0.34159845919420817, 0.13252058571375788, 0.25510925803291634, 0.3785042281351331, 0.0, 0.06341738520496704, -0.4679920794842764, 0.2003198402664083, -0.8088070219800207, -0.5844235733341298, 0.0, -0.6832661206932579, -0.8756131503288989, -0.08261531792091598, -0.2860756086974515, 0.0
0.28734393248355883, -0.6407121276990044, 0.1298332764335893, 0.42282595691831815, 0.1517692729534207, 0.0, -0.23950615938241496, -0.3409964602286103, 0.13434104755032622, 0.2570131923353564, 0.3788241190617556, 0.0, 0.060960402488328076, -0.46046157717386665, 0.20801894487321929, -0.8059790545210389, -0.5843722362195117, 0.0, -0.6795568597004569, -0.8748804436556191, -0.07947115125574533, -0.2938998848275571, 0.0
0.2891066137989765, -0.6428141080023266, 0.1329767952325416, 0.42502818893387506, 0.15017682756258405, 0.0, -0.23664685977270122, -0.3403944612630124, 0.13616150938689456, 0.2589171266377965, 0.37914400998837816, 0.0, 0.0585034197716891, -0.4529310748634568, 0.21571804948003034, -0.803151087062057, -0.5843208991048935, 0.0, -0.675847598707656, -0.8741477369823394, -0.0763269845905747, -0.3017241609576626, 0.0
0.29086929511439413, -0.6449160883056491, 0.13612031403149388, 0.4272304209494319, 0.14858438217174744, 0.0, -0.23378756016298752, -0.33979246229741455, 0.1379819712234629, 0.26082106094023655, 0.37946390091500076, 0.0, 0.05604643705505014, -0.44540057255304694, 0.22341715408684135, -0.8003231196030751, -0.5842695619902754, 0.0, -0.672138337714855, -0.8734150303090596, -0.07318281792540406, -0.3095484370877682, 0.0
0.3005192973431579, -0.6369873646917873, 0.14069583254660792, 0.4308806165096869, 0.14373149174311625, 0.0, -0.22764380746442048, -0.3369977992112192, 0.13830057688962427, 0.2651173773895798, 0.3809103948924686, 0.0, 0.043475970990694585, -0.4384878644379655, 0.23185849486464793, -0.7870281787457633, -0.5900202473426714, 0.0, -0.6565996818563251, -0.8592602634677285, -0.058633336356527614, -0.33158066722283014, 0.0
0.31016929957192163, -0.6290586410779253, 0.14527135106172195, 0.4345308120699419, 0.13887860131448507, 0.0, -0.22150005476585347, -0.3342031361250237, 0.13861918255578562, 0.26941369383892305, 0.38235688886993646, 0.0, 0.03090550492633902, -0.43157515632288407, 0.2402998356424546, -0.7737332378884517, -0.5957709326950675, 0.0, -0.6410610259977949, -0.8451054966263973, -0.04408385478765117, -0.35361289735789214, 0.0
0.3198193018006854, -0.6211299174640634, 0.14984686957683602, 0.4381810076301968, 0.13402571088585385, 0.0, -0.21535630206728645, -0.33140847303882837, 0.138937788221947, 0.2737100102882663, 0.3838033828474043, 0.0, 0.01833503886198346, -0.4246624482078027, 0.24874117642026122, -0.76043829703114, -0.6015216180474637, 0.0, -0.625522370139265, -0.8309507297850661, -0.029534373218774723, -0.37564512749295415, 0.0
0.32946930402944913, -0.6132011938502014, 0.15442238809195008, 0.44183120319045177, 0.1291728204572227, 0.0, -0.20921254936871947, -0.328613809952633, 0.13925639388810834, 0.27800632673760955, 0.38524987682487216, 0.0, 0.005764572797627893, -0.41774974009272126, 0.2571825171980679, -0.7471433561738283, -0.6072723033998598, 0.0, -0.6099837142807351, -0.816795962943735, -0.014984891649898274, -0.39767735762801615, 0.0
0.33911930625821285, -0.6052724702363397, 0.15899790660706412, 0.44548139875070675, 0.12431993002859149, 0.0, -0.20306879667015246, -0.32581914686643765, 0.1395749995542697, 0.2823026431869528, 0.38669637080234004, 0.0, -0.006805893266727667, -0.4108370319776398, 0.2656238579758745, -0.7338484153165166, -0.6130229887522559, 0.0, -0.5944450584222051, -0.8026411961024037, -0.0004354100810218286, -0.4197095877630782, 0.0
0.35039923307817056, -0.5917129200111332, 0.16201012847517907, 0.4472921429430658, 0.12022922139364771, 0.0, -0.1970135234380153, -0.32351718324676326, 0.13952522660372718, 0.2844070320446429, 0.38496041745908743, 0.0, -0.021892973246198513, -0.40298889719665953, 0.2746216062285584, -0.7143674202155572, -0.6222779531581233, 0.0, -0.5713139131395514, -0.7795355989493408, 0.01722350023660428, -0.4489560909826981, 0.0
0.3616791598981282, -0.5781533697859266, 0.16502235034329404, 0.4491028871354249, 0.11613851275870396, 0.0, -0.19095825020587812, -0.32121521962708893, 0.13947545365318464, 0.286511420902333, 0.3832244641158348, 0.0, -0.03698005322566936, -0.3951407624156792, 0.28361935448124237, -0.694886425114598, -0.6315329175639905, 0.0, -0.5481827678568977, -0.756430001796278, 0.034882410554230386, -0.47820259420231814, 0.0
0.372959086718086, -0.5645938195607201, 0.168034572211409, 0.45091363132778395, 0.11204780412376018, 0.0, -0.18490297697374097, -0.3189132560074145, 0.1394256807026421, 0.28861580976002316, 0.38148851077258217, 0.0, -0.05206713320514019, -0.38729262763469885, 0.29261710273392627, -0.6754054300136387, -0.6407878819698579, 0.0, -0.525051622574244, -0.7333244046432148, 0.05254132087185649, -0.5074490974219382, 0.0
0.3842390135380436, -0.5510342693355135, 0.17104679407952394, 0.452724375520143, 0.10795709548881643, 0.0, -0.1788477037416038, -0.31661129238774016, 0.1393759077520996, 0.2907201986177133, 0.37975255742932956, 0.0, -0.06715421318461104, -0.37944449285371856, 0.3016148509866102, -0.6559244349126795, -0.6500428463757253, 0.0, -0.5019204772915903, -0.7102188074901519, 0.07020023118948261, -0.5366956006415582, 0.0
0.3955189403580013, -0.537474719110307, 0.17405901594763892, 0.45453511971250204, 0.10386638685387266, 0.0, -0.17279243050946666, -0.3143093287680658, 0.13932613480155706, 0.29282458747540335, 0.37801660408607696, 0.0, -0.08224129316408188, -0.3715963580727383, 0.31061259923929413, -0.6364434398117201, -0.6592978107815927, 0.0, -0.47878933200893653, -0.6871132103370888, 0.08785914150710872, -0.5659421038611782, 0.0
0.40119037379972283, -0.5260805570001477, 0.17198066042107157, 0.45199294642787574, 0.1018569941729735, 0.0, -0.1722052249546087, -0.3077760552323679, 0.13844243306243614, 0.2968572579785989, 0.3705943680398268, 0.0, -0.09196968755433065, -0.3647210279289176, 0.31405284565316816, -0.6225522840099517, -0.6641269622889358, 0.0, -0.4613184081728896, -0.6690505640340798, 0.09717471910350271, -0.5865453317085358, 0.0
0.40686180724144444, -0.5146863948899885, 0.1699023048945042, 0.4494507731432493, 0.0998476014920743, 0.0, -0.17161801939975072, -0.30124278169667007, 0.13755873132331523, 0.30088992848179436, 0.3631721319935767, 0.0, -0.1016980819445794, -0.35784569778509684, 0.31749309206704224, -0.6086611282081832, -0.6689561137962787, 0.0, -0.4438474843368427, -0.6509879177310707, 0.10649029669989671, -0.6071485595558934, 0.0
0.412533240683166, -0.5032922327798293, 0.16782394936793682, 0.44690859985862313, 0.09783820881117516, 0.0, -0.17103081384489272, -0.29470950816097213, 0.13667502958419428, 0.30492259898498986, 0.3557498959473266, 0.0, -0.11142647633482815, -0.3509703676412761, 0.3209333384809163, -0.5947699724064148, -0.6737852653036219, 0.0, -0.42637656050079575, -0.6329252714280617, 0.1158058742962907, -0.627751787403251, 0.0
0.41820467412488754, -0.49189807066967, 0.16574559384136947, 0.4443664265739967, 0.09582881613027598, 0.0, -0.17044360829003474, -0.28817623462527436, 0.13579132784507336, 0.3089552694881853, 0.3483276599010764, 0.0, -0.12115487072507693, -0.3440950374974554, 0.3243735848947904, -0.5808788166046464, -0.678614416810965, 0.0, -0.40890563666474883, -0.6148626251250525, 0.1251214518926847, -0.6483550152506087, 0.0
0.42387610756660904, -0.4805039085595108, 0.1636672383148021, 0.4418242532893703, 0.09381942344937683, 0.0, -0.16985640273517674, -0.2816429610895765, 0.13490762610595244, 0.31298793999138086, 0.34090542385482625, 0.0, -0.1308832651153257, -0.3372197073536347, 0.3278138313086644, -0.5669876608028778, -0.6834435683183082, 0.0, -0.39143471282870185, -0.5967999788220434, 0.1344370294890787, -0.6689582430979664, 0.0
0.42503586140126676, -0.4729252840309649, 0.15729182178143258, 0.43608998799457704, 0.09346940011135031, 0.0, -0.1757702379753908, -0.2714136212502227, 0.1348028449152431, 0.31839595437975743, 0.33183718873497126, 0.0, -0.1348214759559423, -0.33027082205381797, 0.32594692591163466, -0.5593601600739593, -0.682509677542151, 0.0, -0.38150999577567424, -0.5861429809560735, 0.13468832059851746, -0.6761580194777572, 0.0
0.42619561523592453, -0.4653466595024191, 0.15091640524806305, 0.43035572269978367, 0.0931193767733238, 0.0, -0.18168407321560487, -0.261184281410869, 0.1346980637245338, 0.323803968768134, 0.3227689536151163, 0.0, -0.13875968679655892, -0.32332193675400117, 0.32408002051460494, -0.5517326593450405, -0.6815757867659938, 0.0, -0.37158527872264663, -0.5754859830901036, 0.13493961170795618, -0.6833577958575481, 0.0
0.42735536907058225, -0.45776803497387325, 0.14454098871469354, 0.42462145740499024, 0.0927693534352973, 0.0, -0.18759790845581886, -0.2509549415715153, 0.13459328253382447, 0.3292119831565105, 0.3137007184952613, 0.0, -0.14269789763717555, -0.3163730514541845, 0.3222131151175752, -0.5441051586161219, -0.6806418959898368, 0.0, -0.3616605616696189, -0.5648289852241337, 0.13519090281739493, -0.6905575722373392, 0.0
0.42851512290523996, -0.4501894104453274, 0.138165572181324, 0.41888719211019687, 0.0924193300972708, 0.0, -0.1935117436960329, -0.2407256017321616, 0.13448850134311513, 0.3346199975448871, 0.3046324833754064, 0.0, -0.14663610847779213, -0.30942416615436763, 0.32034620972054545, -0.5364776578872031, -0.6797080052136797, 0.0, -0.3517358446165913, -0.5541719873581639, 0.13544219392683368, -0.69775734861713, 0.0
0.4296748767398976, -0.4426107859167816, 0.13179015564795446, 0.4131529268154035, 0.09206930675924428, 0.0, -0.19942557893624696, -0.2304962618928079, 0.1343837201524058, 0.3400280119332637, 0.29556424825555144, 0.0, -0.15057431931840878, -0.3024752808545509, 0.31847930432351573, -0.5288501571582844, -0.6787741144375226, 0.0, -0.34181112756356363, -0.5435149894921939, 0.13569348503627243, -0.704957124996921, 0.0
0.42973989723585143, -0.4341398967147387, 0.12426476296346275, 0.40771680215409434, 0.09359229607436609, 0.0, -0.21056484967178643, -0.2181643413568691, 0.1346944027218948, 0.34350044221854453, 0.2891847591709053, 0.0, -0.1511326850527068, -0.29253899226858254, 0.31337743464857293, -0.520607616363597, -0.6740144200530918, 0.0, -0.33339406082499373, -0.5324800301047291, 0.1345341710245862, -0.703820765555557, 0.0
0.4298049177318052, -0.42566900751269576, 0.11673937027897102, 0.4022806774927852, 0.0951152853894879, 0.0, -0.2217041204073259, -0.20583242082093034, 0.1350050852913838, 0.3469728725038253, 0.2828052700862591, 0.0, -0.15169105078700482, -0.2826027036826142, 0.30827556497363023, -0.5123650755689095, -0.669254725668661, 0.0, -0.3249769940864239, -0.5214450707172643, 0.1333748570129, -0.702684406114193, 0.0
0.429869938227759, -0.41719811831065284, 0.10921397759447932, 0.39684455283147607, 0.09663827470460974, 0.0, -0.23284339114286534, -0.19350050028499158, 0.13531576786087282, 0.35044530278910613, 0.276425781001613, 0.0, -0.15224941652130283, -0.2726664150966458, 0.30317369529868743, -0.504122534774222, -0.6644950312842304, 0.0, -0.316559927347854, -0.5104101113297995, 0.1322155430012138, -0.701548046672829, 0.0
0.4299349587237129, -0.4087272291086099, 0.10168858490998761, 0.3914084281701669, 0.09816126401973156, 0.0, -0.24398266187840484, -0.18116857974905282, 0.13562645043036184, 0.35391773307438695, 0.2700462919169669, 0.0, -0.15280778225560085, -0.26273012651067745, 0.29807182562374474, -0.49587999397953453, -0.6597353368997996, 0.0, -0.3081428606092841, -0.49937515194233484, 0.13105622898952757, -0.7004116872314651, 0.0
0.4299999792196667, -0.40025633990656706, 0.09416319222549588, 0.38597230350885764, 0.09968425333485337, 0.0, -0.2551219326139443, -0.16883665921311403, 0.13593713299985083, 0.35739016335966783, 0.26366680283232075, 0.0, -0.1533661479898989, -0.25279383792470905, 0.29296995594880193, -0.4876374531848471, -0.6549756425153689, 0.0, -0.2997257938707142, -0.48834019255487005, 0.12989691497784137, -0.699275327790101, 0.0
0.4299999792196667, -0.3893791896994091, 0.08686753059819304, 0.38188591526194426, 0.10132711186300215, 0.0, -0.2701554308457526, -0.15899833421273085, 0.13536864226149614, 0.3548143680523311, 0.2586015990343039, 0.0, -0.15145099471102702, -0.24092112747760402, 0.2867681902512279, -0.47415802753494113, -0.6472752568368869, 0.0, -0.29080107717525067, -0.47544286562643073, 0.13197067330715898, -0.698240358015644, 0.0
0.4299999792196667, -0.3785020394922512, 0.07957186897089018, 0.3777995270150309, 0.10296997039115094, 0.0, -0.2851889290775609, -0.14916000921234768, 0.13480015152314143, 0.35223857274499426, 0.25353639523628707, 0.0, -0.14953584143215512, -0.22904841703049897, 0.2805664245536539, -0.4606786018850351, -0.6395748711584048, 0.0, -0.28187636047978726, -0.4625455386979913, 0.1340444316364766, -0.6972053882411868, 0.0
0.4299999792196667, -0.3676248892850932, 0.0722762073435873, 0.37371313876811757, 0.10461282891929974, 0.0, -0.30022242730936916, -0.1393216842119645, 0.13423166078478677, 0.3496627774376575, 0.24847119143827026, 0.0, -0.14762068815328325, -0.21717570658339394, 0.2743646588560798, -0.4471991762351291, -0.6318744854799229, 0.0, -0.2729516437843237, -0.44964821176955205, 0.13611818996579422, -0.6961704184667297, 0.0
0.4299999792196667, -0.3567477390779352, 0.06498054571628445, 0.3696267505212042, 0.10625568744744854, 0.0, -0.31525592554117743, -0.12948335921158133, 0.13366317004643205, 0.3470869821303207, 0.2434059876402534, 0.0, -0.14570553487441135, -0.20530299613628888, 0.2681628931585058, -0.4337197505852231, -0.6241740998014409, 0.0, -0.2640269270888603, -0.43675088484111263, 0.13819194829511183, -0.6951354486922725, 0.0
0.4299999792196667, -0.3458705888707773, 0.0576848840889816, 0.36554036227429076, 0.10789854597559731, 0.0, -0.3302894237729857, -0.11964503421119815, 0.13309467930807733, 0.34451118682298393, 0.23834078384223656, 0.0, -0.14379038159553945, -0.19343028568918383, 0.2619611274609317, -0.4202403249353171, -0.616473714122959, 0.0, -0.25510221039339676, -0.4238535579126733, 0.14026570662442944, -0.6941004789178155, 0.0
0.4299999792196667, -0.3335449794454137, 0.04931681781822728, 0.36284510267031345, 0.11124645400006536, 0.0, -0.3436660809458757, -0.11653382599455632, 0.1277323387899621, 0.3360471742181939, 0.23309439392391165, 0.0, -0.14036266559849717, -0.1799647284255142, 0.2546170716931954, -0.4033769781371574, -0.6037959705583715, 0.0, -0.24460001625076175, -0.4137099381742021, 0.14442092367572448, -0.6926817182221618, 0.0
0.4299999792196667, -0.3212193700200502, 0.040948751547472975, 0.36014984306633624, 0.11459436202453341, 0.0, -0.35704273811876575, -0.1134226177779145, 0.1223699982718468, 0.32758316161340384, 0.2278480040055868, 0.0, -0.1369349496014549, -0.16649917116184454, 0.24727301592545914, -0.38651363133899774, -0.5911182269937841, 0.0, -0.23409782210812674, -0.4035663184357307, 0.1485761407270195, -0.6912629575265081, 0.0
0.4299999792196667, -0.3088937605946866, 0.03258068527671866, 0.3574545834623589, 0.11794227004900144, 0.0, -0.37041939529165585, -0.11031140956127267, 0.11700765775373155, 0.3191191490086138, 0.22260161408726195, 0.0, -0.13350723360441258, -0.15303361389817488, 0.23992896015772283, -0.36965028454083804, -0.5784404834291966, 0.0, -0.22359562796549176, -0.39342269869725954, 0.15273135777831454, -0.6898441968308544, 0.0
0.4299999792196667, -0.29656815116932306, 0.024212619005964352, 0.3547593238583816, 0.12129017807346949, 0.0, -0.38379605246454596, -0.10720020134463085, 0.11164531723561627, 0.3106551364038237, 0.21735522416893707, 0.0, -0.13007951760737033, -0.13956805663450528, 0.2325849043899865, -0.35278693774267833, -0.5657627398646092, 0.0, -0.21309343382285675, -0.38327907895878816, 0.15688657482960952, -0.6884254361352008, 0.0
0.4299999792196667, -0.28424254174395946, 0.015844552735210043, 0.35206406425440434, 0.12463808609793754, 0.0, -0.39717270963743595, -0.10408899312798903, 0.106282976717501, 0.30219112379903373, 0.21210883425061217, 0.0, -0.12665180161032805, -0.12610249937083562, 0.2252408486222502, -0.3359235909445187, -0.5530849963000217, 0.0, -0.20259123968022175, -0.37313545922031693, 0.1610417918809046, -0.6870066754395471, 0.0
0.4299764033121307, -0.2738364768458658, 0.005669411303250196, 0.35109558803378965, 0.130834988261018, 0.0, -0.40275001398193894, -0.10692730550251336, 0.09520449126195245, 0.2928329615651544, 0.2089620160812419, 0.0, -0.12237850500662104, -0.11194399263798326, 0.21719730677821664, -0.3196278740883266, -0.5331002956862784, 0.0, -0.1898344169925557, -0.3650817770133292, 0.1644720410488232, -0.6802776667188966, 0.0
0.42995282740459473, -0.2634304119477721, -0.004505730128709649, 0.3501271118131751, 0.1370318904240984, 0.0, -0.40832731832644203, -0.10976561787703772, 0.08412600580640388, 0.2834747993312752, 0.20581519791187167, 0.0, -0.11810520840291402, -0.09778548590513092, 0.20915376493418303, -0.3033321572321346, -0.513115595072535, 0.0, -0.17707759430488965, -0.3570280948063415, 0.16790229021674183, -0.673548657998246, 0.0
0.42992925149705885, -0.25302434704967847, -0.014680871560669497, 0.3491586355925604, 0.14322879258717885, 0.0, -0.41390462267094497, -0.11260393025156207, 0.07304752035085531, 0.2741166370973959, 0.2026683797425014, 0.0, -0.11383191179920703, -0.08362697917227856, 0.20111022309014942, -0.2870364403759425, -0.49313089445879177, 0.0, -0.1643207716172236, -0.3489744125993539, 0.17133253938466048, -0.6668196492775955, 0.0
0.4299056755895229, -0.24261828215158482, -0.024856012992629344, 0.3481901593719458, 0.1494256947502593, 0.0, -0.419481927015448, -0.1154422426260864, 0.06196903489530675, 0.26475847486351667, 0.1995215615731311, 0.0, -0.10955861519550003, -0.06946847243942621, 0.19306668124611584, -0.2707407235197504, -0.4731461938450484, 0.0, -0.15156394892955755, -0.3409207303923662, 0.1747627885525791, -0.6600906405569451, 0.0
0.42988209968198693, -0.23221221725349114, -0.035031154424589185, 0.3472216831513312, 0.15562259691333974, 0.0, -0.42505923135995094, -0.11828055500061076, 0.05089054943975818, 0.2554003126296374, 0.19637474340376085, 0.0, -0.10528531859179302, -0.05530996570657386, 0.18502313940208223, -0.2544450066635583, -0.45316149323130506, 0.0, -0.1388071262418915, -0.3328670481853786, 0.17819303772049772, -0.6533616318362945, 0.0
0.42938687996002606, -0.2275030012816866, -0.0446129216099828, 0.34811433877858067, 0.1626062003026372, 0.0, -0.42598578128127423, -0.12403972055877646, 0.042265295185434586, 0.2471205509433219, 0.1976844314931404, 0.0, -0.10017709103145113, -0.0410455719423981, 0.1797569574500398, -0.23930741001384412, -0.42341119374177993, 0.0, -0.12429884400776645, -0.32726259698969007, 0.18028521625474092, -0.6377962270616484, 0.0
0.42889166023806524, -0.222793785309882, -0.05419468879537642, 0.34900699440583016, 0.1695898036919346, 0.0, -0.4269123312025975, -0.12979888611694218, 0.033640040931111, 0.23884078925700641, 0.19899411958251992, 0.0, -0.09506886347110921, -0.026781178178222356, 0.17449077549799727, -0.22416981336412986, -0.3936608942522547, 0.0, -0.10979056177364135, -0.32165814579400154, 0.1823773947889841, -0.6222308222870023, 0.0
0.42839644051610426, -0.21808456933807743, -0.06377645598077004, 0.34989965003307966, 0.17657340708123204, 0.0, -0.42783888112392077, -0.13555805167510787, 0.025014786676787398, 0.23056102757069089, 0.20030380767189948, 0.0, -0.08996063591076732, -0.012516784414046607, 0.16922459354595482, -0.20903221671441566, -0.3639105947627295, 0.0, -0.09528227953951629, -0.316053694598313, 0.18446957332322722, -0.6066654175123564, 0.0
0.42790122079414344, -0.2133753533662729, -0.07335822316616365, 0.3507923056603292, 0.18355701047052947, 0.0, -0.42876543104524395, -0.1413172172332736, 0.016389532422463802, 0.2222812658843754, 0.20161349576127902, 0.0, -0.08485240835042543, 0.0017476093501291377, 0.16395841159391228, -0.1938946200647014, -0.3341602952732043, 0.0, -0.0807739973053912, -0.3104492434026245, 0.1865617518574704, -0.5911000127377103, 0.0
0.4274060010721826, -0.20866613739446835, -0.08293999035155726, 0.3516849612875787, 0.1905406138598269, 0.0, -0.42969198096656724, -0.14707638279143928, 0.007764278168140206, 0.21400150419805988, 0.20292318385065858, 0.0, -0.07974418079008351, 0.016012003114304882, 0.1586922296418698, -0.1787570234149872, -0.30440999578367917, 0.0, -0.06626571507126612, -0.30484479220693594, 0.18865393039171355, -0.5755346079630642, 0.0
0.4241912861042512, -0.20957452192893683, -0.08665503396923592, 0.35246289293243616, 0.19427268630595143, 0.0, -0.42950953471853925, -0.1538372298083047, 0.004551421382450288, 0.20722099430184152, 0.20796507004986872, 0.0, -0.07465123882333058, 0.028488179301711193, 0.15730052504028055, -0.16431176955800766, -0.2640333254658981, 0.0, -0.052041976029301946, -0.30243530932402174, 0.19035560546845703, -0.5508383351830262, 0.0
0.4209765711363199, -0.21048290646340534, -0.09037007758691458, 0.3532408245772935, 0.19800475875207593, 0.0, -0.42932708847051126, -0.16059807682517005, 0.0013385645967603679, 0.20044048440562318, 0.21300695624907895, 0.0, -0.06955829685657765, 0.040964355489117504, 0.15590882043869134, -0.14986651570102816, -0.22365665514811697, 0.0, -0.03781823698733778, -0.30002582644110753, 0.1920572805452005, -0.526142062402988, 0.0
0.4177618561683885, -0.21139129099787377, -0.09408512120459324, 0.3540187562221509, 0.20173683119820043, 0.0, -0.4291446422224832, -0.16735892384203546, -0.0018742921889295522, 0.1936599745094048, 0.21804884244828912, 0.0, -0.0644653548898247, 0.05344053167652382, 0.15451711583710204, -0.13542126184404865, -0.18327998483033592, 0.0, -0.02359449794537361, -0.2976163435581932, 0.1937589556219439, -0.5014457896229498, 0.0
0.4145471412004572, -0.21229967553234227, -0.09780016482227187, 0.3547966878670083, 0.20546890364432496, 0.0, -0.42896219597445534, -0.17411977085890085, -0.005087148974619471, 0.1868794646131864, 0.22309072864749935, 0.0, -0.05937241292307178, 0.06591670786393013, 0.1531254112355128, -0.12097600798706915, -0.14290331451255486, 0.0, -0.009370758903409434, -0.295206860675279, 0.19546063069868735, -0.4767495168429118, 0.0
0.41133242623252586, -0.21320806006681076, -0.10151520843995053, 0.35557461951186575, 0.20920097609044946, 0.0, -0.42877974972642735, -0.18088061787576623, -0.00830000576030939, 0.18009895471696807, 0.22813261484670955, 0.0, -0.05427947095631884, 0.07839288405133644, 0.15173370663392355, -0.10653075413008964, -0.10252664419477377, 0.0, 0.004852980138554739, -0.29279737779236475, 0.1971623057754308, -0.4520532440628736, 0.0
0.40345269052010896, -0.215366819421359, -0.09970430193197104, 0.3531866076694095, 0.20981504226249564, 0.0, -0.4278353171615882, -0.1866297568664451, -0.00865485200156452, 0.1747961103786582, 0.23387994916694183, 0.0, -0.050231793414082994, 0.08533594204584663, 0.15049832768277696, -0.09425483981358396, -0.056125655804468905, 0.0, 0.014665039748837821, -0.2917640870246481, 0.19901644932496998, -0.4207960831477126, 0.0
0.395572954807692, -0.21752557877590722, -0.09789339542399152, 0.35079859582695333, 0.21042910843454182, 0.0, -0.426890884596749, -0.19237889585712395, -0.009009698242819652, 0.1694932660403483, 0.23962728348717408, 0.0, -0.046184115871847155, 0.09227900004035684, 0.1492629487316303, -0.08197892549707828, -0.009724667414164043, 0.0, 0.024477099359120905, -0.2907307962569314, 0.20087059287450915, -0.38953892223255165, 0.0
0.38769321909527515, -0.2196843381304555, -0.096082488916012, 0.34841058398449715, 0.211043174606588, 0.0, -0.42594645203190984, -0.1981280348478028, -0.009364544484074783, 0.16419042170203843, 0.2453746178074064, 0.0, -0.0421364383296113, 0.09922205803486703, 0.14802756978048368, -0.06970301118057261, 0.03667632097614082, 0.0, 0.03428915896940399, -0.28969750548921464, 0.20272473642404829, -0.3582817613173906, 0.0
0.3798134833828582, -0.22184309748500372, -0.09427158240803249, 0.3460225721420409, 0.21165724077863418, 0.0, -0.4250020194670706, -0.2038771738384816, -0.009719390725329914, 0.15888757736372852, 0.25112195212763866, 0.0, -0.038088760787375456, 0.10616511602937724, 0.14679219082933703, -0.057427096864066926, 0.0830773093664457, 0.0, 0.04410121857968707, -0.28866421472149795, 0.20457887997358742, -0.32702460040222964, 0.0
0.3719337476704413, -0.22400185683955193, -0.09246067590005297, 0.3436345602995848, 0.21227130695068033, 0.0, -0.42405758690223144, -0.20962631282916047, -0.010074236966585045, 0.15358473302541864, 0.25686928644787094, 0.0, -0.03404108324513961, 0.11310817402388744, 0.14555681187819042, -0.04515118254756125, 0.12947829775675054, 0.0, 0.05391327818997015, -0.28763092395378126, 0.20643302352312662, -0.2957674394870686, 0.0
0.364787992721658, -0.22380348969808728, -0.09258284161730972, 0.3355564783896542, 0.2156072175818702, 0.0, -0.42241830734624686, -0.21179902783640767, -0.009738277212418423, 0.14932088912494046, 0.2618756726500956, 0.0, -0.031208505324405618, 0.11303897870036286, 0.1430449259902056, -0.035114369140236974, 0.17655358363158788, 0.0, 0.05736623060079872, -0.28666001474418934, 0.20701216565684039, -0.2600312484900949, 0.0
0.35764223777287485, -0.22360512255662263, -0.09270500733456646, 0.32747839647972365, 0.21894312821306, 0.0, -0.42077902779026216, -0.21397174284365483, -0.009402317458251805, 0.14505704522446225, 0.2668820588523202, 0.0, -0.028375927403671626, 0.11296978337683829, 0.1405330401022208, -0.025077555732912708, 0.22362886950642524, 0.0, 0.0608191830116273, -0.2856891055345974, 0.20759130779055418, -0.22429505749312126, 0.0
0.3504964828240916, -0.22340675541515792, -0.09282717305182321, 0.3194003145697931, 0.22227903884424982, 0.0, -0.4191397482342775, -0.21614445785090206, -0.009066357704085185, 0.14079320132398404, 0.27188844505454485, 0.0, -0.025543349482937634, 0.11290058805331374, 0.13802115421423602, -0.015040742325588434, 0.2707041553812626, 0.0, 0.06427213542245587, -0.28471819632500545, 0.2081704499242679, -0.18855886649614767, 0.0
0.34335072787530846, -0.22320838827369327, -0.09294933876907996, 0.31132223265986253, 0.22561494947543967, 0.0, -0.4175004686782928, -0.21831717285814925, -0.008730397949918565, 0.13652935742350583, 0.2768948312567695, 0.0, -0.022710771562203642, 0.11283139272978916, 0.13550926832625124, -0.005003928918264164, 0.31777944125609997, 0.0, 0.06772508783328444, -0.2837472871154135, 0.20874959205798171, -0.152822675499174, 0.0
0.3362049729265252, -0.22301002113222862, -0.0930715044863367, 0.303244150749932, 0.22895086010662952, 0.0, -0.4158611891223082, -0.22048988786539642, -0.008394438195751945, 0.13226551352302765, 0.2819012174589941, 0.0, -0.01987819364146965, 0.1127621974062646, 0.13299738243826642, 0.00503288448906011, 0.3648547271309373, 0.0, 0.07117804024411302, -0.2827763779058216, 0.20932873419169545, -0.11708648450220031, 0.0
0.33620814244444686, -0.2186475043443572, -0.09421096223618881, 0.2928333455375899, 0.2356738125347756, 0.0, -0.4141981067659849, -0.2185553649224859, -0.0077793879023537425, 0.12820409849424935, 0.284201889535022, 0.0, -0.018047955168563345, 0.10782092420244413, 0.1308695883662412, 0.014181366915768634, 0.4091686647643414, 0.0, 0.07021039549835403, -0.28071259238784985, 0.20816329756499327, -0.07963490293308934, 0.0
0.3362113119623684, -0.2142849875564858, -0.09535041998604095, 0.28242254032524783, 0.2423967649629217, 0.0, -0.4125350244096615, -0.2166208419795754, -0.0071643376089555386, 0.12414268346547104, 0.2865025616110499, 0.0, -0.016217716695657042, 0.10287965099862366, 0.128741794294216, 0.023329849342477157, 0.4534826023977455, 0.0, 0.06924275075259503, -0.2786488068698782, 0.20699786093829103, -0.04218332136397838, 0.0
0.3362144814802901, -0.2099224707686144, -0.09648987773589306, 0.2720117351129058, 0.24911971739106778, 0.0, -0.41087194205333816, -0.21468631903666488, -0.006549287315557337, 0.12008126843669274, 0.28880323368707783, 0.0, -0.014387478222750742, 0.09793837779480316, 0.1266140002221908, 0.032478331769185693, 0.4977965400311495, 0.0, 0.06827510600683603, -0.2765850213519065, 0.20583242431158885, -0.004731739794867401, 0.0
0.33621765099821166, -0.205559953980743, -0.09762933548574519, 0.26160092990056366, 0.2558426698192139, 0.0, -0.40920885969701476, -0.21275179609375436, -0.005934237022159134, 0.11601985340791447, 0.2911039057631057, 0.0, -0.01255723974984444, 0.09299710459098269, 0.12448620615016558, 0.04162681419589421, 0.5421104776645536, 0.0, 0.06730746126107703, -0.27452123583393473, 0.20466698768488664, 0.03271984177424356, 0.0
0.3362208205161333, -0.2011974371928716, -0.09876879323559731, 0.25119012468822155, 0.26256562224735996, 0.0, -0.4075457773406915, -0.21081727315084386, -0.005319186728760932, 0.11195843837913616, 0.2934045778391336, 0.0, -0.010727001276938137, 0.08805583138716222, 0.12235841207814037, 0.05077529662260274, 0.5864244152979575, 0.0, 0.06633981651531805, -0.272457450315963, 0.20350155105818443, 0.07017142334335454, 0.0
0.3434031470940628, -0.19282513814961535, -0.09749333943042979, 0.2399888982548948, 0.26817674758210813, 0.0, -0.406457993903069, -0.20601549189683052, -0.004763169265158294, 0.10734173882032133, 0.29377087707056665, 0.0, -0.009929097689823809, 0.08296736758620404, 0.12130149094861506, 0.05908238248555577, 0.6249291711237556, 0.0, 0.0652934989591303, -0.26929371641548244, 0.20001671846323896, 0.1092967156258018, 0.0
0.3505854736719923, -0.18445283910635907, -0.09621788562526228, 0.22878767182156803, 0.2737878729168563, 0.0, -0.4053702104654465, -0.20121371064281718, -0.004207151801555657, 0.10272503926150649, 0.2941371763019997, 0.0, -0.00913119410270948, 0.07787890378524588, 0.12024456981908976, 0.0673894683485088, 0.6634339269495538, 0.0, 0.06424718140294255, -0.26612998251500186, 0.1965318858682934, 0.14842200790824908, 0.0
0.35776780024992183, -0.17608054006310286, -0.09494243182009474, 0.21758644538824126, 0.2793989982516044, 0.0, -0.4042824270278241, -0.19641192938880386, -0.0036511343379530196, 0.09810833970269163, 0.2945034755334328, 0.0, -0.008333290515595152, 0.0727904399842877, 0.11918764868956445, 0.07569655421146182, 0.7019386827753519, 0.0, 0.06320086384675482, -0.2629662486145212, 0.19304705327334792, 0.18754730019069635, 0.0
0.36495012682785133, -0.1677082410198466, -0.09366697801492722, 0.20638521895491452, 0.2850101235863526, 0.0, -0.4031946435902015, -0.19161014813479052, -0.0030951168743503818, 0.09349164014387677, 0.29486977476486587, 0.0, -0.007535386928480825, 0.06770197618332954, 0.11813072756003914, 0.08400364007441485, 0.74044343860115, 0.0, 0.062154546290567075, -0.25980251471404064, 0.1895622206784024, 0.22667259247314364, 0.0
0.37213245340578077, -0.15933594197659037, -0.0923915242097597, 0.19518399252158772, 0.29062124892110075, 0.0, -0.40210686015257907, -0.1868083668807772, -0.002539099410747744, 0.08887494058506193, 0.2952360739962989, 0.0, -0.006737483341366497, 0.06261351238237137, 0.11707380643051385, 0.09231072593736787, 0.7789481944269481, 0.0, 0.061108228734379336, -0.25663878081356006, 0.18607738808345692, 0.26579788475559085, 0.0
0.3804680342122336, -0.14899299516556583, -0.0888211006682964, 0.18195515077370755, 0.29372995608092445, 0.0, -0.4023198147559319, -0.1798519208146408, -0.0025244572851474034, 0.08410470650634425, 0.2950046398468259, 0.0, -0.006941533309782244, 0.06023697258908853, 0.11708523694085099, 0.09966314881353824, 0.8102518928012843, 0.0, 0.06125841222211834, -0.252242896821049, 0.17935559804459267, 0.3045302280251905, 0.0
0.38880361501868643, -0.13865004835454128, -0.0852506771268331, 0.16872630902582741, 0.2968386632407482, 0.0, -0.40253276935928484, -0.1728954747485044, -0.002509815159547062, 0.07933447242762653, 0.294773205697353, 0.0, -0.00714558327819799, 0.05786043279580568, 0.11709666745118816, 0.10701557168970863, 0.8415555911756204, 0.0, 0.06140859570985736, -0.247847012828538, 0.1726338080057284, 0.3432625712947902, 0.0
0.39713919582513924, -0.12830710154351674, -0.08168025358536979, 0.15549746727794728, 0.29994737040057184, 0.0, -0.40274572396263764, -0.165939028682368, -0.002495173033946721, 0.07456423834890885, 0.29454177154788, 0.0, -0.007349633246613736, 0.05548389300252284, 0.11710809796152533, 0.114367994565879, 0.8728592895499566, 0.0, 0.06155877919759637, -0.243451128836027, 0.16591201796686414, 0.3819949145643898, 0.0
0.405474776631592, -0.11796415473249221, -0.0781098300439065, 0.14226862553006708, 0.30305607756039554, 0.0, -0.4029586785659905, -0.15898258261623158, -0.0024805309083463798, 0.06979400427019118, 0.2943103373984071, 0.0, -0.0075536832150294815, 0.05310735320923999, 0.11711952847186248, 0.12172041744204937, 0.9041629879242928, 0.0, 0.06170896268533537, -0.23905524484351595, 0.15919022792799986, 0.4207272578339894, 0.0
0.4138103574380448, -0.10762120792146766, -0.07453940650244319, 0.12903978378218697, 0.3061647847202193, 0.0, -0.4031716331693433, -0.1520261365500952, -0.002465888782746039, 0.0650237701914735, 0.29407890324893415, 0.0, -0.007757733183445228, 0.05073081341595716, 0.11713095898219965, 0.12907284031821975, 0.9354666862986291, 0.0, 0.061859146173074385, -0.23465936085100492, 0.1524684378891356, 0.45945960110358913, 0.0
0.4167684217394704, -0.09884910700458877, -0.07058112542262619, 0.11552580759440849, 0.3090176370836762, 0.0, -0.4041857497498975, -0.1448958302086531, -0.0027620583460927673, 0.060269375324783506, 0.2937202485596248, 0.0, -0.008324243775950367, 0.049685226803660144, 0.1172332122380204, 0.13481098722526952, 0.9594250443428994, 0.0, 0.06127360915298131, -0.2306840593203225, 0.13914156658222454, 0.4959503132950974, 0.0
0.41972648604089596, -0.0900770060877099, -0.0666228443428092, 0.10201183140663002, 0.31187048944713297, 0.0, -0.40519986633045185, -0.13776552386721097, -0.0030582279094394952, 0.05551498045809351, 0.2933615938703155, 0.0, -0.008890754368455505, 0.04863964019136314, 0.11733546549384112, 0.1405491341323193, 0.9833834023871699, 0.0, 0.06068807213288824, -0.22670875778964003, 0.12581469527531347, 0.5324410254866055, 0.0
0.4226845503423215, -0.08130490517083101, -0.0626645632629922, 0.08849785521885155, 0.31472334181058986, 0.0, -0.40621398291100613, -0.13063521752576884, -0.0033543974727862236, 0.050760585591403534, 0.2930029391810062, 0.0, -0.009457264960960641, 0.04759405357906614, 0.11743771874966187, 0.1462872810393691, 1.0073417604314403, 0.0, 0.06010253511279516, -0.22273345625895757, 0.11248782396840239, 0.5689317376781139, 0.0
0.4256426146437471, -0.07253280425395212, -0.05870628218317521, 0.07498387903107306, 0.3175761941740467, 0.0, -0.40722809949156047, -0.12350491118432676, -0.0036505670361329516, 0.04600619072471354, 0.2926442844916968, 0.0, -0.010023775553465779, 0.04654846696676914, 0.11753997200548259, 0.1520254279464189, 1.0313001184757107, 0.0, 0.05951699809270209, -0.21875815472827512, 0.0991609526614913, 0.605422449869622, 0.0
0.4286006789451727, -0.06376070333707323, -0.054748001103358215, 0.06146990284329461, 0.32042904653750354, 0.0, -0.40824221607211475, -0.11637460484288463, -0.00394673659947968, 0.041251795858023556, 0.2922856298023875, 0.0, -0.010590286145970917, 0.04550288035447213, 0.11764222526130334, 0.15776357485346867, 1.0552584765199813, 0.0, 0.058931461072609014, -0.21478285319759272, 0.08583408135458023, 0.6419131620611302, 0.0
0.4288740882631561, -0.05860132471421143, -0.051786887013597696, 0.05123186777360745, 0.3239689931395685, 0.0, -0.4090780228349683, -0.11085828788749992, -0.00400549063038053, 0.03710979164729782, 0.2925401790924739, 0.0, -0.01052295075001703, 0.04415391642280326, 0.11814779024787249, 0.16231861542046908, 1.0725068429511309, 0.0, 0.05760084997615657, -0.21109838286148705, 0.06493342601527081, 0.6763734280140383, 0.0
0.42914749758113957, -0.05344194609134963, -0.048825772923837184, 0.040993832703920284, 0.32750893974163353, 0.0, -0.40991382959782185, -0.1053419709321152, -0.004064244661281382, 0.032967787436572096, 0.2927947283825602, 0.0, -0.010455615354063143, 0.0428049524911344, 0.11865335523444162, 0.16687365598746948, 1.0897552093822804, 0.0, 0.05627023887970412, -0.20741391252538147, 0.04403277067596138, 0.7108336939669464, 0.0
0.42942090689912293, -0.04828256746848783, -0.04586465883407667, 0.030755797634233122, 0.33104888634369856, 0.0, -0.4107496363606754, -0.09982565397673047, -0.004122998692182233, 0.02882578322584636, 0.29304927767264666, 0.0, -0.010388279958109257, 0.04145598855946553, 0.11915892022101077, 0.17142869655446985, 1.10700357581343, 0.0, 0.05493962778325168, -0.20372944218927586, 0.02313211533665195, 0.7452939599198546, 0.0
0.42969431621710635, -0.04312318884562603, -0.04290354474431615, 0.02051776256454596, 0.3345888329457635, 0.0, -0.4115854431235289, -0.09430933702134578, -0.004181752723083084, 0.024683779015120633, 0.293303826962733, 0.0, -0.01032094456215537, 0.04010702462779666, 0.11966448520757991, 0.17598373712147025, 1.1242519422445798, 0.0, 0.05360901668679923, -0.20004497185317022, 0.0022314599973425205, 0.7797542258727627, 0.0
0.4299677255350897, -0.03796381022276423, -0.03994243065455564, 0.0102797274948588, 0.3381287795478285, 0.0, -0.4124212498863825, -0.08879302006596107, -0.004240506753983935, 0.0205417748043949, 0.29355837625281933, 0.0, -0.010253609166201483, 0.03875806069612779, 0.12017005019414904, 0.18053877768847065, 1.1415003086757292, 0.0, 0.05227840559034679, -0.1963605015170646, -0.01866919534196692, 0.8142144918256707, 0.0
0.4299741762720051, -0.036239355806755455, -0.03808115254810017, 0.004340801052252237, 0.3419446836485848, 0.0, -0.4129133838662259, -0.08498072495703203, -0.003984509957629136, 0.01763380651395639, 0.29477694070195226, 0.0, -0.009262231433273867, 0.03685067308522973, 0.12126555950623842, 0.18535616916731382, 1.1527783121428512, 0.0, 0.05014229258097488, -0.19312196280484353, -0.04259283355142741, 0.8423240666265907, 0.0
0.42998062700892054, -0.03451490139074668, -0.03621987444164469, -0.0015981253903543265, 0.3457605877493411, 0.0, -0.4134055178460692, -0.081168429848103, -0.0037285131612743378, 0.014725838223517872, 0.29599550515108514, 0.0, -0.008270853700346255, 0.034943285474331676, 0.12236106881832777, 0.190173560646157, 1.1640563156099735, 0.0, 0.04800617957160296, -0.1898834240926225, -0.0665164717608879, 0.8704336414275105, 0.0
0.42998707774583583, -0.0327904469747379, -0.03435859633518922, -0.007537051832960892, 0.3495764918500974, 0.0, -0.41389765182591254, -0.07735613473917398, -0.0034725163649195387, 0.011817869933079362, 0.29721406960021807, 0.0, -0.00727947596741864, 0.03303589786343362, 0.1234565781304171, 0.19499095212500014, 1.1753343190770953, 0.0, 0.04587006656223105, -0.18664488538040136, -0.09044010997034838, 0.8985432162284304, 0.0
0.4299935284827513, -0.031065992558729126, -0.03249731822873375, -0.013475978275567456, 0.3533923959508537, 0.0, -0.41438978580575586, -0.07354383963024494, -0.0032165195685647397, 0.008909901642640846, 0.29843263404935094, 0.0, -0.006288098234491025, 0.031128510252535564, 0.12455208744250648, 0.19980834360384334, 1.1866123225442173, 0.0, 0.04373395355285913, -0.18340634666818031, -0.11436374817980889, 0.9266527910293503, 0.0
0.4299999792196667, -0.02934153814272035, -0.030636040122278278, -0.019414904718174014, 0.35720830005161003, 0.0, -0.41488191978559924, -0.0697315445213159, -0.0029605227722099402, 0.006001933352202334, 0.2996511984984839, 0.0, -0.005296720501563411, 0.029221122641637502, 0.12564759675459583, 0.2046257350826865, 1.1978903260113394, 0.0, 0.04159784054348722, -0.18016780795595927, -0.13828738638926938, 0.9547623658302701, 0.0
0.4299999792196667, -0.027847428790731276, -0.02932088042569374, -0.022801071756109174, 0.36024332639173157, 0.0, -0.4159010908396673, -0.06709512240988431, -0.0032200372098589647, 0.00460639906539255, 0.30037369848629797, 0.0, -0.004208979227605007, 0.02865738757642864, 0.12601858219507048, 0.21023220736964884, 1.204525544228646, 0.0, 0.03945156168935414, -0.1792641776983732, -0.1578455089861377, 0.9733388684809928, 0.0
0.4299999792196667, -0.02635331943874221, -0.0280057207291092, -0.026187238794044335, 0.363278352731853, 0.0, -0.41692026189373543, -0.0644587002984527, -0.0034795516475079878, 0.0032108647785827646, 0.30109619847411206, 0.0, -0.0031212379536466025, 0.02809365251121978, 0.12638956763554515, 0.21583867965661116, 1.211160762445953, 0.0, 0.037305282835221054, -0.17836054744078714, -0.177403631583006, 0.9919153711317157, 0.0
0.4299999792196667, -0.02485921008675314, -0.026690561032524658, -0.02957340583197949, 0.3663133790719746, 0.0, -0.41793943294780345, -0.0618222781870211, -0.0037390660851570113, 0.00181533049177298, 0.30181869846192616, 0.0, -0.002033496679688198, 0.027529917446010917, 0.1267605530760198, 0.2214451519435735, 1.21779598066326, 0.0, 0.035159003981087976, -0.1774569171832011, -0.19696175417987433, 1.0104918737824384, 0.0
0.4299999792196667, -0.023365100734764072, -0.025375401335940125, -0.032959572869914654, 0.3693484054120961, 0.0, -0.41895860400187157, -0.059185856075589495, -0.003998580522806034, 0.00041979620496319545, 0.30254119844974026, 0.0, -0.0009457554057297942, 0.02696618238080206, 0.12713153851649447, 0.22705162423053582, 1.2244311988805667, 0.0, 0.03301272512695489, -0.17655328692561503, -0.21651987677674264, 1.029068376433161, 0.0
0.4299999792196667, -0.021870991382775002, -0.024060241639355582, -0.03634573990784981, 0.37238343175221766, 0.0, -0.41997777505593964, -0.0565494339641579, -0.004258094960455058, -0.0009757380818465884, 0.30326369843755435, 0.0, 0.00014198586822861, 0.026402447315593196, 0.12750252395696912, 0.23265809651749814, 1.2310664170978736, 0.0, 0.03086644627282181, -0.17564965666802898, -0.23607799937361093, 1.047644879083884, 0.0
0.4299999792196667, -0.01963923258506455, -0.02285536476034851, -0.039014322154210364, 0.3737773354686644, 0.0, -0.42114678262629135, -0.05493386226260064, -0.004635136798153896, -0.0009409639079557334, 0.3030631042559641, 0.0, 0.00024010874303331226, 0.027188085287229866, 0.1271293568549295, 0.23822054811006665, 1.234692513151817, 0.0, 0.028996994789479247, -0.1758501705644736, -0.24942709779761202, 1.0572604564384813, 0.0
0.4299999792196667, -0.01740747378735409, -0.02165048788134144, -0.041682904400570917, 0.37517123918511114, 0.0, -0.42231579019664317, -0.05331829056104338, -0.005012178635852734, -0.0009061897340648788, 0.3028625100743739, 0.0, 0.0003382316178380145, 0.027973723258866542, 0.12675618975288983, 0.2437829997026352, 1.2383186092057603, 0.0, 0.027127543306136686, -0.17605068446091823, -0.26277619622161313, 1.0668760337930787, 0.0
0.4299999792196667, -0.015175714989643633, -0.020445611002334368, -0.04435148664693146, 0.376565142901558, 0.0, -0.423484797766995, -0.051702718859486116, -0.005389220473551572, -0.0008714155601740239, 0.3026619158927837, 0.0, 0.0004363544926427168, 0.02875936123050321, 0.12638302265085016, 0.24934545129520377, 1.241944705259704, 0.0, 0.025258091822794128, -0.1762511983573629, -0.2761252946456142, 1.076491611147676, 0.0
0.4299999792196667, -0.012943956191933177, -0.019240734123327292, -0.047020068893292015, 0.3779590466180047, 0.0, -0.4246538053373467, -0.050087147157928856, -0.00576626231125041, -0.0008366413862831692, 0.30246132171119344, 0.0, 0.000534477367447419, 0.029544999202139887, 0.12600985554881053, 0.25490790288777226, 1.245570801313647, 0.0, 0.02338864033945157, -0.17645171225380749, -0.28947439306961525, 1.0861071885022733, 0.0
0.4299999792196667, -0.01071219739422272, -0.018035857244320223, -0.04968865113965257, 0.3793529503344515, 0.0, -0.4258228129076985, -0.048471575456371596, -0.006143304148949249, -0.0008018672123923143, 0.30226072752960326, 0.0, 0.0006326002422521212, 0.03033063717377656, 0.12563668844677084, 0.2604703544803408, 1.2491968973675907, 0.0, 0.021519188856109008, -0.1766522261502521, -0.3028234914936163, 1.095722765856871, 0.0
0.4299999792196667, -0.009380305051566387, -0.01704605362384498, -0.05171297755576349, 0.37977532001343406, 0.0, -0.42648189112115364, -0.048148010611673626, -0.006046617446244818, -5.035316081773978e-05, 0.3020227483954353, 0.0, 2.7718397646328904e-05, 0.032051969893885215, 0.12617327037760886, 0.2655915030622011, 1.2514056115359895, 0.0, 0.020406729255390138, -0.17769117178474528, -0.31127636540712017, 1.099657471029152, 0.0
0.4299999792196667, -0.008048412708910054, -0.01605625000336974, -0.05373730397187443, 0.38019768969241674, 0.0, -0.4271409693346087, -0.04782444576697564, -0.005949930743540387, 0.0007011608907568349, 0.3017847692612674, 0.0, -0.0005771634469594634, 0.033773302613993875, 0.12670985230844692, 0.27071265164406133, 1.2536143257043884, 0.0, 0.019294269654671268, -0.17873011741923844, -0.3197292393206239, 1.1035921762014331, 0.0
0.4299999792196667, -0.0067165203662537185, -0.015066446382894498, -0.05576163038798536, 0.38062005937139937, 0.0, -0.42780004754806383, -0.04750088092227767, -0.0058532440408359575, 0.0014526749423314092, 0.3015467901270995, 0.0, -0.001182045291565256, 0.035494635334102534, 0.12724643423928494, 0.2758338002259216, 1.2558230398727872, 0.0, 0.018181810053952398, -0.1797690630537316, -0.32818211323412777, 1.107526881373714, 0.0
0.4299999792196667, -0.005384628023597384, -0.01407664276241926, -0.057785956804096296, 0.38104242905038194, 0.0, -0.42845912576151896, -0.04717731607757969, -0.005756557338131526, 0.0022041889939059837, 0.30130881099293155, 0.0, -0.0017869271361710482, 0.03721596805421119, 0.12778301617012297, 0.2809549488077818, 1.258031754041186, 0.0, 0.017069350453233528, -0.18080800868822478, -0.33663498714763157, 1.111461586545995, 0.0
0.4299999792196667, -0.004052735680941051, -0.01308683914194402, -0.05981028322020722, 0.3814647987293646, 0.0, -0.4291182039749741, -0.04685375123288171, -0.0056598706354270955, 0.0029557030454805586, 0.30107083185876365, 0.0, -0.0023918089807768404, 0.03893730077431985, 0.12831959810096102, 0.28607609738964207, 1.260240468209585, 0.0, 0.015956890852514654, -0.18184695432271794, -0.34508786106113537, 1.115396291718276, 0.0
0.4299999792196667, -0.004528387888339282, -0.013015894823976028, -0.06085508687780178, 0.38182946782327626, 0.0, -0.42921088793957196, -0.04779848155089128, -0.0051248105618836295, 0.0036880751740492757, 0.3020547298086489, 0.0, -0.0030323062793888756, 0.04070020200122326, 0.13000593382797454, 0.29029318636292034, 1.2621704882030251, 0.0, 0.01564741360740708, -0.18347532208021913, -0.3508977235471496, 1.1177414557275958, 0.0
0.4299999792196667, -0.005004040095737515, -0.012944950506008038, -0.061899890535396344, 0.38219413691718795, 0.0, -0.42930357190416985, -0.04874321186890084, -0.004589750488340165, 0.004420447302617993, 0.30303862775853413, 0.0, -0.00367280357800091, 0.04246310322812667, 0.13169226955498806, 0.29451027533619856, 1.2641005081964656, 0.0, 0.015337936362299498, -0.1851036898377203, -0.3567075860331638, 1.1200866197369157, 0.0
0.4299999792196667, -0.005479692303135747, -0.01287400618804005, -0.0629446941929909, 0.38255880601109965, 0.0, -0.42939625586876784, -0.0496879421869104, -0.004054690414796699, 0.00515281943118671, 0.3040225257084194, 0.0, -0.0043133008766129445, 0.04422600445503008, 0.13337860528200157, 0.29872736430947683, 1.266030528189906, 0.0, 0.015028459117191919, -0.1867320575952215, -0.3625174485191781, 1.1224317837462352, 0.0
0.4299999792196667, -0.005955344510533978, -0.012803061870072057, -0.06398949785058547, 0.38292347510501135, 0.0, -0.42948893983336567, -0.050632672504919964, -0.0035196303412532337, 0.005885191559755427, 0.30500642365830466, 0.0, -0.00495379817522498, 0.04598890568193349, 0.1350649410090151, 0.30294445328275504, 1.2679605481833465, 0.0, 0.014718981872084341, -0.18836042535272265, -0.36832731100519234, 1.1247769477555551, 0.0
0.4299999792196667, -0.00643099671793221, -0.012732117552104065, -0.06503430150818003, 0.38328814419892304, 0.0, -0.42958162379796355, -0.051577402822929524, -0.002984570267709769, 0.006617563688324145, 0.30599032160818995, 0.0, -0.005594295473837015, 0.047751806908836895, 0.1367512767360286, 0.30716154225603326, 1.2698905681767867, 0.0, 0.01440950462697676, -0.18998879311022385, -0.3741371734912066, 1.1271221117648749, 0.0
0.4299999792196667, -0.00804542857986158, -0.013283916205838782, -0.06524003917507587, 0.38357750233561116, 0.0, -0.4294093842354013, -0.05306809726370415, -0.0022324830395368638, 0.007029838487632992, 0.30811255471215243, 0.0, -0.0061284910508953815, 0.048544349402994465, 0.1388194151051548, 0.3105903881792333, 1.2715039330840376, 0.0, 0.014298831553778547, -0.19128139442622635, -0.3783963353714334, 1.128830495887263, 0.0
0.4299999792196667, -0.009659860441790947, -0.013835714859573502, -0.06544577684197171, 0.38386686047229934, 0.0, -0.42923714467283897, -0.05455879170447876, -0.001480395811363959, 0.00744211328694184, 0.3102347878161149, 0.0, -0.00666268662795375, 0.04933689189715202, 0.140887553474281, 0.31401923410243326, 1.2731172979912888, 0.0, 0.014188158480580335, -0.1925739957422289, -0.38265549725166026, 1.130538880009651, 0.0
0.4299999792196667, -0.011274292303720315, -0.014387513513308218, -0.06565151450886754, 0.38415621860898747, 0.0, -0.4290649051102767, -0.056049486145253374, -0.0007283085831910537, 0.007854388086250687, 0.31235702092007744, 0.0, -0.007196882205012117, 0.05012943439130958, 0.1429556918434072, 0.31744808002563335, 1.2747306628985398, 0.0, 0.014077485407382122, -0.1938665970582314, -0.38691465913188694, 1.1322472641320391, 0.0
0.4299999792196667, -0.012888724165649679, -0.014939312167042935, -0.0658572521757634, 0.3844455767456756, 0.0, -0.4288926655477143, -0.05754018058602799, 2.3778644981851153e-05, 0.008266662885559535, 0.3144792540240399, 0.0, -0.007731077782070485, 0.050921976885467145, 0.14502383021253337, 0.3208769259488333, 1.2763440278057907, 0.0, 0.013966812334183908, -0.1951591983742339, -0.3911738210121138, 1.1339556482544273, 0.0
