isaac-sim2real/sage/motion_files/h1_2/amass/0-punch_right03_poses_action_sequence.txt
left_hip_yaw_joint, left_hip_pitch_joint, left_hip_roll_joint, left_knee_joint, left_ankle_pitch_joint, left_ankle_roll_joint, right_hip_yaw_joint, right_hip_pitch_joint, right_hip_roll_joint, right_knee_joint, right_ankle_pitch_joint, right_ankle_roll_joint, torso_joint, left_shoulder_pitch_joint, left_shoulder_roll_joint, left_shoulder_yaw_joint, left_elbow_joint, left_wrist_roll_joint, right_shoulder_pitch_joint, right_shoulder_roll_joint, right_shoulder_yaw_joint, right_elbow_joint, right_wrist_roll_joint
0.4299999792196667, -0.00899527075781072, -0.03181401868498532, -0.06555424207366614, 0.3640815811788889, 0.0, -0.4299999792196667, -0.04152919325334777, -0.022880407791653682, -0.029138608710590964, 0.2734212036756218, 0.0, -0.048415464866249244, 0.007237209503456018, 0.14548382220887202, 0.2779664948334205, 1.2364024994864584, 0.0, -0.013449809157828898, -0.18579773397740987, -0.332330516520023, 1.0732858601907829, 0.0
0.4299999792196667, -0.009357607777682485, -0.03185134988142207, -0.06549078260019534, 0.3643038383871548, 0.0, -0.4299999792196667, -0.04174815353465672, -0.022703796877446822, -0.029060276937498058, 0.273888285199382, 0.0, -0.04817762815094827, 0.007150333087037537, 0.14517757975700005, 0.27779548398265164, 1.2363995847866074, 0.0, -0.013726611291158437, -0.18571868452492854, -0.3320944118694717, 1.073029775010955, 0.0
0.4299999792196667, -0.009719944797554251, -0.03188868107785883, -0.06542732312672453, 0.36452609559542076, 0.0, -0.4299999792196667, -0.04196711381596567, -0.02252718596323996, -0.028981945164405148, 0.2743553667231422, 0.0, -0.047939791435647305, 0.007063456670619057, 0.14487133730512816, 0.2776244731318827, 1.2363966700867568, 0.0, -0.014003413424487975, -0.1856396350724472, -0.33185830721892046, 1.0727736898311266, 0.0
0.4299999792196667, -0.010082281817426016, -0.03192601227429559, -0.06536386365325371, 0.3647483528036867, 0.0, -0.4299999792196667, -0.04218607409727462, -0.022350575049033112, -0.02890361339131224, 0.27482244824690244, 0.0, -0.04770195472034633, 0.006976580254200575, 0.14456509485325622, 0.2774534622811138, 1.2363937553869058, 0.0, -0.01428021555781751, -0.18556058561996588, -0.3316222025683691, 1.0725176046512988, 0.0
0.4299999792196667, -0.010444618837297784, -0.03196334347073235, -0.06530040417978289, 0.36497061001195275, 0.0, -0.4299999792196667, -0.042405034378583575, -0.02217396413482625, -0.028825281618219335, 0.2752895297706627, 0.0, -0.047464118005045366, 0.006889703837782094, 0.1442588524013843, 0.2772824514303449, 1.2363908406870552, 0.0, -0.01455701769114705, -0.18548153616748458, -0.3313860979178178, 1.0722615194714704, 0.0
0.4299999792196667, -0.010806955857169549, -0.032000674667169104, -0.06523694470631208, 0.3651928672202187, 0.0, -0.4299999792196667, -0.04262399465989252, -0.02199735322061939, -0.02874694984512643, 0.27575661129442286, 0.0, -0.04722628128974439, 0.006802827421363613, 0.14395260994951237, 0.277111440579576, 1.2363879259872042, 0.0, -0.014833819824476588, -0.18540248671500323, -0.3311499932672665, 1.0720054342916423, 0.0
0.4299999792196667, -0.011390300080497, -0.03198178077988456, -0.06516880356165572, 0.3654649605599461, 0.0, -0.4299999792196667, -0.04299555675715204, -0.021606831611695458, -0.028469504976846548, 0.27661624878288316, 0.0, -0.046997223580580956, 0.0066469736381375545, 0.14397240896454697, 0.27693662840169625, 1.236336054801835, 0.0, -0.01513318159502521, -0.1853411907516732, -0.33083513587020674, 1.0716080228209632, 0.0
0.4299999792196667, -0.011973644303824455, -0.031962886892600025, -0.06510066241699936, 0.3657370538996736, 0.0, -0.4299999792196667, -0.043367118854411565, -0.021216310002771518, -0.02819206010856667, 0.27747588627134345, 0.0, -0.04676816587141752, 0.006491119854911496, 0.1439922079795816, 0.27676181622381646, 1.2362841836164657, 0.0, -0.015432543365573839, -0.18527989478834314, -0.330520278473147, 1.0712106113502842, 0.0
0.4299999792196667, -0.012556988527151907, -0.03194399300531549, -0.06503252127234299, 0.36600914723940087, 0.0, -0.4299999792196667, -0.043738680951671084, -0.020825788393847584, -0.0279146152402868, 0.2783355237598037, 0.0, -0.04653910816225409, 0.006335266071685438, 0.14401200699461622, 0.2765870040459367, 1.2362323124310965, 0.0, -0.01573190513612246, -0.1852185988250131, -0.33020542107608714, 1.070813199879605, 0.0
0.4299999792196667, -0.013140332750479359, -0.03192509911803095, -0.06496438012768663, 0.3662812405791283, 0.0, -0.4299999792196667, -0.04411024304893061, -0.020435266784923644, -0.02763717037200692, 0.27919516124826393, 0.0, -0.04631005045309066, 0.006179412288459378, 0.14403180600965085, 0.276412191868057, 1.2361804412457271, 0.0, -0.016031266906671088, -0.18515730286168308, -0.3298905636790274, 1.070415788408926, 0.0
0.4299999792196667, -0.013723676973806814, -0.03190620523074641, -0.06489623898303026, 0.3665533339188558, 0.0, -0.4299999792196667, -0.04448180514619013, -0.02004474517599971, -0.027359725503727044, 0.28005479873672423, 0.0, -0.04608099274392722, 0.00602355850523332, 0.14405160502468545, 0.27623737969017725, 1.236128570060358, 0.0, -0.016330628677219714, -0.185096006898353, -0.32957570628196764, 1.070018376938247, 0.0
0.4299999792196667, -0.014150135016749065, -0.031831559593033715, -0.06493805846817145, 0.36670366261798854, 0.0, -0.4299999792196667, -0.04495984140353341, -0.019663623561361167, -0.026864406297998814, 0.28087604945361616, 0.0, -0.045871578366429126, 0.0058963019767077724, 0.14421850038907816, 0.2760102460319812, 1.236014111368012, 0.0, -0.01643307444285695, -0.18525706937238556, -0.329433413078711, 1.069806843032905, 0.0
0.4299999792196667, -0.01457659305969132, -0.031756913955321014, -0.06497987795331264, 0.36685399131712126, 0.0, -0.4299999792196667, -0.0454378776608767, -0.01928250194672262, -0.026369087092270573, 0.2816973001705081, 0.0, -0.04566216398893103, 0.005769045448182226, 0.14438539575347087, 0.27578311237378517, 1.2358996526756663, 0.0, -0.01653552020849419, -0.1854181318464181, -0.32929111987545445, 1.0695953091275634, 0.0
0.4299999792196667, -0.015003051102633575, -0.03168226831760832, -0.06502169743845382, 0.3670043200162541, 0.0, -0.4299999792196667, -0.04591591391821998, -0.018901380332084074, -0.025873767886542342, 0.2825185508874, 0.0, -0.04545274961143295, 0.005641788919656679, 0.14455229111786358, 0.2755559787155891, 1.2357851939833204, 0.0, -0.016637965974131422, -0.18557919432045067, -0.32914882667219786, 1.0693837752222217, 0.0
0.4299999792196667, -0.01542950914557583, -0.03160762267989563, -0.06506351692359501, 0.36715464871538683, 0.0, -0.4299999792196667, -0.04639395017556327, -0.01852025871744553, -0.025378448680814108, 0.2833398016042919, 0.0, -0.04524333523393484, 0.005514532391131133, 0.1447191864822563, 0.2753288450573931, 1.2356707352909746, 0.0, -0.01674041173976866, -0.18574025679448317, -0.3290065334689413, 1.06917224131688, 0.0
0.4299999792196667, -0.015855967188518085, -0.03153297704218293, -0.0651053364087362, 0.3673049774145196, 0.0, -0.4299999792196667, -0.04687198643290655, -0.018139137102806988, -0.024883129475085877, 0.2841610523211838, 0.0, -0.04503392085643675, 0.0053872758626055854, 0.14488608184664897, 0.27510171139919704, 1.235556276598629, 0.0, -0.016842857505405897, -0.18590131926851572, -0.32886424026568467, 1.0689607074115384, 0.0
0.4299999792196667, -0.015830017633199432, -0.031415460532987646, -0.06518345734605546, 0.36726760991523444, 0.0, -0.4299999792196667, -0.04742454615491489, -0.018029877746302887, -0.02410871781026388, 0.28462599407128114, 0.0, -0.04473574671263094, 0.0054390576871171555, 0.14494433395576356, 0.27467490858391436, 1.2353729821205843, 0.0, -0.01674629768813809, -0.1863193326056854, -0.3290247442343566, 1.0690466055360044, 0.0
0.4299999792196667, -0.01580406807788078, -0.031297944023792365, -0.06526157828337473, 0.3672302424159492, 0.0, -0.4299999792196667, -0.047977105876923234, -0.017920618389798793, -0.023334306145441887, 0.2850909358213784, 0.0, -0.04443757256882513, 0.005490839511628725, 0.14500258606487812, 0.2742481057686316, 1.23518968764254, 0.0, -0.016649737870870276, -0.18673734594285504, -0.32918524820302847, 1.0691325036604706, 0.0
0.4299999792196667, -0.01577811852256213, -0.031180427514597087, -0.06533969922069399, 0.3671928749166641, 0.0, -0.4299999792196667, -0.04852966559893158, -0.017811359033294696, -0.022559894480619888, 0.2855558775714757, 0.0, -0.044139398425019315, 0.005542621336140294, 0.14506083817399268, 0.27382130295334894, 1.2350063931644957, 0.0, -0.016553178053602464, -0.18715535928002466, -0.3293457521717004, 1.0692184017849369, 0.0
0.4299999792196667, -0.01575216896724348, -0.031062911005401803, -0.06541782015801327, 0.36715550741737885, 0.0, -0.4299999792196667, -0.049082225320939914, -0.017702099676790598, -0.021785482815797896, 0.2860208193215729, 0.0, -0.043841224281213495, 0.005594403160651863, 0.14511909028310727, 0.27339450013806627, 1.2348230986864512, 0.0, -0.016456618236334652, -0.1875733726171943, -0.3295062561403723, 1.0693042999094027, 0.0
0.4299999792196667, -0.015726219411924827, -0.03094539449620652, -0.06549594109533252, 0.3671181399180936, 0.0, -0.4299999792196667, -0.04963478504294826, -0.017592840320286504, -0.0210110711509759, 0.28648576107167023, 0.0, -0.04354305013740769, 0.005646184985163432, 0.14517734239222183, 0.2729676973227836, 1.2346398042084066, 0.0, -0.016360058419066844, -0.187991385954364, -0.3296667601090442, 1.0693901980338691, 0.0
0.4299999792196667, -0.015518607401038685, -0.030881567107329387, -0.06541647066943562, 0.36690546805807966, 0.0, -0.4299999792196667, -0.05039414812989371, -0.01762915957482295, -0.0199022620809205, 0.2866206820041664, 0.0, -0.04315842878855304, 0.005808542737847047, 0.14510655532841943, 0.2720097594001925, 1.2343543730625357, 0.0, -0.016250185753863593, -0.188233389817787, -0.3296729315932793, 1.0695349277167614, 0.0
0.4299999792196667, -0.015310995390152543, -0.030817739718452256, -0.06533700024353871, 0.3666927961980656, 0.0, -0.4299999792196667, -0.05115351121683916, -0.017665478829359406, -0.0187934530108651, 0.2867556029366626, 0.0, -0.04277380743969841, 0.005970900490530664, 0.14503576826461703, 0.2710518214776014, 1.2340689419166644, 0.0, -0.016140313088660346, -0.18847539368121002, -0.32967910307751436, 1.0696796573996539, 0.0
0.4299999792196667, -0.015103383379266403, -0.030753912329575122, -0.06525752981764181, 0.36648012433805166, 0.0, -0.4299999792196667, -0.0519128743037846, -0.017701798083895857, -0.0176846439408097, 0.28689052386915875, 0.0, -0.04238918609084376, 0.006133258243214279, 0.14496498120081464, 0.27009388355501024, 1.2337835107707933, 0.0, -0.0160304404234571, -0.1887173975446331, -0.32968527456174934, 1.0698243870825461, 0.0
0.4299999792196667, -0.01489577136838026, -0.030690084940697988, -0.0651780593917449, 0.3662674524780376, 0.0, -0.4299999792196667, -0.052672237390730056, -0.017738117338432308, -0.016575834870754303, 0.2870254448016549, 0.0, -0.04200456474198911, 0.006295615995897896, 0.14489419413701227, 0.26913594563241916, 1.233498079624922, 0.0, -0.015920567758253852, -0.1889594014080561, -0.3296914460459844, 1.0699691167654386, 0.0
0.4299999792196667, -0.014688159357494119, -0.03062625755182085, -0.06509858896584798, 0.36605478061802355, 0.0, -0.4299999792196667, -0.053431600477675506, -0.017774436592968755, -0.015467025800698904, 0.2871603657341511, 0.0, -0.04161994339313447, 0.0064579737485815115, 0.14482340707320987, 0.2681780077098281, 1.233212648479051, 0.0, -0.015810695093050605, -0.18920140527147913, -0.3296976175302194, 1.0701138464483309, 0.0
0.4299999792196667, -0.014657278967785903, -0.03062234382550618, -0.06460011350670045, 0.36557469639133594, 0.0, -0.4299999792196667, -0.054571784982628165, -0.01777798414920636, -0.013973700869488851, 0.28699232892442755, 0.0, -0.0411860332480718, 0.006726070842827217, 0.1447236649971169, 0.2663893593857992, 1.2326798692715875, 0.0, -0.01575543587453736, -0.18916877808644234, -0.3292585206156857, 1.0701072421224413, 0.0
0.4299999792196667, -0.014626398578077689, -0.03061843009919151, -0.0641016380475529, 0.36509461216464845, 0.0, -0.4299999792196667, -0.0557119694875808, -0.017781531705443963, -0.0124803759382788, 0.28682429211470406, 0.0, -0.040752123103009144, 0.006994167937072923, 0.14462392292102394, 0.2646007110617704, 1.2321470900641234, 0.0, -0.015700176656024117, -0.18913615090140554, -0.32881942370115197, 1.0701006377965518, 0.0
0.4299999792196667, -0.014595518188369471, -0.030614516372876835, -0.06360316258840536, 0.36461452793796084, 0.0, -0.4299999792196667, -0.056852153992533454, -0.017785079261681568, -0.010987051007068744, 0.28665625530498057, 0.0, -0.04031821295794647, 0.007262265031318628, 0.14452418084493096, 0.2628120627377416, 1.2316143108566597, 0.0, -0.015644917437510876, -0.1891035237163688, -0.32838032678661827, 1.0700940334706621, 0.0
0.4299999792196667, -0.014564637798661255, -0.030610602646562166, -0.06310468712925782, 0.3641344437112733, 0.0, -0.4299999792196667, -0.057992338497486105, -0.01778862681791917, -0.009493726075858695, 0.2864882184952571, 0.0, -0.03988430281288381, 0.007530362125564335, 0.144424438768838, 0.2610234144137128, 1.2310815316491956, 0.0, -0.015589658218997634, -0.189070896531332, -0.32794122987208446, 1.0700874291447728, 0.0
0.4299999792196667, -0.014533757408953041, -0.03060668892024749, -0.06260621167011028, 0.3636543594845857, 0.0, -0.4299999792196667, -0.059132523002438764, -0.017792174374156772, -0.008000401144648641, 0.2863201816855335, 0.0, -0.039450392667821146, 0.007798459219810039, 0.14432469669274503, 0.25923476608968393, 1.230548752441732, 0.0, -0.01553439900048439, -0.18903826934629522, -0.3275021329575507, 1.0700808248188831, 0.0
0.4299999792196667, -0.015330371197750143, -0.030615055679615703, -0.061073430708818925, 0.36286106196099366, 0.0, -0.4299999792196667, -0.06079842476363578, -0.0174943398714234, -0.005995652002981527, 0.286295230458547, 0.0, -0.039016318810874646, 0.008221851661734335, 0.14458137179386032, 0.25616140533787163, 1.2292475047646152, 0.0, -0.015334556706735936, -0.1889372741237993, -0.32626784309185736, 1.0696600608428124, 0.0
0.4299999792196667, -0.01612698498654725, -0.030623422438983916, -0.05954064974752756, 0.36206776443740174, 0.0, -0.4299999792196667, -0.062464326524832796, -0.01719650536869002, -0.003990902861314413, 0.2862702792315605, 0.0, -0.038582244953928146, 0.008645244103658632, 0.14483804689497562, 0.25308804458605927, 1.2279462570874982, 0.0, -0.015134714412987482, -0.1888362789013034, -0.32503355322616395, 1.0692392968667417, 0.0
0.4299999792196667, -0.016923598775344353, -0.030631789198352122, -0.05800786878623621, 0.36127446691380977, 0.0, -0.4299999792196667, -0.06413022828602982, -0.016898670865956648, -0.001986153719647298, 0.28624532800457403, 0.0, -0.03814817109698164, 0.00906863654558293, 0.14509472199609091, 0.2500146838342469, 1.2266450094103813, 0.0, -0.014934872119239028, -0.18873528367880751, -0.32379926336047066, 1.0688185328906707, 0.0
0.4299999792196667, -0.017720212564141455, -0.030640155957720332, -0.05647508782494485, 0.3604811693902178, 0.0, -0.4299999792196667, -0.06579613004722684, -0.01660083636322327, 1.859542201981565e-05, 0.28622037677758755, 0.0, -0.03771409724003514, 0.009492028987507223, 0.14535139709720618, 0.2469413230824346, 1.2253437617332645, 0.0, -0.014735029825490575, -0.1886342884563116, -0.32256497349477725, 1.0683977689146, 0.0
0.4299999792196667, -0.01851682635293856, -0.030648522717088542, -0.0549423068636535, 0.3596878718666259, 0.0, -0.4299999792196667, -0.06746203180842386, -0.016303001860489896, 0.0020233445636869286, 0.28619542555060096, 0.0, -0.03728002338308865, 0.00991542142943152, 0.14560807219832148, 0.2438679623306223, 1.2240425140561475, 0.0, -0.014535187531742122, -0.18853329323381568, -0.3213306836290839, 1.0679770049385293, 0.0
0.4299999792196667, -0.02123480979471096, -0.030966592916235394, -0.05150684509539085, 0.35858883105532796, 0.0, -0.4299999792196667, -0.06993053404719184, -0.015419868226040492, 0.004563774948559609, 0.28690970852829667, 0.0, -0.03670665514760632, 0.010923843105356315, 0.14624767951864132, 0.23874337195947706, 1.2210650521654152, 0.0, -0.013806400169830662, -0.18866472350780789, -0.3182982962267913, 1.066462181320846, 0.0
0.4299999792196667, -0.02395279323648336, -0.03128466311538224, -0.04807138332712822, 0.35748979024403016, 0.0, -0.4299999792196667, -0.07239903628595981, -0.01453673459159109, 0.007104205333432291, 0.2876239915059923, 0.0, -0.036133286912124, 0.01193226478128111, 0.14688728683896118, 0.23361878158833188, 1.2180875902746828, 0.0, -0.013077612807919203, -0.18879615378180006, -0.31526590882449884, 1.0649473577031623, 0.0
0.4299999792196667, -0.026670776678255754, -0.03160273331452909, -0.044635921558865574, 0.35639074943273236, 0.0, -0.4299999792196667, -0.07486753852472777, -0.01365360095714169, 0.009644635718304973, 0.28833827448368804, 0.0, -0.03555991867664169, 0.012940686457205903, 0.14752689415928105, 0.22849419121718667, 1.215110128383951, 0.0, -0.012348825446007742, -0.18892758405579224, -0.31223352142220634, 1.0634325340854789, 0.0
0.4299999792196667, -0.029388760120028154, -0.03192080351367594, -0.04120045979060293, 0.3552917086214345, 0.0, -0.4299999792196667, -0.07733604076349576, -0.012770467322692287, 0.012185066103177654, 0.2890525574613837, 0.0, -0.03498655044115937, 0.013949108133130701, 0.14816650147960092, 0.2233696008460415, 1.2121326664932186, 0.0, -0.01162003808409628, -0.18905901432978445, -0.30920113401991384, 1.0619177104677955, 0.0
0.4299999792196667, -0.03210674356180056, -0.03223887371282279, -0.0377649980223403, 0.35419266781013664, 0.0, -0.4299999792196667, -0.07980454300226372, -0.011887333688242884, 0.014725496488050334, 0.2897668404390794, 0.0, -0.034413182205677045, 0.014957529809055495, 0.1488061087999208, 0.21824501047489625, 1.2091552046024863, 0.0, -0.01089125072218482, -0.18919044460377663, -0.3061687466176213, 1.060402886850112, 0.0
0.4299999792196667, -0.03728952006861459, -0.03341974219170527, -0.032187951812033676, 0.3525189389453761, 0.0, -0.4299999792196667, -0.08371661858452928, -0.010337098003261595, 0.017567763429593847, 0.29158755744278436, 0.0, -0.03398876001949407, 0.017265170531001003, 0.1489080185749447, 0.20981003665820094, 1.2029350605878888, 0.0, -0.008774680415774895, -0.1901871253451035, -0.2992479820627127, 1.0558758518362892, 0.0
0.4299999792196667, -0.04247229657542863, -0.03460061067058776, -0.026610905601727044, 0.3508452100806156, 0.0, -0.4299999792196667, -0.08762869416679483, -0.008786862318280308, 0.020410030371137363, 0.2934082744464893, 0.0, -0.0335643378333111, 0.019572811252946517, 0.14900992834996868, 0.20137506284150555, 1.1967149165732913, 0.0, -0.006658110109364975, -0.19118380608643035, -0.29232721750780405, 1.0513488168224663, 0.0
0.4299999792196667, -0.04765507308224266, -0.03578147914947026, -0.021033859391420412, 0.3491714812158552, 0.0, -0.4299999792196667, -0.09154076974906038, -0.007236626633299022, 0.023252297312680876, 0.2952289914501943, 0.0, -0.03313991564712813, 0.021880451974892023, 0.14911183812499262, 0.1929400890248102, 1.1904947725586936, 0.0, -0.004541539802955052, -0.19218048682775724, -0.2854064529528954, 1.0468217818086434, 0.0
0.4299999792196667, -0.05283784958905669, -0.036962347628352744, -0.015456813181113785, 0.34749775235109465, 0.0, -0.4299999792196667, -0.09545284533132593, -0.005686390948317735, 0.026094564254224385, 0.2970497084538992, 0.0, -0.032715493460945155, 0.024188092696837533, 0.14921374790001657, 0.18450511520811483, 1.1842746285440962, 0.0, -0.0024249694965451296, -0.19317716756908412, -0.2784856883979868, 1.0422947467948205, 0.0
0.4299999792196667, -0.058020626095870734, -0.03814321610723523, -0.009879766970807155, 0.3458240234863341, 0.0, -0.4299999792196667, -0.09936492091359149, -0.004136155263336447, 0.0289368311957679, 0.2988704254576042, 0.0, -0.03229107127476218, 0.026495733418783043, 0.14931565767504051, 0.17607014139141947, 1.1780544845294987, 0.0, -0.00030839919013520744, -0.19417384831041096, -0.2715649238430782, 1.0377677117809976, 0.0
0.4299999792196667, -0.06554421341178418, -0.040834615042907106, -0.002116976172255498, 0.34314256594608156, 0.0, -0.4299853324165839, -0.10540755831101006, -0.0021078344866994024, 0.03164598955471051, 0.30180063430416804, 0.0, -0.03242440849549509, 0.02916980298031186, 0.14793984953227843, 0.163111114979527, 1.165751190883951, 0.0, 0.003409517839885494, -0.19535193159287315, -0.2573005258901122, 1.026601419857979, 0.0
0.4299999792196667, -0.07306780072769763, -0.04352601397857898, 0.005645814626296159, 0.34046110840582905, 0.0, -0.4299706856135012, -0.11145019570842862, -7.951371006235812e-05, 0.03435514791365313, 0.30473084315073173, 0.0, -0.032557745716228, 0.031843872541840686, 0.14656404138951634, 0.15015208856763457, 1.1534478972384035, 0.0, 0.007127434869906196, -0.19653001487533528, -0.24303612793714627, 1.0154351279349598, 0.0
0.4299999792196667, -0.08059138804361109, -0.046217412914250855, 0.013408605424847817, 0.33777965086557654, 0.0, -0.42995603881041844, -0.1174928331058472, 0.0019488070665746864, 0.03706430627259574, 0.3076610519972955, 0.0, -0.03269108293696091, 0.034517942103369496, 0.14518823324675423, 0.13719306215574212, 1.141144603592856, 0.0, 0.010845351899926896, -0.19770809815779744, -0.22877172998418033, 1.004268836011941, 0.0
0.4299999792196667, -0.08811497535952453, -0.048908811849922726, 0.021171396223399475, 0.33509819332532403, 0.0, -0.4299413920073357, -0.12353547050326576, 0.003977127843211731, 0.03977346463153836, 0.31059126084385924, 0.0, -0.03282442015769382, 0.037192011664898314, 0.14381242510399214, 0.12423403574384968, 1.1288413099473082, 0.0, 0.0145632689299476, -0.1988861814402596, -0.21450733203121433, 0.9931025440889221, 0.0
0.4299999792196667, -0.095638562675438, -0.05160021078559459, 0.028934187021951132, 0.33241673578507147, 0.0, -0.429926745204253, -0.12957810790068433, 0.006005448619848776, 0.04248262299048098, 0.313521469690423, 0.0, -0.032957757378426725, 0.03986608122642714, 0.14243661696123006, 0.11127500933195725, 1.1165380163017606, 0.0, 0.0182811859599683, -0.20006426472272176, -0.20024293407824842, 0.9819362521659034, 0.0
0.4299999792196667, -0.10616043715071848, -0.05627160791596939, 0.03925206462173172, 0.32842153401025787, 0.0, -0.4297305422710608, -0.13774764960127545, 0.008164062553563741, 0.04426580145263406, 0.31702881354206075, 0.0, -0.03219397546688108, 0.039259580358556666, 0.14047499254569457, 0.09476432096992872, 1.0949172615004903, 0.0, 0.0198878212266895, -0.19863837261174444, -0.17652485551210007, 0.9601976282989289, 0.0
0.4299999792196667, -0.11668231162599899, -0.060943005046344194, 0.049569942221512314, 0.32442633223544415, 0.0, -0.4295343393378686, -0.14591719130186653, 0.010322676487278708, 0.046048979914787125, 0.32053615739369845, 0.0, -0.03143019355533543, 0.03865307949068618, 0.1385133681301591, 0.0782536326079002, 1.0732965066992202, 0.0, 0.0214944564934107, -0.19721248050076712, -0.1528067769459517, 0.9384590044319544, 0.0
0.4299999792196667, -0.12720418610127948, -0.06561440217671898, 0.05988781982129292, 0.32043113046063043, 0.0, -0.4293381364046764, -0.15408673300245768, 0.012481290420993675, 0.047832158376940215, 0.3240435012453362, 0.0, -0.030666411643789783, 0.038046578622815706, 0.1365517437146236, 0.061742944245871706, 1.0516757518979498, 0.0, 0.023101091760131903, -0.1957865883897898, -0.12908869837980336, 0.91672038056498, 0.0
0.4299999792196667, -0.13772606057655995, -0.07028579930709379, 0.0702056974210735, 0.31643592868581677, 0.0, -0.42914193347148416, -0.16225627470304876, 0.01463990435470864, 0.04961533683909329, 0.32755084509697385, 0.0, -0.029902629732244133, 0.03744007775494523, 0.13459011929908812, 0.04523225588384319, 1.0300549970966795, 0.0, 0.024707727026853095, -0.19436069627881247, -0.105370619813655, 0.8949817566980053, 0.0
0.4299999792196667, -0.14824793505184047, -0.07495719643746858, 0.0805235750208541, 0.31244072691100305, 0.0, -0.42894573053829194, -0.1704258164036399, 0.016798518288423606, 0.05139851530124637, 0.3310581889486116, 0.0, -0.02913884782069849, 0.03683357688707475, 0.13262849488355263, 0.02872156752181468, 1.0084342422954093, 0.0, 0.026314362293574294, -0.19293480416783515, -0.08165254124750665, 0.8732431328310307, 0.0
0.4299999792196667, -0.1603743256150644, -0.0805473369804883, 0.0933805289930363, 0.30643777515918225, 0.0, -0.42864370829255133, -0.17830936391514318, 0.01822341556172729, 0.052096883319624816, 0.3337984955005829, 0.0, -0.025703980860644928, 0.029683516881233298, 0.13238808625106596, 0.013630629806191568, 0.9754256818731155, 0.0, 0.0197785310825774, -0.18998048534298434, -0.053853474483150574, 0.8388988370256008, 0.0
0.4299999792196667, -0.17250071617828833, -0.086137477523508, 0.10623748296521851, 0.30043482340736133, 0.0, -0.4283416860468107, -0.1861929114266464, 0.019648312835030976, 0.052795251338003266, 0.33653880205255415, 0.0, -0.022269113900591372, 0.022533456875391843, 0.13214767761857923, -0.0014603079094315445, 0.9424171214508217, 0.0, 0.013242699871580502, -0.18702616651813356, -0.02605440771879451, 0.8045545412201708, 0.0
0.4299999792196667, -0.18462710674151223, -0.09172761806652774, 0.11909443693740074, 0.2944318716555405, 0.0, -0.42803966380107017, -0.19407645893814968, 0.02107321010833466, 0.05349361935638173, 0.33927910860452537, 0.0, -0.018834246940537817, 0.015383396869550394, 0.13190726898609254, -0.01655124562505466, 0.909408561028528, 0.0, 0.006706868660583606, -0.18407184769328278, 0.0017446590455615538, 0.7702102454147406, 0.0
0.4299999792196667, -0.19675349730473612, -0.09731775860954747, 0.13195139090958294, 0.2884289199037196, 0.0, -0.42773764155532945, -0.20196000644965295, 0.02249810738163834, 0.05419198737476017, 0.3420194151564967, 0.0, -0.015399379980484258, 0.008233336863708942, 0.1316668603536058, -0.03164218334067777, 0.876400000606234, 0.0, 0.00017103744958670992, -0.18111752886843194, 0.029543725809917622, 0.7358659496093105, 0.0
0.4299999792196667, -0.20887988786796008, -0.10290789915256718, 0.14480834488176517, 0.28242596815189874, 0.0, -0.4274356193095889, -0.20984355396115623, 0.023923004654942022, 0.05489035539313862, 0.3447597217084679, 0.0, -0.011964513020430698, 0.0010832768578674843, 0.13142645172111914, -0.04673312105630088, 0.8433914401839402, 0.0, -0.006364793761410187, -0.17816321004358115, 0.057342792574273695, 0.7015216538038804, 0.0
0.4299999792196667, -0.21668032978180038, -0.10551916339002884, 0.15879867727294894, 0.2758479269208873, 0.0, -0.42773764155532945, -0.2120641503311026, 0.023404572402995476, 0.056267768191615, 0.34508069822988524, 0.0, -0.008153362498425125, -0.013301533775729242, 0.13404436531396502, -0.05743864047173962, 0.7981293629063658, 0.0, -0.023608989483966086, -0.1761700929070227, 0.07787611998508895, 0.6541876577740198, 0.0
0.4299999792196667, -0.22448077169564068, -0.10813042762749048, 0.17278900966413274, 0.26926988568987575, 0.0, -0.42803966380107017, -0.21428474670104905, 0.022886140151048926, 0.057645180990091374, 0.34540167475130246, 0.0, -0.004342211976419551, -0.027686344409325967, 0.13666227890681093, -0.06814415988717835, 0.7528672856287913, 0.0, -0.04085318520652198, -0.17417697577046423, 0.0984094473959042, 0.6068536617441594, 0.0
0.4299999792196667, -0.23228121360948098, -0.11074169186495215, 0.18677934205531652, 0.26269184445886423, 0.0, -0.4283416860468107, -0.21650534307099542, 0.022367707899102383, 0.05902259378856775, 0.3457226512727197, 0.0, -0.0005310614544139744, -0.0420711550429227, 0.13928019249965684, -0.07884967930261709, 0.707605208351217, 0.0, -0.058097380929077874, -0.17218385863390576, 0.11894277480671944, 0.5595196657142989, 0.0
0.4299999792196667, -0.2400816555233213, -0.1133529561024138, 0.2007696744465003, 0.25611380322785265, 0.0, -0.42864370829255133, -0.21872593944094187, 0.021849275647155837, 0.06040000658704413, 0.34604362779413705, 0.0, 0.0032800890675915993, -0.056455965676519414, 0.14189810609250272, -0.08955519871805584, 0.6623431310736424, 0.0, -0.07534157665163377, -0.1701907414973473, 0.1394761022175347, 0.5121856696844385, 0.0
0.4299999792196667, -0.2478820974371616, -0.11596422033987544, 0.2147600068376841, 0.24953576199684116, 0.0, -0.42894573053829194, -0.22094653581088824, 0.021330843395209294, 0.0617774193855205, 0.34636460431555427, 0.0, 0.007091239589597173, -0.07084077631011615, 0.14451601968534863, -0.10026071813349459, 0.617081053796068, 0.0, -0.09258577237418969, -0.16819762436078883, 0.16000942962834994, 0.4648516736545781, 0.0
0.4299999792196667, -0.24934026417666683, -0.11416562573350536, 0.2260426738245674, 0.24547996588105678, 0.0, -0.42914193347148416, -0.21628322199841113, 0.019274972247263666, 0.06461695558491634, 0.34247692878529745, 0.0, 0.009190606087831748, -0.09260597979626926, 0.14816801642539165, -0.11164190197533598, 0.5599174122881946, 0.0, -0.11920882232591795, -0.16737611882582612, 0.171204341460443, 0.40755366971956897, 0.0
0.4299999792196667, -0.250798430916172, -0.11236703112713527, 0.23732534081145076, 0.24142416976527234, 0.0, -0.4293381364046764, -0.21161990818593404, 0.017219101099318044, 0.06745649178431218, 0.3385892532550407, 0.0, 0.011289972586066326, -0.11437118328242239, 0.15182001316543467, -0.12302308581717737, 0.502753770780321, 0.0, -0.1458318722776462, -0.1665546132908634, 0.18239925329253606, 0.35025566578455997, 0.0
0.4299999792196667, -0.2522565976556772, -0.11056843652076517, 0.24860800779833406, 0.2373683736494879, 0.0, -0.4295343393378686, -0.20695659437345687, 0.015163229951372415, 0.07029602798370803, 0.3347015777247838, 0.0, 0.013389339084300901, -0.1361363867685755, 0.1554720099054777, -0.13440426965901878, 0.4455901292724475, 0.0, -0.1724549222293745, -0.16573310775590067, 0.1935941651246291, 0.2929576618495509, 0.0
0.4299999792196667, -0.25371476439518237, -0.10876984191439505, 0.25989067478521743, 0.2333125775337035, 0.0, -0.4297305422710608, -0.2022932805609798, 0.013107358803426792, 0.07313556418310387, 0.330813902194527, 0.0, 0.015488705582535475, -0.15790159025472864, 0.15912400664552068, -0.14578545350086017, 0.388426487764574, 0.0, -0.19907797218110276, -0.16491160222093798, 0.20478907695672216, 0.2356596579145419, 0.0
0.4299999792196667, -0.2551729311346876, -0.10697124730802496, 0.27117334177210073, 0.22925678141791905, 0.0, -0.429926745204253, -0.19762996674850267, 0.011051487655481166, 0.07597510038249972, 0.3269262266642702, 0.0, 0.017588072080770054, -0.17966679374088176, 0.1627760033855637, -0.15716663734270156, 0.33126284625670055, 0.0, -0.22570102213283103, -0.16409009668597527, 0.2159839887888152, 0.1783616539795329, 0.0
0.4299999792196667, -0.2522377864969992, -0.10125518579732991, 0.2784930292528207, 0.22599145539233842, 0.0, -0.42985481320446134, -0.18987831725923113, 0.007562504737387592, 0.08223375054918647, 0.31999704264104994, 0.0, 0.018023677638668106, -0.2064118980578605, 0.16573662284901422, -0.17001899411763405, 0.26883798546597965, 0.0, -0.2549628947218441, -0.16483124726217616, 0.22293504876887996, 0.12201470089788664, 0.0
0.4299999792196667, -0.2493026418593108, -0.09553912428663486, 0.28581271673354064, 0.22272612936675773, 0.0, -0.42978288120466956, -0.1821266677699596, 0.004073521819294017, 0.0884924007158732, 0.3130678586178297, 0.0, 0.01845928319656616, -0.23315700237483925, 0.1686972423124647, -0.1828713508925665, 0.20641312467525882, 0.0, -0.28422476731085716, -0.16557239783837704, 0.22988610874894466, 0.06566774781624035, 0.0
0.4299999792196667, -0.24636749722162243, -0.08982306277593981, 0.2931324042142607, 0.219460803341177, 0.0, -0.4297109492048779, -0.17437501828068802, 0.0005845389012004422, 0.09475105088255997, 0.3061386745946094, 0.0, 0.01889488875446421, -0.259902106691818, 0.17165786177591522, -0.19572370766749894, 0.14398826388453798, 0.0, -0.3134866398998702, -0.16631354841457793, 0.23683716872900942, 0.009320794734594061, 0.0
0.4299999792196667, -0.24343235258393403, -0.08410700126524476, 0.3004520916949806, 0.21619547731559635, 0.0, -0.4296390172050861, -0.16662336879141648, -0.002904444016893132, 0.10100970104924671, 0.29920949057138924, 0.0, 0.01933049431236226, -0.28664721100879675, 0.1746184812393657, -0.2085760644424314, 0.08156340309381711, 0.0, -0.3427485124888833, -0.16705469899077885, 0.24378822870907418, -0.04702615834705221, 0.0
0.4299999792196667, -0.24049720794624563, -0.07839093975454971, 0.3077717791757006, 0.2129301512900157, 0.0, -0.42956708520529446, -0.15887171930214491, -0.006393426934986706, 0.10726835121593346, 0.292280306548169, 0.0, 0.019766099870260314, -0.3133923153257755, 0.1775791007028162, -0.22142842121736386, 0.019138542303096223, 0.0, -0.37201038507789636, -0.16779584956697974, 0.2507392886891389, -0.10337311142869851, 0.0
0.4299897201743234, -0.23822422377347136, -0.07263417786382985, 0.3116246737846236, 0.2084872271835049, 0.0, -0.4280696031790589, -0.15425903190621457, -0.008735781034023905, 0.11872309963854888, 0.28519162037526746, 0.0, 0.016166485505071188, -0.3382888681281384, 0.17934395320782334, -0.2351399407512001, -0.0341568516325561, 0.0, -0.3970555352127741, -0.17115201648946818, 0.25698567896502794, -0.14825882939703144, 0.0
0.42997946112898017, -0.2359512396006971, -0.06687741597310998, 0.3154775683935467, 0.20404430307699412, 0.0, -0.4265721211528232, -0.1496463445102842, -0.011078135133061105, 0.13017784806116428, 0.278102934202366, 0.0, 0.012566871139882061, -0.3631854209305014, 0.18110880571283047, -0.24885146028503627, -0.08745224556820842, 0.0, -0.4221006853476519, -0.17450818341195667, 0.263232069240917, -0.19314454736536435, 0.0
0.429969202083637, -0.23367825542792287, -0.06112065408239013, 0.3193304630024698, 0.19960137897048336, 0.0, -0.42507463912658755, -0.14503365711435381, -0.013420489232098305, 0.14163259648377968, 0.27101424802946444, 0.0, 0.008967256774692933, -0.38808197373286435, 0.18287365821783763, -0.26256297981887244, -0.14074763950386074, 0.0, -0.4471458354825296, -0.17786435033444517, 0.26947845951680605, -0.23803026533369726, 0.0
0.42995894303829374, -0.23140527125514862, -0.055363892191670275, 0.32318335761139283, 0.19515845486397254, 0.0, -0.42357715710035193, -0.14042096971842347, -0.015762843331135503, 0.15308734490639508, 0.26392556185656296, 0.0, 0.005367642409503806, -0.4129785265352273, 0.1846385107228448, -0.2762744993527087, -0.19404303343951304, 0.0, -0.47219098561740735, -0.18122051725693364, 0.2757248497926951, -0.28291598330203016, 0.0
0.4299486839929505, -0.22913228708237432, -0.04960713030095041, 0.3270362522203159, 0.19071553075746175, 0.0, -0.42207967507411637, -0.1358082823224931, -0.018105197430172706, 0.1645420933290105, 0.2568368756836614, 0.0, 0.0017680280443146794, -0.43787507933759023, 0.18640336322785192, -0.28998601888654485, -0.24733842737516537, 0.0, -0.49723613575228515, -0.1845766841794221, 0.28197124006858415, -0.32780170127036307, 0.0
0.42974708101105263, -0.23075020031765606, -0.04355068700008272, 0.32880800575718544, 0.18662355047562504, 0.0, -0.41519371238449254, -0.13663681664741945, -0.018199251827299274, 0.17985232573102725, 0.25347363668704387, 0.0, -0.006511574275986829, -0.4534288986166616, 0.18741650242402505, -0.30599183655398066, -0.28654311957220774, 0.0, -0.5136267252159571, -0.19386314828762943, 0.28662305565194907, -0.3583736459211911, 0.0
0.42954547802915477, -0.2323681135529378, -0.03749424369921503, 0.330579759294055, 0.1825315701937882, 0.0, -0.40830774969486866, -0.13746535097234577, -0.01829330622442585, 0.195162558133044, 0.2501103976904263, 0.0, -0.014791176596288338, -0.4689827178957329, 0.1884296416201983, -0.32199765422141646, -0.3257478117692501, 0.0, -0.5300173146796291, -0.2031496123958368, 0.29127487123531404, -0.38894559057201916, 0.0
0.4293438750472569, -0.23398602678821953, -0.03143780039834732, 0.3323515128309245, 0.17843958991195147, 0.0, -0.40142178700524483, -0.1382938852972721, -0.01838736062155242, 0.2104727905350607, 0.24674715869380875, 0.0, -0.02307077891658985, -0.48453653717480427, 0.18944278081637142, -0.33800347188885227, -0.36495250396629253, 0.0, -0.5464079041433011, -0.2124360765040441, 0.29592668681867906, -0.4195175352228472, 0.0
0.42914227206535904, -0.23560394002350127, -0.025381357097479636, 0.33412326636779405, 0.1743476096301147, 0.0, -0.3945358243156209, -0.13912241962219843, -0.018481415018678997, 0.22578302293707747, 0.24338391969719117, 0.0, -0.03135038123689135, -0.5000903564538756, 0.19045592001254466, -0.3540092895562881, -0.40415719616333495, 0.0, -0.5627984936069731, -0.22172254061225144, 0.3005785024020441, -0.4500894798736752, 0.0
0.4289406690834612, -0.237221853258783, -0.01932491379661194, 0.3358950199046636, 0.17025562934827793, 0.0, -0.3876498616259971, -0.13995095394712478, -0.018575469415805568, 0.2410932553390942, 0.2400206807005736, 0.0, -0.03962998355719286, -0.515644175732947, 0.1914690592087178, -0.37001510722372394, -0.4433618883603773, 0.0, -0.5791890830706451, -0.23100900472045877, 0.305230317985409, -0.48066142452450333, 0.0
0.42772447130079394, -0.24301850709301812, -0.012051321159568845, 0.33609274476496354, 0.16991793257262655, 0.0, -0.37407224375237386, -0.1471273394242805, -0.014859815097717608, 0.25009960457433195, 0.24026000722892407, 0.0, -0.04974544031378811, -0.5195827974240694, 0.19268187454329463, -0.38979955923106896, -0.4685110042681379, 0.0, -0.5865564669091635, -0.24769442567335315, 0.30622300541340736, -0.4969180110988657, 0.0
0.4265082735181268, -0.24881516092725328, -0.004777728522525752, 0.33629046962526343, 0.16958023579697518, 0.0, -0.3604946258787507, -0.15430372490143623, -0.011144160779629647, 0.2591059538095697, 0.24049933375727456, 0.0, -0.059860897070383355, -0.523521419115192, 0.19389468987787148, -0.409584011238414, -0.4936601201758984, 0.0, -0.593923850747682, -0.2643798466262475, 0.3072156928414056, -0.513174597673228, 0.0
0.4252920757354595, -0.2546118147614885, 0.0024958641145173413, 0.3364881944855634, 0.1692425390213238, 0.0, -0.3469170080051275, -0.16148011037859192, -0.00742850646154169, 0.2681123030448075, 0.24073866028562504, 0.0, -0.0699763538269786, -0.5274600408063145, 0.19510750521244832, -0.429368463245759, -0.518809236083659, 0.0, -0.6012912345862005, -0.2810652675791419, 0.30820838026940395, -0.5294311842475903, 0.0
0.42407587795279245, -0.2604084685957236, 0.009769456751560433, 0.3366859193458633, 0.16890484224567245, 0.0, -0.3333393901315043, -0.16865649585574766, -0.0037128521434537302, 0.27711865228004523, 0.2409779868139755, 0.0, -0.08009181058357384, -0.531398662497437, 0.19632032054702517, -0.4491529152531041, -0.5439583519914196, 0.0, -0.6086586184247189, -0.2977506885320363, 0.3092010676974022, -0.5456877708219527, 0.0
0.42285968017012515, -0.2662051224299587, 0.017043049388603522, 0.33688364420616324, 0.16856714547002105, 0.0, -0.3197617722578811, -0.17583288133290337, 2.8021746342301017e-06, 0.286125001515283, 0.24121731334232596, 0.0, -0.0902072673401691, -0.5353372841885596, 0.19753313588160204, -0.4689373672604491, -0.5691074678991801, 0.0, -0.6160260022632374, -0.31443610948493067, 0.3101937551254006, -0.5619443573963151, 0.0
0.41949727195023157, -0.2752446364116429, 0.025760885924642807, 0.33655883843236706, 0.17271252933631037, 0.0, -0.30604364490749686, -0.1875750132266912, 0.004203180832351057, 0.2863773831064384, 0.24957057084344297, 0.0, -0.09918038061952697, -0.5317958261313623, 0.19902029603064134, -0.4890896299543594, -0.5815149088318528, 0.0, -0.6163879346808819, -0.336911077291346, 0.3044816939093511, -0.5639177488216676, 0.0
0.41613486373033787, -0.284284150393327, 0.034478722460682086, 0.3362340326585709, 0.17685791320259964, 0.0, -0.2923255175571126, -0.19931714512047907, 0.008403559490067882, 0.28662976469759377, 0.25792382834455996, 0.0, -0.10815349389888484, -0.5282543680741653, 0.20050745617968066, -0.5092418926482698, -0.5939223497645252, 0.0, -0.6167498670985265, -0.35938604509776145, 0.2987696326933016, -0.5658911402470199, 0.0
0.4127724555104443, -0.29332366437501123, 0.04319655899672136, 0.33590922688477476, 0.18100329706888896, 0.0, -0.27860739020672837, -0.21105927701426688, 0.01260393814778471, 0.28688214628874914, 0.2662770858456769, 0.0, -0.11712660717824272, -0.5247129100169678, 0.20199461632872, -0.52939415534218, -0.6063297906971978, 0.0, -0.6171117995161711, -0.38186101290417684, 0.2930575714772521, -0.5678645316723723, 0.0
0.4094100472905507, -0.30236317835669535, 0.05191439553276066, 0.3355844211109786, 0.18514868093517822, 0.0, -0.2648892628563441, -0.22280140890805472, 0.016804316805501537, 0.2871345278799045, 0.2746303433467939, 0.0, -0.1260997204576006, -0.5211714519597708, 0.20348177647775934, -0.5495464180360904, -0.6187372316298704, 0.0, -0.6174737319338155, -0.40433598071059224, 0.2873455102612026, -0.5698379230977247, 0.0
0.4060476390706571, -0.31140269233837947, 0.06063223206879993, 0.33525961533718246, 0.18929406480146752, 0.0, -0.2511711355059599, -0.23454354080184256, 0.021004695463218363, 0.28738690947105994, 0.2829836008479109, 0.0, -0.13507283373695847, -0.5176299939025735, 0.20496893662679866, -0.5696986807300007, -0.631144672562543, 0.0, -0.6178356643514601, -0.4268109485170076, 0.28163344904515314, -0.5718113145230772, 0.0
0.39971670853645996, -0.32515693404164603, 0.06866289233575626, 0.33384292111136316, 0.19425622785110513, 0.0, -0.24256141932455483, -0.24255213417293423, 0.02785756775742196, 0.28696082922208754, 0.29377439216368023, 0.0, -0.13696805779923354, -0.5163962520702653, 0.205396290966125, -0.5872201527918439, -0.6362428421394715, 0.0, -0.614953284507718, -0.45508227345168534, 0.2677525348354354, -0.5594914227963431, 0.0
0.39338577800226276, -0.3389111757449125, 0.07669355260271257, 0.33242622688554385, 0.1992183909007427, 0.0, -0.2339517031431498, -0.2505607275440259, 0.03471044005162556, 0.2865347489731152, 0.3045651834794495, 0.0, -0.1388632818615086, -0.515162510237957, 0.20582364530545133, -0.6047416248536871, -0.6413410117164, 0.0, -0.6120709046639761, -0.48335359838636305, 0.2538716206257176, -0.5471715310696091, 0.0
0.3870548474680656, -0.35266541744817903, 0.08472421286966887, 0.33100953265972455, 0.2041805539503803, 0.0, -0.22534198696174476, -0.25856932091511753, 0.041563312345829155, 0.2861086687241428, 0.3153559747952187, 0.0, -0.14075850592378367, -0.5139287684056488, 0.2062509996447776, -0.6222630969155304, -0.6464391812933286, 0.0, -0.6091885248202338, -0.5116249233210407, 0.2399907064159999, -0.5348516393428752, 0.0
0.38072391693386853, -0.3664196591514455, 0.09275487313662521, 0.32959283843390524, 0.2091427170000179, 0.0, -0.21673227078033971, -0.2665779142862092, 0.04841618464003276, 0.2856825884751705, 0.32614676611098803, 0.0, -0.1426537299860587, -0.5126950265733405, 0.20667835398410395, -0.6397845689773736, -0.6515373508702571, 0.0, -0.6063061449764918, -0.5398962482557184, 0.2261097922062821, -0.5225317476161411, 0.0
0.37439298639967133, -0.38017390085471203, 0.10078553340358151, 0.32817614420808594, 0.2141048800496555, 0.0, -0.20812255459893467, -0.2745865076573008, 0.05526905693423636, 0.2852565082261981, 0.3369375574267573, 0.0, -0.14454895404833376, -0.5114612847410323, 0.20710570832343025, -0.6573060410392167, -0.6566355204471855, 0.0, -0.6034237651327498, -0.5681675731903961, 0.21222887799656437, -0.5102118558894071, 0.0
0.36296980295470993, -0.39913463075894434, 0.10534041095682978, 0.32296516352962557, 0.22180113278846875, 0.0, -0.20251621495699554, -0.2804512398043393, 0.06426664322036571, 0.2870756858495028, 0.342852816855641, 0.0, -0.13647796759994427, -0.5135892145996733, 0.2054401650528616, -0.6727224016770594, -0.6589177688276293, 0.0, -0.6055195948957881, -0.5985993434676794, 0.1879036747818709, -0.48568988914176564, 0.0
0.3515466195097486, -0.4180953606631766, 0.10989528851007803, 0.3177541828511651, 0.229497385527282, 0.0, -0.19690987531505633, -0.2863159719513777, 0.07326422950649504, 0.2888948634728075, 0.3487680762845246, 0.0, -0.12840698115155477, -0.5157171444583143, 0.20377462178229294, -0.6881387623149021, -0.6612000172080732, 0.0, -0.6076154246588263, -0.6290311137449629, 0.16357847156717736, -0.46116792239412424, 0.0
0.34012343606478723, -0.4370560905674089, 0.11445016606332631, 0.3125432021727047, 0.23719363826609524, 0.0, -0.19130353567311714, -0.2921807040984161, 0.08226181579262438, 0.2907140410961122, 0.3546833357134084, 0.0, -0.12033599470316528, -0.5178450743169554, 0.2021090785117243, -0.7035551229527449, -0.6634822655885171, 0.0, -0.6097112544218647, -0.6594628840222463, 0.13925326835248386, -0.43664595564648273, 0.0
0.32870025261982583, -0.45601682047164116, 0.11900504361657457, 0.30733222149424433, 0.24488989100490852, 0.0, -0.18569719603117799, -0.2980454362454546, 0.09125940207875372, 0.29253321871941695, 0.360598595142292, 0.0, -0.11226500825477576, -0.5199730041755963, 0.20044353524115563, -0.7189714835905876, -0.665764513968961, 0.0, -0.611807084184903, -0.6898946542995297, 0.11492806513779037, -0.4121239888988413, 0.0
0.31727706917486437, -0.47497755037587347, 0.12355992116982281, 0.3021212408157839, 0.25258614374372174, 0.0, -0.1800908563892388, -0.30391016839249296, 0.10025698836488307, 0.29435239634272164, 0.36651385457117563, 0.0, -0.10419402180638627, -0.5221009340342374, 0.19877799197058696, -0.7343878442284304, -0.6680467623494047, 0.0, -0.6139029139479414, -0.720326424576813, 0.09060286192309687, -0.3876020221511999, 0.0
0.3030027647330641, -0.4944989393770409, 0.12427924954532014, 0.29430152697634304, 0.2644616711522395, 0.0, -0.17535615511969663, -0.31344649383641576, 0.10893103982597757, 0.292743743824451, 0.3684976237242604, 0.0, -0.09038859518121238, -0.5206849588840698, 0.19629266755035657, -0.7459843109428468, -0.6643335394592018, 0.0, -0.6231308676383047, -0.7422116875168816, 0.059255851458043185, -0.3605967066960413, 0.0
0.28872846029126387, -0.5140203283782084, 0.1249985779208175, 0.28648181313690224, 0.27633719856075734, 0.0, -0.17062145385015445, -0.3229828192803387, 0.11760509128707207, 0.29113509130618037, 0.3704813928773453, 0.0, -0.07658316855603847, -0.5192689837339024, 0.19380734313012615, -0.7575807776572633, -0.6606203165689988, 0.0, -0.6323588213286683, -0.76409695045695, 0.0279088409929895, -0.3335913912408827, 0.0
0.2744541558494636, -0.5335417173793757, 0.12571790629631488, 0.27866209929746133, 0.28821272596927505, 0.0, -0.16588675258061225, -0.3325191447242615, 0.12627914274816654, 0.28952643878790973, 0.37246516203043, 0.0, -0.06277774193086458, -0.5178530085837348, 0.1913220187098958, -0.7691772443716798, -0.6569070936787959, 0.0, -0.6415867750190317, -0.7859822133970187, -0.003438169472064192, -0.3065860757857242, 0.0
0.2601798514076633, -0.5530631063805432, 0.12643723467181223, 0.27084238545802053, 0.3000882533777928, 0.0, -0.16115205131107008, -0.3420554701681844, 0.13495319420926105, 0.28791778626963904, 0.37444893118351474, 0.0, -0.04897231530569068, -0.5164370334335674, 0.1888366942896654, -0.7807737110860961, -0.6531938707885929, 0.0, -0.6508147287093953, -0.8078674763370873, -0.03478517993711787, -0.27958076033056556, 0.0
0.24590554696586306, -0.5725844953817106, 0.12715656304730957, 0.26302267161857973, 0.3119637807863106, 0.0, -0.15641735004152788, -0.3515917956121072, 0.14362724567035554, 0.2863091337513684, 0.3764327003365996, 0.0, -0.03516688868051678, -0.5150210582833998, 0.18635136986943499, -0.7923701778005124, -0.6494806478983898, 0.0, -0.6600426823997587, -0.8297527392771558, -0.06613219040217154, -0.25257544487540706, 0.0
0.23806779340327364, -0.5841710207007078, 0.12767632209855348, 0.25751066004139384, 0.31965768780260917, 0.0, -0.15565119936912142, -0.36098403016364394, 0.14761966888100006, 0.2831063917421057, 0.37779591069282076, 0.0, -0.026236600894080937, -0.5093399382643298, 0.18644369429620697, -0.798773710540934, -0.6459628181086062, 0.0, -0.6638591834031192, -0.8387977196300571, -0.08956730432174768, -0.23615836829500683, 0.0
0.23023003984068421, -0.5957575460197048, 0.1281960811497974, 0.25199864846420794, 0.3273515948189078, 0.0, -0.154885048696715, -0.3703762647151806, 0.15161209209164458, 0.2799036497328431, 0.379159121049042, 0.0, -0.017306313107645098, -0.5036588182452596, 0.18653601872297898, -0.8051772432813558, -0.6424449883188225, 0.0, -0.6676756844064796, -0.8478426999829586, -0.11300241824132379, -0.21974129171460655, 0.0
0.22239228627809474, -0.6073440713387017, 0.12871584020104132, 0.24648663688702205, 0.3350455018352063, 0.0, -0.15411889802430853, -0.37976849926671724, 0.15560451530228908, 0.2767009077235804, 0.3805223314052631, 0.0, -0.008376025321209258, -0.49797769822618954, 0.18662834314975096, -0.8115807760217773, -0.6389271585290387, 0.0, -0.6714921854098402, -0.8568876803358599, -0.1364375321608999, -0.20332421513420632, 0.0
0.2145545327155053, -0.6189305966576988, 0.1292355992522852, 0.24097462530983615, 0.3427394088515049, 0.0, -0.15335274735190207, -0.38916073381825395, 0.15959693851293358, 0.27349816571431773, 0.3818855417614843, 0.0, 0.0005542624652265869, -0.49229657820711936, 0.18672066757652298, -0.817984308762199, -0.6354093287392549, 0.0, -0.6753086864132006, -0.8659326606887614, -0.15987264608047602, -0.18690713855380606, 0.0
0.20671677915291586, -0.630517121976696, 0.1297553583035291, 0.23546261373265026, 0.35043331586780346, 0.0, -0.15258659667949562, -0.39855296836979065, 0.1635893617235781, 0.27029542370505505, 0.38324875211770554, 0.0, 0.00948455025166243, -0.48661545818804924, 0.18681299200329496, -0.8243878415026206, -0.6318914989494713, 0.0, -0.6791251874165611, -0.8749776410416628, -0.18330776000005217, -0.17049006197340583, 0.0
0.2077985586579115, -0.6302883930875636, 0.1294726819853493, 0.23569168819697453, 0.35125754411639926, 0.0, -0.15334154233810426, -0.40025457014270555, 0.1634223686207473, 0.2717935968816745, 0.3852214419206987, 0.0, 0.008704089554905703, -0.4814133333102134, 0.19353994472608665, -0.8214538767075065, -0.6333994075726584, 0.0, -0.6727290723254605, -0.8714863437471679, -0.1932399924408389, -0.1688783690915782, 0.0
0.20888033816290708, -0.6300596641984311, 0.1291900056671695, 0.2359207626612988, 0.3520817723649951, 0.0, -0.1540964879967129, -0.4019561719156205, 0.16325537551791647, 0.27329177005829386, 0.3871941317236918, 0.0, 0.007923628858148976, -0.47621120843237763, 0.20026689744887827, -0.8185199119123924, -0.6349073161958453, 0.0, -0.6663329572343598, -0.8679950464526729, -0.20317222488162562, -0.16726667620975055, 0.0
0.2099621176679027, -0.6298309353092988, 0.1289073293489897, 0.23614983712562304, 0.3529060006135909, 0.0, -0.15485143365532156, -0.4036577736885353, 0.16308838241508564, 0.2747899432349133, 0.38916682152668497, 0.0, 0.00714316816139225, -0.47100908355454185, 0.20699385017166996, -0.8155859471172785, -0.6364152248190323, 0.0, -0.6599368421432593, -0.8645037491581781, -0.21310445732241237, -0.16565498332792292, 0.0
0.21104389717289831, -0.6296022064201664, 0.1286246530308099, 0.2363789115899473, 0.35373022886218675, 0.0, -0.1556063793139302, -0.4053593754614501, 0.1629213893122548, 0.27628811641153267, 0.391139511329678, 0.0, 0.006362707464635523, -0.46580695867670613, 0.2137208028944616, -0.8126519823221642, -0.6379231334422194, 0.0, -0.6535407270521586, -0.8610124518636831, -0.22303668976319907, -0.16404329044609528, 0.0
0.21212567667789392, -0.629373477531034, 0.1283419767126301, 0.23660798605427158, 0.35455445711078254, 0.0, -0.15636132497253885, -0.40706097723436496, 0.162754396209424, 0.2777862895881521, 0.39311220113267115, 0.0, 0.005582246767878797, -0.4606048337988703, 0.2204477556172533, -0.8097180175270503, -0.6394310420654065, 0.0, -0.647144611961058, -0.8575211545691883, -0.2329689222039858, -0.16243159756426767, 0.0
0.2196759710220214, -0.6187572784816588, 0.1266808609933079, 0.2397203793494755, 0.3500737291726736, 0.0, -0.1593660907940893, -0.4027305919580228, 0.15868623967187698, 0.28238597218676, 0.39465140350934647, 0.0, -0.003264561152489286, -0.45523264403872016, 0.22888010445875367, -0.7988345108307565, -0.6497963081469055, 0.0, -0.631258523880309, -0.8416643496226294, -0.2295412910299452, -0.1758002314585863, 0.0
0.22722626536614884, -0.6081410794322835, 0.1250197452739857, 0.2428327726446794, 0.3455930012345646, 0.0, -0.16237085661563974, -0.39840020668168064, 0.1546180831343299, 0.2869856547853679, 0.3961906058860218, 0.0, -0.01211136907285737, -0.4498604542785701, 0.23731245330025402, -0.787951004134463, -0.6601615742284046, 0.0, -0.61537243579956, -0.8258075446760702, -0.22611365985590454, -0.18916886535290495, 0.0
0.23477655971027633, -0.5975248803829081, 0.12335862955466348, 0.24594516593988333, 0.3411122732964556, 0.0, -0.16537562243719023, -0.3940698214053384, 0.15054992659678287, 0.2915853373839758, 0.39772980826269705, 0.0, -0.020958176993225452, -0.4444882645184199, 0.24574480214175437, -0.7770674974381692, -0.6705268403099036, 0.0, -0.599486347718811, -0.8099507397295111, -0.22268602868186388, -0.20253749924722358, 0.0
0.2423268540544038, -0.5869086813335329, 0.12169751383534128, 0.24905755923508724, 0.3366315453583466, 0.0, -0.16838038825874066, -0.3897394361289963, 0.14648177005923582, 0.29618501998258373, 0.39926901063937237, 0.0, -0.029804984913593537, -0.4391160747582698, 0.2541771509832547, -0.7661839907418754, -0.6808921063914027, 0.0, -0.583600259638062, -0.7940939347829521, -0.21925839750782322, -0.21590613314154222, 0.0
0.24987714839853126, -0.5762924822841576, 0.12003639811601909, 0.2521699525302912, 0.33215081742023767, 0.0, -0.1713851540802911, -0.3854090508526541, 0.1424136135216888, 0.30078470258119167, 0.4008082130160477, 0.0, -0.03865179283396161, -0.4337438849981196, 0.2626094998247551, -0.7553004840455818, -0.6912573724729018, 0.0, -0.567714171557313, -0.7782371298363931, -0.21583076633378262, -0.2292747670358609, 0.0
0.2614530970222612, -0.5601876206723297, 0.11884003879282759, 0.25368186493878225, 0.3260982634110752, 0.0, -0.17538093530441645, -0.381982753110162, 0.13781551219138316, 0.3031953234187782, 0.3985700167459242, 0.0, -0.054220729805947866, -0.4263183851861683, 0.2714750603305515, -0.7359756749687248, -0.7031908727378537, 0.0, -0.5430955694196472, -0.7493993582929807, -0.19923174057512535, -0.2577349907008112, 0.0
0.2730290456459912, -0.5440827590605017, 0.1176436794696361, 0.25519377734727344, 0.3200457094019126, 0.0, -0.17937671652854179, -0.37855645536766985, 0.13321741086107758, 0.30560594425636467, 0.3963318204758007, 0.0, -0.06978966677793412, -0.41889288537421693, 0.28034062083634786, -0.7166508658918681, -0.7151243730028056, 0.0, -0.5184769672819813, -0.7205615867495682, -0.1826327148164681, -0.2861952143657615, 0.0
0.28460499426972113, -0.5279778974486737, 0.11644732014644463, 0.2567056897557645, 0.31399315539275, 0.0, -0.18337249775266712, -0.37513015762517776, 0.128619309530772, 0.3080165650939512, 0.3940936242056771, 0.0, -0.0853586037499204, -0.41146738556226553, 0.28920618134214426, -0.6973260568150113, -0.7270578732677577, 0.0, -0.49385836514431547, -0.6917238152061558, -0.16603368905781085, -0.3146554380307117, 0.0
0.2961809428934511, -0.5118730358368457, 0.11525096082325312, 0.25821760216425566, 0.3079406013835875, 0.0, -0.18736827897679248, -0.37170385988268556, 0.1240212082004664, 0.3104271859315378, 0.3918554279355536, 0.0, -0.10092754072190666, -0.40404188575031413, 0.29807174184794066, -0.6780012477381544, -0.7389913735327097, 0.0, -0.4692397630066496, -0.6628860436627433, -0.14943466329915361, -0.34311566169566204, 0.0
0.30775689151718105, -0.49576817422501773, 0.11405460150006164, 0.2597295145727468, 0.30188804737442493, 0.0, -0.1913640602009178, -0.3682775621401935, 0.1194231068701608, 0.3128378067691243, 0.3896172316654301, 0.0, -0.11649647769389289, -0.3966163859383628, 0.306937302353737, -0.6586764386612975, -0.7509248737976618, 0.0, -0.4446211608689838, -0.6340482721193309, -0.13283563754049635, -0.3715758853606123, 0.0
0.319534956249609, -0.4795378548558979, 0.11294815595487928, 0.25813574971299563, 0.29685195566833134, 0.0, -0.19401803578676843, -0.36356094946301903, 0.11858380037309114, 0.313950283125004, 0.38086202134692027, 0.0, -0.13202363706864, -0.3845847178843031, 0.31241228153485406, -0.6361397629938486, -0.7583062691394152, 0.0, -0.41530391247346343, -0.5978579206201153, -0.10559699135637984, -0.40933299798539213, 0.0
0.33131302098203685, -0.46330753548677805, 0.11184171040969694, 0.2565419848532445, 0.29181586396223774, 0.0, -0.19667201137261903, -0.3588443367858445, 0.11774449387602151, 0.3150627594808837, 0.37210681102841053, 0.0, -0.14755079644338712, -0.37255304983024345, 0.3178872607159712, -0.6136030873263998, -0.7656876644811688, 0.0, -0.3859866640779431, -0.5616675691208999, -0.07835834517226335, -0.4470901106101719, 0.0
0.3430910857144648, -0.44707721611765816, 0.1107352648645146, 0.2549482199934933, 0.2867797722561442, 0.0, -0.19932598695846965, -0.35412772410866994, 0.11690518737895186, 0.3161752358367634, 0.36335160070990075, 0.0, -0.16307795581813425, -0.3605213817761838, 0.3233622398970883, -0.5910664116589508, -0.7730690598229221, 0.0, -0.3566694156824227, -0.5254772176216843, -0.051119698988146854, -0.4848472232349517, 0.0
0.35486915044689266, -0.4308468967485384, 0.10962881931933226, 0.25335445513374216, 0.28174368055005056, 0.0, -0.20197996254432024, -0.3494111114314954, 0.1160658808818822, 0.317287712192643, 0.35459639039139096, 0.0, -0.1786051151928814, -0.3484897137221241, 0.32883721907820535, -0.5685297359915019, -0.7804504551646757, 0.0, -0.32735216728690236, -0.48928686612246874, -0.02388105280403036, -0.5226043358597315, 0.0
0.3666472151793206, -0.41461657737941854, 0.1085223737741499, 0.25176069027399106, 0.276707588843957, 0.0, -0.20463393813017086, -0.3446944987543209, 0.11522657438481257, 0.31840018854852276, 0.34584118007288117, 0.0, -0.19413227456762847, -0.3364580456680644, 0.3343121982593224, -0.545993060324053, -0.7878318505064292, 0.0, -0.29803491889138206, -0.4530965146232533, 0.0033575933800861347, -0.5603614484845113, 0.0
0.37523910456774573, -0.3997941243607614, 0.10576096270086352, 0.24968523548464047, 0.2722384429107643, 0.0, -0.2125921787523425, -0.3341984167547264, 0.11444033287832055, 0.32129974941342154, 0.33459696618007784, 0.0, -0.20160423504426792, -0.3217730163840508, 0.3334900678964875, -0.5304018176951604, -0.7880705591882244, 0.0, -0.2762158388365491, -0.42604454651718887, 0.030953462175954113, -0.5903448576395913, 0.0
0.3838309939561709, -0.38497167134210436, 0.10299955162757715, 0.24760978069528994, 0.2677692969775715, 0.0, -0.22055041937451408, -0.3237023347551318, 0.11365409137182854, 0.3241993102783203, 0.32335275228727445, 0.0, -0.20907619552090742, -0.3070879871000372, 0.33266793753365254, -0.5148105750662679, -0.7883092678700198, 0.0, -0.2543967587817162, -0.3989925784111245, 0.058549330971822085, -0.6203282667946715, 0.0
0.392422883344596, -0.3701492183234472, 0.10023814055429078, 0.2455343259059394, 0.2633001510443788, 0.0, -0.2285086599966857, -0.3132062527555374, 0.11286784986533653, 0.32709887114321895, 0.312108538394471, 0.0, -0.21654815599754687, -0.2924029578160236, 0.3318458071708177, -0.4992193324373752, -0.788547976551815, 0.0, -0.23257767872688326, -0.37194061030506015, 0.08614519976769006, -0.6503116759497515, 0.0
0.4010147727330212, -0.35532676530479007, 0.09747672948100441, 0.24345887111658884, 0.25883100511118606, 0.0, -0.23646690061885733, -0.30271017075594275, 0.11208160835884452, 0.3299984320081177, 0.3008643245016676, 0.0, -0.22402011647418635, -0.27771792853201, 0.3310236768079827, -0.4836280898084827, -0.7887866852336102, 0.0, -0.21075859867205035, -0.34488864219899573, 0.11374106856355802, -0.6802950851048315, 0.0
0.4096066621214464, -0.3405043122861329, 0.09471531840771803, 0.24138341632723828, 0.2543618591779933, 0.0, -0.24442514124102893, -0.2922140887563483, 0.11129536685235249, 0.33289799287301647, 0.2896201106088642, 0.0, -0.2314920769508258, -0.2630328992479964, 0.33020154644514776, -0.4680368471795901, -0.7890253939154055, 0.0, -0.1889395186172174, -0.31783667409293137, 0.141336937359426, -0.7102784942599115, 0.0
0.41304891217330175, -0.3290330729455471, 0.09048390377193945, 0.23969377704101658, 0.2489231409574157, 0.0, -0.25851144230646295, -0.27891464494956647, 0.10765447459514238, 0.3344836733676724, 0.2823854381160089, 0.0, -0.2305018347291095, -0.25183135167408727, 0.32613959978907936, -0.46081076519731307, -0.7851438619441156, 0.0, -0.1799962176558787, -0.305728696753316, 0.15733531643358983, -0.7266544473924763, 0.0
0.4164911622251571, -0.3175618336049613, 0.08625248913616083, 0.2380041377547949, 0.24348442273683804, 0.0, -0.2725977433718969, -0.26561520114278464, 0.10401358233793224, 0.3360693538623283, 0.2751507656231536, 0.0, -0.22951159250739325, -0.24062980410017815, 0.3220776531330109, -0.4535846832150361, -0.7812623299728259, 0.0, -0.17105291669453998, -0.2936207194137006, 0.17333369550775363, -0.7430304005250411, 0.0
0.4199334122770124, -0.30609059426437557, 0.08202107450038225, 0.2363144984685732, 0.23804570451626036, 0.0, -0.2866840444373308, -0.2523157573360028, 0.10037269008072211, 0.33765503435698413, 0.2679160931302983, 0.0, -0.22852135028567697, -0.229428256526269, 0.31801570647694244, -0.44635860123275906, -0.7773807980015361, 0.0, -0.16210961573320126, -0.2815127420740852, 0.18933207458191745, -0.7594063536576059, 0.0
0.4233756623288677, -0.29461935492378977, 0.07778965986460366, 0.23462485918235151, 0.23260698629568274, 0.0, -0.30077034550276477, -0.23901631352922095, 0.09673179782351199, 0.33924071485164004, 0.260681420637443, 0.0, -0.22753110806396068, -0.21822670895235988, 0.31395375982087403, -0.43913251925048213, -0.7734992660302464, 0.0, -0.15316631477186252, -0.26940476473446984, 0.20533045365608124, -0.7757823067901705, 0.0
0.4268179123807231, -0.2831481155832039, 0.07355824522882505, 0.23293521989612978, 0.2271682680751051, 0.0, -0.31485664656819873, -0.22571686972243915, 0.09309090556630187, 0.34082639534629594, 0.2534467481445876, 0.0, -0.22654086584224445, -0.20702516137845073, 0.3098918131648055, -0.43190643726820505, -0.7696177340589565, 0.0, -0.14422301381052383, -0.25729678739485445, 0.2213288327302451, -0.7921582599227353, 0.0
0.4274226619852221, -0.27569003396477626, 0.06984848576998974, 0.2315528720046605, 0.22208166654045883, 0.0, -0.32732528921642173, -0.21442662451594366, 0.09073975333231855, 0.3366919512037581, 0.2516553666349502, 0.0, -0.2223673141071572, -0.2012349547904725, 0.3055615256269015, -0.42465413694990467, -0.7666466670546035, 0.0, -0.1464545952827823, -0.25682951039421803, 0.22546687923235897, -0.7974596102592054, 0.0
0.4280274115897212, -0.26823195234634867, 0.06613872631115442, 0.23017052411319117, 0.21699506500581253, 0.0, -0.3397939318646447, -0.2031363793094482, 0.0883886010983352, 0.33255750706122034, 0.24986398512531274, 0.0, -0.21819376237206994, -0.19544474820249422, 0.30123123808899743, -0.4174018366316042, -0.7636756000502506, 0.0, -0.14868617675504073, -0.25636223339358155, 0.2296049257344729, -0.8027609605956757, 0.0
0.42863216119422015, -0.26077387072792113, 0.06242896685231911, 0.22878817622172187, 0.21190846347116624, 0.0, -0.35226257451286774, -0.19184613410295268, 0.08603744886435187, 0.32842306291868256, 0.2480726036156753, 0.0, -0.21402021063698276, -0.18965454161451592, 0.2969009505510933, -0.4101495363133037, -0.7607045330458977, 0.0, -0.1509177582272992, -0.2558949563929451, 0.2337429722365868, -0.8080623109321459, 0.0
0.42923691079871923, -0.25331578910949354, 0.05871920739348378, 0.22740582833025258, 0.20682186193651997, 0.0, -0.3647312171610907, -0.18055588889645718, 0.08368629663036854, 0.3242886187761448, 0.24628122210603784, 0.0, -0.2098466589018955, -0.18386433502653762, 0.29257066301318924, -0.4028972359950032, -0.7577334660415447, 0.0, -0.15314933969955763, -0.2554276793923087, 0.23788101873870068, -0.813363661268616, 0.0
0.42984166040321825, -0.2458577074910659, 0.05500944793464846, 0.22602348043878326, 0.20173526040187365, 0.0, -0.3771998598093137, -0.1692656436899617, 0.08133514439638521, 0.320154174633607, 0.2444898405964004, 0.0, -0.2056731071668083, -0.17807412843855938, 0.28824037547528514, -0.3956449356767028, -0.7547623990371919, 0.0, -0.1553809211718161, -0.2549604023916722, 0.24201906524081462, -0.8186650116050862, 0.0
0.4298733241665079, -0.24232687499835484, 0.05173106963878967, 0.22574628201099378, 0.19996421197802192, 0.0, -0.3843450387994437, -0.16274025904248288, 0.08144075042969902, 0.31001809471750436, 0.2456767779341579, 0.0, -0.20056310076689274, -0.1761563327312, 0.2850025523480574, -0.38674998731696125, -0.7514638314706777, 0.0, -0.1621104360379497, -0.25636247075835983, 0.24385386530625391, -0.818690608603896, 0.0
0.4299049879297976, -0.23879604250564376, 0.04845269134293088, 0.22546908358320425, 0.1981931635541702, 0.0, -0.3914902177895738, -0.156214874395004, 0.08154635646301284, 0.29988201480140164, 0.24686371527191545, 0.0, -0.1954530943669772, -0.17423853702384057, 0.2817647292208296, -0.37785503895721984, -0.7481652639041635, 0.0, -0.16883995090408327, -0.2577645391250475, 0.24568866537169323, -0.8187162056027056, 0.0
0.42993665169308726, -0.23526521001293274, 0.04517431304707208, 0.22519188515541474, 0.19642211513031854, 0.0, -0.3986353967797039, -0.14968948974752516, 0.08165196249632668, 0.289745934885299, 0.24805065260967293, 0.0, -0.19034308796706173, -0.17232074131648117, 0.2785269060936019, -0.36896009059747836, -0.7448666963376493, 0.0, -0.17556946577021687, -0.259166607491735, 0.24752346543713252, -0.8187418026015155, 0.0
0.4299683154563769, -0.23173437752022166, 0.04189593475121329, 0.22491468672762527, 0.19465106670646679, 0.0, -0.4057805757698339, -0.14316410510004635, 0.08175756852964049, 0.2796098549691963, 0.24923758994743048, 0.0, -0.18523308156714616, -0.17040294560912173, 0.27528908296637417, -0.36006514223773695, -0.7415681287711351, 0.0, -0.18229898063635044, -0.26056867585842264, 0.24935826550257187, -0.8187673996003252, 0.0
0.4299999792196667, -0.22820354502751058, 0.03861755645535449, 0.22463748829983576, 0.19288001828261506, 0.0, -0.41292575475996396, -0.1366387204525675, 0.08186317456295432, 0.26947377505309367, 0.250424527285188, 0.0, -0.1801230751672306, -0.16848514990176236, 0.2720512598391464, -0.3511701938779955, -0.7382695612046208, 0.0, -0.18902849550248402, -0.26197074422511024, 0.2511930655680112, -0.8187929965991351, 0.0
0.4299999792196667, -0.22706082909701084, 0.03526253621418457, 0.22581490137586513, 0.1936757802111109, 0.0, -0.41573180088354084, -0.13473366704501105, 0.08113029754553958, 0.258617446623912, 0.2520973957026273, 0.0, -0.17436822894989776, -0.16928415465200833, 0.2690041697832351, -0.347535315327256, -0.7325862804679368, 0.0, -0.19764610406276661, -0.2622327739963706, 0.2562217832580151, -0.8186706664718626, 0.0
0.4299999792196667, -0.2259181131665111, 0.03190751597301465, 0.22699231445189455, 0.19447154213960663, 0.0, -0.4185378470071177, -0.1328286136374546, 0.08039742052812485, 0.24776111819473037, 0.25377026412006654, 0.0, -0.16861338273256488, -0.17008315940225435, 0.2659570797273238, -0.3439004367765165, -0.7269029997312527, 0.0, -0.20626371262304918, -0.26249480376763107, 0.261250500948019, -0.8185483363445905, 0.0
0.4299999792196667, -0.22477539723601134, 0.028552495731844728, 0.22816972752792392, 0.19526730406810244, 0.0, -0.42134389313069465, -0.13092356022989818, 0.0796645435107101, 0.2369047897655487, 0.25544313253750583, 0.0, -0.16285853651523202, -0.17088216415250035, 0.2629099896714125, -0.34026555822577714, -0.7212197189945687, 0.0, -0.2148813211833317, -0.26275683353889145, 0.2662792186380229, -0.8184260062173181, 0.0
0.4299999792196667, -0.2236326813055116, 0.02519747549067481, 0.22934714060395334, 0.1960630659965982, 0.0, -0.42414993925427147, -0.12901850682234176, 0.07893166649329537, 0.22604846133636702, 0.25711600095494513, 0.0, -0.15710369029789917, -0.17168116890274635, 0.25986289961550113, -0.3366306796750376, -0.7155364382578846, 0.0, -0.22349892974361427, -0.2630188633101519, 0.2713079363280268, -0.818303676090046, 0.0
0.4299999792196667, -0.22248996537501187, 0.021842455249504896, 0.2305245536799827, 0.19685882792509402, 0.0, -0.4269559853778484, -0.1271134534147853, 0.07819878947588065, 0.21519213290718536, 0.25878886937238443, 0.0, -0.15134884408056626, -0.17248017365299234, 0.2568158095595899, -0.33299580112429816, -0.7098531575212006, 0.0, -0.23211653830389684, -0.26328089308141234, 0.27633665401803065, -0.8181813459627735, 0.0
0.4299436748979973, -0.22149193374884393, 0.017821281404625206, 0.23382084533715228, 0.19921784984867458, 0.0, -0.4275317834607153, -0.12850200804614056, 0.07565323723382242, 0.20920585952169657, 0.2613147308098216, 0.0, -0.14528295366152338, -0.17393324054042322, 0.25257958479639275, -0.3333647881627793, -0.704409280107354, 0.0, -0.23965032532395894, -0.2646524286581655, 0.28294869775352954, -0.8178668934821003, 0.0
0.429887370576328, -0.22049390212267603, 0.013800107559745523, 0.23711713699432183, 0.2015768717722552, 0.0, -0.4281075815435823, -0.12989056267749582, 0.0731076849917642, 0.20321958613620777, 0.2638405922472588, 0.0, -0.13921706324248048, -0.17538630742785408, 0.24834336003319568, -0.33373377520126046, -0.6989654026935075, 0.0, -0.24718411234402105, -0.26602396423491875, 0.28956074148902844, -0.817552441001427, 0.0
0.4298310662546586, -0.21949587049650812, 0.009778933714865837, 0.2404134286514914, 0.20393589369583573, 0.0, -0.4286833796264492, -0.13127911730885106, 0.07056213274970599, 0.19723331275071893, 0.2663664536846961, 0.0, -0.1331511728234376, -0.17683937431528496, 0.24410713526999855, -0.33410276223974156, -0.6935215252796609, 0.0, -0.2547178993640831, -0.26739549981167193, 0.2961727852245273, -0.8172379885207535, 0.0
0.4297747619329893, -0.21849783887034022, 0.00575775986998615, 0.24370972030866098, 0.20629491561941632, 0.0, -0.42925917770931615, -0.13266767194020634, 0.06801658050764778, 0.19124703936523016, 0.2688923151221333, 0.0, -0.1270852824043947, -0.17829244120271584, 0.23987091050680148, -0.3344717492782227, -0.6880776478658143, 0.0, -0.26225168638414526, -0.2687670353884251, 0.3027848289600261, -0.8169235360400803, 0.0
0.42971845761132, -0.2174998072441723, 0.001736586025106464, 0.24700601196583052, 0.20865393754299688, 0.0, -0.42983497579218305, -0.13405622657156158, 0.06547102826558956, 0.1852607659797413, 0.2714181765595705, 0.0, -0.1210193919853518, -0.17974550809014672, 0.23563468574360438, -0.33484073631670386, -0.6826337704519679, 0.0, -0.26978547340420733, -0.27013857096517835, 0.309396872695525, -0.816609083559407, 0.0
0.42880835567286757, -0.2177808576136209, -0.0037372337337885126, 0.25099389382976134, 0.2117423430329614, 0.0, -0.4298495143848522, -0.1381797519342989, 0.06174397154666943, 0.18238574793478415, 0.27361997573347296, 0.0, -0.11462088928383446, -0.17804485926700342, 0.2313320546930274, -0.3349293955520467, -0.6790614584642539, 0.0, -0.27293969526026457, -0.27414061094000136, 0.313835150735567, -0.8142193996915273, 0.0
0.4278982537344151, -0.21806190798306957, -0.009211053492683488, 0.2549817756936922, 0.21483074852292594, 0.0, -0.4298640529775213, -0.1423032772970362, 0.05801691482774929, 0.17951072988982694, 0.27582177490737536, 0.0, -0.10822238658231711, -0.17634421044386012, 0.22702942364245043, -0.3350180547873895, -0.67548914647654, 0.0, -0.2760939171163218, -0.2781426509148243, 0.31827342877560894, -0.8118297158236477, 0.0
0.4269881517959626, -0.2183429583525182, -0.014684873251578466, 0.25896965755762297, 0.21791915401289047, 0.0, -0.4298785915701904, -0.14642680265977354, 0.05428985810882916, 0.17663571184486976, 0.2780235740812778, 0.0, -0.10182388388079977, -0.17464356162071687, 0.2227267925918735, -0.33510671402273223, -0.6719168344888259, 0.0, -0.27924813897237905, -0.28214469088964733, 0.3227117068156509, -0.8094400319557682, 0.0
0.4260780498575102, -0.21862400872196686, -0.020158693010473443, 0.2629575394215538, 0.22100755950285497, 0.0, -0.4298931301628595, -0.15055032802251084, 0.05056280138990902, 0.17376069379991255, 0.2802253732551802, 0.0, -0.0954253811792824, -0.1729429127975736, 0.2184241615412965, -0.3351953732580751, -0.668344522501112, 0.0, -0.2824023608284362, -0.28614673086447034, 0.32714998485569285, -0.8070503480878886, 0.0
0.4251679479190577, -0.2189050590914155, -0.02563251276936842, 0.2669454212854846, 0.22409596499281947, 0.0, -0.42990766875552866, -0.15467385338524814, 0.046835744670988895, 0.1708856757549554, 0.2824271724290826, 0.0, -0.08902687847776504, -0.17124226397443032, 0.21412153049071952, -0.3352840324934179, -0.6647722105133981, 0.0, -0.2855565826844935, -0.29014877083929336, 0.33158826289573484, -0.8046606642200089, 0.0
0.421841353855415, -0.22089658099703766, -0.02992279212482903, 0.266534459078493, 0.2261844329570729, 0.0, -0.42966041494171564, -0.15924917467815672, 0.04326380688186656, 0.16826970296823768, 0.2838367038236518, 0.0, -0.08272306966201219, -0.1630413726698149, 0.21115488964134965, -0.3327915836391809, -0.6594497521649542, 0.0, -0.2826948047072419, -0.2943361996872632, 0.3319528551951595, -0.7999768986393568, 0.0
0.41851475979177233, -0.2228881029026598, -0.03421307148028963, 0.26612349687150144, 0.22827290092132632, 0.0, -0.4294131611279026, -0.16382449597106527, 0.03969186909274422, 0.16565373018152002, 0.28524623521822084, 0.0, -0.07641926084625934, -0.15484048136519946, 0.20818824879197975, -0.3302991347849438, -0.6541272938165105, 0.0, -0.2798330267299904, -0.298523628535233, 0.3323174474945841, -0.7952931330587049, 0.0
0.41518816572812967, -0.22487962480828194, -0.038503350835750245, 0.26571253466450984, 0.23036136888557976, 0.0, -0.42916590731408955, -0.16839981726397385, 0.036119931303621886, 0.16303775739480234, 0.2866557666127899, 0.0, -0.07011545203050648, -0.146639590060584, 0.2052216079426099, -0.3278066859307068, -0.6488048354680667, 0.0, -0.2769712487527388, -0.30271105738320286, 0.3326820397940086, -0.790609367478053, 0.0
0.41186157166448706, -0.2268711467139041, -0.04279363019121085, 0.26530157245751823, 0.23244983684983317, 0.0, -0.4289186535002765, -0.1729751385568824, 0.03254799351449956, 0.16042178460808465, 0.2880652980073591, 0.0, -0.06381164321475363, -0.1384386987559686, 0.20225496709324003, -0.3253142370764697, -0.6434823771196229, 0.0, -0.27410947077548725, -0.30689848623117266, 0.33304663209343327, -0.785925601897401, 0.0
0.4085349776008443, -0.2288626686195262, -0.04708390954667146, 0.2648906102505266, 0.2345383048140866, 0.0, -0.4286713996864635, -0.17755045984979098, 0.02897605572537722, 0.15780581182136696, 0.2894748294019282, 0.0, -0.057507834399000785, -0.13023780745135316, 0.19928832624387016, -0.3228217882222327, -0.6381599187711791, 0.0, -0.2712476927982357, -0.3110859150791425, 0.33341122439285786, -0.7812418363167489, 0.0
0.4054571941847074, -0.22661454142595885, -0.047408275148430254, 0.2582884869664961, 0.23680196194733819, 0.0, -0.42829078177384705, -0.17809997327412286, 0.026064708652039772, 0.15604083714331218, 0.291137859398374, 0.0, -0.05235426527908718, -0.11546651108026952, 0.19820003142477682, -0.31522586748079956, -0.6262526438235675, 0.0, -0.2613927051394837, -0.31372066062729465, 0.332509070683819, -0.7746340407126494, 0.0
0.4023794107685706, -0.2243664142323915, -0.04773264075018904, 0.2516863636824656, 0.2390656190805898, 0.0, -0.42791016386123065, -0.1786494866984548, 0.023153361578702323, 0.15427586246525737, 0.29280088939481974, 0.0, -0.04720069615917356, -0.10069521470918591, 0.19711173660568349, -0.30762994673936644, -0.614345368875956, 0.0, -0.2515377174807317, -0.3163554061754468, 0.3316069169747801, -0.76802624510855, 0.0
0.3993016273524337, -0.22211828703882416, -0.048057006351947845, 0.2450842403984351, 0.2413292762138414, 0.0, -0.42752954594861425, -0.17919900012278672, 0.02024201450536487, 0.1525108877872026, 0.29446391939126565, 0.0, -0.04204712703925995, -0.0859239183381023, 0.1960234417865902, -0.3000340259979334, -0.6024380939283444, 0.0, -0.24168272982197977, -0.31899015172359896, 0.3307047632657413, -0.7614184495044504, 0.0
0.3962238439362968, -0.2198701598452568, -0.04838137195370663, 0.2384821171144046, 0.24359293334709303, 0.0, -0.42714892803599785, -0.17974851354711865, 0.017330667432027425, 0.1507459131091478, 0.2961269493877114, 0.0, -0.03689355791934634, -0.07115262196701869, 0.1949351469674969, -0.29243810525650027, -0.590530818980733, 0.0, -0.2318277421632278, -0.32162489727175103, 0.3298026095567025, -0.754810653900351, 0.0
0.3931460605201599, -0.21762203265168942, -0.04870573755546542, 0.23187999383037403, 0.2458565904803446, 0.0, -0.4267683101233814, -0.18029802697145053, 0.014419320358689975, 0.14898093843109303, 0.29778997938415713, 0.0, -0.03173998879943273, -0.056381325595935054, 0.19384685214840358, -0.28484218451506715, -0.5786235440331213, 0.0, -0.22197275450447584, -0.32425964281990316, 0.3289004558476636, -0.7482028582962513, 0.0
0.39554320043460406, -0.2075051094694567, -0.046844372880679046, 0.22435151261123798, 0.25126350531129243, 0.0, -0.42714892803599785, -0.17646086825106344, 0.011146027533392474, 0.14754071018563986, 0.29697399956160625, 0.0, -0.028577442420975194, -0.038551454902462014, 0.1931237081340955, -0.27080554504816945, -0.5557891745364768, 0.0, -0.20622797177062682, -0.3273685419659446, 0.3282210759643493, -0.7354434403039877, 0.0
0.3979403403490482, -0.19738818628722388, -0.044983008205892676, 0.21682303139210196, 0.25667042014224023, 0.0, -0.42752954594861425, -0.17262370953067638, 0.00787273470809497, 0.14610048194018666, 0.29615801973905537, 0.0, -0.025414896042517655, -0.020721584208988963, 0.19240056411978748, -0.25676890558127174, -0.5329548050398322, 0.0, -0.19048318903677777, -0.330477441111986, 0.32754169608103495, -0.7226840223117239, 0.0
0.4003374802634923, -0.18727126310499112, -0.043121643531106306, 0.2092945501729659, 0.262077334973188, 0.0, -0.42791016386123065, -0.16878655081028926, 0.004599441882797469, 0.14466025369473343, 0.2953420399165045, 0.0, -0.02225234966406012, -0.002891713515515917, 0.19167742010547936, -0.24273226611437404, -0.5101204355431876, 0.0, -0.17473840630292875, -0.33358634025802747, 0.32686231619772066, -0.7099246043194601, 0.0
0.4027346201779364, -0.17715433992275836, -0.04126027885631995, 0.20176606895382987, 0.2674842498041358, 0.0, -0.42829078177384705, -0.1649493920899022, 0.0013261490574999653, 0.14322002544928022, 0.2945260600939536, 0.0, -0.019089803285602582, 0.014938157177957136, 0.19095427609117133, -0.22869562664747636, -0.48728606604654306, 0.0, -0.15899362356907973, -0.33669523940406887, 0.3261829363144063, -0.6971651863271965, 0.0
0.40513176009238056, -0.16703741674052558, -0.03939891418153358, 0.19423758773469382, 0.2728911646350836, 0.0, -0.4286713996864635, -0.16111223336951508, -0.0019471437677975362, 0.14177979720382702, 0.2937100802714027, 0.0, -0.015927256907145044, 0.03276802787143018, 0.19023113207686326, -0.2146589871805787, -0.46445169654989854, 0.0, -0.14324884083523068, -0.3398041385501103, 0.325503556431092, -0.6844057683349327, 0.0
0.40885095200862537, -0.15415486926019212, -0.03762529069890346, 0.1862132794190172, 0.2766207517323533, 0.0, -0.42889255384664215, -0.15642528291204405, -0.004557105815104278, 0.13936025878096037, 0.29153477170488706, 0.0, -0.01457902007964256, 0.04990586713890707, 0.18885339359994846, -0.19580859908605255, -0.4284393930689959, 0.0, -0.12354117772991978, -0.3420618999611487, 0.3214710464981877, -0.6594769548666759, 0.0
0.4125701439248702, -0.14127232177985866, -0.03585166721627336, 0.17818897110334062, 0.28035033882962296, 0.0, -0.4291137080068209, -0.15173833245457305, -0.0071670678624110185, 0.13694072035809368, 0.2893594631383714, 0.0, -0.013230783252140074, 0.06704370640638396, 0.18747565512303366, -0.17695821099152645, -0.3924270895880934, 0.0, -0.10383351462460888, -0.3443196613721871, 0.31743853656528337, -0.634548141398419, 0.0
0.4162893358411149, -0.12838977429952522, -0.034078043733643246, 0.170164662787664, 0.28407992592689263, 0.0, -0.42933486216699956, -0.14705138199710202, -0.00977702990971776, 0.13452118193522702, 0.2871841545718557, 0.0, -0.01188254642463759, 0.08418154567386085, 0.18609791664611888, -0.1581078228970003, -0.35641478610719085, 0.0, -0.08412585151929801, -0.3465774227832254, 0.31340602663237915, -0.6096193279301623, 0.0
0.42000852775735975, -0.11550722681919176, -0.032304420251013134, 0.16214035447198738, 0.2878095130241623, 0.0, -0.4295560163271783, -0.142364431539631, -0.012386991957024501, 0.13210164351236034, 0.2850088460053401, 0.0, -0.010534309597135106, 0.10131938494133776, 0.18472017816920408, -0.1392574348024742, -0.32040248262628823, 0.0, -0.06441818841398712, -0.3488351841942638, 0.3093735166994748, -0.5846905144619053, 0.0
0.4237277196736045, -0.1026246793388583, -0.030530796768383026, 0.15411604615631078, 0.29153910012143197, 0.0, -0.429777170487357, -0.13767748108215996, -0.014996954004331245, 0.12968210508949365, 0.28283353743882444, 0.0, -0.009186072769632618, 0.11845722420881463, 0.18334243969228928, -0.12040704670794812, -0.28439017914538567, 0.0, -0.044710525308676224, -0.3510929456053022, 0.3053410067665705, -0.5597617009936486, 0.0
0.42490584484396876, -0.09415370810634054, -0.029370358415592678, 0.1452999203562479, 0.2932017077481988, 0.0, -0.42938978767855984, -0.13422382495457696, -0.016184427262888886, 0.1263794524053323, 0.28279237210308694, 0.0, -0.008701361954350685, 0.12956939347172913, 0.1827522635870444, -0.10060332905818786, -0.2344562848112184, 0.0, -0.025805134908102767, -0.35062164736606916, 0.296459577727215, -0.5207073898556165, 0.0
0.4260839700143329, -0.08568273687382282, -0.028209920062802332, 0.13648379455618498, 0.29486431537496566, 0.0, -0.42900240486976277, -0.130770168826994, -0.017371900521446527, 0.12307679972117089, 0.28275120676734933, 0.0, -0.008216651139068753, 0.14068156273464363, 0.18216208748179955, -0.0807996114084276, -0.1845223904770511, 0.0, -0.0068997445075293104, -0.35015034912683607, 0.2875781486878594, -0.4816530787175844, 0.0
0.42726209518469715, -0.07721176564130505, -0.02704948171001199, 0.1276676687561221, 0.2965269230017324, 0.0, -0.4286150220609656, -0.12731651269941105, -0.018559373780004166, 0.11977414703700953, 0.2827100414316119, 0.0, -0.00773194032378682, 0.15179373199755813, 0.18157191137655462, -0.06099589375866737, -0.1345884961428838, 0.0, 0.01200564589304415, -0.3496790508876031, 0.27869671964850395, -0.4425987675795524, 0.0
0.4284402203550613, -0.0687407944087873, -0.025889043357221645, 0.1188515429560592, 0.2981895306284992, 0.0, -0.42822763925216845, -0.12386285657182806, -0.019746847038561808, 0.11647149435284815, 0.28266887609587427, 0.0, -0.007247229508504887, 0.16290590126047266, 0.18098173527130978, -0.04119217610890711, -0.0846546018087165, 0.0, 0.03091103629361761, -0.34920775264837006, 0.26981529060914844, -0.4035444564415203, 0.0
0.42961834552542555, -0.06026982317626956, -0.024728605004431303, 0.11003541715599631, 0.299852138255266, 0.0, -0.42784025644337126, -0.12040920044424508, -0.020934320297119446, 0.11316884166868676, 0.28262771076013676, 0.0, -0.006762518693222954, 0.17401807052338716, 0.18039155916606492, -0.02138845845914688, -0.03472070747454919, 0.0, 0.04981642669419106, -0.34873645440913703, 0.2609338615697929, -0.3644901453034883, 0.0
0.42969467226427377, -0.05751461325781553, -0.02529421176073, 0.1008468677641551, 0.3018837015045874, 0.0, -0.4265267530642469, -0.1198926178922398, -0.020603429956485002, 0.10815483186828942, 0.2843955093809213, 0.0, -0.00734012046915208, 0.17608621936448884, 0.18127192069406337, -0.005512130259575028, 0.02597255526753448, 0.0, 0.061960519433886266, -0.34588270494644463, 0.24815193930215393, -0.3111339430494989, 0.0
0.42977099900312193, -0.054759403339361495, -0.0258598185170287, 0.0916583183723139, 0.30391526475390884, 0.0, -0.4252132496851225, -0.11937603534023453, -0.020272539615850554, 0.10314082206789209, 0.28616330800170575, 0.0, -0.007917722245081207, 0.17815436820559055, 0.18215228222206187, 0.010364197939996822, 0.08666581800961815, 0.0, 0.07410461217358146, -0.3430289554837523, 0.235370017034515, -0.2577777407955095, 0.0
0.4298473257419702, -0.05200419342090746, -0.0264254252733274, 0.0824697689804727, 0.3059468280032302, 0.0, -0.4238997463059981, -0.11885945278822924, -0.01994164927521611, 0.09812681226749474, 0.2879311066224903, 0.0, -0.008495324021010333, 0.18022251704669226, 0.18303264375006031, 0.026240526139568676, 0.14735908075170184, 0.0, 0.08624870491327666, -0.3401752060210599, 0.222588094766876, -0.20442153854152018, 0.0
0.42992365248081843, -0.04924898350245342, -0.026991032029626105, 0.07328121958863151, 0.30797839125255166, 0.0, -0.42258624292687363, -0.11834287023622395, -0.01961075893458166, 0.09311280246709738, 0.2896989052432748, 0.0, -0.00907292579693946, 0.18229066588779397, 0.18391300527805876, 0.04211685433914052, 0.2080523434937855, 0.0, 0.09839279765297186, -0.33732145655836754, 0.20980617249923705, -0.15106533628753083, 0.0
0.4299999792196667, -0.04649377358399938, -0.0275566387859248, 0.0640926701967903, 0.310009954501873, 0.0, -0.4212727395477493, -0.11782628768421867, -0.019279868593947213, 0.08809879266670005, 0.2914667038640593, 0.0, -0.009650527572868587, 0.18435881472889568, 0.1847933668060572, 0.05799318253871238, 0.2687456062358692, 0.0, 0.11053689039266705, -0.33446770709567514, 0.19702425023159806, -0.09770913403354146, 0.0
0.4299999792196667, -0.04645923351810241, -0.029841732751181103, 0.05529811387375526, 0.31396504861047586, 0.0, -0.42036840766780387, -0.11875932080558137, -0.018813864880813273, 0.0825287139853003, 0.292631742555692, 0.0, -0.010202799664616199, 0.1791110180751937, 0.1844672659979561, 0.06868930510145838, 0.32857968527509807, 0.0, 0.11389296760523199, -0.32961208941555475, 0.1798720284038872, -0.03459913132951378, 0.0
0.4299999792196667, -0.04642469345220545, -0.0321268267164374, 0.04650355755072021, 0.3179201427190787, 0.0, -0.41946407578785855, -0.11969235392694408, -0.01834786116767933, 0.07695863530390058, 0.2937967812473248, 0.0, -0.010755071756363812, 0.17386322142149171, 0.184141165189855, 0.07938542766420438, 0.38841376431432695, 0.0, 0.11724904481779692, -0.3247564717354344, 0.1627198065761763, 0.028510871374513917, 0.0
0.4299999792196667, -0.04639015338630848, -0.0344119206816937, 0.03770900122768517, 0.32187523682768165, 0.0, -0.41855974390791323, -0.12062538704830676, -0.01788185745454539, 0.07138855662250082, 0.29496181993895754, 0.0, -0.011307343848111426, 0.16861542476778973, 0.18381506438175385, 0.09008155022695039, 0.4482478433535558, 0.0, 0.12060512203036186, -0.31990085405531404, 0.1455675847484654, 0.09162087407854161, 0.0
0.4299999792196667, -0.046355613320411514, -0.03669701464695, 0.02891444490465012, 0.3258303309362845, 0.0, -0.41765541202796796, -0.12155842016966945, -0.017415853741411445, 0.06581847794110109, 0.2961268586305903, 0.0, -0.01185961593985904, 0.16336762811408773, 0.18348896357365274, 0.10077767278969638, 0.5080819223927847, 0.0, 0.12396119924292677, -0.31504523637519366, 0.12841536292075453, 0.1547308767825693, 0.0
0.4299999792196667, -0.046321073254514546, -0.0389821086122063, 0.020119888581615078, 0.32978542504488734, 0.0, -0.41675108014802253, -0.12249145329103216, -0.016949850028277504, 0.06024839925970134, 0.297291897322223, 0.0, -0.01241188803160665, 0.15811983146038575, 0.1831628627655516, 0.1114737953524424, 0.5679160014320136, 0.0, 0.1273172764554917, -0.31018961869507333, 0.11126314109304367, 0.217840879486597, 0.0
0.4299999792196667, -0.04471212612466616, -0.039215197333810146, 0.013140021244114463, 0.33395034263616497, 0.0, -0.41782641938807835, -0.12121713744053692, -0.016929594190764462, 0.05694094447663602, 0.2982613020579997, 0.0, -0.012021385795837412, 0.1506050755104874, 0.18179135511406644, 0.11949170878173969, 0.6173980230415226, 0.0, 0.1259529738722246, -0.30226101027294205, 0.08920898205482898, 0.2764270166947234, 0.0
0.4299999792196667, -0.04310317899481776, -0.03944828605541399, 0.006160153906613852, 0.33811526022744254, 0.0, -0.4189017586281341, -0.1199428215900417, -0.01690933835325142, 0.0536334896935707, 0.29923070679377645, 0.0, -0.011630883560068174, 0.14309031956058904, 0.18041984746258125, 0.12750962221103698, 0.6668800446510316, 0.0, 0.12458867128895752, -0.2943324018508109, 0.06715482301661431, 0.33501315390284986, 0.0
0.4299999792196667, -0.04149423186496937, -0.03968137477701783, -0.0008197134308867591, 0.34228017781872017, 0.0, -0.4199770978681898, -0.11866850573954649, -0.016889082515738382, 0.050326034910505385, 0.3002001115295531, 0.0, -0.011240381324298932, 0.13557556361069067, 0.17904833981109608, 0.13552753564033432, 0.7163620662605406, 0.0, 0.12322436870569042, -0.28640379342867955, 0.04510066397839963, 0.39359929111097636, 0.0
0.4299999792196667, -0.039885284735120985, -0.03991446349862167, -0.007799580768387371, 0.34644509540999774, 0.0, -0.4210524371082456, -0.11739418988905127, -0.01686882667822534, 0.04701858012744006, 0.30116951626532984, 0.0, -0.010849879088529694, 0.12806080766079234, 0.1776768321596109, 0.1435454490696316, 0.7658440878700493, 0.0, 0.12186006612242334, -0.2784751850065483, 0.023046504940184946, 0.4521854283191027, 0.0
0.4299999792196667, -0.03827633760527259, -0.04014755222022552, -0.014779448105887983, 0.35061001300127537, 0.0, -0.4221277763483014, -0.11611987403855605, -0.016848570840712302, 0.04371112534437474, 0.3021389210011066, 0.0, -0.010459376852760455, 0.12054605171089396, 0.17630532450812572, 0.1515633624989289, 0.8153261094795585, 0.0, 0.12049576353915624, -0.27054657658441705, 0.0009923459019702805, 0.5107715655272291, 0.0
0.4299999792196667, -0.03719306479656897, -0.039017848068365245, -0.01998959591322934, 0.35384072914778897, 0.0, -0.4233344132173261, -0.11386303171790178, -0.01633591213793135, 0.04147308161602785, 0.3031695693403358, 0.0, -0.00945227562313455, 0.11493789797373025, 0.17485479882008576, 0.16028398388232268, 0.8519593941270036, 0.0, 0.11795389498901729, -0.2614393787343406, -0.025484742974246473, 0.5569609187830957, 0.0
0.4299999792196667, -0.036109791987865354, -0.03788814391650497, -0.02519974372057071, 0.3570714452943026, 0.0, -0.4245410500863509, -0.11160618939724751, -0.015823253435150404, 0.03923503788768097, 0.3042002176795649, 0.0, -0.008445174393508644, 0.10932974423656656, 0.1734042731320458, 0.16900460526571642, 0.8885926787744487, 0.0, 0.11541202643887832, -0.25233218088426407, -0.05196183185046323, 0.6031502720389621, 0.0
0.4299999792196667, -0.03502651917916173, -0.03675843976464469, -0.030409891527912073, 0.3603021614408163, 0.0, -0.4257476869553756, -0.10934934707659326, -0.015310594732369455, 0.03699699415933408, 0.3052308660187941, 0.0, -0.007438073163882738, 0.10372159049940285, 0.17195374744400585, 0.17772522664911017, 0.9252259634218938, 0.0, 0.11287015788873936, -0.24322498303418755, -0.07843892072668, 0.6493396252948287, 0.0
0.4299999792196667, -0.03394324637045811, -0.035628735612784415, -0.035620039335253435, 0.3635328775873299, 0.0, -0.42695432382440046, -0.107092504755939, -0.014797936029588508, 0.034758950430987194, 0.30626151435802335, 0.0, -0.006430971934256831, 0.09811343676223915, 0.17050322175596586, 0.18644584803250394, 0.961859248069339, 0.0, 0.11032828933860041, -0.23411778518411108, -0.10491600960289674, 0.6955289785506953, 0.0
0.4299999792196667, -0.03285997356175449, -0.03449903146092414, -0.040830187142594794, 0.3667635937338435, 0.0, -0.4281609606934252, -0.10483566243528472, -0.01428527732680756, 0.0325209067026403, 0.30729216269725246, 0.0, -0.005423870704630926, 0.09250528302507545, 0.1690526960679259, 0.19516646941589771, 0.9984925327167842, 0.0, 0.10778642078846146, -0.2250105873340346, -0.1313930984791135, 0.7417183318065617, 0.0
0.4299999792196667, -0.03335191625351182, -0.03380769851569463, -0.043819761967401734, 0.36943583593564555, 0.0, -0.4285030801334011, -0.10307133108559222, -0.013289709058345906, 0.03032531391955797, 0.3083823965771448, 0.0, -0.0044129485164307505, 0.08894985081468922, 0.16809121512695324, 0.2044859691161868, 1.0226556458075815, 0.0, 0.10596067374585225, -0.21901020470687263, -0.1551645911016899, 0.7742400535779627, 0.0
0.4299999792196667, -0.033843858945269145, -0.033116365570465114, -0.046809336792208674, 0.37210807813744745, 0.0, -0.42884519957337713, -0.10130699973589974, -0.012294140789884254, 0.028129721136475647, 0.30947263045703705, 0.0, -0.003402026328230574, 0.08539441860430301, 0.16712973418598057, 0.21380546881647586, 1.0468187588983788, 0.0, 0.10413492670324301, -0.2130098220797107, -0.17893608372426628, 0.8067617753493638, 0.0
0.4299999792196667, -0.03433580163702647, -0.032425032625235606, -0.0497989116170156, 0.37478032033924946, 0.0, -0.429187319013353, -0.09954266838620723, -0.011298572521422603, 0.025934128353393312, 0.31056286433692937, 0.0, -0.0023911041400303977, 0.08183898639391678, 0.16616825324500792, 0.22312496851676494, 1.0709818719891764, 0.0, 0.10230917966063378, -0.2070094394525488, -0.2027075763468427, 0.8392834971207648, 0.0
0.4299999792196667, -0.034827744328783806, -0.03173369968000609, -0.052788486441822546, 0.3774525625410515, 0.0, -0.429529438453329, -0.09777833703651474, -0.01030300425296095, 0.02373853557031098, 0.3116530982168216, 0.0, -0.001380181951830222, 0.07828355418353056, 0.16520677230403527, 0.23244446821705406, 1.0951449850799737, 0.0, 0.10048343261802456, -0.20100905682538683, -0.22647906896941908, 0.8718052188921658, 0.0
0.4299999792196667, -0.03531968702054113, -0.031042366734776575, -0.055778061266629486, 0.38012480474285343, 0.0, -0.42987155789330495, -0.09601400568682227, -0.009307435984499297, 0.02154294278722865, 0.3127433320967139, 0.0, -0.0003692597636300458, 0.07472812197314432, 0.16424529136306262, 0.24176396791734314, 1.119308098170771, 0.0, 0.09865768557541536, -0.1950086741982249, -0.2502505615919955, 0.9043269406635669, 0.0
0.4299999792196667, -0.03563854471224648, -0.030333080285663498, -0.057226287308847025, 0.38167012275322776, 0.0, -0.4298876568103253, -0.0944063137977719, -0.008457823178570282, 0.019818220288646767, 0.31358764559434166, 0.0, -0.0002730879138563317, 0.07244114479762513, 0.16343285804955177, 0.24986558384690755, 1.1330445375156672, 0.0, 0.09572932328720021, -0.1917788952935196, -0.2660287848343127, 0.9236954737288445, 0.0
0.4299999792196667, -0.03595740240395182, -0.029623793836550418, -0.058674513351064564, 0.3832154407636021, 0.0, -0.4299037557273457, -0.09279862190872155, -0.007608210372641269, 0.01809349779006489, 0.3144319590919694, 0.0, -0.00017691606408261757, 0.07015416762210593, 0.16262042473604094, 0.257967199776472, 1.1467809768605632, 0.0, 0.09280096099898506, -0.18854911638881428, -0.28180700807662995, 0.9430640067941223, 0.0
0.4299999792196667, -0.036276260095657174, -0.028914507387437345, -0.0601227393932821, 0.3847607587739763, 0.0, -0.4299198546443661, -0.09119093001967117, -0.006758597566712254, 0.016368775291483003, 0.3152762725895972, 0.0, -8.07442143089035e-05, 0.06786719044658672, 0.1618079914225301, 0.26606881570603647, 1.1605174162054595, 0.0, 0.08987259871076991, -0.18531933748410895, -0.2975852313189472, 0.9624325398594002, 0.0
0.4299999792196667, -0.03659511778736252, -0.028205220938324265, -0.06157096543549964, 0.3863060767843505, 0.0, -0.4299359535613865, -0.08958323813062083, -0.00590898476078324, 0.014644052792901121, 0.316120586087225, 0.0, 1.542763546481063e-05, 0.06558021327106751, 0.16099555810901925, 0.2741704316356009, 1.1742538555503557, 0.0, 0.08694423642255478, -0.18208955857940368, -0.31336345456126447, 0.9818010729246778, 0.0
0.4299999792196667, -0.03691397547906787, -0.027495934489211185, -0.06301919147771717, 0.38785139479472486, 0.0, -0.42995205247840684, -0.08797554624157047, -0.005059371954854225, 0.012919330294319237, 0.31696489958485274, 0.0, 0.00011159948523852475, 0.06329323609554832, 0.1601831247955084, 0.28227204756516533, 1.1879902948952519, 0.0, 0.08401587413433963, -0.17885977967469835, -0.3291416778035817, 1.0011696059899557, 0.0
0.4299999792196667, -0.03628614738586972, -0.026605479373082597, -0.06371734761312443, 0.3883199458857152, 0.0, -0.42993902883152846, -0.08659449233720859, -0.0047627408566401, 0.011342086372201623, 0.31767674957357117, 0.0, -0.0008537107063676737, 0.06194198717882274, 0.1587700259479482, 0.2875569883160083, 1.1947214189549558, 0.0, 0.08050280106489932, -0.17621401237231987, -0.33704954124222375, 1.0098317902593341, 0.0
0.4299999792196667, -0.035658319292671575, -0.025715024256954003, -0.0644155037485317, 0.3887884969767056, 0.0, -0.4299260051846501, -0.0852134384328467, -0.004466109758425975, 0.009764842450084011, 0.31838859956228954, 0.0, -0.0018190208979738723, 0.06059073826209716, 0.157356927100388, 0.2928419290668512, 1.2014525430146596, 0.0, 0.07698972799545899, -0.1735682450699414, -0.3449574046808658, 1.0184939745287127, 0.0
0.4299999792196667, -0.03503049119947343, -0.024824569140825405, -0.06511365988393895, 0.389257048067696, 0.0, -0.42991298153777174, -0.08383238452848482, -0.0041694786602118495, 0.008187598527966395, 0.31910044955100797, 0.0, -0.002784331089580071, 0.05923948934537159, 0.15594382825282782, 0.29812686981769415, 1.2081836670743635, 0.0, 0.07347665492601868, -0.1709224777675629, -0.35286526811950786, 1.027156158798091, 0.0
0.4299999792196667, -0.03440266310627527, -0.023934114024696813, -0.06581181601934623, 0.38972559915868643, 0.0, -0.42989995789089336, -0.08245133062412294, -0.003872847561997724, 0.006610354605848782, 0.31981229953972634, 0.0, -0.0037496412811862693, 0.057888240428646015, 0.15453072940526763, 0.30341181056853705, 1.2149147911340674, 0.0, 0.06996358185657835, -0.16827671046518441, -0.36077313155814994, 1.0358183430674697, 0.0
0.4299999792196667, -0.033774835013077126, -0.02304365890856822, -0.06650997215475347, 0.39019415024967685, 0.0, -0.429886934244015, -0.08107027671976105, -0.003576216463783598, 0.0050331106837311675, 0.32052414952844477, 0.0, -0.004714951472792468, 0.05653699151192044, 0.15311763055770744, 0.30869675131938, 1.2216459151937715, 0.0, 0.06645050878713803, -0.16563094316280594, -0.3686809949967919, 1.044480527336848, 0.0
0.4299999792196667, -0.03319995706779183, -0.022685098117972653, -0.06663805209471353, 0.3902538160754855, 0.0, -0.4299002441248907, -0.08014587704407627, -0.003817069422191278, 0.0034834325965393074, 0.3212014315259982, 0.0, -0.00541988831706348, 0.05512146386417316, 0.15193809865196609, 0.3112950194861655, 1.2240836689199097, 0.0, 0.06378264736175855, -0.16426737675941736, -0.3710444430753556, 1.0471525984963832, 0.0
0.4299999792196667, -0.03262507912250654, -0.02232653732737709, -0.06676613203467359, 0.39031348190129417, 0.0, -0.42991355400576636, -0.0792214773683915, -0.004057922380598957, 0.001933754509347447, 0.3218787135235516, 0.0, -0.006124825161334493, 0.05370593621642589, 0.1507585667462248, 0.3138932876529509, 1.2265214226460477, 0.0, 0.061114785936379076, -0.16290381035602874, -0.3734078911539192, 1.0498246696559186, 0.0
0.4299999792196667, -0.032050201177221245, -0.021967976536781522, -0.06689421197463363, 0.39037314772710285, 0.0, -0.4299268638866421, -0.0782970776927067, -0.004298775339006637, 0.0003840764221555862, 0.322555995521105, 0.0, -0.006829762005605506, 0.05229040856867861, 0.1495790348404835, 0.31649155581973637, 1.2289591763721857, 0.0, 0.05844692451099961, -0.16154024395264013, -0.3757713392324829, 1.052496740815454, 0.0
0.4299999792196667, -0.03147532323193595, -0.02160941574618596, -0.06702229191459369, 0.39043281355291154, 0.0, -0.4299401737675178, -0.07737267801702193, -0.0045396282974143175, -0.0011656016650362737, 0.3232332775186583, 0.0, -0.00753469884987652, 0.050874880920931335, 0.1483995029347422, 0.31908982398652186, 1.2313969300983238, 0.0, 0.055779063085620126, -0.16017667754925152, -0.3781347873110465, 1.0551688119749891, 0.0
