isaac-sim2real/sage/motion_files/h1_2/amass/0-punching03_poses_action_sequence.txt
/h1_2/pelvis/left_hip_yaw_joint, /h1_2/left_hip_yaw_link/left_hip_pitch_joint, /h1_2/left_hip_pitch_link/left_hip_roll_joint, /h1_2/left_hip_roll_link/left_knee_joint, /h1_2/left_knee_link/left_ankle_pitch_joint, /h1_2/left_ankle_pitch_link/left_ankle_roll_joint, /h1_2/pelvis/right_hip_yaw_joint, /h1_2/right_hip_yaw_link/right_hip_pitch_joint, /h1_2/right_hip_pitch_link/right_hip_roll_joint, /h1_2/right_hip_roll_link/right_knee_joint, /h1_2/right_knee_link/right_ankle_pitch_joint, /h1_2/right_ankle_pitch_link/right_ankle_roll_joint, /h1_2/pelvis/torso_joint, /h1_2/torso_link/left_shoulder_pitch_joint, /h1_2/left_shoulder_pitch_link/left_shoulder_roll_joint, /h1_2/left_shoulder_roll_link/left_shoulder_yaw_joint, /h1_2/left_shoulder_yaw_link/left_elbow_joint, /h1_2/left_elbow_link/left_wrist_roll_joint, /h1_2/torso_link/right_shoulder_pitch_joint, /h1_2/right_shoulder_pitch_link/right_shoulder_roll_joint, /h1_2/right_shoulder_roll_link/right_shoulder_yaw_joint, /h1_2/right_shoulder_yaw_link/right_elbow_joint, /h1_2/right_elbow_link/right_wrist_roll_joint
24.637184, -11.130762, 2.2910311, 5.741229, 20.527462, 0.0, -14.087117, -10.808466, 0.34412563, 6.8912954, 27.374428, 0.0, -2.7360015, 3.3221598, 28.49208, 14.304611, 2.2105231, 0.0, 1.2015661, -31.173304, -12.229051, -3.3864768, 0.0
24.637184, -11.1125592, 2.28220112, 5.7528068, 20.5269082, 0.0, -14.1084964, -10.804880599999999, 0.32008727400000003, 6.89049012, 27.371347200000002, 0.0, -2.72886248, 3.32735636, 28.471289600000002, 14.2869186, 2.19354218, 0.0, 1.17712278, -31.1807826, -12.236342, -3.41086338, 0.0
24.637184, -11.0943564, 2.27337114, 5.7643846, 20.5263544, 0.0, -14.129875799999999, -10.8012952, 0.296048918, 6.88968484, 27.368266400000003, 0.0, -2.72172346, 3.33255292, 28.4504992, 14.2692262, 2.17656126, 0.0, 1.1526794599999999, -31.1882612, -12.243633, -3.43524996, 0.0
24.637184, -11.0761536, 2.26454116, 5.7759624, 20.5258006, 0.0, -14.1512552, -10.7977098, 0.272010562, 6.8888795599999995, 27.3651856, 0.0, -2.71458444, 3.3377494800000003, 28.4297088, 14.251533799999999, 2.1595803399999998, 0.0, 1.12823614, -31.195739800000002, -12.250924, -3.45963654, 0.0
24.637184, -11.0579508, 2.25571118, 5.7875402, 20.525246799999998, 0.0, -14.172634599999999, -10.794124400000001, 0.247972206, 6.88807428, 27.3621048, 0.0, -2.70744542, 3.34294604, 28.408918399999997, 14.2338414, 2.14259942, 0.0, 1.10379282, -31.2032184, -12.258215, -3.4840231200000003, 0.0
24.637184, -11.039748, 2.2468812, 5.799118, 20.524693, 0.0, -14.194014, -10.790539, 0.22393385, 6.887269, 27.359024, 0.0, -2.7003064, 3.3481426, 28.388128, 14.216149, 2.1256185, 0.0, 1.0793495, -31.210697, -12.265506, -3.5084097, 0.0
24.637184, -11.014711799999999, 2.24723126, 5.81130386, 20.5196164, 0.0, -14.2110094, -10.7758003, 0.201073602, 6.8968647999999995, 27.360939000000002, 0.0, -2.6913584200000003, 3.35919568, 28.372086399999997, 14.2089094, 2.10754188, 0.0, 1.07634002, -31.2035884, -12.2717294, -3.52314876, 0.0
24.637184, -10.9896756, 2.24758132, 5.8234897199999995, 20.5145398, 0.0, -14.228004799999999, -10.7610616, 0.178213354, 6.9064606, 27.362854000000002, 0.0, -2.68241044, 3.37024876, 28.3560448, 14.2016698, 2.08946526, 0.0, 1.07333054, -31.1964798, -12.2779528, -3.53788782, 0.0
24.637184, -10.9646394, 2.24793138, 5.83567558, 20.5094632, 0.0, -14.2450002, -10.746322900000001, 0.15535310600000002, 6.9160563999999995, 27.364769, 0.0, -2.67346246, 3.3813018400000003, 28.340003199999998, 14.194430200000001, 2.07138864, 0.0, 1.07032106, -31.1893712, -12.284176200000001, -3.55262688, 0.0
24.637184, -10.9396032, 2.24828144, 5.84786144, 20.5043866, 0.0, -14.261995599999999, -10.7315842, 0.132492858, 6.9256522, 27.366684, 0.0, -2.66451448, 3.3923549200000003, 28.3239616, 14.187190600000001, 2.05331202, 0.0, 1.06731158, -31.182262599999998, -12.2903996, -3.5673659399999997, 0.0
24.637184, -10.914567, 2.2486315, 5.8600473, 20.49931, 0.0, -14.278991, -10.7168455, 0.10963261, 6.935248, 27.368599, 0.0, -2.6555665, 3.403408, 28.30792, 14.179951, 2.0352354, 0.0, 1.0643021, -31.175154, -12.296623, -3.582105, 0.0
24.637184, -10.890501, 2.25559428, 5.867706559999999, 20.491273200000002, 0.0, -14.2793218, -10.704659, 0.0939357938, 6.9481961199999995, 27.3716434, 0.0, -2.64193052, 3.42314926, 28.300943399999998, 14.186559200000001, 2.02144344, 0.0, 1.07582968, -31.1611856, -12.303338, -3.59672524, 0.0
24.637184, -10.866435000000001, 2.2625570600000002, 5.87536582, 20.483236400000003, 0.0, -14.2796526, -10.6924725, 0.07823897760000001, 6.961144239999999, 27.3746878, 0.0, -2.6282945399999997, 3.44289052, 28.2939668, 14.1931674, 2.00765148, 0.0, 1.0873572599999999, -31.1472172, -12.310053, -3.6113454799999998, 0.0
24.637184, -10.842369, 2.26951984, 5.8830250799999995, 20.4751996, 0.0, -14.279983399999999, -10.680286, 0.0625421614, 6.97409236, 27.3777322, 0.0, -2.61465856, 3.46263178, 28.286990199999998, 14.1997756, 1.99385952, 0.0, 1.09888484, -31.1332488, -12.316768, -3.62596572, 0.0
24.637184, -10.818303, 2.2764826200000003, 5.89068434, 20.4671628, 0.0, -14.2803142, -10.6680995, 0.0468453452, 6.98704048, 27.3807766, 0.0, -2.60102258, 3.48237304, 28.2800136, 14.2063838, 1.98006756, 0.0, 1.1104124199999998, -31.1192804, -12.323483, -3.6405859599999997, 0.0
24.637184, -10.794237, 2.2834454, 5.8983436, 20.459126, 0.0, -14.280645, -10.655913, 0.031148529, 6.9999886, 27.383821, 0.0, -2.5873866, 3.5021143, 28.273037, 14.212992, 1.9662756, 0.0, 1.12194, -31.105312, -12.330198, -3.6552062, 0.0
24.637184, -10.778566000000001, 2.28372314, 5.9008242, 20.452417800000003, 0.0, -14.2672844, -10.653129, 0.018976315, 7.01047488, 27.383886, 0.0, -2.57080978, 3.5213449, 28.276453, 14.226488, 1.95516612, 0.0, 1.13691414, -31.0997884, -12.3400278, -3.6638166, 0.0
24.637184, -10.762895, 2.2840008800000002, 5.9033048, 20.4457096, 0.0, -14.253923799999999, -10.650345, 0.006804101, 7.02096116, 27.383951, 0.0, -2.5542329599999998, 3.5405755, 28.279868999999998, 14.239984, 1.94405664, 0.0, 1.1518882799999999, -31.0942648, -12.3498576, -3.672427, 0.0
24.637184, -10.747224000000001, 2.28427862, 5.9057854, 20.439001400000002, 0.0, -14.2405632, -10.647561, -0.005368113000000001, 7.03144744, 27.384016000000003, 0.0, -2.53765614, 3.5598061, 28.283285, 14.25348, 1.93294716, 0.0, 1.16686242, -31.0887412, -12.359687399999999, -3.6810374, 0.0
24.637184, -10.731553, 2.28455636, 5.908266, 20.4322932, 0.0, -14.2272026, -10.644777, -0.017540327, 7.041933719999999, 27.384081000000002, 0.0, -2.52107932, 3.5790367, 28.286700999999997, 14.266976, 1.92183768, 0.0, 1.1818365599999998, -31.0832176, -12.369517199999999, -3.6896478, 0.0
24.637184, -10.715882, 2.2848341, 5.9107466, 20.425585, 0.0, -14.213842, -10.641993, -0.029712541, 7.05242, 27.384146, 0.0, -2.5045025, 3.5982673, 28.290117, 14.280472, 1.9107282, 0.0, 1.1968107, -31.077694, -12.379347, -3.6982582, 0.0
24.637184, -10.7033918, 2.2905569199999998, 5.909240560000001, 20.412619600000003, 0.0, -14.177844499999999, -10.643382599999999, -0.030644662, 7.0654113999999995, 27.3800134, 0.0, -2.48662574, 3.62244764, 28.2970346, 14.295213, 1.89244422, 0.0, 1.22146782, -31.0690892, -12.38992, -3.71187222, 0.0
24.637184, -10.6909016, 2.2962797399999997, 5.90773452, 20.3996542, 0.0, -14.141847, -10.6447722, -0.031576783, 7.0784028, 27.3758808, 0.0, -2.46874898, 3.64662798, 28.3039522, 14.309954, 1.8741602400000001, 0.0, 1.2461249399999998, -31.0604844, -12.400492999999999, -3.72548624, 0.0
24.637184, -10.6784114, 2.30200256, 5.90622848, 20.3866888, 0.0, -14.1058495, -10.6461618, -0.032508904, 7.0913942, 27.3717482, 0.0, -2.45087222, 3.67080832, 28.3108698, 14.324695, 1.85587626, 0.0, 1.27078206, -31.0518796, -12.411066, -3.7391002600000003, 0.0
24.637184, -10.6659212, 2.30772538, 5.90472244, 20.3737234, 0.0, -14.069852000000001, -10.647551400000001, -0.033441025, 7.1043856000000005, 27.3676156, 0.0, -2.43299546, 3.69498866, 28.3177874, 14.339436, 1.8375922800000002, 0.0, 1.2954391799999998, -31.0432748, -12.421638999999999, -3.75271428, 0.0
24.637184, -10.653431, 2.3134482, 5.9032164, 20.360758, 0.0, -14.0338545, -10.648941, -0.034373146, 7.117377, 27.363483, 0.0, -2.4151187, 3.719169, 28.324705, 14.354177, 1.8193083, 0.0, 1.3200963, -31.03467, -12.432212, -3.7663283, 0.0
24.637184, -10.635331599999999, 2.31494088, 5.89902804, 20.3394936, 0.0, -14.0041401, -10.6505194, -0.0449694028, 7.133331, 27.3516184, 0.0, -2.4009012199999997, 3.74055174, 28.3219074, 14.354754, 1.78675314, 0.0, 1.33811734, -31.0353024, -12.4510398, -3.7942817, 0.0
24.637184, -10.6172322, 2.31643356, 5.89483968, 20.3182292, 0.0, -13.974425700000001, -10.6520978, -0.0555656596, 7.149285, 27.3397538, 0.0, -2.38668374, 3.76193448, 28.3191098, 14.355331, 1.75419798, 0.0, 1.35613838, -31.0359348, -12.4698676, -3.8222351, 0.0
24.637184, -10.5991328, 2.31792624, 5.89065132, 20.296964799999998, 0.0, -13.9447113, -10.653676200000001, -0.06616191639999999, 7.165239000000001, 27.327889199999998, 0.0, -2.37246626, 3.7833172200000003, 28.316312200000002, 14.355908000000001, 1.72164282, 0.0, 1.37415942, -31.0365672, -12.4886954, -3.8501885000000002, 0.0
24.637184, -10.5810334, 2.31941892, 5.886462959999999, 20.275700399999998, 0.0, -13.9149969, -10.655254600000001, -0.0767581732, 7.181193, 27.3160246, 0.0, -2.3582487800000003, 3.80469996, 28.3135146, 14.356485000000001, 1.68908766, 0.0, 1.39218046, -31.0371996, -12.5075232, -3.8781419, 0.0
24.637184, -10.562934, 2.3209116, 5.8822746, 20.254436, 0.0, -13.8852825, -10.656833, -0.08735443, 7.197147, 27.30416, 0.0, -2.3440313, 3.8260827, 28.310717, 14.357062, 1.6565325, 0.0, 1.4102015, -31.037832, -12.526351, -3.9060953, 0.0
24.637184, -10.5360156, 2.3271062000000002, 5.88205348, 20.223937199999998, 0.0, -13.862914, -10.6515438, -0.103883192, 7.2223244, 27.284402, 0.0, -2.326492, 3.8442285600000003, 28.3037238, 14.3527302, 1.62166422, 0.0, 1.4249035, -31.034445, -12.5373616, -3.93050944, 0.0
24.637184, -10.509097200000001, 2.3333008, 5.88183236, 20.193438399999998, 0.0, -13.840545500000001, -10.6462546, -0.12041195399999999, 7.2475018, 27.264644, 0.0, -2.3089527, 3.86237442, 28.2967306, 14.3483984, 1.58679594, 0.0, 1.4396055, -31.031058, -12.5483722, -3.95492358, 0.0
24.637184, -10.4821788, 2.3394954, 5.88161124, 20.1629396, 0.0, -13.818177, -10.6409654, -0.136940716, 7.2726792, 27.244885999999997, 0.0, -2.2914134, 3.8805202800000003, 28.2897374, 14.3440666, 1.55192766, 0.0, 1.4543075, -31.027671, -12.5593828, -3.9793377199999997, 0.0
24.637184, -10.4552604, 2.34569, 5.88139012, 20.1324408, 0.0, -13.795808500000001, -10.6356762, -0.153469478, 7.2978566, 27.225127999999998, 0.0, -2.2738741, 3.89866614, 28.2827442, 14.3397348, 1.51705938, 0.0, 1.4690095, -31.024284, -12.570393399999999, -4.0037518599999995, 0.0
24.637184, -10.428342, 2.3518846, 5.881169, 20.101942, 0.0, -13.77344, -10.630387, -0.16999824, 7.323034, 27.20537, 0.0, -2.2563348, 3.916812, 28.275751, 14.335403, 1.4821911, 0.0, 1.4837115, -31.020897, -12.581404, -4.028166, 0.0
24.637184, -10.395533, 2.36118732, 5.888837, 20.062347000000003, 0.0, -13.7370392, -10.635607, -0.183361042, 7.3586309, 27.1721368, 0.0, -2.22389828, 3.9436286000000003, 28.2661396, 14.332197599999999, 1.4580464800000001, 0.0, 1.4870157800000001, -31.0094792, -12.573879, -4.0544388, 0.0
24.637184, -10.362724, 2.37049004, 5.896504999999999, 20.022752, 0.0, -13.7006384, -10.640827, -0.196723844, 7.3942277999999995, 27.1389036, 0.0, -2.1914617599999997, 3.9704452, 28.256528199999998, 14.3289922, 1.43390186, 0.0, 1.4903200600000002, -30.9980614, -12.566354, -4.0807116, 0.0
24.637184, -10.329915, 2.37979276, 5.904173, 19.983157000000002, 0.0, -13.6642376, -10.646047000000001, -0.210086646, 7.4298247, 27.1056704, 0.0, -2.15902524, 3.9972618, 28.2469168, 14.3257868, 1.40975724, 0.0, 1.49362434, -30.9866436, -12.558829, -4.1069844, 0.0
24.637184, -10.297106, 2.38909548, 5.911841, 19.943562, 0.0, -13.6278368, -10.651267, -0.223449448, 7.4654216, 27.0724372, 0.0, -2.12658872, 4.0240784, 28.2373054, 14.3225814, 1.3856126199999999, 0.0, 1.49692862, -30.9752258, -12.551304, -4.1332572, 0.0
24.637184, -10.264297, 2.3983982, 5.919509, 19.903967, 0.0, -13.591436, -10.656487, -0.23681225, 7.5010185, 27.039204, 0.0, -2.0941522, 4.050895, 28.227694, 14.319376, 1.361468, 0.0, 1.5002329, -30.963808, -12.543779, -4.15953, 0.0
24.637184, -10.2335546, 2.4049651, 5.9336747999999995, 19.8537392, 0.0, -13.5296978, -10.684099, -0.246157468, 7.55667628, 26.9984362, 0.0, -2.05173552, 4.0971120999999995, 28.2133782, 14.3139118, 1.33619874, 0.0, 1.498672, -30.9568648, -12.5295518, -4.20503766, 0.0
24.637184, -10.2028122, 2.411532, 5.9478406, 19.8035114, 0.0, -13.4679596, -10.711711, -0.255502686, 7.61233406, 26.9576684, 0.0, -2.00931884, 4.1433292, 28.1990624, 14.3084476, 1.31092948, 0.0, 1.4971111000000001, -30.9499216, -12.5153246, -4.2505453200000005, 0.0
24.637184, -10.1720698, 2.4180989, 5.9620064, 19.7532836, 0.0, -13.4062214, -10.739323, -0.264847904, 7.66799184, 26.9169006, 0.0, -1.96690216, 4.1895463, 28.1847466, 14.3029834, 1.28566022, 0.0, 1.4955502, -30.9429784, -12.5010974, -4.29605298, 0.0
24.637184, -10.1413274, 2.4246657999999996, 5.976172200000001, 19.7030558, 0.0, -13.3444832, -10.766935, -0.274193122, 7.723649620000001, 26.8761328, 0.0, -1.92448548, 4.235763400000001, 28.1704308, 14.2975192, 1.26039096, 0.0, 1.4939893000000002, -30.9360352, -12.4868702, -4.34156064, 0.0
24.637184, -10.110585, 2.4312327, 5.990338, 19.652828, 0.0, -13.282745, -10.794547, -0.28353834, 7.7793074, 26.835365, 0.0, -1.8820688, 4.2819805, 28.156115, 14.292055, 1.2351217, 0.0, 1.4924284, -30.929092, -12.472643, -4.3870683, 0.0
24.637184, -10.0828368, 2.4382868799999997, 6.01662286, 19.5986616, 0.0, -13.2155818, -10.8366234, -0.29651228, 7.85782992, 26.784871, 0.0, -1.8379752, 4.355256000000001, 28.1546828, 14.3003008, 1.19846476, 0.0, 1.5217012, -30.9224588, -12.445561399999999, -4.46920244, 0.0
24.637184, -10.055088600000001, 2.4453410599999996, 6.0429077200000005, 19.5444952, 0.0, -13.148418600000001, -10.8786998, -0.30948622, 7.93635244, 26.734377, 0.0, -1.7938816, 4.4285315, 28.1532506, 14.3085466, 1.16180782, 0.0, 1.550974, -30.9158256, -12.4184798, -4.55133658, 0.0
24.637184, -10.0273404, 2.45239524, 6.06919258, 19.4903288, 0.0, -13.0812554, -10.9207762, -0.32246016, 8.01487496, 26.683883, 0.0, -1.7497880000000001, 4.501807, 28.1518184, 14.3167924, 1.12515088, 0.0, 1.5802468, -30.9091924, -12.3913982, -4.63347072, 0.0
24.637184, -9.9995922, 2.45944942, 6.095477440000001, 19.4361624, 0.0, -13.0140922, -10.9628526, -0.33543409999999996, 8.09339748, 26.633389, 0.0, -1.7056944, 4.5750825, 28.1503862, 14.3250382, 1.08849394, 0.0, 1.6095196, -30.9025592, -12.3643166, -4.71560486, 0.0
24.637184, -9.971844, 2.4665036, 6.1217623, 19.381996, 0.0, -12.946929, -11.004929, -0.34840804, 8.17192, 26.582895, 0.0, -1.6616008, 4.648358, 28.148954, 14.333284, 1.051837, 0.0, 1.6387924, -30.895926, -12.337235, -4.797739, 0.0
24.637184, -9.9607571, 2.50211652, 6.16315464, 19.329619400000002, 0.0, -12.8733842, -11.0355138, -0.34337241199999996, 8.277882, 26.519195, 0.0, -1.60715688, 4.7408206, 28.1673874, 14.3462438, 0.9807203919999999, 0.0, 1.66714842, -30.899444199999998, -12.266848, -4.9754702, 0.0
24.637184, -9.9496702, 2.53772944, 6.20454698, 19.2772428, 0.0, -12.7998394, -11.0660986, -0.338336784, 8.383844, 26.455495, 0.0, -1.55271296, 4.8332832, 28.1858208, 14.3592036, 0.909603784, 0.0, 1.69550444, -30.9029624, -12.196461, -5.1532014, 0.0
24.637184, -9.938583300000001, 2.57334236, 6.245939320000001, 19.2248662, 0.0, -12.726294600000001, -11.0966834, -0.333301156, 8.489806, 26.391795000000002, 0.0, -1.49826904, 4.9257458, 28.2042542, 14.3721634, 0.8384871759999999, 0.0, 1.72386046, -30.9064806, -12.126074000000001, -5.330932600000001, 0.0
24.637184, -9.9274964, 2.60895528, 6.28733166, 19.1724896, 0.0, -12.6527498, -11.1272682, -0.32826552800000003, 8.595768, 26.328095, 0.0, -1.44382512, 5.0182084, 28.2226876, 14.3851232, 0.7673705679999999, 0.0, 1.75221648, -30.9099988, -12.055687, -5.5086638, 0.0
24.637184, -9.9164095, 2.6445682, 6.328724, 19.120113, 0.0, -12.579205, -11.157853, -0.3232299, 8.70173, 26.264395, 0.0, -1.3893812, 5.110671, 28.241121, 14.398083, 0.69625396, 0.0, 1.7805725, -30.913517, -11.9853, -5.686395, 0.0
24.637184, -9.9413744, 2.72380916, 6.38701952, 19.0834126, 0.0, -12.512628, -11.159749, -0.285652746, 8.8215758, 26.168345, 0.0, -1.3201987800000001, 5.2211156, 28.2721768, 14.3808516, 0.5467058972, 0.0, 1.7628882799999999, -30.9962692, -11.8741058, -5.9786532, 0.0
24.637184, -9.9663393, 2.80305012, 6.44531504, 19.046712199999998, 0.0, -12.446051, -11.161645, -0.248075592, 8.9414216, 26.072295, 0.0, -1.2510163600000002, 5.3315602, 28.3032326, 14.3636202, 0.39715783439999996, 0.0, 1.7452040599999998, -31.0790214, -11.7629116, -6.2709114, 0.0
24.637184, -9.9913042, 2.8822910800000003, 6.50361056, 19.0100118, 0.0, -12.379474, -11.163540999999999, -0.210498438, 9.0612674, 25.976245, 0.0, -1.1818339400000002, 5.442004799999999, 28.3342884, 14.3463888, 0.24760977159999997, 0.0, 1.72751984, -31.1617736, -11.651717399999999, -6.5631696, 0.0
24.637184, -10.016269099999999, 2.9615320400000003, 6.56190608, 18.9733114, 0.0, -12.312897000000001, -11.165436999999999, -0.172921284, 9.1811132, 25.880195, 0.0, -1.11265152, 5.5524493999999995, 28.3653442, 14.3291574, 0.09806170879999998, 0.0, 1.70983562, -31.244525799999998, -11.540523199999999, -6.8554278, 0.0
24.637184, -10.041234, 3.040773, 6.6202016, 18.936611, 0.0, -12.24632, -11.167333, -0.13534413, 9.300959, 25.784145, 0.0, -1.0434691, 5.662894, 28.3964, 14.311926, -0.051486354, 0.0, 1.6921514, -31.327278, -11.429329, -7.147686, 0.0
24.637184, -10.132705999999999, 3.140807, 6.68337776, 18.9303264, 0.0, -12.216943800000001, -11.122926999999999, -0.058144664, 9.4139098, 25.624274999999997, 0.0, -0.95234258, 5.768306539999999, 28.440142, 14.210341399999999, -0.3406415232, 0.0, 1.56412022, -31.5768664, -11.2636708, -7.5340504, 0.0
24.637184, -10.224178, 3.240841, 6.74655392, 18.924041799999998, 0.0, -12.187567600000001, -11.078520999999999, 0.01905480200000001, 9.526860600000001, 25.464405, 0.0, -0.8612160600000001, 5.87371908, 28.483884, 14.1087568, -0.6297966924, 0.0, 1.4360890400000001, -31.8264548, -11.0980126, -7.9204148000000005, 0.0
24.637184, -10.31565, 3.340875, 6.80973008, 18.9177572, 0.0, -12.1581914, -11.034115, 0.09625426800000003, 9.6398114, 25.304534999999998, 0.0, -0.77008954, 5.9791316199999995, 28.527626, 14.0071722, -0.9189518616, 0.0, 1.3080578600000001, -32.0760432, -10.9323544, -8.306779200000001, 0.0
24.637184, -10.407122000000001, 3.440909, 6.87290624, 18.9114726, 0.0, -12.1288152, -10.989709, 0.17345373400000003, 9.7527622, 25.144665, 0.0, -0.67896302, 6.08454416, 28.571368, 13.9055876, -1.2081070308, 0.0, 1.18002668, -32.3256316, -10.7666962, -8.6931436, 0.0
24.637184, -10.498594, 3.540943, 6.9360824, 18.905188, 0.0, -12.099439, -10.945303, 0.2506532, 9.865713, 24.984795, 0.0, -0.5878365, 6.1899567, 28.61511, 13.804003, -1.4972622, 0.0, 1.0519955, -32.57522, -10.601038, -9.079508, 0.0
24.631269, -10.6470758, 3.68051852, 6.99709452, 18.9502644, 0.0, -12.1875386, -10.788949599999999, 0.36340128800000004, 9.9876686, 24.758120599999998, 0.0, -0.47014418161, 6.19548228, 28.681330000000003, 13.5316103, -1.96220566, 0.0, 0.6510410540000001, -33.124698, -10.388084000000001, -9.457888200000001, 0.0
24.625354, -10.7955576, 3.8200940400000003, 7.05810664, 18.995340799999997, 0.0, -12.2756382, -10.6325962, 0.476149376, 10.109624199999999, 24.531446199999998, 0.0, -0.35245186322, 6.20100786, 28.74755, 13.2592176, -2.4271491199999997, 0.0, 0.25008660800000015, -33.674176, -10.175130000000001, -9.8362684, 0.0
24.619439, -10.9440394, 3.95966956, 7.11911876, 19.0404172, 0.0, -12.363737800000001, -10.4762428, 0.588897464, 10.2315798, 24.3047718, 0.0, -0.23475954482999994, 6.20653344, 28.81377, 12.9868249, -2.89209258, 0.0, -0.1508678379999997, -34.223653999999996, -9.962176, -10.2146486, 0.0
24.613524, -11.0925212, 4.09924508, 7.18013088, 19.0854936, 0.0, -12.4518374, -10.319889400000001, 0.701645552, 10.3535354, 24.0780974, 0.0, -0.11706722643999995, 6.21205902, 28.87999, 12.7144322, -3.3570360399999997, 0.0, -0.5518222839999998, -34.773132, -9.749222, -10.593028799999999, 0.0
24.607609, -11.241003, 4.2388206, 7.241143, 19.13057, 0.0, -12.539937, -10.163536, 0.81439364, 10.475491, 23.851423, 0.0, 0.00062509195, 6.2175846, 28.94621, 12.4420395, -3.8219795, 0.0, -0.95277673, -35.32261, -9.536268, -10.971409, 0.0
24.5115458, -11.4551424, 4.40684248, 7.3065458, 19.2526714, 0.0, -12.7775306, -9.9030944, 0.958165472, 10.6108774, 23.565714, 0.0, 0.16118784156, 6.052046000000001, 29.0240968, 11.9398406, -4.3842890599999995, 0.0, -1.756536444, -36.2493492, -9.3106194, -11.0444262, 0.0
24.4154826, -11.6692818, 4.57486436, 7.3719486000000005, 19.3747728, 0.0, -13.0151242, -9.6426528, 1.101937304, 10.7462638, 23.280005, 0.0, 0.32175059117, 5.8865074, 29.1019836, 11.4376417, -4.94659862, 0.0, -2.560296158, -37.1760884, -9.0849708, -11.117443399999999, 0.0
24.3194194, -11.883421199999999, 4.74288624, 7.4373514, 19.4968742, 0.0, -13.2527178, -9.3822112, 1.245709136, 10.881650200000001, 22.994296000000002, 0.0, 0.48231334078, 5.7209688000000005, 29.1798704, 10.9354428, -5.50890818, 0.0, -3.364055872, -38.1028276, -8.8593222, -11.1904606, 0.0
24.2233562, -12.0975606, 4.91090812, 7.5027542, 19.6189756, 0.0, -13.4903114, -9.1217696, 1.389480968, 11.0170366, 22.708587, 0.0, 0.64287609039, 5.5554302, 29.2577572, 10.433243899999999, -6.07121774, 0.0, -4.167815586, -39.0295668, -8.6336736, -11.263477799999999, 0.0
24.127293, -12.3117, 5.07893, 7.568157, 19.741077, 0.0, -13.727905, -8.861328, 1.5332528, 11.152423, 22.422878, 0.0, 0.80343884, 5.3898916, 29.335644, 9.931045, -6.6335273, 0.0, -4.9715753, -39.956306, -8.408025, -11.336495, 0.0
23.7511572, -12.6363278, 5.22882154, 7.660095200000001, 19.927015, 0.0, -14.1061826, -8.534442, 1.71173964, 11.2929478, 22.1083052, 0.0, 1.0120649720000001, 5.03439324, 29.3653746, 9.161034339999999, -7.24412584, 0.0, -6.1069118399999995, -41.0932004, -8.04802186, -10.9651342, 0.0
23.3750214, -12.9609556, 5.37871308, 7.7520334, 20.112953, 0.0, -14.484460200000001, -8.207556, 1.89022648, 11.4334726, 21.7937324, 0.0, 1.2206911040000001, 4.6788948800000005, 29.3951052, 8.39102368, -7.85472438, 0.0, -7.2422483799999995, -42.230094799999996, -7.6880187200000005, -10.5937734, 0.0
22.9988856, -13.2855834, 5.52860462, 7.843971600000001, 20.298891, 0.0, -14.862737800000001, -7.88067, 2.06871332, 11.573997400000001, 21.479159600000003, 0.0, 1.4293172360000002, 4.32339652, 29.4248358, 7.6210130199999995, -8.46532292, 0.0, -8.37758492, -43.3669892, -7.328015580000001, -10.2224126, 0.0
22.6227498, -13.6102112, 5.67849616, 7.9359098, 20.484829, 0.0, -15.2410154, -7.553784, 2.2472001600000002, 11.714522200000001, 21.164586800000002, 0.0, 1.6379433680000002, 3.96789816, 29.4545664, 6.85100236, -9.07592146, 0.0, -9.512921460000001, -44.503883599999995, -6.96801244, -9.8510518, 0.0
22.246614, -13.934839, 5.8283877, 8.027848, 20.670767, 0.0, -15.619293, -7.226898, 2.425687, 11.855047, 20.850014, 0.0, 1.8465695, 3.6123998, 29.484297, 6.0809917, -9.68652, 0.0, -10.648258, -45.640778, -6.6080093, -9.479691, 0.0
21.5974244, -14.3538012, 5.9625693, 8.145050000000001, 20.8812624, 0.0, -16.0959432, -6.8504803, 2.65495008, 11.966507, 20.5656466, 0.0, 2.09100996, 3.0742702, 29.431746, 5.059278548, -10.293735, 0.0, -12.0078184, -46.7969432, -6.08373028, -8.6327444, 0.0
20.9482348, -14.7727634, 6.0967509, 8.262252, 21.0917578, 0.0, -16.572593400000002, -6.4740626, 2.88421316, 12.077967000000001, 20.2812792, 0.0, 2.33545042, 2.5361406, 29.379195, 4.037565396, -10.90095, 0.0, -13.367378800000001, -47.9531084, -5.5594512599999995, -7.7857978, 0.0
20.2990452, -15.1917256, 6.230932500000001, 8.379454, 21.302253200000003, 0.0, -17.0492436, -6.097644900000001, 3.11347624, 12.189427, 19.996911800000003, 0.0, 2.5798908799999998, 1.998011, 29.326644, 3.0158522440000004, -11.508165, 0.0, -14.7269392, -49.1092736, -5.03517224, -6.9388512, 0.0
19.6498556, -15.610687800000001, 6.3651141, 8.496656, 21.512748600000002, 0.0, -17.5258938, -5.7212272, 3.34273932, 12.300887000000001, 19.712544400000002, 0.0, 2.82433134, 1.4598814, 29.274093, 1.9941390920000002, -12.11538, 0.0, -16.0864996, -50.2654388, -4.51089322, -6.0919045999999994, 0.0
19.000666, -16.02965, 6.4992957, 8.613858, 21.723244, 0.0, -18.002544, -5.3448095, 3.5720024, 12.412347, 19.428177, 0.0, 3.0687718, 0.9217518, 29.221542, 0.97242594, -12.722595, 0.0, -17.44606, -51.421604, -3.9866142, -5.244958, 0.0
18.2232934, -16.4784734, 6.64039602, 8.7345676, 21.9446962, 0.0, -18.5267762, -4.89455506, 3.87231178, 12.454954, 19.2832158, 0.0, 3.33523024, 0.24160558, 29.108059, -0.1806104479999998, -13.2153414, 0.0, -18.858091599999998, -52.4712412, -3.39135172, -3.7774523399999995, 0.0
17.4459208, -16.9272968, 6.78149634, 8.8552772, 22.1661484, 0.0, -19.0510084, -4.44430062, 4.17262116, 12.497561000000001, 19.1382546, 0.0, 3.6016886799999996, -0.43854064000000004, 28.994576, -1.3336468359999998, -13.7080878, 0.0, -20.2701232, -53.5208784, -2.7960892399999997, -2.3099466799999995, 0.0
16.6685482, -17.3761202, 6.92259666, 8.975986800000001, 22.3876006, 0.0, -19.5752406, -3.9940461800000002, 4.47293054, 12.540168, 18.993293400000002, 0.0, 3.8681471199999997, -1.11868686, 28.881093, -2.4866832239999996, -14.2008342, 0.0, -21.6821548, -54.5705156, -2.20082676, -0.8424410199999999, 0.0
15.8911756, -17.8249436, 7.0636969800000005, 9.0966964, 22.6090528, 0.0, -20.0994728, -3.54379174, 4.77323992, 12.582775, 18.8483322, 0.0, 4.13460556, -1.79883308, 28.767609999999998, -3.6397196119999995, -14.6935806, 0.0, -23.094186399999998, -55.6201528, -1.6055642799999998, 0.6250646400000006, 0.0
15.113803, -18.273767, 7.2047973, 9.217406, 22.830505, 0.0, -20.623705, -3.0935373, 5.0735493, 12.625382, 18.703371, 0.0, 4.401064, -2.4789793, 28.654127, -4.792756, -15.186327, 0.0, -24.506218, -56.66979, -1.0103018, 2.0925703, 0.0
14.240821, -18.771078199999998, 7.32052104, 9.3182036, 23.0312214, 0.0, -21.080554, -2.66576519, 5.46223224, 12.5268338, 18.7770504, 0.0, 4.68993928, -3.23445354, 28.464701599999998, -5.9739012, -15.5989094, 0.0, -25.9276404, -57.6968564, -0.60746958, 4.34518404, 0.0
13.367839, -19.2683894, 7.43624478, 9.4190012, 23.2319378, 0.0, -21.537403, -2.23799308, 5.850915179999999, 12.4282856, 18.8507298, 0.0, 4.97881456, -3.9899277800000004, 28.2752762, -7.1550464, -16.0114918, 0.0, -27.349062800000002, -58.7239228, -0.20463736, 6.5977977800000005, 0.0
12.494857, -19.7657006, 7.55196852, 9.5197988, 23.432654199999998, 0.0, -21.994252, -1.81022097, 6.23959812, 12.329737399999999, 18.9244092, 0.0, 5.26768984, -4.74540202, 28.0858508, -8.3361916, -16.4240742, 0.0, -28.770485200000003, -59.7509892, 0.19819485999999986, 8.850411520000002, 0.0
11.621875000000001, -20.2630118, 7.66769226, 9.6205964, 23.6333706, 0.0, -22.451101, -1.38244886, 6.62828106, 12.2311892, 18.9980886, 0.0, 5.55656512, -5.50087626, 27.896425400000002, -9.517336799999999, -16.836656599999998, 0.0, -30.1919076, -60.778055599999995, 0.6010270799999999, 11.10302526, 0.0
10.748893, -20.760323, 7.783416, 9.721394, 23.834087, 0.0, -22.90795, -0.95467675, 7.016964, 12.132641, 19.071768, 0.0, 5.8454404, -6.2563505, 27.707, -10.698482, -17.249239, 0.0, -31.61333, -61.805122, 1.0038593, 13.355639, 0.0
9.80186126, -21.273957799999998, 7.8349578, 9.8285022, 24.0226152, 0.0, -23.1785356, -0.679078384, 7.4362238, 11.915046199999999, 19.3211802, 0.0, 6.17155052, -6.9161804, 27.426574600000002, -11.8284602, -17.6804196, 0.0, -33.125905, -62.8506496, 0.79416316, 16.1549652, 0.0
8.854829520000001, -21.7875926, 7.8864996, 9.9356104, 24.2111434, 0.0, -23.4491212, -0.403480018, 7.8554835999999995, 11.6974514, 19.5705924, 0.0, 6.49766064, -7.5760103, 27.1461492, -12.958438399999999, -18.1116002, 0.0, -34.63848, -63.8961772, 0.58446702, 18.954291400000002, 0.0
7.90779778, -22.3012274, 7.9380413999999995, 10.0427186, 24.399671599999998, 0.0, -23.7197068, -0.127881652, 8.2747434, 11.4798566, 19.8200046, 0.0, 6.82377076, -8.2358402, 26.8657238, -14.088416599999999, -18.5427808, 0.0, -36.151055, -64.9417048, 0.37477088000000003, 21.753617600000002, 0.0
6.96076604, -22.8148622, 7.989583199999999, 10.1498268, 24.588199799999998, 0.0, -23.9902924, 0.14771671399999997, 8.6940032, 11.262261800000001, 20.0694168, 0.0, 7.1498808799999996, -8.8956701, 26.5852984, -15.218394799999999, -18.9739614, 0.0, -37.663630000000005, -65.9872324, 0.16507474, 24.5529438, 0.0
6.0137343, -23.328497, 8.041125, 10.256935, 24.776728, 0.0, -24.260878, 0.42331508, 9.113263, 11.044667, 20.318829, 0.0, 7.475991, -9.5555, 26.304873, -16.348373, -19.405142, 0.0, -39.176205, -67.03276, -0.0446214, 27.35227, 0.0
5.133978320000001, -23.808688, 8.068857399999999, 10.3580858, 24.9513248, 0.0, -24.331736600000003, 0.538629184, 9.4899228, 10.8571916, 20.623038, 0.0, 7.7750428, -9.8390904, 26.078357, -17.270118399999998, -19.930273200000002, 0.0, -40.37164, -67.79387799999999, -1.0495954000000003, 29.807683400000002, 0.0
4.25422234, -24.288878999999998, 8.096589799999999, 10.4592366, 25.125921599999998, 0.0, -24.4025952, 0.653943288, 9.866582600000001, 10.6697162, 20.927247, 0.0, 8.074094599999999, -10.1226808, 25.851841, -18.1918638, -20.455404400000003, 0.0, -41.567075, -68.554996, -2.0545694000000005, 32.2630968, 0.0
3.3744663600000004, -24.76907, 8.1243222, 10.5603874, 25.3005184, 0.0, -24.4734538, 0.7692573920000001, 10.2432424, 10.482240800000001, 21.231455999999998, 0.0, 8.3731464, -10.4062712, 25.625325, -19.1136092, -20.9805356, 0.0, -42.76251, -69.316114, -3.059543400000001, 34.7185102, 0.0
2.4947103800000003, -25.249260999999997, 8.1520546, 10.6615382, 25.4751152, 0.0, -24.5443124, 0.884571496, 10.6199022, 10.294765400000001, 21.535664999999998, 0.0, 8.6721982, -10.6898616, 25.398809, -20.0353546, -21.5056668, 0.0, -43.957945, -70.07723200000001, -4.064517400000001, 37.1739236, 0.0
1.6149544, -25.729452, 8.179787, 10.762689, 25.649712, 0.0, -24.615171, 0.9998856, 10.996562, 10.10729, 21.839874, 0.0, 8.97125, -10.973452, 25.172293, -20.9571, -22.030798, 0.0, -45.15338, -70.83835, -5.0694914, 39.629337, 0.0
0.9881628, -26.0883576, 8.2218661, 10.847908, 25.7782466, 0.0, -24.6195736, 1.02895206, 11.304416600000001, 10.028110400000001, 22.1139472, 0.0, 9.190505, -10.890081, 25.1695104, -21.4847608, -22.511837800000002, 0.0, -45.823983399999996, -71.326634, -6.47337712, 41.3321562, 0.0
0.3613712, -26.4472632, 8.2639452, 10.933127, 25.9067812, 0.0, -24.6239762, 1.05801852, 11.6122712, 9.948930800000001, 22.3880204, 0.0, 9.40976, -10.80671, 25.1667278, -22.0124216, -22.9928776, 0.0, -46.4945868, -71.814918, -7.87726284, 43.0349754, 0.0
-0.2654204, -26.806168800000002, 8.306024299999999, 11.018346, 26.0353158, 0.0, -24.6283788, 1.08708498, 11.920125800000001, 9.8697512, 22.6620936, 0.0, 9.629014999999999, -10.723339, 25.1639452, -22.5400824, -23.4739174, 0.0, -47.1651902, -72.303202, -9.28114856, 44.7377946, 0.0
-0.892212, -27.1650744, 8.3481034, 11.103565, 26.1638504, 0.0, -24.632781400000002, 1.11615144, 12.2279804, 9.7905716, 22.9361668, 0.0, 9.84827, -10.639968, 25.1611626, -23.0677432, -23.9549572, 0.0, -47.8357936, -72.791486, -10.68503428, 46.4406138, 0.0
-1.5190036, -27.52398, 8.3901825, 11.188784, 26.292385, 0.0, -24.637184, 1.1452179, 12.535835, 9.711392, 23.21024, 0.0, 10.067525, -10.556597, 25.15838, -23.595404, -24.435997, 0.0, -48.506397, -73.27977, -12.08892, 48.143433, 0.0
-1.85080848, -27.6974868, 8.420615, 11.2455218, 26.3547748, 0.0, -24.637184, 1.1075209, 12.6931296, 9.708305, 23.3658654, 0.0, 10.1800336, -10.3900444, 25.2821304, -23.73735, -24.6994708, 0.0, -48.7557448, -73.491912, -13.0656672, 49.047388, 0.0
-2.18261336, -27.870993600000002, 8.4510475, 11.302259600000001, 26.4171646, 0.0, -24.637184, 1.0698239, 12.8504242, 9.705218, 23.5214908, 0.0, 10.2925422, -10.2234918, 25.405880800000002, -23.879296, -24.9629446, 0.0, -49.0050926, -73.704054, -14.0424144, 49.951343, 0.0
-2.51441824, -28.0445004, 8.48148, 11.3589974, 26.4795544, 0.0, -24.637184, 1.0321269, 13.0077188, 9.702131, 23.6771162, 0.0, 10.4050508, -10.0569392, 25.5296312, -24.021241999999997, -25.2264184, 0.0, -49.2544404, -73.916196, -15.0191616, 50.855298, 0.0
-2.84622312, -28.218007200000002, 8.5119125, 11.4157352, 26.5419442, 0.0, -24.637184, 0.9944299, 13.1650134, 9.699044, 23.8327416, 0.0, 10.5175594, -9.8903866, 25.653381600000003, -24.163187999999998, -25.4898922, 0.0, -49.503788199999995, -74.128338, -15.9959088, 51.759253, 0.0
-3.178028, -28.391514, 8.542345, 11.472473, 26.604334, 0.0, -24.637184, 0.9567329, 13.322308, 9.695957, 23.988367, 0.0, 10.630068, -9.723834, 25.777132, -24.305134, -25.753366, 0.0, -49.753136, -74.34048, -16.972656, 52.663208, 0.0
-3.25858026, -28.376988400000002, 8.5327144, 11.4841042, 26.608393200000002, 0.0, -24.637184, 0.947886814, 13.3399024, 9.7823808, 23.9770954, 0.0, 10.6308094, -9.573783, 25.8595696, -24.224643399999998, -25.8678536, 0.0, -49.692695799999996, -74.33638, -17.2628362, 52.7716194, 0.0
-3.33913252, -28.3624628, 8.5230838, 11.495735400000001, 26.612452400000002, 0.0, -24.637184, 0.9390407279999999, 13.3574968, 9.8688046, 23.9658238, 0.0, 10.6315508, -9.423732000000001, 25.9420072, -24.1441528, -25.9823412, 0.0, -49.6322556, -74.33228, -17.5530164, 52.8800308, 0.0
-3.41968478, -28.3479372, 8.513453199999999, 11.5073666, 26.6165116, 0.0, -24.637184, 0.930194642, 13.3750912, 9.9552284, 23.954552200000002, 0.0, 10.6322922, -9.273681, 26.0244448, -24.0636622, -26.0968288, 0.0, -49.5718154, -74.32818, -17.8431966, 52.988442199999994, 0.0
-3.50023704, -28.333411599999998, 8.5038226, 11.5189978, 26.6205708, 0.0, -24.637184, 0.921348556, 13.3926856, 10.0416522, 23.9432806, 0.0, 10.6330336, -9.12363, 26.1068824, -23.983171600000002, -26.2113164, 0.0, -49.5113752, -74.32408, -18.1333768, 53.096853599999996, 0.0
-3.5807893, -28.318886, 8.494192, 11.530629, 26.62463, 0.0, -24.637184, 0.91250247, 13.41028, 10.128076, 23.932009, 0.0, 10.633775, -8.973579, 26.18932, -23.902681, -26.325804, 0.0, -49.450935, -74.31998, -18.423557, 53.205265, 0.0
-3.4604082800000002, -28.1211268, 8.4200814, 11.506406199999999, 26.6052826, 0.0, -24.637184, 0.9561101759999999, 13.259483, 10.2956862, 23.726599, 0.0, 10.5579378, -8.826926, 26.212881, -23.641692000000003, -26.3487502, 0.0, -49.0789952, -74.0835612, -18.0348716, 52.520509399999995, 0.0
-3.3400272600000003, -27.9233676, 8.3459708, 11.4821834, 26.585935199999998, 0.0, -24.637184, 0.999717882, 13.108686, 10.4632964, 23.521189, 0.0, 10.482100599999999, -8.680273, 26.236442, -23.380703, -26.3716964, 0.0, -48.7070554, -73.8471424, -17.6461862, 51.8357538, 0.0
-3.2196462400000003, -27.7256084, 8.2718602, 11.4579606, 26.5665878, 0.0, -24.637184, 1.043325588, 12.957889, 10.6309066, 23.315779000000003, 0.0, 10.4062634, -8.53362, 26.260002999999998, -23.119714000000002, -26.3946426, 0.0, -48.3351156, -73.6107236, -17.2575008, 51.1509982, 0.0
-3.09926522, -27.5278492, 8.1977496, 11.433737800000001, 26.5472404, 0.0, -24.637184, 1.086933294, 12.807092, 10.7985168, 23.110369000000002, 0.0, 10.3304262, -8.386967, 26.283564, -22.858725, -26.4175888, 0.0, -47.9631758, -73.37430479999999, -16.8688154, 50.4662426, 0.0
-2.9788842, -27.33009, 8.123639, 11.409515, 26.527893, 0.0, -24.637184, 1.130541, 12.656295, 10.966127, 22.904959, 0.0, 10.254589, -8.240314, 26.307125, -22.597736, -26.440535, 0.0, -47.591236, -73.137886, -16.48013, 49.781487, 0.0
-2.60630404, -26.9701874, 8.023369, 11.3242502, 26.4529376, 0.0, -24.637184, 1.14134148, 12.3333398, 11.1844772, 22.5123858, 0.0, 10.089989399999999, -8.0366772, 26.327811999999998, -22.1094754, -26.4096264, 0.0, -46.8510176, -72.6592328, -15.571020599999999, 48.2911516, 0.0
-2.23372388, -26.6102848, 7.923099000000001, 11.2389854, 26.377982199999998, 0.0, -24.637184, 1.15214196, 12.0103846, 11.4028274, 22.1198126, 0.0, 9.9253898, -7.8330404, 26.348499, -21.6212148, -26.3787178, 0.0, -46.1107992, -72.1805796, -14.661911199999999, 46.8008162, 0.0
-1.86114372, -26.2503822, 7.8228290000000005, 11.1537206, 26.3030268, 0.0, -24.637184, 1.16294244, 11.6874294, 11.621177600000001, 21.727239400000002, 0.0, 9.760790199999999, -7.6294036, 26.369186, -21.1329542, -26.3478092, 0.0, -45.3705808, -71.70192639999999, -13.7528018, 45.3104808, 0.0
-1.48856356, -25.8904796, 7.722559, 11.0684558, 26.2280714, 0.0, -24.637184, 1.17374292, 11.3644742, 11.8395278, 21.3346662, 0.0, 9.5961906, -7.4257668, 26.389873, -20.6446936, -26.3169006, 0.0, -44.6303624, -71.2232732, -12.8436924, 43.8201454, 0.0
-1.1159834, -25.530577, 7.622289, 10.983191, 26.153116, 0.0, -24.637184, 1.1845434, 11.041519, 12.057878, 20.942093, 0.0, 9.431591, -7.22213, 26.41056, -20.156433, -26.285992, 0.0, -43.890144, -70.74462, -11.934583, 42.32981, 0.0
-0.51982272, -24.99336, 7.45464854, 10.9082502, 25.9990336, 0.0, -24.6321826, 1.0860360199999999, 10.5130682, 12.3710074, 20.4513158, 0.0, 9.1558966, -6.8718794, 26.5322856, -19.3607692, -26.262746, 0.0, -42.7058752, -69.918402, -10.97306628, 40.0700164, 0.0
0.07633796000000004, -24.456143, 7.28700808, 10.8333094, 25.8449512, 0.0, -24.6271812, 0.98752864, 9.9846174, 12.684136800000001, 19.9605386, 0.0, 8.8802022, -6.5216288, 26.6540112, -18.5651054, -26.2395, 0.0, -41.5216064, -69.092184, -10.01154956, 37.8102228, 0.0
0.6724986399999999, -23.918926, 7.11936762, 10.7583686, 25.6908688, 0.0, -24.6221798, 0.8890212599999999, 9.4561666, 12.9972662, 19.4697614, 0.0, 8.6045078, -6.1713781999999995, 26.7757368, -17.7694416, -26.216254, 0.0, -40.3373376, -68.26596599999999, -9.05003284, 35.550429199999996, 0.0
1.26865932, -23.381709, 6.95172716, 10.6834278, 25.5367864, 0.0, -24.6171784, 0.79051388, 8.9277158, 13.310395600000001, 18.9789842, 0.0, 8.3288134, -5.8211276, 26.8974624, -16.9737778, -26.193008, 0.0, -39.1530688, -67.439748, -8.08851612, 33.2906356, 0.0
1.86482, -22.844492, 6.7840867, 10.608487, 25.382704, 0.0, -24.612177, 0.6920065, 8.399265, 13.623525, 18.488207, 0.0, 8.053119, -5.470877, 27.019188, -16.178114, -26.169762, 0.0, -37.9688, -66.61353, -7.1269994, 31.030842, 0.0
2.66074094, -22.217014, 6.58865536, 10.5504372, 25.12031, 0.0, -24.531664799999998, 0.42747917999999996, 7.7375112, 13.9477512, 18.1107346, 0.0, 7.6984352000000005, -4.9681470999999995, 27.2040218, -15.133674800000001, -26.075691199999998, 0.0, -36.5037108, -65.4484054, -6.47169616, 28.3456312, 0.0
3.45666188, -21.589536, 6.39322402, 10.4923874, 24.857916, 0.0, -24.4511526, 0.16295185999999995, 7.0757574, 14.2719774, 17.7332622, 0.0, 7.3437514, -4.4654172, 27.3888556, -14.0892356, -25.981620399999997, 0.0, -35.0386216, -64.2832808, -5.81639292, 25.6604204, 0.0
4.25258282, -20.962058, 6.19779268, 10.4343376, 24.595522000000003, 0.0, -24.3706404, -0.10157546000000006, 6.4140036, 14.5962036, 17.3557898, 0.0, 6.9890676, -3.9626873, 27.5736894, -13.044796400000001, -25.8875496, 0.0, -33.5735324, -63.118156199999994, -5.16108968, 22.9752096, 0.0
5.04850376, -20.33458, 6.00236134, 10.3762878, 24.333128000000002, 0.0, -24.2901282, -0.36610278000000007, 5.7522497999999995, 14.9204298, 16.978317399999998, 0.0, 6.6343838, -3.4599574, 27.7585232, -12.0003572, -25.7934788, 0.0, -32.108443199999996, -61.953031599999996, -4.50578644, 20.2899988, 0.0
5.8444247, -19.707102, 5.80693, 10.318238, 24.070734, 0.0, -24.209616, -0.6306301, 5.090496, 15.244656, 16.600845, 0.0, 6.2797, -2.9572275, 27.943357, -10.955918, -25.699408, 0.0, -30.643354, -60.787907, -3.8504832, 17.604788, 0.0
6.69062056, -19.091414399999998, 5.544440000000001, 10.273484199999999, 23.6723192, 0.0, -23.900601, -1.1740353799999999, 4.3883925, 15.337447200000002, 16.4792493, 0.0, 5.88876434, -2.379886247, 28.226278999999998, -9.741355800000001, -25.2163398, 0.0, -29.1618134, -59.6940476, -3.39978418, 15.250447399999999, 0.0
7.536816420000001, -18.4757268, 5.28195, 10.2287304, 23.2739044, 0.0, -23.591586, -1.7174406599999998, 3.686289, 15.4302384, 16.3576536, 0.0, 5.49782868, -1.8025449940000002, 28.509200999999997, -8.526793600000001, -24.7332716, 0.0, -27.6802728, -58.6001882, -2.94908516, 12.8961068, 0.0
8.38301228, -17.8600392, 5.0194600000000005, 10.1839766, 22.8754896, 0.0, -23.282571, -2.26084594, 2.9841854999999997, 15.523029600000001, 16.2360579, 0.0, 5.106893019999999, -1.2252037410000003, 28.792123, -7.3122314, -24.2502034, 0.0, -26.198732200000002, -57.5063288, -2.49838614, 10.541766200000001, 0.0
9.22920814, -17.2443516, 4.756970000000001, 10.1392228, 22.4770748, 0.0, -22.973556, -2.80425122, 2.282082, 15.6158208, 16.1144622, 0.0, 4.71595736, -0.6478624880000003, 29.075045, -6.0976692, -23.7671352, 0.0, -24.7171916, -56.4124694, -2.04768712, 8.187425600000001, 0.0
10.075404, -16.628664, 4.49448, 10.094469, 22.07866, 0.0, -22.664541, -3.3476565, 1.5799785, 15.708612, 15.9928665, 0.0, 4.3250217, -0.070521235, 29.357967, -4.883107, -23.284067, 0.0, -23.235651, -55.31861, -1.5969881, 5.833085, 0.0
10.8871348, -16.018349, 4.1508592, 10.099582, 21.6272076, 0.0, -22.1194704, -3.9853769999999997, 0.9545516199999999, 15.6756224, 16.141583999999998, 0.0, 3.8999739599999996, 0.319759312, 29.683979599999997, -3.7741051399999996, -22.4478468, 0.0, -21.858359800000002, -54.4973136, -1.2762333004, 4.248137399999999, 0.0
11.6988656, -15.408034, 3.8072384, 10.104695, 21.175755199999998, 0.0, -21.574399800000002, -4.6230975, 0.3291247399999999, 15.6426328, 16.290301499999998, 0.0, 3.47492622, 0.7100398590000001, 30.0099922, -2.66510328, -21.6116266, 0.0, -20.4810686, -53.6760172, -0.9554785008, 2.6631897999999996, 0.0
12.5105964, -14.797719, 3.4636176, 10.109808000000001, 20.7243028, 0.0, -21.0293292, -5.260818, -0.2963021400000001, 15.6096432, 16.439019, 0.0, 3.04987848, 1.100320406, 30.336004799999998, -1.55610142, -20.7754064, 0.0, -19.103777400000002, -52.8547208, -0.6347237012, 1.0782421999999992, 0.0
13.3223272, -14.187404, 3.1199968, 10.114921, 20.2728504, 0.0, -20.4842586, -5.898538500000001, -0.9217290200000001, 15.5766536, 16.5877365, 0.0, 2.62483074, 1.4906009530000002, 30.6620174, -0.44709955999999984, -19.939186199999998, 0.0, -17.726486200000004, -52.0334244, -0.3139689016, -0.5067054000000004, 0.0
14.134058, -13.577089, 2.776376, 10.120034, 19.821398, 0.0, -19.939188, -6.536259, -1.5471559, 15.543664, 16.736454, 0.0, 2.199783, 1.8808815, 30.98803, 0.6619023, -19.102966, 0.0, -16.349195, -51.212128, 0.006785898, -2.091653, 0.0
14.872107399999999, -12.975346700000001, 2.4016132199999998, 10.1364456, 19.3930692, 0.0, -19.2031682, -7.1276976, -2.04844916, 15.5308407, 17.065558199999998, 0.0, 1.7293278600000002, 1.8630750600000001, 31.3545956, 1.39913912, -18.1182736, 0.0, -15.233032000000001, -50.5417132, 0.3129867384, -3.0340958000000002, 0.0
15.610156799999999, -12.373604400000001, 2.02685044, 10.1528572, 18.9647404, 0.0, -18.4671484, -7.7191361999999994, -2.5497424200000003, 15.5180174, 17.394662399999998, 0.0, 1.25887272, 1.8452686200000001, 31.7211612, 2.1363759399999998, -17.1335812, 0.0, -14.116869000000001, -49.8712984, 0.6191875788, -3.9765386, 0.0
16.3482062, -11.7718621, 1.6520876599999998, 10.169268800000001, 18.536411599999997, 0.0, -17.731128599999998, -8.3105748, -3.05103568, 15.5051941, 17.7237666, 0.0, 0.78841758, 1.82746218, 32.0877268, 2.87361276, -16.148888799999998, 0.0, -13.000706000000001, -49.2008836, 0.9253884191999999, -4.9189814, 0.0
17.086255599999998, -11.1701198, 1.2773248799999999, 10.1856804, 18.1080828, 0.0, -16.9951088, -8.9020134, -3.55232894, 15.4923708, 18.0528708, 0.0, 0.31796244000000007, 1.80965574, 32.4542924, 3.6108495799999996, -15.1641964, 0.0, -11.884543, -48.5304688, 1.2315892596, -5.8614242, 0.0
17.824305, -10.5683775, 0.9025621, 10.202092, 17.679754, 0.0, -16.259089, -9.493452, -4.0536222, 15.4795475, 18.381975, 0.0, -0.1524927, 1.7918493, 32.820858, 4.3480864, -14.179504, 0.0, -10.76838, -47.860054, 1.5377901, -6.803867, 0.0
18.525256, -9.94649468, 0.60426493, 10.186144800000001, 17.380646, 0.0, -15.374592999999999, -10.0173386, -4.38169122, 15.5371904, 18.7972116, 0.0, -0.65166626, 1.1013212, 33.531517, 4.640808799999999, -13.0209042, 0.0, -10.1395628, -47.2044968, 2.07519858, -7.612917, 0.0
19.226207, -9.324611860000001, 0.30596776000000003, 10.1701976, 17.081538, 0.0, -14.490096999999999, -10.5412252, -4.7097602400000005, 15.5948333, 19.2124482, 0.0, -1.15083982, 0.4107930999999998, 34.242176, 4.9335312, -11.8623044, 0.0, -9.5107456, -46.5489396, 2.61260706, -8.421967, 0.0
19.927158, -8.702729040000001, 0.007670590000000033, 10.1542504, 16.78243, 0.0, -13.605601, -11.0651118, -5.0378292600000005, 15.6524762, 19.6276848, 0.0, -1.65001338, -0.2797350000000005, 34.952835, 5.2262536, -10.7037046, 0.0, -8.8819284, -45.8933824, 3.15001554, -9.231017, 0.0
20.628109, -8.08084622, -0.29062657999999997, 10.1383032, 16.483322, 0.0, -12.721105, -11.588998400000001, -5.36589828, 15.7101191, 20.0429214, 0.0, -2.14918694, -0.9702631000000004, 35.663494, 5.518976, -9.5451048, 0.0, -8.2531112, -45.237825199999996, 3.68742402, -10.040067, 0.0
21.32906, -7.4589634, -0.58892375, 10.122356, 16.184214, 0.0, -11.836609, -12.112885, -5.6939673, 15.767762, 20.458158, 0.0, -2.6483605, -1.6607912, 36.374153, 5.8116984, -8.386505, 0.0, -7.624294, -44.582268, 4.2248325, -10.849117, 0.0
21.799788999999997, -6.84467112, -0.86432946, 10.0335306, 16.1052884, 0.0, -10.89714394, -12.610074000000001, -5.88105344, 15.8684958, 20.8919304, 0.0, -3.1672263999999997, -3.12921076, 37.7249976, 5.8852942200000005, -6.6800041519999995, 0.0, -7.5745368, -44.0213344, 5.028298599999999, -11.499702599999999, 0.0
22.270518, -6.23037884, -1.13973517, 9.9447052, 16.0263628, 0.0, -9.95767888, -13.107263, -6.0681395799999995, 15.9692296, 21.325702800000002, 0.0, -3.6860923, -4.5976303199999995, 39.075842200000004, 5.95889004, -4.973503303999999, 0.0, -7.5247796, -43.4604008, 5.8317647, -12.1502882, 0.0
22.741246999999998, -5.616086559999999, -1.41514088, 9.8558798, 15.9474372, 0.0, -9.01821382, -13.604452, -6.25522572, 16.0699634, 21.7594752, 0.0, -4.2049582, -6.06604988, 40.4266868, 6.03248586, -3.267002456, 0.0, -7.4750224, -42.8994672, 6.6352307999999995, -12.8008738, 0.0
23.211976, -5.0017942799999995, -1.69054659, 9.7670544, 15.8685116, 0.0, -8.07874876, -14.101640999999999, -6.44231186, 16.1706972, 22.193247600000003, 0.0, -4.7238241, -7.53446944, 41.7775314, 6.10608168, -1.560501608, 0.0, -7.4252652, -42.3385336, 7.4386969, -13.451459400000001, 0.0
23.682705, -4.387502, -1.9659523, 9.678229, 15.789586, 0.0, -7.1392837, -14.59883, -6.629398, 16.271431, 22.62702, 0.0, -5.24269, -9.002889, 43.128376, 6.1796775, 0.14599924, 0.0, -7.375508, -41.7776, 8.242163, -14.102045, 0.0
23.847072999999998, -3.8188135199999995, -2.2802649600000002, 9.4781574, 16.001095199999998, 0.0, -6.17796868, -15.1206652, -6.70587846, 16.337318, 23.072818400000003, 0.0, -5.7837428, -10.9925426, 45.0081336, 6.19348966, 2.581224992, 0.0, -7.7399486, -41.335462, 9.2051688, -14.494359600000001, 0.0
24.011440999999998, -3.2501250399999995, -2.59457762, 9.2780858, 16.2126044, 0.0, -5.21665366, -15.6425004, -6.78235892, 16.403205, 23.5186168, 0.0, -6.3247956, -12.982196199999999, 46.8878912, 6.2073018200000005, 5.016450744, 0.0, -8.1043892, -40.893324, 10.1681746, -14.886674200000002, 0.0
24.175809, -2.68143656, -2.90889028, 9.0780142, 16.4241136, 0.0, -4.25533864, -16.1643356, -6.85883938, 16.469092, 23.9644152, 0.0, -6.8658484, -14.9718498, 48.7676488, 6.22111398, 7.451676496, 0.0, -8.4688298, -40.451186, 11.1311804, -15.2789888, 0.0
24.340177, -2.11274808, -3.22320294, 8.877942599999999, 16.6356228, 0.0, -3.29402362, -16.6861708, -6.93531984, 16.534979, 24.4102136, 0.0, -7.4069012, -16.961503399999998, 50.6474064, 6.234926140000001, 9.886902248, 0.0, -8.8332704, -40.009048, 12.0941862, -15.671303400000001, 0.0
24.504545, -1.5440596, -3.5375156, 8.677871, 16.847132, 0.0, -2.3327086, -17.208006, -7.0118003, 16.600866, 24.856012, 0.0, -7.947954, -18.951157, 52.527164, 6.2487383, 12.322128, 0.0, -9.197711, -39.56691, 13.057192, -16.063618, 0.0
24.5298406, -1.201751306, -3.89930874, 8.310113399999999, 17.3113104, 0.0, -1.42286182, -17.7779774, -7.04927124, 16.5658502, 25.2319802, 0.0, -8.4617506, -20.731036, 54.352400599999996, 6.4124467, 15.096979, 0.0, -9.624292, -39.3133104, 13.897946600000001, -16.514134000000002, 0.0
24.5551362, -0.859443012, -4.26110188, 7.9423558, 17.775488799999998, 0.0, -0.5130150400000002, -18.3479488, -7.08674218, 16.5308344, 25.607948399999998, 0.0, -8.975547200000001, -22.510915, 56.1776372, 6.5761551, 17.87183, 0.0, -10.050873, -39.0597108, 14.7387012, -16.964650000000002, 0.0
24.5804318, -0.5171347179999999, -4.62289502, 7.5745982, 18.2396672, 0.0, 0.39683173999999966, -18.9179202, -7.12421312, 16.4958186, 25.9839166, 0.0, -9.4893438, -24.290793999999998, 58.002873799999996, 6.7398635, 20.646681, 0.0, -10.477454, -38.806111200000004, 15.5794558, -17.415166, 0.0
24.6057274, -0.17482642399999992, -4.984688159999999, 7.2068406, 18.703845599999998, 0.0, 1.3066785199999997, -19.4878916, -7.16168406, 16.4608028, 26.3598848, 0.0, -10.0031404, -26.070673, 59.8281104, 6.9035719, 23.421532, 0.0, -10.904034999999999, -38.5525116, 16.4202104, -17.865682, 0.0
24.631023, 0.16748187, -5.3464813, 6.839083, 19.168024, 0.0, 2.2165253, -20.057863, -7.199155, 16.425787, 26.735853, 0.0, -10.516937, -27.850552, 61.653347, 7.0672803, 26.196383, 0.0, -11.330616, -38.298912, 17.260965, -18.316198, 0.0
24.6322552, 0.38934367599999997, -5.65736474, 6.54727968, 19.6768318, 0.0, 2.92975204, -20.5346102, -7.20820048, 16.377354399999998, 27.018404999999998, 0.0, -10.9317458, -28.9888996, 62.9330656, 7.52887964, 28.4611424, 0.0, -11.4990092, -38.247336600000004, 17.8166676, -18.8773458, 0.0
24.6334874, 0.611205482, -5.96824818, 6.255476359999999, 20.1856396, 0.0, 3.64297878, -21.0113574, -7.2172459600000005, 16.3289218, 27.300957, 0.0, -11.3465546, -30.1272472, 64.2127842, 7.990478980000001, 30.725901800000003, 0.0, -11.6674024, -38.1957612, 18.3723702, -19.4384936, 0.0
24.6347196, 0.8330672880000001, -6.27913162, 5.96367304, 20.6944474, 0.0, 4.35620552, -21.4881046, -7.22629144, 16.280489199999998, 27.583509, 0.0, -11.7613634, -31.265594800000002, 65.4925028, 8.45207832, 32.990661200000005, 0.0, -11.835795599999999, -38.1441858, 18.9280728, -19.999641399999998, 0.0
24.6359518, 1.054929094, -6.590015060000001, 5.67186972, 21.2032552, 0.0, 5.069432259999999, -21.9648518, -7.23533692, 16.2320566, 27.866061000000002, 0.0, -12.1761722, -32.4039424, 66.7722214, 8.913677660000001, 35.2554206, 0.0, -12.0041888, -38.0926104, 19.4837754, -20.5607892, 0.0
24.637184, 1.2767909, -6.9008985, 5.3800664, 21.712063, 0.0, 5.782659, -22.441599, -7.2443824, 16.183624, 28.148613, 0.0, -12.590981, -33.54229, 68.05194, 9.375277, 37.52018, 0.0, -12.172582, -38.041035, 20.039478, -21.121937, 0.0
24.637184, 1.41740626, -7.1241678, 5.2357564, 22.119728600000002, 0.0, 6.2278258, -22.7474222, -7.24467526, 16.1587432, 28.3774904, 0.0, -12.851685199999999, -34.045038, 68.766564, 9.898326, 38.965919, 0.0, -12.084760000000001, -38.1563074, 20.2645692, -21.5556478, 0.0
24.637184, 1.5580216199999999, -7.3474371000000005, 5.0914464, 22.5273942, 0.0, 6.6729926, -23.053245399999998, -7.24496812, 16.133862399999998, 28.6063678, 0.0, -13.1123894, -34.547786, 69.481188, 10.421375000000001, 40.411658, 0.0, -11.996938, -38.2715798, 20.489660399999998, -21.9893586, 0.0
24.637184, 1.69863698, -7.570706400000001, 4.9471364, 22.9350598, 0.0, 7.1181594, -23.3590686, -7.24526098, 16.1089816, 28.8352452, 0.0, -13.373093599999999, -35.050534, 70.195812, 10.944424000000001, 41.857397, 0.0, -11.909116000000001, -38.3868522, 20.7147516, -22.4230694, 0.0
24.637184, 1.83925234, -7.793975700000001, 4.8028264, 23.3427254, 0.0, 7.5633262, -23.6648918, -7.24555384, 16.084100799999998, 29.0641226, 0.0, -13.6337978, -35.553282, 70.910436, 11.467473, 43.303136, 0.0, -11.821294, -38.502124599999995, 20.939842799999997, -22.8567802, 0.0
24.637184, 1.9798677, -8.017245, 4.6585164, 23.750391, 0.0, 8.008493, -23.970715, -7.2458467, 16.05922, 29.293, 0.0, -13.894502, -36.05603, 71.62506, 11.990522, 44.748875, 0.0, -11.733472, -38.617397, 21.164934, -23.290491, 0.0
24.637184, 2.01104216, -8.141744000000001, 4.61386784, 23.9705562, 0.0, 8.1812956, -24.1275832, -7.25627828, 16.0263886, 29.4081904, 0.0, -13.993258599999999, -36.068658, 71.907776, 12.3213668, 45.3580286, 0.0, -11.564531800000001, -38.7778852, 21.142452199999997, -23.5824808, 0.0
24.637184, 2.04221662, -8.266243000000001, 4.56921928, 24.1907214, 0.0, 8.3540982, -24.2844514, -7.26670986, 15.9935572, 29.523380799999998, 0.0, -14.092015199999999, -36.081286, 72.190492, 12.6522116, 45.967182199999996, 0.0, -11.395591600000001, -38.938373399999996, 21.1199704, -23.8744706, 0.0
24.637184, 2.07339108, -8.390742, 4.52457072, 24.410886599999998, 0.0, 8.5269008, -24.4413196, -7.27714144, 15.9607258, 29.6385712, 0.0, -14.1907718, -36.093914, 72.473208, 12.9830564, 46.5763358, 0.0, -11.2266514, -39.0988616, 21.0974886, -24.166460400000002, 0.0
24.637184, 2.1045655400000003, -8.515241, 4.47992216, 24.631051799999998, 0.0, 8.699703399999999, -24.598187799999998, -7.28757302, 15.9278944, 29.7537616, 0.0, -14.2895284, -36.106542, 72.75592400000001, 13.3139012, 47.1854894, 0.0, -11.0577112, -39.259349799999995, 21.0750068, -24.4584502, 0.0
24.637184, 2.13574, -8.63974, 4.4352736, 24.851217, 0.0, 8.872506, -24.755056, -7.2980046, 15.895063, 29.868952, 0.0, -14.388285, -36.11917, 73.03864, 13.644746, 47.794643, 0.0, -10.888771, -39.419838, 21.052525, -24.75044, 0.0
24.637184, 2.13710434, -8.6811744, 4.51310602, 24.8358918, 0.0, 8.8290308, -24.7735978, -7.27631068, 15.8486574, 29.8916146, 0.0, -14.3451358, -35.785501, 72.97645, 13.7266725, 47.5687908, 0.0, -10.705187, -39.5651696, 20.937295199999998, -24.976297600000002, 0.0
24.637184, 2.13846868, -8.7226088, 4.59093844, 24.8205666, 0.0, 8.7855556, -24.7921396, -7.25461676, 15.8022518, 29.9142772, 0.0, -14.3019866, -35.451831999999996, 72.91426, 13.808599, 47.342938600000004, 0.0, -10.521603, -39.710501199999996, 20.8220654, -25.2021552, 0.0
24.637184, 2.13983302, -8.7640432, 4.66877086, 24.8052414, 0.0, 8.742080399999999, -24.8106814, -7.23292284, 15.7558462, 29.9369398, 0.0, -14.2588374, -35.118163, 72.85207, 13.8905255, 47.1170864, 0.0, -10.338019, -39.8558328, 20.706835599999998, -25.4280128, 0.0
24.637184, 2.14119736, -8.8054776, 4.74660328, 24.7899162, 0.0, 8.6986052, -24.829223199999998, -7.21122892, 15.7094406, 29.9596024, 0.0, -14.2156882, -34.784494, 72.78988, 13.972452, 46.8912342, 0.0, -10.154435, -40.0011644, 20.5916058, -25.6538704, 0.0
24.637184, 2.1425617, -8.846912, 4.8244357, 24.774591, 0.0, 8.65513, -24.847765, -7.189535, 15.663035, 29.982265, 0.0, -14.172539, -34.450825, 72.72769, 14.0543785, 46.665382, 0.0, -9.970851, -40.146496, 20.476376, -25.879728, 0.0
24.637184, 2.0869606, -8.7181366, 4.989388460000001, 24.4907008, 0.0, 8.3705698, -24.6991886, -7.1233122600000005, 15.636117200000001, 29.948357, 0.0, -13.9964428, -33.9199988, 72.220484, 13.672977, 45.590987, 0.0, -9.9626392, -40.2283716, 20.4070656, -26.1113134, 0.0
24.637184, 2.0313594999999998, -8.589361199999999, 5.15434122, 24.2068106, 0.0, 8.0860096, -24.5506122, -7.05708952, 15.609199400000001, 29.914449, 0.0, -13.8203466, -33.3891726, 71.713278, 13.2915755, 44.516592, 0.0, -9.9544274, -40.3102472, 20.3377552, -26.3428988, 0.0
24.637184, 1.9757584, -8.4605858, 5.31929398, 23.9229204, 0.0, 7.8014494, -24.4020358, -6.99086678, 15.5822816, 29.880541, 0.0, -13.6442504, -32.8583464, 71.20607199999999, 12.910174, 43.442197, 0.0, -9.9462156, -40.3921228, 20.268444799999997, -26.5744842, 0.0
24.637184, 1.9201573, -8.3318104, 5.48424674, 23.6390302, 0.0, 7.5168892, -24.2534594, -6.92464404, 15.5553638, 29.846633, 0.0, -13.4681542, -32.3275202, 70.698866, 12.5287725, 42.367802000000005, 0.0, -9.9380038, -40.4739984, 20.1991344, -26.8060696, 0.0
24.637184, 1.8645562, -8.203035, 5.6491995, 23.35514, 0.0, 7.232329, -24.104883, -6.8584213, 15.528446, 29.812725, 0.0, -13.292058, -31.796694, 70.19166, 12.147371, 41.293407, 0.0, -9.929792, -40.555874, 20.129824, -27.037655, 0.0
24.637184, 1.63541008, -7.8764648, 5.89990206, 22.876881599999997, 0.0, 6.64616212, -23.7893148, -6.77248244, 15.4907362, 29.6611468, 0.0, -12.9717432, -31.1007812, 69.23127, 11.3984554, 39.37408, 0.0, -10.1590088, -40.7114786, 20.0193862, -27.217703800000002, 0.0
24.637184, 1.40626396, -7.5498946, 6.15060462, 22.3986232, 0.0, 6.05999524, -23.473746600000002, -6.68654358, 15.4530264, 29.5095686, 0.0, -12.6514284, -30.404868399999998, 68.27087999999999, 10.6495398, 37.454753000000004, 0.0, -10.3882256, -40.8670832, 19.9089484, -27.3977526, 0.0
24.637184, 1.17711784, -7.2233244, 6.40130718, 21.920364799999998, 0.0, 5.47382836, -23.1581784, -6.60060472, 15.4153166, 29.3579904, 0.0, -12.3311136, -29.7089556, 67.31049, 9.9006242, 35.535426, 0.0, -10.6174424, -41.0226878, 19.7985106, -27.577801400000002, 0.0
24.637184, 0.94797172, -6.8967542, 6.6520097400000004, 21.4421064, 0.0, 4.88766148, -22.842610200000003, -6.51466586, 15.3776068, 29.2064122, 0.0, -12.0107988, -29.013042799999997, 66.3501, 9.151708600000001, 33.616099, 0.0, -10.8466592, -41.178292400000004, 19.6880728, -27.7578502, 0.0
24.637184, 0.7188256, -6.570184, 6.9027123, 20.963848, 0.0, 4.3014946, -22.527042, -6.428727, 15.339897, 29.054834, 0.0, -11.690484, -28.31713, 65.38971, 8.402793, 31.696772, 0.0, -11.075876, -41.333897, 19.577635, -27.937899, 0.0
24.6328092, 0.26181456, -6.0663784000000005, 7.23679004, 20.4869018, 0.0, 3.409685926, -22.005173600000003, -6.2849652, 15.3039494, 28.7423458, 0.0, -11.2240394, -27.4322886, 64.104418, 7.6290624000000005, 29.1449118, 0.0, -11.5072485, -41.7385806, 19.258809, -27.8703684, 0.0
24.6284344, -0.19519648, -5.5625728, 7.5708677799999995, 20.009955599999998, 0.0, 2.517877252, -21.4833052, -6.1412034, 15.2680018, 28.4298576, 0.0, -10.7575948, -26.5474472, 62.819126, 6.8553318, 26.5930516, 0.0, -11.938621, -42.1432642, 18.939983, -27.8028378, 0.0
24.624059600000002, -0.6522075199999999, -5.0587672, 7.90494552, 19.5330094, 0.0, 1.626068578, -20.9614368, -5.9974416, 15.2320542, 28.1173694, 0.0, -10.2911502, -25.6626058, 61.533834, 6.081601200000001, 24.0411914, 0.0, -12.3699935, -42.5479478, 18.621157, -27.7353072, 0.0
24.6196848, -1.10921856, -4.5549616, 8.23902326, 19.0560632, 0.0, 0.734259904, -20.4395684, -5.8536798, 15.1961066, 27.8048812, 0.0, -9.8247056, -24.7777644, 60.248542, 5.3078706, 21.4893312, 0.0, -12.801366, -42.9526314, 18.302331000000002, -27.6677766, 0.0
24.61531, -1.5662296, -4.051156, 8.573101, 18.579117, 0.0, -0.15754877, -19.9177, -5.709918, 15.160159, 27.492393, 0.0, -9.358261, -23.892923, 58.96325, 4.53414, 18.937471, 0.0, -13.2327385, -43.357315, 17.983505, -27.600246, 0.0
24.5397272, -2.25137308, -3.3891182399999997, 8.8347138, 18.3430916, 0.0, -1.261077816, -19.1834786, -5.42935808, 15.1489724, 27.0188344, 0.0, -8.7940966, -22.8746784, 57.5758772, 3.698211946, 16.43329408, 0.0, -13.8599224, -43.860852799999996, 17.609831, -27.167326799999998, 0.0
24.464144400000002, -2.9365165600000003, -2.7270804799999997, 9.0963266, 18.107066200000002, 0.0, -2.364606862, -18.4492572, -5.14879816, 15.1377858, 26.5452758, 0.0, -8.2299322, -21.8564338, 56.1885044, 2.8622838919999998, 13.929117159999999, 0.0, -14.4871063, -44.3643906, 17.236157, -26.734407599999997, 0.0
24.3885616, -3.62166004, -2.06504272, 9.3579394, 17.8710408, 0.0, -3.468135908, -17.715035800000003, -4.86823824, 15.126599200000001, 26.071717200000002, 0.0, -7.6657678, -20.838189200000002, 54.801131600000005, 2.0263558379999997, 11.424940239999998, 0.0, -15.1142902, -44.8679284, 16.862483, -26.3014884, 0.0
24.3129788, -4.30680352, -1.40300496, 9.6195522, 17.6350154, 0.0, -4.571664954, -16.9808144, -4.58767832, 15.1154126, 25.5981586, 0.0, -7.1016034, -19.8199446, 53.413758800000004, 1.1904277839999997, 8.920763319999999, 0.0, -15.7414741, -45.3714662, 16.488809, -25.8685692, 0.0
24.237396, -4.991947, -0.7409672, 9.881165, 17.39899, 0.0, -5.675194, -16.246593, -4.3071184, 15.104226, 25.1246, 0.0, -6.537439, -18.8017, 52.026386, 0.35449973, 6.4165864, 0.0, -16.368658, -45.875004, 16.115135, -25.43565, 0.0
23.8862528, -5.9103258, -0.09381684000000001, 9.920007199999999, 17.557232000000003, 0.0, -6.8333434, -15.4044568, -3.8376411800000003, 15.094217800000001, 24.521811800000002, 0.0, -5.92025944, -17.8549854, 50.8556508, -0.5181044159999999, 4.50265692, 0.0, -17.2025188, -46.5376712, 15.6550944, -24.293048199999998, 0.0
23.535109600000002, -6.8287046, 0.55333352, 9.9588494, 17.715474, 0.0, -7.9914928000000005, -14.5623206, -3.36816396, 15.084209600000001, 23.9190236, 0.0, -5.30307988, -16.9082708, 49.684915600000004, -1.390708562, 2.5887274399999995, 0.0, -18.0363796, -47.2003384, 15.1950538, -23.1504464, 0.0
23.1839664, -7.747083399999999, 1.2004838800000002, 9.9976916, 17.873716, 0.0, -9.1496422, -13.7201844, -2.89868674, 15.0742014, 23.3162354, 0.0, -4.68590032, -15.9615562, 48.5141804, -2.2633127079999995, 0.6747979599999994, 0.0, -18.8702404, -47.863005599999994, 14.735013200000001, -22.0078446, 0.0
22.8328232, -8.6654622, 1.84763424, 10.0365338, 18.031958, 0.0, -10.307791600000002, -12.8780482, -2.4292095199999997, 15.0641932, 22.713447199999997, 0.0, -4.06872076, -15.0148416, 47.343445200000005, -3.1359168539999995, -1.2391315200000008, 0.0, -19.7041012, -48.525672799999995, 14.2749726, -20.865242799999997, 0.0
22.48168, -9.583841, 2.4947846, 10.075376, 18.1902, 0.0, -11.465941, -12.035912, -1.9597323, 15.054185, 22.110659, 0.0, -3.4515412, -14.068127, 46.17271, -4.008521, -3.153061, 0.0, -20.537962, -49.18834, 13.814932, -19.722641, 0.0
21.720786, -10.5675966, 3.02521448, 10.0034472, 18.6802594, 0.0, -12.521313600000001, -11.1368024, -1.26159456, 15.0467784, 21.590082799999998, 0.0, -2.805585822, -13.4214138, 45.3616466, -4.817563, -4.3912264, 0.0, -21.5191336, -50.146173999999995, 13.311277200000001, -17.7322372, 0.0
20.959892, -11.5513522, 3.55564436, 9.9315184, 19.1703188, 0.0, -13.576686200000001, -10.2376928, -0.5634568200000001, 15.0393718, 21.069506599999997, 0.0, -2.1596304440000003, -12.774700600000001, 44.5505832, -5.6266050000000005, -5.6293918000000005, 0.0, -22.5003052, -51.104008, 12.807622400000001, -15.741833399999999, 0.0
20.198998, -12.535107799999999, 4.08607424, 9.8595896, 19.6603782, 0.0, -14.6320588, -9.3385832, 0.13468091999999987, 15.0319652, 20.5489304, 0.0, -1.5136750660000002, -12.1279874, 43.739519800000004, -6.435647, -6.8675572, 0.0, -23.4814768, -52.061842, 12.3039676, -13.7514296, 0.0
19.438104, -13.518863399999999, 4.61650412, 9.7876608, 20.1504376, 0.0, -15.6874314, -8.4394736, 0.8328186599999998, 15.024558599999999, 20.0283542, 0.0, -0.8677196880000002, -11.481274200000001, 42.9284564, -7.244689000000001, -8.1057226, 0.0, -24.4626484, -53.019676000000004, 11.8003128, -11.761025799999999, 0.0
18.67721, -14.502619, 5.146934, 9.715732, 20.640497, 0.0, -16.742804, -7.540364, 1.5309564, 15.017152, 19.507778, 0.0, -0.22176431, -10.834561, 42.117393, -8.053731, -9.343888, 0.0, -25.44382, -53.97751, 11.296658, -9.770622, 0.0
17.6071624, -15.383350199999999, 5.50162932, 9.6984938, 21.1931726, 0.0, -17.638596, -6.67132376, 2.34898812, 14.900791, 19.3194514, 0.0, 0.420963392, -10.5399588, 41.523721, -8.7955574, -10.1496196, 0.0, -26.4860656, -55.218202000000005, 10.7478412, -6.93554466, 0.0
16.537114799999998, -16.2640814, 5.85632464, 9.6812556, 21.7458482, 0.0, -18.534388, -5.8022835200000005, 3.16701984, 14.78443, 19.1311248, 0.0, 1.063691094, -10.245356600000001, 40.930049000000004, -9.5373838, -10.955351199999999, 0.0, -27.5283112, -56.458894, 10.1990244, -4.100467319999999, 0.0
15.467067199999999, -17.1448126, 6.21101996, 9.664017399999999, 22.298523799999998, 0.0, -19.43018, -4.93324328, 3.9850515599999996, 14.668069, 18.9427982, 0.0, 1.706418796, -9.9507544, 40.336377, -10.2792102, -11.7610828, 0.0, -28.5705568, -57.699586000000004, 9.6502076, -1.2653899799999984, 0.0
14.3970196, -18.0255438, 6.56571528, 9.6467792, 22.8511994, 0.0, -20.325972, -4.064203040000001, 4.803083279999999, 14.551708, 18.7544716, 0.0, 2.3491464979999996, -9.6561522, 39.742705, -11.021036599999999, -12.5668144, 0.0, -29.6128024, -58.940278, 9.1013908, 1.5696873600000014, 0.0
13.326972, -18.906275, 6.9204106, 9.629541, 23.403875, 0.0, -21.221764, -3.1951628, 5.621115, 14.435347, 18.566145, 0.0, 2.9918742, -9.36155, 39.149033, -11.762863, -13.372546, 0.0, -30.655048, -60.18097, 8.552574, 4.4047647, 0.0
12.09444332, -19.6643564, 7.08062168, 9.7012806, 23.818715, 0.0, -21.7570346, -2.6272893, 6.3308572, 14.061990100000001, 18.7481252, 0.0, 3.60714976, -9.1310232, 38.661130400000005, -12.392551, -13.9901384, 0.0, -31.5802288, -61.370248000000004, 7.62566526, 7.74198176, 0.0
10.86191464, -20.4224378, 7.24083276, 9.7730202, 24.233555, 0.0, -22.2923052, -2.0594158, 7.0405994, 13.6886332, 18.9301054, 0.0, 4.22242532, -8.9004964, 38.1732278, -13.022238999999999, -14.6077308, 0.0, -32.5054096, -62.559526, 6.69875652, 11.079198819999998, 0.0
9.62938596, -21.1805192, 7.401043840000001, 9.8447598, 24.648395, 0.0, -22.827575799999998, -1.4915423, 7.7503416000000005, 13.3152763, 19.1120856, 0.0, 4.83770088, -8.6699696, 37.6853252, -13.651927, -15.2253232, 0.0, -33.4305904, -63.748804, 5.77184778, 14.416415879999999, 0.0
8.396857279999999, -21.9386006, 7.5612549200000005, 9.9164994, 25.063235, 0.0, -23.3628464, -0.9236688000000002, 8.4600838, 12.9419194, 19.2940658, 0.0, 5.4529764400000005, -8.4394428, 37.197422599999996, -14.281615, -15.842915600000001, 0.0, -34.3557712, -64.938082, 4.84493904, 17.75363294, 0.0
7.1643286, -22.696682, 7.721466, 9.988239, 25.478075, 0.0, -23.898117, -0.3557953, 9.169826, 12.5685625, 19.476046, 0.0, 6.068252, -8.208916, 36.70952, -14.911303, -16.460508, 0.0, -35.280952, -66.12736, 3.9180303, 21.09085, 0.0
6.04269624, -23.3121196, 7.76846128, 10.0817418, 25.7239544, 0.0, -24.0373116, -0.13330563999999998, 9.636958, 12.1475392, 19.8484008, 0.0, 6.5770048, -7.8651624, 36.3328474, -15.3640144, -17.006056400000002, 0.0, -36.0364026, -66.959356, 2.4057765399999997, 23.9692148, 0.0
4.92106388, -23.9275572, 7.81545656, 10.1752446, 25.9698338, 0.0, -24.1765062, 0.08918402000000003, 10.10409, 11.7265159, 20.2207556, 0.0, 7.085757600000001, -7.5214088, 35.9561748, -15.8167258, -17.5516048, 0.0, -36.7918532, -67.791352, 0.8935227800000001, 26.847579600000003, 0.0
3.79943152, -24.5429948, 7.86245184, 10.2687474, 26.2157132, 0.0, -24.315700800000002, 0.31167368, 10.571221999999999, 11.305492600000001, 20.5931104, 0.0, 7.594510400000001, -7.1776552, 35.5795022, -16.2694372, -18.0971532, 0.0, -37.5473038, -68.623348, -0.6187309799999996, 29.725944400000003, 0.0
2.67779916, -25.1584324, 7.90944712, 10.3622502, 26.4615926, 0.0, -24.4548954, 0.5341633400000001, 11.038354, 10.8844693, 20.9654652, 0.0, 8.1032632, -6.8339016, 35.2028296, -16.7221486, -18.6427016, 0.0, -38.3027544, -69.455344, -2.1309847399999997, 32.6043092, 0.0
1.5561668, -25.77387, 7.9564424, 10.455753, 26.707472, 0.0, -24.59409, 0.756653, 11.505486, 10.463446, 21.33782, 0.0, 8.612016, -6.490148, 34.826157, -17.17486, -19.18825, 0.0, -39.058205, -70.28734, -3.6432385, 35.482674, 0.0
0.77849252, -26.1593284, 7.9592965200000005, 10.521326799999999, 26.8278112, 0.0, -24.602708800000002, 0.7919166480000001, 11.7738518, 10.2814544, 21.6699214, 0.0, 8.931295200000001, -6.10344748, 34.6554844, -17.3721928, -19.654267, 0.0, -39.6119944, -70.958434, -5.3072326, 37.545286000000004, 0.0
0.0008182400000000811, -26.5447868, 7.96215064, 10.5869006, 26.9481504, 0.0, -24.611327600000003, 0.827180296, 12.042217599999999, 10.0994628, 22.0020228, 0.0, 9.2505744, -5.71674696, 34.4848118, -17.5695256, -20.120284, 0.0, -40.1657838, -71.629528, -6.9712267, 39.607898000000006, 0.0
-0.77685604, -26.930245199999998, 7.96500476, 10.6524744, 27.0684896, 0.0, -24.6199464, 0.862443944, 12.3105834, 9.9174712, 22.3341242, 0.0, 9.5698536, -5.33004644, 34.3141392, -17.7668584, -20.586301, 0.0, -40.7195732, -72.300622, -8.635220799999999, 41.67051000000001, 0.0
-1.5545303199999998, -27.3157036, 7.96785888, 10.7180482, 27.1888288, 0.0, -24.6285652, 0.8977075919999999, 12.5789492, 9.7354796, 22.6662256, 0.0, 9.889132799999999, -4.94334592, 34.1434666, -17.9641912, -21.052318, 0.0, -41.2733626, -72.971716, -10.299214899999999, 43.733122, 0.0
-2.3322046, -27.701162, 7.970713, 10.783622, 27.309168, 0.0, -24.637184, 0.93297124, 12.847315, 9.553488, 22.998327, 0.0, 10.208412, -4.5566454, 33.972794, -18.161524, -21.518335, 0.0, -41.827152, -73.64281, -11.963209, 45.795734, 0.0
-2.73760482, -27.8209576, 7.93692836, 10.824333, 27.3653738, 0.0, -24.637184, 0.891694784, 12.925947, 9.6200616, 23.1481976, 0.0, 10.321322599999998, -4.3291502, 33.9103656, -18.2252138, -21.7558656, 0.0, -42.168857599999996, -74.0557808, -13.096118, 47.0350892, 0.0
-3.1430050400000002, -27.9407532, 7.90314372, 10.865044, 27.4215796, 0.0, -24.637184, 0.850418328, 13.004579, 9.6866352, 23.2980682, 0.0, 10.4342332, -4.101655, 33.8479372, -18.2889036, -21.9933962, 0.0, -42.5105632, -74.46875159999999, -14.229027, 48.2744444, 0.0
-3.54840526, -28.0605488, 7.86935908, 10.905755000000001, 27.4777854, 0.0, -24.637184, 0.809141872, 13.083211, 9.7532088, 23.4479388, 0.0, 10.547143799999999, -3.8741598, 33.7855088, -18.3525934, -22.230926800000002, 0.0, -42.8522688, -74.8817224, -15.361936, 49.513799600000006, 0.0
-3.95380548, -28.1803444, 7.83557444, 10.946466000000001, 27.5339912, 0.0, -24.637184, 0.767865416, 13.161843, 9.8197824, 23.5978094, 0.0, 10.6600544, -3.6466646, 33.7230804, -18.416283200000002, -22.468457400000002, 0.0, -43.1939744, -75.2946932, -16.494844999999998, 50.753154800000004, 0.0
-4.3592057, -28.30014, 7.8017898, 10.987177, 27.590197, 0.0, -24.637184, 0.72658896, 13.240475, 9.886356, 23.74768, 0.0, 10.772965, -3.4191694, 33.660652, -18.479973, -22.705988, 0.0, -43.53568, -75.707664, -17.627754, 51.99251, 0.0
-4.482299360000001, -28.229347999999998, 7.73296104, 10.9990704, 27.5970516, 0.0, -24.637184, 0.697170168, 13.1473446, 10.0139746, 23.672212, 0.0, 10.7707082, -3.44625262, 33.6115004, -18.4945206, -22.7079594, 0.0, -43.6810952, -75.7476252, -18.0320112, 52.4151994, 0.0
-4.60539302, -28.158555999999997, 7.6641322800000005, 11.0109638, 27.6039062, 0.0, -24.637184, 0.667751376, 13.0542142, 10.141593199999999, 23.596743999999997, 0.0, 10.7684514, -3.47333584, 33.562348799999995, -18.5090682, -22.709930800000002, 0.0, -43.826510400000004, -75.7875864, -18.4362684, 52.8378888, 0.0
-4.7284866800000005, -28.087764, 7.59530352, 11.0228572, 27.610760799999998, 0.0, -24.637184, 0.638332584, 12.961083799999999, 10.2692118, 23.521276, 0.0, 10.766194599999999, -3.50041906, 33.5131972, -18.523615799999998, -22.7119022, 0.0, -43.9719256, -75.8275476, -18.8405256, 53.2605782, 0.0
-4.85158034, -28.016972, 7.52647476, 11.0347506, 27.6176154, 0.0, -24.637184, 0.608913792, 12.8679534, 10.3968304, 23.445808, 0.0, 10.763937799999999, -3.5275022799999998, 33.4640456, -18.5381634, -22.713873600000003, 0.0, -44.1173408, -75.8675088, -19.2447828, 53.6832676, 0.0
-4.974674, -27.94618, 7.457646, 11.046644, 27.62447, 0.0, -24.637184, 0.579495, 12.774823, 10.524449, 23.37034, 0.0, 10.761681, -3.5545855, 33.414894, -18.552711, -22.715845, 0.0, -44.262756, -75.90747, -19.64904, 54.105957, 0.0
-4.828830920000001, -27.717226, 7.3660274, 11.028984000000001, 27.5995332, 0.0, -24.637184, 0.5792762, 12.546027, 10.6708946, 23.095297, 0.0, 10.6734828, -3.7683246, 33.418498199999995, -18.4478512, -22.491345600000002, 0.0, -44.1309476, -75.59285200000001, -19.342604599999998, 53.722881599999994, 0.0
-4.68298784, -27.488272, 7.2744088, 11.011324, 27.5745964, 0.0, -24.637184, 0.5790574, 12.317231, 10.8173402, 22.820254, 0.0, 10.5852846, -3.9820637000000003, 33.4221024, -18.3429914, -22.2668462, 0.0, -43.9991392, -75.278234, -19.0361692, 53.3398062, 0.0
-4.53714476, -27.259318, 7.1827902, 10.993664, 27.5496596, 0.0, -24.637184, 0.5788386, 12.088435, 10.9637858, 22.545211000000002, 0.0, 10.4970864, -4.1958028, 33.4257066, -18.2381316, -22.0423468, 0.0, -43.8673308, -74.963616, -18.729733799999998, 52.956730799999995, 0.0
-4.39130168, -27.030364, 7.0911716, 10.976004, 27.5247228, 0.0, -24.637184, 0.5786198, 11.859639, 11.1102314, 22.270168, 0.0, 10.4088882, -4.409541900000001, 33.4293108, -18.1332718, -21.817847399999998, 0.0, -43.7355224, -74.64899799999999, -18.4232984, 52.5736554, 0.0
-4.2454586, -26.80141, 6.999553, 10.958344, 27.499786, 0.0, -24.637184, 0.578401, 11.630843, 11.256677, 21.995125, 0.0, 10.32069, -4.623281, 33.432915, -18.028412, -21.593348, 0.0, -43.603714, -74.33438, -18.116863, 52.19058, 0.0
-3.82511936, -26.4622268, 6.9041163999999995, 10.8985358, 27.4068856, 0.0, -24.6353312, 0.51638108, 11.2965362, 11.461903, 21.591551000000003, 0.0, 10.1123098, -4.8970789, 33.517161, -17.7471788, -21.2068524, 0.0, -43.1026344, -73.726506, -17.1832368, 50.999925999999995, 0.0
-3.40478012, -26.1230436, 6.808679799999999, 10.8387276, 27.3139852, 0.0, -24.6334784, 0.45436116000000004, 10.9622294, 11.667129, 21.187977, 0.0, 9.9039296, -5.1708768, 33.601407, -17.4659456, -20.8203568, 0.0, -42.601554799999995, -73.118632, -16.2496106, 49.809272, 0.0
-2.98444088, -25.783860400000002, 6.7132432, 10.7789194, 27.2210848, 0.0, -24.6316256, 0.39234124000000004, 10.6279226, 11.872355, 20.784403, 0.0, 9.6955494, -5.4446747, 33.685653, -17.1847124, -20.4338612, 0.0, -42.1004752, -72.510758, -15.3159844, 48.618618, 0.0
-2.56410164, -25.4446772, 6.6178066, 10.7191112, 27.128184400000002, 0.0, -24.6297728, 0.33032132000000003, 10.2936158, 12.077581, 20.380829, 0.0, 9.4871692, -5.7184726, 33.769899, -16.9034792, -20.0473656, 0.0, -41.599395599999994, -71.902884, -14.382358199999999, 47.427964, 0.0
-2.1437624, -25.105494, 6.52237, 10.659303, 27.035284, 0.0, -24.62792, 0.2683014, 9.959309, 12.282807, 19.977255, 0.0, 9.278789, -5.9922705, 33.854145, -16.622246, -19.66087, 0.0, -41.098316, -71.29501, -13.448732, 46.23731, 0.0
-1.4339447399999998, -24.6742206, 6.4296403, 10.5811428, 26.832354000000002, 0.0, -24.5922152, 0.036328568000000006, 9.52209512, 12.542602, 19.576925799999998, 0.0, 8.9283702, -6.18189766, 34.047180000000004, -16.1111144, -19.1882014, 0.0, -40.143966799999994, -70.3912188, -12.2247361, 44.2405514, 0.0
-0.7241270799999999, -24.2429472, 6.3369105999999995, 10.5029826, 26.629424, 0.0, -24.5565104, -0.195644264, 9.08488124, 12.802397000000001, 19.1765966, 0.0, 8.5779514, -6.37152482, 34.240215, -15.5999828, -18.7155328, 0.0, -39.1896176, -69.4874276, -11.0007402, 42.2437928, 0.0
-0.014309420000000017, -23.8116738, 6.2441809, 10.4248224, 26.426494, 0.0, -24.5208056, -0.427617096, 8.64766736, 13.062192, 18.7762674, 0.0, 8.2275326, -6.56115198, 34.43325, -15.0888512, -18.2428642, 0.0, -38.235268399999995, -68.5836364, -9.7767443, 40.2470342, 0.0
0.6955082400000001, -23.3804004, 6.1514511999999995, 10.346662199999999, 26.223564, 0.0, -24.4851008, -0.659589928, 8.21045348, 13.321987, 18.3759382, 0.0, 7.8771138, -6.750779140000001, 34.626284999999996, -14.5777196, -17.770195599999997, 0.0, -37.2809192, -67.6798452, -8.5527484, 38.2502756, 0.0
1.4053259, -22.949127, 6.0587215, 10.268502, 26.020634, 0.0, -24.449396, -0.89156276, 7.7732396, 13.581782, 17.975609, 0.0, 7.526695, -6.9404063, 34.81932, -14.066588, -17.297527, 0.0, -36.32657, -66.776054, -7.3287525, 36.253517, 0.0
2.38435316, -22.4123436, 5.951116, 10.2237464, 25.675859000000003, 0.0, -24.2398124, -1.2939176479999999, 7.22169398, 13.809226, 17.750923, 0.0, 7.05722026, -6.93018044, 35.05834, -13.3793008, -16.834989, 0.0, -35.0235366, -65.5758526, -6.347299700000001, 33.565467, 0.0
3.36338042, -21.8755602, 5.8435105, 10.1789908, 25.331084, 0.0, -24.0302288, -1.696272536, 6.67014836, 14.03667, 17.526237, 0.0, 6.58774552, -6.91995458, 35.29736, -12.6920136, -16.372450999999998, 0.0, -33.720503199999996, -64.37565120000001, -5.3658469, 30.877417, 0.0
4.34240768, -21.3387768, 5.735905, 10.1342352, 24.986309000000002, 0.0, -23.8206452, -2.098627424, 6.11860274, 14.264114, 17.301551, 0.0, 6.11827078, -6.90972872, 35.53638, -12.0047264, -15.909913, 0.0, -32.4174698, -63.1754498, -4.384394100000001, 28.189367, 0.0
5.32143494, -20.8019934, 5.6282995, 10.0894796, 24.641534, 0.0, -23.6110616, -2.5009823119999997, 5.567057119999999, 14.491558, 17.076864999999998, 0.0, 5.64879604, -6.89950286, 35.7754, -11.3174392, -15.447375000000001, 0.0, -31.1144364, -61.9752484, -3.4029413000000006, 25.501317, 0.0
6.3004622, -20.26521, 5.520694, 10.044724, 24.296759, 0.0, -23.401478, -2.9033372, 5.0155115, 14.719002, 16.852179, 0.0, 5.1793213, -6.889277, 36.01442, -10.630152, -14.984837, 0.0, -29.811403, -60.775047, -2.4214885, 22.813267, 0.0
7.36085756, -19.6577044, 5.33827684, 10.056920400000001, 23.769288600000003, 0.0, -22.830684, -3.4649167600000004, 4.439485299999999, 14.794903999999999, 16.8897862, 0.0, 4.65928524, -6.7272488, 36.2040486, -9.86658908, -14.651252000000001, 0.0, -28.5492726, -59.5880016, -1.8568670500000002, 19.8934674, 0.0
8.42125292, -19.0501988, 5.15585968, 10.0691168, 23.2418182, 0.0, -22.259890000000002, -4.02649632, 3.8634591, 14.870806, 16.9273934, 0.0, 4.13924918, -6.5652206, 36.3936772, -9.10302616, -14.317667, 0.0, -27.287142199999998, -58.4009562, -1.2922456000000002, 16.9736678, 0.0
9.48164828, -18.4426932, 4.97344252, 10.0813132, 22.714347800000002, 0.0, -21.689096, -4.58807588, 3.2874328999999998, 14.946708, 16.9650006, 0.0, 3.6192131199999995, -6.4031924, 36.583305800000005, -8.33946324, -13.984082, 0.0, -26.0250118, -57.2139108, -0.7276241500000002, 14.0538682, 0.0
10.54204364, -17.8351876, 4.79102536, 10.093509599999999, 22.1868774, 0.0, -21.118302, -5.14965544, 2.7114067, 15.02261, 17.0026078, 0.0, 3.0991770599999997, -6.2411642, 36.772934400000004, -7.57590032, -13.650497, 0.0, -24.7628814, -56.026865400000005, -0.16300270000000028, 11.134068599999999, 0.0
11.602439, -17.227682, 4.6086082, 10.105706, 21.659407, 0.0, -20.547508, -5.711235, 2.1353805, 15.098512, 17.040215, 0.0, 2.579141, -6.079136, 36.962563, -6.8123374, -13.316912, 0.0, -23.500751, -54.83982, 0.40161875, 8.214269, 0.0
12.6254662, -16.5124818, 4.34260804, 10.2068332, 21.043738400000002, 0.0, -19.6424078, -6.3088564, 1.5605153200000002, 15.1201738, 17.3178688, 0.0, 2.0294045880000002, -5.93603114, 37.151971, -6.051261859999999, -12.9639808, 0.0, -22.396089200000002, -53.9471634, 0.6536436000000001, 5.75326526, 0.0
13.6484934, -15.797281600000002, 4.07660788, 10.3079604, 20.428069800000003, 0.0, -18.7373076, -6.9064778, 0.9856501400000002, 15.1418356, 17.5955226, 0.0, 1.4796681760000001, -5.79292628, 37.341379, -5.29018632, -12.6110496, 0.0, -21.2914274, -53.0545068, 0.9056684500000001, 3.2922615200000003, 0.0
14.671520600000001, -15.0820814, 3.8106077199999997, 10.4090876, 19.8124012, 0.0, -17.8322074, -7.5040992, 0.4107849600000002, 15.163497399999999, 17.873176400000002, 0.0, 0.9299317640000002, -5.64982142, 37.530787, -4.52911078, -12.2581184, 0.0, -20.1867656, -52.1618502, 1.1576933, 0.8312577800000005, 0.0
15.6945478, -14.3668812, 3.5446075599999998, 10.5102148, 19.1967326, 0.0, -16.9271072, -8.1017206, -0.16408021999999978, 15.1851592, 18.1508302, 0.0, 0.3801953520000003, -5.50671656, 37.720195, -3.7680352399999997, -11.9051872, 0.0, -19.0821038, -51.2691936, 1.4097181500000002, -1.6297459599999993, 0.0
16.717575, -13.651681, 3.2786074, 10.611342, 18.581064, 0.0, -16.022007, -8.699342, -0.7389454, 15.206821, 18.428484, 0.0, -0.16954106, -5.3636117, 37.909603, -3.0069597, -11.552256, 0.0, -17.977442, -50.376537, 1.661743, -4.0907497, 0.0
17.5562408, -12.8429366, 2.92808952, 10.7547174, 18.050359, 0.0, -14.960966999999998, -9.2453026, -1.23840712, 15.2558192, 18.7886074, 0.0, -0.736313848, -5.6818447999999995, 38.304939999999995, -2.377054534, -10.815607, 0.0, -17.2561094, -49.796777, 1.83556476, -5.88580856, 0.0
18.3949066, -12.0341922, 2.57757164, 10.8980928, 17.519654, 0.0, -13.899926999999998, -9.7912632, -1.73786884, 15.3048174, 19.1487308, 0.0, -1.303086636, -6.0000779, 38.700277, -1.7471493679999999, -10.078958, 0.0, -16.5347768, -49.217017, 2.00938652, -7.68086742, 0.0
19.2335724, -11.2254478, 2.22705376, 11.0414682, 16.988949, 0.0, -12.838887, -10.3372238, -2.23733056, 15.3538156, 19.508854200000002, 0.0, -1.869859424, -6.318311, 39.095614, -1.1172442019999997, -9.342309, 0.0, -15.8134442, -48.637257, 2.18320828, -9.47592628, 0.0
20.072238199999997, -10.4167034, 1.87653588, 11.1848436, 16.458244, 0.0, -11.777847, -10.883184400000001, -2.7367922800000004, 15.4028138, 19.8689776, 0.0, -2.4366322119999997, -6.6365441, 39.490951, -0.48733903599999984, -8.60566, 0.0, -15.0921116, -48.057497, 2.35703004, -11.27098514, 0.0
20.910904, -9.607959, 1.526018, 11.328219, 15.927539, 0.0, -10.716807, -11.429145, -3.236254, 15.451812, 20.229101, 0.0, -3.003405, -6.9547772, 39.886288, 0.14256613, -7.869011, 0.0, -14.370779, -47.477737, 2.5308518, -13.066044, 0.0
21.4360078, -8.78508928, 1.1337531200000002, 11.396036800000001, 15.653932, 0.0, -9.667522199999999, -11.8957062, -3.5979276000000002, 15.5517064, 20.5332872, 0.0, -3.58440888, -7.9177823599999995, 40.775633400000004, 0.5855661839999999, -6.3837220960000005, 0.0, -14.0353236, -47.0102246, 2.9150137600000003, -14.3864452, 0.0
21.9611116, -7.962219559999999, 0.74148824, 11.463854600000001, 15.380325, 0.0, -8.6182374, -12.3622674, -3.9596012000000003, 15.6516008, 20.8374734, 0.0, -4.165412760000001, -8.88078752, 41.6649788, 1.028566238, -4.898433192000001, 0.0, -13.699868200000001, -46.5427122, 3.29917572, -15.7068464, 0.0
22.4862154, -7.1393498399999995, 0.34922335999999987, 11.5316724, 15.106718, 0.0, -7.568952599999999, -12.8288286, -4.3212748, 15.751495199999999, 21.1416596, 0.0, -4.7464166400000005, -9.84379268, 42.5543242, 1.4715662919999999, -3.413144288, 0.0, -13.3644128, -46.0751998, 3.68333768, -17.027247600000003, 0.0
23.0113192, -6.31648012, -0.043041520000000055, 11.5994902, 14.833111, 0.0, -6.5196678, -13.2953898, -4.682948400000001, 15.8513896, 21.4458458, 0.0, -5.32742052, -10.80679784, 43.4436696, 1.914566346, -1.927855384, 0.0, -13.028957400000001, -45.607687399999996, 4.06749964, -18.3476488, 0.0
23.536423, -5.4936104, -0.4353064, 11.667308, 14.559504, 0.0, -5.470383, -13.761951, -5.044622, 15.951284, 21.750032, 0.0, -5.9084244, -11.769803, 44.333015, 2.3575664, -0.44256648, 0.0, -12.693502, -45.140175, 4.4516616, -19.66805, 0.0
23.7247576, -4.7256668799999995, -0.8574426799999999, 11.5469384, 14.6357476, 0.0, -4.462590704, -14.1863498, -5.2566604, 16.0306976, 22.0261326, 0.0, -6.51462212, -13.2804314, 45.830318000000005, 2.76787398, 1.902294016, 0.0, -12.6435894, -44.718424999999996, 5.07832634, -20.6061804, 0.0
23.9130922, -3.9577233599999997, -1.2795789599999998, 11.4265688, 14.7119912, 0.0, -3.454798408, -14.6107486, -5.4686988, 16.1101112, 22.3022332, 0.0, -7.12081984, -14.7910598, 47.327621, 3.17818156, 4.247154512, 0.0, -12.5936768, -44.296675, 5.70499108, -21.5443108, 0.0
24.1014268, -3.18977984, -1.70171524, 11.3061992, 14.7882348, 0.0, -2.4470061119999995, -15.0351474, -5.6807372, 16.189524799999997, 22.5783338, 0.0, -7.72701756, -16.3016882, 48.824924, 3.58848914, 6.592015008, 0.0, -12.5437642, -43.874925, 6.33165582, -22.4824412, 0.0
24.2897614, -2.4218363199999997, -2.1238515199999997, 11.1858296, 14.8644784, 0.0, -1.4392138159999996, -15.4595462, -5.8927756, 16.2689384, 22.8544344, 0.0, -8.333215280000001, -17.812316600000003, 50.322227, 3.99879672, 8.936875504, 0.0, -12.493851600000001, -43.453175, 6.95832056, -23.420571600000002, 0.0
24.478096, -1.6538928, -2.5459878, 11.06546, 14.940722, 0.0, -0.43142152, -15.883945, -6.104814, 16.348352, 23.130535, 0.0, -8.939413, -19.322945, 51.81953, 4.4091043, 11.281736, 0.0, -12.443939, -43.031425, 7.5849853, -24.358702, 0.0
24.5083972, -1.0698647, -2.9949585599999997, 10.758927, 15.341047999999999, 0.0, 0.5494471839999999, -16.312315, -6.196039, 16.3356596, 23.4650684, 0.0, -9.54778, -21.080172, 53.6097484, 4.9844918400000005, 14.1557042, 0.0, -12.6104074, -42.700646, 8.30176524, -25.0767798, 0.0
24.5386984, -0.48583659999999984, -3.44392932, 10.452394, 15.741373999999999, 0.0, 1.5303158879999998, -16.740685, -6.287264, 16.3229672, 23.799601799999998, 0.0, -10.156147, -22.837399, 55.3999668, 5.55987938, 17.0296724, 0.0, -12.776875800000001, -42.369867, 9.01854518, -25.7948576, 0.0
24.568999599999998, 0.09819150000000021, -3.89290008, 10.145861, 16.1417, 0.0, 2.511184592, -17.169055, -6.378489, 16.3102748, 24.1341352, 0.0, -10.764514, -24.594625999999998, 57.1901852, 6.13526692, 19.9036406, 0.0, -12.9433442, -42.039088, 9.735325119999999, -26.5129354, 0.0
24.599300799999998, 0.6822196000000003, -4.34187084, 9.839328, 16.542026, 0.0, 3.492053296, -17.597424999999998, -6.469714000000001, 16.2975824, 24.468668599999997, 0.0, -11.372881, -26.351853, 58.9804036, 6.710654460000001, 22.7776088, 0.0, -13.109812600000001, -41.708309, 10.45210506, -27.2310132, 0.0
24.629602, 1.2662477, -4.7908416, 9.532795, 16.942352, 0.0, 4.472922, -18.025795, -6.560939, 16.28489, 24.803202, 0.0, -11.981248, -28.10908, 60.770622, 7.286042, 25.651577, 0.0, -13.276281, -41.37753, 11.168885, -27.949091, 0.0
24.6311184, 1.61371642, -5.17953948, 9.223357140000001, 17.5009088, 0.0, 5.2322228, -18.364486799999998, -6.643295, 16.2391802, 25.1706064, 0.0, -12.4672184, -29.415686, 62.11619760000001, 8.0257428, 28.1176396, 0.0, -13.3346874, -41.211386, 11.7194418, -28.5348714, 0.0
24.632634799999998, 1.96118514, -5.56823736, 8.91391928, 18.0594656, 0.0, 5.991523599999999, -18.703178599999998, -6.725651, 16.1934704, 25.5380108, 0.0, -12.9531888, -30.722292, 63.4617732, 8.7654436, 30.583702199999998, 0.0, -13.3930938, -41.045242, 12.2699986, -29.1206518, 0.0
24.6341512, 2.30865386, -5.95693524, 8.604481419999999, 18.6180224, 0.0, 6.750824399999999, -19.0418704, -6.808007, 16.1477606, 25.9054152, 0.0, -13.439159199999999, -32.028898, 64.8073488, 9.505144399999999, 33.0497648, 0.0, -13.4515002, -40.879098, 12.8205554, -29.7064322, 0.0
24.6356676, 2.65612258, -6.3456331200000005, 8.29504356, 19.1765792, 0.0, 7.510125199999999, -19.3805622, -6.890363, 16.1020508, 26.2728196, 0.0, -13.9251296, -33.335504, 66.1529244, 10.2448452, 35.5158274, 0.0, -13.5099066, -40.712954, 13.371112199999999, -30.2922126, 0.0
24.637184, 3.0035913, -6.734331, 7.9856057, 19.735136, 0.0, 8.269426, -19.719254, -6.972719, 16.056341, 26.640224, 0.0, -14.4111, -34.64211, 67.4985, 10.984546, 37.98189, 0.0, -13.568313, -40.54681, 13.921669, -30.877993, 0.0
24.637184, 3.14254724, -6.9996499, 7.77152256, 20.222258800000002, 0.0, 8.7429636, -19.9601096, -7.07495406, 15.9865054, 26.9171276, 0.0, -14.7228282, -35.3415368, 68.244022, 11.572196, 39.6438174, 0.0, -13.466632, -40.482778, 14.2427108, -31.3089004, 0.0
24.637184, 3.28150318, -7.2649688, 7.55743942, 20.7093816, 0.0, 9.2165012, -20.2009652, -7.1771891199999995, 15.9166698, 27.1940312, 0.0, -15.0345564, -36.0409636, 68.98954400000001, 12.159846, 41.3057448, 0.0, -13.364951, -40.418746, 14.563752599999999, -31.7398078, 0.0
24.637184, 3.42045912, -7.5302877, 7.34335628, 21.196504400000002, 0.0, 9.6900388, -20.441820800000002, -7.27942418, 15.8468342, 27.4709348, 0.0, -15.3462846, -36.7403904, 69.735066, 12.747496, 42.9676722, 0.0, -13.26327, -40.354714, 14.8847944, -32.170715200000004, 0.0
24.637184, 3.55941506, -7.795606599999999, 7.12927314, 21.6836272, 0.0, 10.1635764, -20.682676400000002, -7.38165924, 15.776998599999999, 27.7478384, 0.0, -15.6580128, -37.4398172, 70.48058800000001, 13.335146, 44.6295996, 0.0, -13.161589, -40.290682, 15.2058362, -32.6016226, 0.0
24.637184, 3.698371, -8.0609255, 6.91519, 22.17075, 0.0, 10.637114, -20.923532, -7.4838943, 15.707163, 28.024742, 0.0, -15.969741, -38.139244, 71.22611, 13.922796, 46.291527, 0.0, -13.059908, -40.22665, 15.526878, -33.03253, 0.0
24.637184, 3.7172819599999998, -8.1670248, 6.8253913, 22.4277708, 0.0, 10.8895938, -21.0497948, -7.52842904, 15.6589925, 28.2065726, 0.0, -16.1202288, -38.3982406, 71.514942, 14.1651388, 47.1195236, 0.0, -12.9735848, -40.263242, 15.607072, -33.2276712, 0.0
24.637184, 3.7361929199999997, -8.2731241, 6.7355925999999995, 22.6847916, 0.0, 11.1420736, -21.1760576, -7.57296378, 15.610822, 28.3884032, 0.0, -16.2707166, -38.6572372, 71.803774, 14.4074816, 47.9475202, 0.0, -12.8872616, -40.299834, 15.687266, -33.4228124, 0.0
24.637184, 3.75510388, -8.379223399999999, 6.6457939, 22.9418124, 0.0, 11.394553400000001, -21.302320400000003, -7.61749852, 15.5626515, 28.5702338, 0.0, -16.4212044, -38.9162338, 72.092606, 14.6498244, 48.775516800000005, 0.0, -12.8009384, -40.336426, 15.76746, -33.6179536, 0.0
24.637184, 3.77401484, -8.4853227, 6.5559952, 23.1988332, 0.0, 11.647033200000001, -21.428583200000002, -7.66203326, 15.514481, 28.7520644, 0.0, -16.5716922, -39.1752304, 72.381438, 14.892167200000001, 49.603513400000004, 0.0, -12.7146152, -40.373018, 15.847653999999999, -33.813094799999995, 0.0
24.637184, 3.7929258, -8.591422, 6.4661965, 23.455854, 0.0, 11.899513, -21.554846, -7.706568, 15.4663105, 28.933895, 0.0, -16.72218, -39.434227, 72.67027, 15.13451, 50.43151, 0.0, -12.628292, -40.40961, 15.927848, -34.008236, 0.0
24.637184, 3.7333617, -8.568603, 6.48488386, 23.4618786, 0.0, 11.9664976, -21.583980800000003, -7.69919148, 15.4295392, 29.041948, 0.0, -16.752145000000002, -39.3247726, 72.609076, 15.1293076, 50.4366508, 0.0, -12.51929, -40.468545, 15.9310846, -34.198920799999996, 0.0
24.637184, 3.6737976, -8.545784, 6.5035712199999995, 23.4679032, 0.0, 12.0334822, -21.6131156, -7.691814959999999, 15.3927679, 29.150001, 0.0, -16.782110000000003, -39.2153182, 72.547882, 15.1241052, 50.4417916, 0.0, -12.410288, -40.52748, 15.9343212, -34.389605599999996, 0.0
24.637184, 3.6142335, -8.522965000000001, 6.52225858, 23.4739278, 0.0, 12.100466800000001, -21.6422504, -7.68443844, 15.3559966, 29.258054, 0.0, -16.812075, -39.1058638, 72.486688, 15.1189028, 50.4469324, 0.0, -12.301286000000001, -40.586415, 15.9375578, -34.5802904, 0.0
24.637184, 3.5546694, -8.500146, 6.540945939999999, 23.4799524, 0.0, 12.167451400000001, -21.6713852, -7.67706192, 15.3192253, 29.366107, 0.0, -16.84204, -38.9964094, 72.425494, 15.1137004, 50.4520732, 0.0, -12.192284, -40.64535, 15.9407944, -34.7709752, 0.0
24.637184, 3.4951053, -8.477327, 6.5596333, 23.485977, 0.0, 12.234436, -21.70052, -7.6696854, 15.282454, 29.47416, 0.0, -16.872005, -38.886955, 72.3643, 15.108498, 50.457214, 0.0, -12.083282, -40.704285, 15.944031, -34.96166, 0.0
24.637184, 3.37845914, -8.33607894, 6.68569254, 23.270488999999998, 0.0, 12.145223, -21.63408, -7.608643519999999, 15.2583674, 29.533843400000002, 0.0, -16.794303600000003, -38.4312574, 71.924088, 14.8621999, 49.6458806, 0.0, -11.9727089, -40.645925399999996, 16.0649942, -35.406412, 0.0
24.637184, 3.26181298, -8.19483088, 6.81175178, 23.055000999999997, 0.0, 12.05601, -21.56764, -7.54760164, 15.234280799999999, 29.5935268, 0.0, -16.7166022, -37.9755598, 71.483876, 14.6159018, 48.8345472, 0.0, -11.8621358, -40.5875658, 16.1859574, -35.851164000000004, 0.0
24.637184, 3.14516682, -8.05358282, 6.93781102, 22.839513, 0.0, 11.966797, -21.5012, -7.48655976, 15.2101942, 29.6532102, 0.0, -16.638900800000002, -37.5198622, 71.043664, 14.3696037, 48.0232138, 0.0, -11.7515627, -40.5292062, 16.306920599999998, -36.295916, 0.0
24.637184, 3.0285206600000003, -7.91233476, 7.06387026, 22.624025, 0.0, 11.877584, -21.43476, -7.42551788, 15.1861076, 29.712893599999997, 0.0, -16.5611994, -37.0641646, 70.603452, 14.1233056, 47.211880400000005, 0.0, -11.6409896, -40.4708466, 16.4278838, -36.740668, 0.0
24.637184, 2.9118745, -7.7710867, 7.1899295, 22.408537, 0.0, 11.788371, -21.36832, -7.364476, 15.162021, 29.772577, 0.0, -16.483498, -36.608467, 70.16324, 13.8770075, 46.400547, 0.0, -11.5304165, -40.412487, 16.548847, -37.18542, 0.0
24.637184, 2.679746, -7.521859839999999, 7.3947224, 21.997099, 0.0, 11.461357, -21.210141, -7.3098046, 15.159127, 29.7048994, 0.0, -16.2666234, -35.9269576, 69.356466, 13.4421628, 44.7620736, 0.0, -11.5072808, -40.4108756, 16.5002696, -37.4024734, 0.0
24.637184, 2.4476175000000002, -7.27263298, 7.5995153, 21.585660999999998, 0.0, 11.134343, -21.051962, -7.2551331999999995, 15.156233, 29.6372218, 0.0, -16.0497488, -35.2454482, 68.549692, 13.007318099999999, 43.1236002, 0.0, -11.4841451, -40.409264199999996, 16.4516922, -37.6195268, 0.0
24.637184, 2.215489, -7.02340612, 7.8043081999999995, 21.174223, 0.0, 10.807329000000001, -20.893783000000003, -7.2004618, 15.153338999999999, 29.5695442, 0.0, -15.832874200000001, -34.5639388, 67.742918, 12.5724734, 41.4851268, 0.0, -11.4610094, -40.4076528, 16.403114799999997, -37.8365802, 0.0
24.637184, 1.9833604999999999, -6.77417926, 8.0091011, 20.762785, 0.0, 10.480315000000001, -20.735604000000002, -7.1457904, 15.150445, 29.5018666, 0.0, -15.6159996, -33.8824294, 66.936144, 12.137628699999999, 39.8466534, 0.0, -11.437873699999999, -40.4060414, 16.354537399999998, -38.053633600000005, 0.0
24.637184, 1.751232, -6.5249524, 8.213894, 20.351347, 0.0, 10.153301, -20.577425, -7.091119, 15.147551, 29.434189, 0.0, -15.399125, -33.20092, 66.12937, 11.702784, 38.20818, 0.0, -11.414738, -40.40443, 16.30596, -38.270687, 0.0
24.637184, 1.383798039, -6.0743676, 8.5419714, 19.824096, 0.0, 9.646384900000001, -20.281799000000003, -6.93565574, 15.2217046, 29.2007332, 0.0, -15.065778, -32.2184966, 64.91758519999999, 11.173255, 35.741374199999996, 0.0, -11.2834824, -40.4284672, 16.154498999999998, -38.305534200000004, 0.0
24.637184, 1.016364078, -5.6237828, 8.8700488, 19.296845, 0.0, 9.139468800000001, -19.986173, -6.78019248, 15.2958582, 28.9672774, 0.0, -14.732431, -31.236073200000003, 63.705800399999994, 10.643726, 33.2745684, 0.0, -11.1522268, -40.4525044, 16.003038, -38.340381400000005, 0.0
24.637184, 0.6489301169999999, -5.173198, 9.1981262, 18.769593999999998, 0.0, 8.632552700000002, -19.690547000000002, -6.62472922, 15.3700118, 28.7338216, 0.0, -14.399084, -30.2536498, 62.4940156, 10.114197, 30.8077626, 0.0, -11.0209712, -40.4765416, 15.851576999999999, -38.3752286, 0.0
24.637184, 0.281496156, -4.7226132, 9.5262036, 18.242342999999998, 0.0, 8.1256366, -19.394921, -6.46926596, 15.4441654, 28.5003658, 0.0, -14.065737, -29.271226400000003, 61.282230799999994, 9.584668, 28.3409568, 0.0, -10.889715599999999, -40.5005788, 15.700116, -38.4100758, 0.0
24.637184, -0.085937805, -4.2720284, 9.854281, 17.715092, 0.0, 7.6187205, -19.099295, -6.3138027, 15.518319, 28.26691, 0.0, -13.73239, -28.288803, 60.070446, 9.055139, 25.874151, 0.0, -10.75846, -40.524616, 15.548655, -38.444923, 0.0
24.6325012, -0.608195304, -3.67990746, 10.1879544, 17.264253, 0.0, 6.9014612, -18.664557600000002, -6.06608296, 15.6568416, 27.872102599999998, 0.0, -13.3128572, -27.0562644, 58.6384422, 8.5117952, 22.8324304, 0.0, -10.5866092, -40.62012, 15.3136804, -38.4342198, 0.0
24.6278184, -1.1304528029999998, -3.08778652, 10.521627800000001, 16.813413999999998, 0.0, 6.1842019, -18.229820200000002, -5.81836322, 15.7953642, 27.4772952, 0.0, -12.893324400000001, -25.823725800000002, 57.206438399999996, 7.9684514, 19.790709800000002, 0.0, -10.4147584, -40.715624, 15.0787058, -38.4235166, 0.0
24.6231356, -1.6527103019999998, -2.49566558, 10.8553012, 16.362575, 0.0, 5.4669426, -17.7950828, -5.57064348, 15.9338868, 27.0824878, 0.0, -12.4737916, -24.5911872, 55.7744346, 7.4251076000000005, 16.7489892, 0.0, -10.242907599999999, -40.811128000000004, 14.8437312, -38.412813400000005, 0.0
24.6184528, -2.1749678009999998, -1.9035446399999998, 11.1889746, 15.911736, 0.0, 4.7496833, -17.3603454, -5.32292374, 16.072409399999998, 26.6876804, 0.0, -12.054258800000001, -23.358648600000002, 54.342430799999995, 6.8817638, 13.707268599999999, 0.0, -10.0710568, -40.906632, 14.6087566, -38.4021102, 0.0
24.61377, -2.6972253, -1.3114237, 11.522648, 15.460897, 0.0, 4.032424, -16.925608, -5.075204, 16.210932, 26.292873, 0.0, -11.634726, -22.12611, 52.910427, 6.33842, 10.665548, 0.0, -9.899206, -41.002136, 14.373782, -38.391407, 0.0
24.533948, -3.3728914999999997, -0.6621756, 11.6774368, 15.295331599999999, 0.0, 3.1662274519999998, -16.397865, -4.69989622, 16.3542624, 25.7399594, 0.0, -11.1705188, -20.8489756, 51.5316196, 5.7153981400000005, 7.83302524, 0.0, -9.9900468, -41.0598448, 14.1816932, -38.0869804, 0.0
24.454126, -4.0485577, -0.01292749999999998, 11.832225600000001, 15.129766199999999, 0.0, 2.3000309039999998, -15.870122, -4.32458844, 16.4975928, 25.1870458, 0.0, -10.7063116, -19.5718412, 50.1528122, 5.09237628, 5.00050248, 0.0, -10.0808876, -41.1175536, 13.9896044, -37.7825538, 0.0
24.374304, -4.7242239, 0.6363206000000001, 11.9870144, 14.9642008, 0.0, 1.4338343560000002, -15.342379, -3.94928066, 16.6409232, 24.6341322, 0.0, -10.242104399999999, -18.2947068, 48.7740048, 4.46935442, 2.16797972, 0.0, -10.1717284, -41.1752624, 13.7975156, -37.478127199999996, 0.0
24.294482, -5.3998901, 1.2855687, 12.1418032, 14.7986354, 0.0, 0.5676378080000002, -14.814636, -3.57397288, 16.7842536, 24.0812186, 0.0, -9.7778972, -17.0175724, 47.3951974, 3.84633256, -0.6645430399999999, 0.0, -10.2625692, -41.2329712, 13.6054268, -37.1737006, 0.0
24.21466, -6.0755563, 1.9348168, 12.296592, 14.63307, 0.0, -0.29855874, -14.286893, -3.1986651, 16.927584, 23.528305, 0.0, -9.31369, -15.740438, 46.01639, 3.2233107, -3.4970658, 0.0, -10.35341, -41.29068, 13.413338, -36.869274, 0.0
23.8565658, -6.88411084, 2.50104604, 12.252031, 14.841488, 0.0, -1.267505672, -13.691480199999999, -2.68130902, 17.0483606, 22.9388774, 0.0, -8.7944938, -14.6491206, 45.000866, 2.63056602, -5.617726340000001, 0.0, -10.7808691, -41.490564, 13.145918199999999, -35.83533, 0.0
23.4984716, -7.692665379999999, 3.0672752799999996, 12.20747, 15.049906, 0.0, -2.236452604, -13.096067399999999, -2.1639529399999997, 17.169137199999998, 22.3494498, 0.0, -8.2752976, -13.557803199999999, 43.985342, 2.03782134, -7.73838688, 0.0, -11.2083282, -41.690448, 12.8784984, -34.801386, 0.0
23.1403774, -8.50121992, 3.63350452, 12.162908999999999, 15.258324, 0.0, -3.205399536, -12.5006546, -1.6465968599999998, 17.2899138, 21.7600222, 0.0, -7.7561013999999995, -12.4664858, 42.969818, 1.4450766600000002, -9.859047420000001, 0.0, -11.6357873, -41.890332, 12.611078599999999, -33.767441999999996, 0.0
22.7822832, -9.30977446, 4.19973376, 12.118348, 15.466742, 0.0, -4.174346468, -11.9052418, -1.12924078, 17.4106904, 21.1705946, 0.0, -7.2369052, -11.3751684, 41.954294, 0.8523319800000002, -11.97970796, 0.0, -12.0632464, -42.090216000000005, 12.3436588, -32.733498, 0.0
22.424189, -10.118329, 4.765963, 12.073787, 15.67516, 0.0, -5.1432934, -11.309829, -0.6118847, 17.531467, 20.581167, 0.0, -6.717709, -10.283851, 40.93877, 0.2595873, -14.1003685, 0.0, -12.4907055, -42.2901, 12.076239, -31.699554, 0.0
21.6836232, -10.9550079, 5.2013844, 11.9219712, 16.2137, 0.0, -6.14798172, -10.6901852, 0.03367550000000008, 17.5545514, 20.137226000000002, 0.0, -6.17201896, -9.56724412, 40.385498, -0.27845758000000004, -15.4245338, 0.0, -13.3000568, -42.9128066, 11.6689782, -29.8090272, 0.0
20.9430574, -11.791686799999999, 5.6368058, 11.7701554, 16.75224, 0.0, -7.15267004, -10.0705414, 0.6792357000000001, 17.5776358, 19.693285, 0.0, -5.626328920000001, -8.85063724, 39.832226, -0.8165024600000002, -16.7486991, 0.0, -14.109408100000001, -43.535513200000004, 11.2617174, -27.9185004, 0.0
20.202491600000002, -12.6283657, 6.0722272, 11.618339599999999, 17.29078, 0.0, -8.15735836, -9.450897600000001, 1.3247959000000002, 17.6007202, 19.249344, 0.0, -5.08063888, -8.13403036, 39.278954, -1.35454734, -18.0728644, 0.0, -14.9187594, -44.1582198, 10.854456599999999, -26.0279736, 0.0
19.4619258, -13.465044599999999, 6.5076486, 11.4665238, 17.82932, 0.0, -9.16204668, -8.8312538, 1.9703561, 17.6238046, 18.805403, 0.0, -4.53494884, -7.41742348, 38.725682, -1.8925922200000003, -19.3970297, 0.0, -15.728110700000002, -44.7809264, 10.4471958, -24.1374468, 0.0
18.72136, -14.3017235, 6.94307, 11.314708, 18.36786, 0.0, -10.166735, -8.21161, 2.6159163, 17.646889, 18.361462, 0.0, -3.9892588, -6.7008166, 38.17241, -2.4306371, -20.721195, 0.0, -16.537462, -45.403633, 10.039935, -22.24692, 0.0
