isaac-sim2real/sage/motion_files/h1_2/amass/0-punch_left01_poses_action_sequence.txt
/h1_2/pelvis/left_hip_yaw_joint, /h1_2/left_hip_yaw_link/left_hip_pitch_joint, /h1_2/left_hip_pitch_link/left_hip_roll_joint, /h1_2/left_hip_roll_link/left_knee_joint, /h1_2/left_knee_link/left_ankle_pitch_joint, /h1_2/left_ankle_pitch_link/left_ankle_roll_joint, /h1_2/pelvis/right_hip_yaw_joint, /h1_2/right_hip_yaw_link/right_hip_pitch_joint, /h1_2/right_hip_pitch_link/right_hip_roll_joint, /h1_2/right_hip_roll_link/right_knee_joint, /h1_2/right_knee_link/right_ankle_pitch_joint, /h1_2/right_ankle_pitch_link/right_ankle_roll_joint, /h1_2/pelvis/torso_joint, /h1_2/torso_link/left_shoulder_pitch_joint, /h1_2/left_shoulder_pitch_link/left_shoulder_roll_joint, /h1_2/left_shoulder_roll_link/left_shoulder_yaw_joint, /h1_2/left_shoulder_yaw_link/left_elbow_joint, /h1_2/left_elbow_link/left_wrist_roll_joint, /h1_2/torso_link/right_shoulder_pitch_joint, /h1_2/right_shoulder_pitch_link/right_shoulder_roll_joint, /h1_2/right_shoulder_roll_link/right_shoulder_yaw_joint, /h1_2/right_shoulder_yaw_link/right_elbow_joint, /h1_2/right_elbow_link/right_wrist_roll_joint
0.4299999792196667, -0.015406561661290362, -0.01786963034103103, -0.07519234464758978, 0.38972106130263123, 0.0, -0.3873897377542798, -0.04525165591661081, -0.03239955221441989, -0.04309382856788313, 0.24325221017051868, 0.0, -0.0022094946796403156, 0.03208199653833653, 0.10316734932719314, 0.0040791442578529775, 1.142285986091807, 0.0, 0.01262993428398633, -0.1364593878719251, -0.06532658830735302, 0.9254803835576155, 0.0
0.4299999792196667, -0.015940070905073676, -0.01733555505206471, -0.07552635179720245, 0.38955096151373186, 0.0, -0.387905793216851, -0.04501529609892289, -0.03183562271953235, -0.042534574460995844, 0.24290152465457393, 0.0, -0.0016056613241293666, 0.03294802437532006, 0.10111077446249311, 0.0017834584129650987, 1.1430230875041434, 0.0, 0.013162757508653852, -0.13520167219701143, -0.06445688410883309, 0.9271367708309282, 0.0
0.4299999792196667, -0.01647358014885699, -0.01680147976309839, -0.0758603589468151, 0.38938086172483255, 0.0, -0.3884218486794222, -0.04477893628123494, -0.03127169322464482, -0.04197532035410855, 0.24255083913862927, 0.0, -0.0010018279686184173, 0.03381405221230359, 0.09905419959779307, -0.0005122274319227794, 1.1437601889164797, 0.0, 0.013695580733321378, -0.13394395652209778, -0.06358717991031315, 0.928793158104241, 0.0
0.4299999792196667, -0.017007089392640302, -0.01626740447413207, -0.07619436609642775, 0.3892107619359332, 0.0, -0.38893790414199336, -0.04454257646354702, -0.03070776372975729, -0.04141606624722126, 0.24220015362268452, 0.0, -0.000397994613107468, 0.03468008004928712, 0.09699762473309305, -0.0028079132768106573, 1.1444972903288158, 0.0, 0.014228403957988902, -0.13268624084718414, -0.06271747571179322, 0.9304495453775536, 0.0
0.4299999792196667, -0.017540598636423616, -0.01573332918516575, -0.07652837324604041, 0.3890406621470338, 0.0, -0.3894539596045646, -0.044306216645859084, -0.030143834234869753, -0.040856812140333966, 0.24184946810673982, 0.0, 0.00020583874240348126, 0.035546107886270654, 0.094941049868393, -0.005103599121698536, 1.1452343917411523, 0.0, 0.014761227182656426, -0.1314285251722705, -0.06184777151327329, 0.9321059326508663, 0.0
0.4299999792196667, -0.018074107880206927, -0.015199253896199432, -0.07686238039565307, 0.3888705623581344, 0.0, -0.38997001506713574, -0.044069856828171154, -0.02957990473998222, -0.04029755803344667, 0.24149878259079513, 0.0, 0.0008096720979144302, 0.036412135723254184, 0.092884475003693, -0.007399284966586416, 1.1459714931534883, 0.0, 0.015294050407323952, -0.13017080949735685, -0.06097806731475335, 0.933762319924179, 0.0
0.4299999792196667, -0.018770406636224216, -0.014856399323542562, -0.07705625855028161, 0.3889163737603408, 0.0, -0.3905913662434798, -0.04434213517279927, -0.028880293698110494, -0.03976889082170058, 0.2413016720863919, 0.0, 0.001429783552928102, 0.03686086790245649, 0.09190831095678917, -0.008940491923720796, 1.1463307866333037, 0.0, 0.01680601957392234, -0.1289528363657745, -0.061020594356373296, 0.9376153785940519, 0.0
0.4299999792196667, -0.019466705392241504, -0.014513544750885695, -0.07725013670491014, 0.38896218516254716, 0.0, -0.3912127174198237, -0.044614413517427405, -0.028180682656238774, -0.039240223609954494, 0.24110456158198865, 0.0, 0.002049895007941774, 0.03730960008165878, 0.09093214690988533, -0.010481698880855178, 1.1466900801131195, 0.0, 0.018317988740520725, -0.12773486323419217, -0.06106312139799324, 0.9414684372639246, 0.0
0.4299999792196667, -0.020163004148258792, -0.014170690178228825, -0.0774440148595387, 0.3890079965647535, 0.0, -0.3918340685961677, -0.04488669186205553, -0.027481071614367053, -0.0387115563982084, 0.24090745107758543, 0.0, 0.002670006462955446, 0.03775833226086109, 0.08995598286298151, -0.01202290583798956, 1.147049373592935, 0.0, 0.019829957907119115, -0.1265168901026098, -0.06110564843961319, 0.9453214959337973, 0.0
0.4299999792196667, -0.02085930290427608, -0.013827835605571957, -0.07763789301416722, 0.3890538079669598, 0.0, -0.39245541977251175, -0.04515897020668365, -0.02678146057249533, -0.038182889186462315, 0.2407103405731822, 0.0, 0.0032901179179691178, 0.03820706444006339, 0.08897981881607767, -0.01356411279512394, 1.1474086670727506, 0.0, 0.0213419270737175, -0.1252989169710275, -0.06114817548123312, 0.9491745546036702, 0.0
0.4299999792196667, -0.021555601660293366, -0.013484981032915089, -0.07783177116879576, 0.38909961936916615, 0.0, -0.3930767709488557, -0.045431248551311774, -0.026081849530623608, -0.03765422197471622, 0.24051323006877895, 0.0, 0.003910229372982789, 0.038655796619265693, 0.08800365476917385, -0.01510531975225832, 1.1477679605525661, 0.0, 0.022853896240315884, -0.12408094383944515, -0.06119070252285307, 0.9530276132735429, 0.0
0.4299999792196667, -0.022260870710534203, -0.013458843505635995, -0.07771924455593193, 0.3892904746135302, 0.0, -0.393952975102576, -0.046000100921887485, -0.025578027778911362, -0.03688368912962386, 0.24063689362759974, 0.0, 0.004642842636240962, 0.039263978239205834, 0.08765364120499115, -0.01570248740214059, 1.14798056259941, 0.0, 0.024682129678977496, -0.12330636357581742, -0.06225987516559568, 0.9575260458315841, 0.0
0.4299999792196667, -0.022966139760775044, -0.013432705978356907, -0.0776067179430681, 0.38948132985789435, 0.0, -0.3948291792562961, -0.04656895329246319, -0.02507420602719911, -0.0361131562845315, 0.24076055718642056, 0.0, 0.0053754558994991335, 0.03987215985914599, 0.08730362764080844, -0.016299655052022858, 1.148193164646254, 0.0, 0.026510363117639105, -0.12253178331218967, -0.0633290478083383, 0.9620244783896252, 0.0
0.4299999792196667, -0.023671408811015877, -0.013406568451077813, -0.07749419133020428, 0.38967218510225843, 0.0, -0.3957053834100164, -0.0471378056630389, -0.02457038427548686, -0.03534262343943914, 0.24088422074524138, 0.0, 0.0061080691627573075, 0.040480341479086135, 0.08695361407662575, -0.016896822701905127, 1.148405766693098, 0.0, 0.028338596556300718, -0.12175720304856195, -0.0643982204510809, 0.9665229109476666, 0.0
0.4299999792196667, -0.024376677861256715, -0.013380430923798722, -0.07738166471734044, 0.3898630403466225, 0.0, -0.3965815875637365, -0.0477066580336146, -0.024066562523774607, -0.03457209059434677, 0.24100788430406217, 0.0, 0.00684068242601548, 0.04108852309902629, 0.08660360051244305, -0.0174939903517874, 1.148618368739942, 0.0, 0.030166829994962327, -0.12098262278493421, -0.0654673930938235, 0.9710213435057077, 0.0
0.4299999792196667, -0.025081946911497555, -0.01335429339651963, -0.07726913810447661, 0.3900538955909865, 0.0, -0.39745779171745677, -0.048275510404190314, -0.023562740772062357, -0.03380155774925441, 0.241131547862883, 0.0, 0.007573295689273651, 0.04169670471896643, 0.08625358694826035, -0.018091158001669664, 1.1488309707867859, 0.0, 0.03199506343362394, -0.12020804252130647, -0.06653656573656612, 0.975519776063749, 0.0
0.4299999792196667, -0.02575947325514624, -0.013582528357473679, -0.07679205758943172, 0.39025992472786747, 0.0, -0.39848430013570024, -0.04919306280415367, -0.02329492139460723, -0.0328205046860499, 0.24148217752829165, 0.0, 0.008232116012878484, 0.04237015571881172, 0.08637048037491267, -0.018213387597977033, 1.1489941032213113, 0.0, 0.03322034321158683, -0.12010761627614672, -0.06811718198386443, 0.9787414130074936, 0.0
0.4299999792196667, -0.026436999598794926, -0.013810763318427724, -0.07631497707438682, 0.3904659538647484, 0.0, -0.39951080855394366, -0.05011061520411702, -0.0230271020171521, -0.03183945162284538, 0.24183280719370032, 0.0, 0.008890936336483315, 0.04304360671865699, 0.08648737380156499, -0.0183356171942844, 1.1491572356558368, 0.0, 0.034445622989549715, -0.12000719003098695, -0.06969779823116275, 0.9819630499512384, 0.0
0.4299999792196667, -0.027114525942443617, -0.014038998279381772, -0.07583789655934194, 0.39067198300162936, 0.0, -0.40053731697218714, -0.05102816760408039, -0.022759282639696968, -0.030858398559640864, 0.24218343685910892, 0.0, 0.009549756660088147, 0.043717057718502275, 0.0866042672282173, -0.018457846790591766, 1.1493203680903619, 0.0, 0.035670902767512606, -0.11990676378582721, -0.07127841447846106, 0.9851846868949832, 0.0
0.4299999792196667, -0.0277920522860923, -0.014267233240335816, -0.07536081604429705, 0.3908780121385102, 0.0, -0.40156382539043056, -0.05194572000404374, -0.022491463262241843, -0.02987734549643635, 0.2425340665245176, 0.0, 0.01020857698369298, 0.04439050871834755, 0.08672116065486964, -0.01858007638689913, 1.1494835005248873, 0.0, 0.03689618254547549, -0.11980633754066744, -0.07285903072575937, 0.988406323838728, 0.0
0.4299999792196667, -0.02846957862974099, -0.014495468201289862, -0.07488373552925215, 0.39108404127539115, 0.0, -0.40259033380867404, -0.052863272404007094, -0.022223643884786714, -0.02889629243323183, 0.24288469618992622, 0.0, 0.010867397307297811, 0.04506395971819283, 0.08683805408152195, -0.018702305983206498, 1.149646632959413, 0.0, 0.038121462323438375, -0.1197059112955077, -0.0744396469730577, 0.9916279607824726, 0.0
0.4299999792196667, -0.02939689893939606, -0.014913706162334246, -0.0740222780114479, 0.391365266177765, 0.0, -0.40357357202410205, -0.05412445744440786, -0.02199148193301568, -0.027707718674767637, 0.24379808981934797, 0.0, 0.011458023009358, 0.04543134698788158, 0.08717754156498586, -0.019150592405317843, 1.1494644066228707, 0.0, 0.038214082059919816, -0.11990138991706033, -0.07560288727742918, 0.9926015996870147, 0.0
0.4299999792196667, -0.030324219249051123, -0.015331944123378625, -0.07316082049364363, 0.3916464910801388, 0.0, -0.40455681023953005, -0.05538564248480863, -0.021759319981244647, -0.026519144916303444, 0.24471148344876967, 0.0, 0.01204864871141819, 0.045798734257570334, 0.08751702904844978, -0.019598878827429184, 1.1492821802863284, 0.0, 0.03830670179640124, -0.12009686853861294, -0.0767661275818007, 0.9935752385915568, 0.0
0.4299999792196667, -0.03125153955870619, -0.015750182084423008, -0.07229936297583937, 0.3919277159825127, 0.0, -0.40554004845495806, -0.05664682752520938, -0.021527158029473612, -0.025330571157839248, 0.24562487707819136, 0.0, 0.012639274413478377, 0.04616612152725909, 0.08785651653191372, -0.020047165249540526, 1.1490999539497861, 0.0, 0.038399321532882676, -0.12029234716016556, -0.07792936788617218, 0.9945488774960988, 0.0
0.4299999792196667, -0.03217885986836126, -0.01616842004546739, -0.0714379054580351, 0.3922089408848865, 0.0, -0.4065232866703861, -0.05790801256561015, -0.02129499607770258, -0.024141997399375056, 0.24653827070761306, 0.0, 0.013229900115538564, 0.04653350879694784, 0.08819600401537762, -0.020495451671651867, 1.1489177276132438, 0.0, 0.03849194126936411, -0.12048782578171817, -0.07909260819054369, 0.9955225164006408, 0.0
0.4299999792196667, -0.03310618017801632, -0.01658665800651177, -0.07057644794023085, 0.39249016578726037, 0.0, -0.4075065248858141, -0.059169197606010915, -0.021062834125931545, -0.02295342364091086, 0.24745166433703478, 0.0, 0.013820525817598754, 0.046900896066636596, 0.08853549149884156, -0.02094373809376321, 1.1487355012767018, 0.0, 0.03858456100584554, -0.1206833044032708, -0.08025584849491518, 0.996496155305183, 0.0
0.4299999792196667, -0.03436354329642107, -0.017003352572898613, -0.06954417435040222, 0.39287658866496894, 0.0, -0.4083732972802565, -0.0606096230736696, -0.020684220549428117, -0.021497827945926775, 0.24916833877336986, 0.0, 0.014366162865661983, 0.046942365787795676, 0.08905197526521116, -0.02209198043480647, 1.1476837658694499, 0.0, 0.03800877164962486, -0.12089093924306354, -0.08037306445841327, 0.9953432466518516, 0.0
0.4299999792196667, -0.03562090641482582, -0.017420047139285456, -0.06851190076057356, 0.39326301154267745, 0.0, -0.409240069674699, -0.062050048541328263, -0.02030560697292469, -0.02004223225094269, 0.25088501320970497, 0.0, 0.014911799913725217, 0.04698383550895476, 0.08956845903158077, -0.023240222775849726, 1.1466320304621982, 0.0, 0.03743298229340417, -0.1210985740828563, -0.08049028042191135, 0.9941903379985203, 0.0
0.4299999792196667, -0.03687826953323057, -0.017836741705672298, -0.06747962717074492, 0.393649434420386, 0.0, -0.4101068420691414, -0.06349047400898694, -0.01992699339642126, -0.018586636555958606, 0.25260168764604, 0.0, 0.015457436961788446, 0.04702530523011385, 0.0900849427979504, -0.024388465116892983, 1.1455802950549463, 0.0, 0.03685719293718349, -0.12130620892264907, -0.08060749638540944, 0.9930374293451888, 0.0
0.4299999792196667, -0.03813563265163532, -0.018253436272059144, -0.06644735358091627, 0.39403585729809454, 0.0, -0.4109736144635838, -0.06493089947664563, -0.01954837981991783, -0.01713104086097452, 0.2543183620823751, 0.0, 0.016003074009851678, 0.047066774951272934, 0.09060142656432002, -0.025536707457936247, 1.1445285596476946, 0.0, 0.0362814035809628, -0.12151384376244181, -0.08072471234890753, 0.9918845206918574, 0.0
0.4299999792196667, -0.039392995770040067, -0.018670130838445986, -0.06541507999108763, 0.3944222801758031, 0.0, -0.4118403868580263, -0.0663713249443043, -0.0191697662434144, -0.015675445165990433, 0.2560350365187102, 0.0, 0.01654871105791491, 0.04710824467243201, 0.09111791033068962, -0.0266849497989795, 1.1434768242404427, 0.0, 0.03570561422474211, -0.12172147860223458, -0.08084192831240562, 0.9907316120385261, 0.0
0.4299999792196667, -0.040937696631990844, -0.019076461639734487, -0.06447881312368685, 0.39487114395283107, 0.0, -0.41242905150813897, -0.06802768848113917, -0.01852510570621783, -0.014086868541786939, 0.2583322249175511, 0.0, 0.01714453504861924, 0.04732968890633241, 0.09181574811804134, -0.028916917338068497, 1.1410615119578271, 0.0, 0.03544273657253108, -0.12174979238055796, -0.08003844749075997, 0.9880590591681171, 0.0
0.4299999792196667, -0.042482397493941615, -0.019482792441022988, -0.06354254625628605, 0.39532000772985904, 0.0, -0.4130177161582516, -0.06968405201797404, -0.017880445169021257, -0.012498291917583447, 0.26062941331639206, 0.0, 0.01774035903932357, 0.04755113314023279, 0.09251358590539303, -0.03114888487715749, 1.138646199675211, 0.0, 0.03517985892032005, -0.12177810615888139, -0.07923496666911431, 0.9853865062977083, 0.0
0.4299999792196667, -0.0440270983558924, -0.01988912324231149, -0.06260627938888526, 0.39576887150688683, 0.0, -0.41360638080836426, -0.07134041555480891, -0.017235784631824687, -0.010909715293379951, 0.26292660171523297, 0.0, 0.018336183030027892, 0.047772577374133186, 0.09321142369274472, -0.033380852416246484, 1.136230887392595, 0.0, 0.03491698126810902, -0.12180641993720479, -0.07843148584746865, 0.9827139534272995, 0.0
0.4299999792196667, -0.04557179921784317, -0.02029545404359999, -0.06167001252148446, 0.3962177352839148, 0.0, -0.4141950454584769, -0.07299677909164379, -0.016591124094628113, -0.009321138669176459, 0.2652237901140739, 0.0, 0.018932007020732222, 0.047994021608033566, 0.09390926148009641, -0.03561281995533548, 1.1338155751099792, 0.0, 0.034654103615897984, -0.12183473371552819, -0.07762800502582298, 0.9800414005568906, 0.0
0.4299999792196667, -0.047116500079793955, -0.02070178484488849, -0.060733745654083675, 0.39666659906094276, 0.0, -0.41478371010858955, -0.07465314262847866, -0.015946463557431543, -0.007732562044972966, 0.2675209785129148, 0.0, 0.019527831011436552, 0.04821546584193395, 0.09460709926744813, -0.03784478749442448, 1.1314002628273634, 0.0, 0.03439122596368696, -0.12186304749385157, -0.07682452420417733, 0.9773688476864818, 0.0
0.4299999792196667, -0.04883621138902751, -0.02103375624246162, -0.05997148741497502, 0.39716952615688045, 0.0, -0.4150121771983341, -0.07661375649837723, -0.015055555144389622, -0.006072482911600108, 0.26934479522137134, 0.0, 0.02029182515501924, 0.049596574549634356, 0.09556395334057374, -0.041768948085496686, 1.1263925990441261, 0.0, 0.03584046429687065, -0.1218805643163563, -0.07462005258212424, 0.9724605804041458, 0.0
0.4299999792196667, -0.05055592269826106, -0.021365727640034752, -0.05920922917586636, 0.3976724532528181, 0.0, -0.41524064428807866, -0.0785743703682758, -0.014164646731347699, -0.004412403778227252, 0.2711686119298279, 0.0, 0.02105581929860193, 0.050977683257334754, 0.09652080741369935, -0.045693108676568894, 1.1213849352608893, 0.0, 0.03728970263005435, -0.12189808113886103, -0.07241558096007117, 0.9675523131218098, 0.0
0.4299999792196667, -0.05227563400749462, -0.02169769903760789, -0.0584469709367577, 0.39817538034875577, 0.0, -0.41546911137782316, -0.08053498423817439, -0.013273738318305778, -0.002752324644854395, 0.2729924286382843, 0.0, 0.02181981344218462, 0.052358791965035144, 0.09747766148682496, -0.049617269267641095, 1.116377271477652, 0.0, 0.038738940963238044, -0.12191559796136574, -0.0702111093380181, 0.9626440458394738, 0.0
0.4299999792196667, -0.05399534531672818, -0.02202967043518102, -0.05768471269764904, 0.3986783074446934, 0.0, -0.4156975784675678, -0.08249559810807297, -0.012382829905263855, -0.0010922455114815378, 0.2748162453467409, 0.0, 0.02258380758576731, 0.05373990067273554, 0.09843451555995057, -0.05354142985871331, 1.111369607694415, 0.0, 0.040188179296421746, -0.12193311478387045, -0.06800663771596502, 0.9577357785571377, 0.0
0.4299999792196667, -0.05571505662596173, -0.022361641832754155, -0.05692245445854039, 0.3991812345406311, 0.0, -0.41592604555731233, -0.08445621197797154, -0.011491921492221936, 0.0005678336218913196, 0.27664006205519737, 0.0, 0.023347801729350002, 0.055121009380435945, 0.09939136963307621, -0.05746559044978551, 1.1063619439111778, 0.0, 0.04163741762960544, -0.12195063160637516, -0.06580216609391194, 0.9528275112748018, 0.0
0.4299999792196667, -0.05736172032094571, -0.022508781466277685, -0.056336282138599585, 0.3997764686100483, 0.0, -0.41594990769884554, -0.08645306237380002, -0.01056331724855593, 0.002675378139588795, 0.27772583138286305, 0.0, 0.024168740730437514, 0.05891663554781088, 0.10060508346315197, -0.06355279448058791, 1.0962830619253217, 0.0, 0.04536081055335979, -0.12211490723156063, -0.06028265588412778, 0.9422762105483327, 0.0
0.4299999792196667, -0.05900838401592971, -0.022655921099801215, -0.05575010981865879, 0.4003717026794654, 0.0, -0.41597376984037887, -0.0884499127696285, -0.009634713004889925, 0.004782922657286271, 0.2788116007105287, 0.0, 0.024989679731525025, 0.0627122617151858, 0.10181879729322775, -0.0696399985113903, 1.0862041799394655, 0.0, 0.04908420347711413, -0.1222791828567461, -0.054763145674343615, 0.9317249098218634, 0.0
0.4299999792196667, -0.06065504771091369, -0.022803060733324745, -0.055163937498717994, 0.4009669367488825, 0.0, -0.4159976319819121, -0.090446763165457, -0.008706108761223921, 0.006890467174983746, 0.27989737003819437, 0.0, 0.02581061873261253, 0.06650788788256075, 0.10303251112330351, -0.0757272025421927, 1.076125297953609, 0.0, 0.05280759640086848, -0.12244345848193154, -0.04924363546455946, 0.9211736090953944, 0.0
0.4299999792196667, -0.06230171140589769, -0.02295020036684828, -0.05457776517877719, 0.4015621708182997, 0.0, -0.41602149412344536, -0.09244361356128548, -0.007777504517557916, 0.008998011692681223, 0.28098313936586006, 0.0, 0.026631557733700042, 0.07030351404993568, 0.10424622495337928, -0.08181440657299509, 1.0660464159677525, 0.0, 0.056530989324622825, -0.12260773410711702, -0.043724125254775294, 0.9106223083689253, 0.0
0.4299999792196667, -0.06394837510088167, -0.02309734000037181, -0.053991592858836396, 0.40215740488771684, 0.0, -0.4160453562649786, -0.09444046395711396, -0.00684890027389191, 0.011105556210378698, 0.28206890869352574, 0.0, 0.027452496734787554, 0.07409914021731061, 0.10545993878345507, -0.08790161060379749, 1.0559675339818964, 0.0, 0.06025438224837717, -0.12277200973230248, -0.03820461504499114, 0.9000710076424562, 0.0
0.4299999792196667, -0.06560818671018678, -0.02328947771267026, -0.053823574898668805, 0.4027155542011876, 0.0, -0.41521570004240915, -0.09697059796056008, -0.005682588015503979, 0.013198515953995052, 0.28344812022832916, 0.0, 0.02724777240605542, 0.07859917149694665, 0.10662581034620686, -0.09584135911347838, 1.0374150086644376, 0.0, 0.06273008013058527, -0.12266021999744883, -0.027534473453490325, 0.8791802018942474, 0.0
0.4299999792196667, -0.0672679983194919, -0.02348161542496871, -0.053655556938501214, 0.4032737035146584, 0.0, -0.41438604381983957, -0.09950073196400616, -0.004516275757116048, 0.01529147569761141, 0.2848273317631327, 0.0, 0.02704304807732329, 0.08309920277658268, 0.10779168190895866, -0.10378110762315927, 1.0188624833469786, 0.0, 0.06520577801279337, -0.1225484302625952, -0.016864331861989507, 0.8582893961460387, 0.0
0.4299999792196667, -0.068927809928797, -0.023673753137267158, -0.053487538978333624, 0.4038318528281292, 0.0, -0.4135563875972701, -0.10203086596745226, -0.0033499634987281166, 0.017384435441227766, 0.28620654329793616, 0.0, 0.026838323748591155, 0.08759923405621871, 0.10895755347171047, -0.11172085613284014, 1.0003099580295198, 0.0, 0.06768147589500147, -0.12243664052774156, -0.00619419027048869, 0.8373985903978299, 0.0
0.4299999792196667, -0.07058762153810211, -0.023865890849565606, -0.05331952101816604, 0.4043900021416, 0.0, -0.4127267313747005, -0.10456099997089835, -0.0021836512403401852, 0.019477395184844117, 0.2875857548327397, 0.0, 0.026633599419859027, 0.09209926533585476, 0.11012342503446226, -0.11966060464252103, 0.9817574327120608, 0.0, 0.07015717377720956, -0.12232485079288793, 0.004475951321012124, 0.8165077846496213, 0.0
0.4299999792196667, -0.07224743314740723, -0.024058028561864057, -0.05315150305799845, 0.4049481514550708, 0.0, -0.41189707515213103, -0.10709113397434447, -0.0010173389819522543, 0.021570354928460475, 0.28896496636754315, 0.0, 0.026428875091126895, 0.0965992966154908, 0.11128929659721407, -0.12760035315220192, 0.9632049073946021, 0.0, 0.07263287165941766, -0.12221306105803428, 0.015146092912512935, 0.7956169789014125, 0.0
0.4299999792196667, -0.07367254335087964, -0.024286664948546064, -0.05346880810480122, 0.4051545017325341, 0.0, -0.40995970732253983, -0.1102682161529443, 0.00032866050798209946, 0.023553700664668727, 0.29101097047109553, 0.0, 0.024475024372079792, 0.09349563345720535, 0.11300097939188845, -0.13384185755338293, 0.9330413034662292, 0.0, 0.06621193344849761, -0.12141810093379686, 0.02847989212935687, 0.7618026732673014, 0.0
0.4299999792196667, -0.07509765355435208, -0.02451530133522807, -0.05378611315160399, 0.40536085200999733, 0.0, -0.4080223394929485, -0.11344529833154415, 0.001674659997916453, 0.02553704640087698, 0.29305697457464797, 0.0, 0.022521173653032692, 0.09039197029891989, 0.11471266218656283, -0.14008336195456395, 0.9028776995378562, 0.0, 0.059790995237577575, -0.12062314080955944, 0.041813691346200804, 0.7279883676331906, 0.0
0.4299999792196667, -0.0765227637578245, -0.02474393772191007, -0.05410341819840678, 0.4055672022874606, 0.0, -0.4060849716633573, -0.116622380510144, 0.003020659487850807, 0.027520392137085237, 0.2951029786782003, 0.0, 0.020567322933985593, 0.08728830714063443, 0.11642434498123723, -0.14632486635574493, 0.8727140956094832, 0.0, 0.05337005702665753, -0.11982818068532201, 0.05514749056304475, 0.6941740619990795, 0.0
0.4299999792196667, -0.07794787396129695, -0.024972574108592077, -0.05442072324520955, 0.4057735525649239, 0.0, -0.404147603833766, -0.11979946268874385, 0.004366658977785162, 0.029503737873293485, 0.2971489827817527, 0.0, 0.018613472214938493, 0.08418464398234897, 0.1181360277759116, -0.15256637075692595, 0.8425504916811104, 0.0, 0.04694911881573749, -0.1190332205610846, 0.06848128977988868, 0.6603597563649686, 0.0
0.4299999792196667, -0.07937298416476936, -0.025201210495274084, -0.05473802829201232, 0.40597990284238716, 0.0, -0.4022102360041747, -0.1229765448673437, 0.005712658467719515, 0.03148708360950174, 0.29919498688530516, 0.0, 0.016659621495891393, 0.08108098082406354, 0.11984771057058599, -0.15880787515810696, 0.8123868877527375, 0.0, 0.04052818060481745, -0.11823826043684717, 0.08181508899673262, 0.6265454507308575, 0.0
0.4299999792196667, -0.0794442459581283, -0.025037594953611724, -0.05514734919137533, 0.40535284793004767, 0.0, -0.39957638057394107, -0.12619966883161116, 0.006763773166076118, 0.034412654767177094, 0.3006255006281417, 0.0, 0.014537644257197233, 0.06464059914141408, 0.12333134237900611, -0.16083383939118798, 0.7688713719296091, 0.0, 0.02058323126105167, -0.11793592507903874, 0.09500315531543015, 0.5789593837784486, 0.0
0.4299999792196667, -0.07951550775148722, -0.02487397941194937, -0.05555667009073835, 0.4047257930177081, 0.0, -0.3969425251437075, -0.12942279279587862, 0.007814887864432721, 0.03733822592485245, 0.3020560143709784, 0.0, 0.012415667018503069, 0.048200217458764634, 0.12681497418742624, -0.16285980362426897, 0.725355856106481, 0.0, 0.0006382819172858912, -0.11763358972123034, 0.10819122163412764, 0.5313733168260395, 0.0
0.4299999792196667, -0.07958676954484616, -0.024710363870287008, -0.05596599099010137, 0.4040987381053687, 0.0, -0.39430866971347384, -0.13264591676014606, 0.008866002562789327, 0.04026379708252781, 0.30348652811381494, 0.0, 0.010293689779808907, 0.03175983577611519, 0.13029860599584636, -0.16488576785734999, 0.6818403402833527, 0.0, -0.019306667426479886, -0.11733125436342191, 0.12137928795282517, 0.48378724987363053, 0.0
0.4299999792196667, -0.07965803133820507, -0.02454674832862465, -0.056375311889464395, 0.4034716831930291, 0.0, -0.39167481428324025, -0.13586904072441353, 0.009917117261145931, 0.04318936824020315, 0.3049170418566516, 0.0, 0.008171712541114743, 0.015319454093465744, 0.1337822378042665, -0.166911732090431, 0.6383248244602245, 0.0, -0.03925161677024566, -0.11702891900561349, 0.13456735427152267, 0.43620118292122156, 0.0
0.4299999792196667, -0.079729293131564, -0.024383132786962296, -0.05678463278882741, 0.4028446282806896, 0.0, -0.3890409588530066, -0.13909216468868096, 0.010968231959502533, 0.04611493939787851, 0.3063475555994881, 0.0, 0.00604973530242058, -0.0011209275891836967, 0.13726586961268664, -0.168937696323512, 0.5948093086370962, 0.0, -0.05919656611401144, -0.11672658364780507, 0.1477554205902202, 0.3886151159688126, 0.0
0.4299999792196667, -0.07734659860920692, -0.02319603557704529, -0.056709565828633283, 0.4007611030888779, 0.0, -0.3863161473341346, -0.14134807954137074, 0.011331767985663833, 0.051724365480066904, 0.30422715858189875, 0.0, 0.004049485703340913, -0.029229823736277222, 0.14093360049593637, -0.17116498079515202, 0.5390372146511794, 0.0, -0.09025151527643148, -0.11507989970700176, 0.16005607529793872, 0.33053456573840384, 0.0
0.4299999792196667, -0.07496390408684984, -0.02200893836712828, -0.05663449886843915, 0.3986775778970661, 0.0, -0.3835913358152625, -0.14360399439406046, 0.011695304011825135, 0.0573337915622553, 0.3021067615643093, 0.0, 0.002049236104261244, -0.05733871988337074, 0.1446013313791861, -0.17339226526679205, 0.48326512066526245, 0.0, -0.12130646443885156, -0.11343321576619846, 0.17235673000565727, 0.27245401550799514, 0.0
0.4299999792196667, -0.0725812095644928, -0.020821841157211276, -0.05655943190824503, 0.39659405270525433, 0.0, -0.38086652429639045, -0.14585990924675024, 0.012058840037986435, 0.0629432176444437, 0.2999863645467199, 0.0, 4.898650518157594e-05, -0.08544761603046427, 0.14826906226243583, -0.1756195497384321, 0.4274930266793455, 0.0, -0.1523614136012716, -0.11178653182539514, 0.1846573847133758, 0.21437346527758644, 0.0
0.4299999792196667, -0.07019851504213571, -0.019634743947294267, -0.0564843649480509, 0.3945105275134425, 0.0, -0.3781417127775184, -0.14811582409944002, 0.012422376064147736, 0.06855264372663211, 0.29786596752913047, 0.0, -0.0019512630938980926, -0.11355651217755781, 0.15193679314568562, -0.17784683421007214, 0.37172093269342865, 0.0, -0.18341636276369166, -0.11013984788459183, 0.19695803942109438, 0.1562929150471777, 0.0
0.4299999792196667, -0.06781582051977862, -0.01844764673737726, -0.05640929798785677, 0.3924270023216308, 0.0, -0.3754169012586464, -0.15037173895212977, 0.012785912090309035, 0.07416206980882052, 0.29574557051154116, 0.0, -0.003951512692977762, -0.14166540832465135, 0.15560452402893535, -0.1800741186817122, 0.3159488387075117, 0.0, -0.2144713119261117, -0.10849316394378851, 0.2092586941288129, 0.098212364816769, 0.0
0.4299999792196667, -0.06341725954126089, -0.01588932200132002, -0.055164413275472085, 0.38814097982421575, 0.0, -0.37307825081809504, -0.1525507057287576, 0.011893122945371749, 0.0823294808114608, 0.2880351073019582, 0.0, -0.004768117552840379, -0.16988451300810936, 0.15789277459667678, -0.18499290680877922, 0.2567519703024738, 0.0, -0.24486774975801773, -0.10457904772256153, 0.22083786637567132, 0.04180817889829132, 0.0
0.4299999792196667, -0.05901869856274315, -0.013330997265262785, -0.05391952856308739, 0.3838549573268008, 0.0, -0.3707396003775438, -0.15472967250538544, 0.011000333800434465, 0.09049689181410107, 0.2803246440923751, 0.0, -0.005584722412702996, -0.1981036176915674, 0.16018102516441826, -0.18991169493584625, 0.19755510189743591, 0.0, -0.2752641875899237, -0.10066493150133457, 0.2324170386225297, -0.014596007020186364, 0.0
0.4299999792196667, -0.0546201375842254, -0.01077267252920555, -0.05267464385070271, 0.37956893482938575, 0.0, -0.3684009499369924, -0.15690863928201323, 0.010107544655497179, 0.09866430281674135, 0.27261418088279216, 0.0, -0.006401327272565613, -0.22632272237502546, 0.16246927573215972, -0.19483048306291328, 0.13835823349239806, 0.0, -0.3056606254218297, -0.09675081528010758, 0.24399621086938808, -0.07100019293866407, 0.0
0.4299999792196667, -0.05022157660570767, -0.008214347793148311, -0.05142975913831803, 0.3752829123319708, 0.0, -0.36606229949644115, -0.15908760605864108, 0.009214755510559893, 0.10683171381938163, 0.26490371767320914, 0.0, -0.00721793213242823, -0.2545418270584835, 0.1647575262999012, -0.19974927118998032, 0.07916136508736017, 0.0, -0.33605706325373574, -0.09283669905888062, 0.25557538311624645, -0.12740437885714173, 0.0
0.4299999792196667, -0.04582301562718993, -0.005656023057091074, -0.050184874425933335, 0.3709968898345558, 0.0, -0.3637236490558899, -0.1612665728352689, 0.008321966365622609, 0.11499912482202193, 0.2571932544636262, 0.0, -0.008034536992290847, -0.2827609317419415, 0.16704577686764263, -0.20466805931704737, 0.019964496682322263, 0.0, -0.3664535010856416, -0.08892258283765363, 0.26715455536310484, -0.1838085647756194, 0.0
0.4299999792196667, -0.042912482924481465, -0.002347614975188316, -0.04742458350496089, 0.3620513757957255, 0.0, -0.3616867800056424, -0.16492455081865856, 0.005152987052608072, 0.12444662871498152, 0.24902970028956695, 0.0, -0.005927977398796857, -0.30125900976805514, 0.16854356258116812, -0.21244433191140605, -0.02955014478184061, 0.0, -0.3871538983937748, -0.08513415475717977, 0.27772303885605987, -0.22854858265799582, 0.0
0.4299999792196667, -0.04000195022177299, 0.0009607931067144418, -0.04466429258398844, 0.3531058617568953, 0.0, -0.3596499109553949, -0.16858252880204813, 0.0019840077395935343, 0.1338941326079411, 0.24086614611550772, 0.0, -0.0038214178053028666, -0.3197570877941688, 0.17004134829469358, -0.22022060450576475, -0.0790647862460035, 0.0, -0.407854295701908, -0.08134572667670589, 0.28829152234901484, -0.27328860054037224, 0.0
0.4299999792196667, -0.03709141751906452, 0.0042692011886172, -0.041904001663016006, 0.34416034771806503, 0.0, -0.35761304190514753, -0.17224050678543773, -0.001184971573421002, 0.14334163650090073, 0.2327025919414485, 0.0, -0.0017148582118088772, -0.3382551658202824, 0.17153913400821905, -0.2279968771001234, -0.12857942771016637, 0.0, -0.4285546930100412, -0.07755729859623205, 0.29886000584196987, -0.31802861842274865, 0.0
0.4299999792196667, -0.034180884816356054, 0.007577609270519957, -0.039143710742043564, 0.33521483367923477, 0.0, -0.3555761728549, -0.17589848476882733, -0.004353950886435539, 0.15278914039386032, 0.22453903776738926, 0.0, 0.0003917013816851135, -0.35675324384639595, 0.1730369197217445, -0.23577314969448213, -0.17809406917432924, 0.0, -0.44925509031817434, -0.07376887051575817, 0.30942848933492484, -0.3627686363051251, 0.0
0.4299999792196667, -0.03127035211364759, 0.010886017352422714, -0.036383419821071114, 0.3262693196404045, 0.0, -0.35353930380465254, -0.17955646275221693, -0.007522930199450077, 0.1622366442868199, 0.21637548359333003, 0.0, 0.0024982609751791045, -0.37525132187250965, 0.17453470543526997, -0.2435494222888408, -0.2276087106384921, 0.0, -0.4699554876263075, -0.06998044243528433, 0.31999697282787987, -0.4075086541875015, 0.0
0.4299999792196667, -0.029693958865007395, 0.013578468547100613, -0.02765443098017744, 0.3142776754767516, 0.0, -0.34688355702468376, -0.18295690344184076, -0.009874100410324705, 0.173808362232443, 0.21413872721983943, 0.0, 0.0045343473848833875, -0.38076590955567147, 0.17790227633909098, -0.25074594188424754, -0.263051846542356, 0.0, -0.47779566719655714, -0.07092373704545119, 0.3282803438550885, -0.4380166150679515, 0.0
0.4299999792196667, -0.0281175656163672, 0.016270919741778515, -0.01892544213928377, 0.3022860313130986, 0.0, -0.340227810244715, -0.18635734413146454, -0.012225270621199333, 0.18538008017806612, 0.2119019708463488, 0.0, 0.00657043379458767, -0.3862804972388334, 0.18126984724291204, -0.2579424614796542, -0.29849498244621997, 0.0, -0.48563584676680693, -0.07186703165561806, 0.3365637148822971, -0.4685245759484014, 0.0
0.4299999792196667, -0.026541172367727014, 0.018963370936456413, -0.010196453298390099, 0.2902943871494457, 0.0, -0.3335720634647461, -0.1897577848210884, -0.014576440832073961, 0.1969517981236892, 0.20966521447285819, 0.0, 0.008606520204291953, -0.3917950849219951, 0.18463741814673304, -0.265138981075061, -0.33393811835008397, 0.0, -0.49347602633705656, -0.07281032626578492, 0.3448470859095058, -0.4990325368288514, 0.0
0.4299999792196667, -0.024964779119086823, 0.021655822131134313, -0.001467464457496422, 0.2783027429857928, 0.0, -0.32691631668477733, -0.1931582255107122, -0.01692761104294859, 0.20852351606931235, 0.2074284580993676, 0.0, 0.010642606613996236, -0.39730967260515704, 0.18800498905055404, -0.2723355006704677, -0.3693812542539478, 0.0, -0.5013162059073064, -0.07375362087595179, 0.3531304569367144, -0.5295404977093013, 0.0
0.4299999792196667, -0.023388385870446626, 0.02434827332581221, 0.0072615243833972516, 0.2663110988221398, 0.0, -0.32026056990480856, -0.19655866620033602, -0.01927878125382322, 0.22009523401493547, 0.20519170172587695, 0.0, 0.01267869302370052, -0.40282426028831886, 0.19137255995437505, -0.2795320202658744, -0.4048243901578118, 0.0, -0.509156385477556, -0.07469691548611866, 0.361413827963923, -0.5600484585897513, 0.0
0.4297957687158664, -0.023496802931053714, 0.024688624747255868, 0.025716462408257642, 0.25684637027479224, 0.0, -0.30704596306230764, -0.20047464398974316, -0.019768404752070496, 0.23142614190234395, 0.20196749914813175, 0.0, 0.016525162726581152, -0.39720855171895497, 0.19829739810775782, -0.2832192866194417, -0.4261801202028253, 0.0, -0.5054995471941679, -0.07708630613868395, 0.3720139211149609, -0.5768402748138471, 0.0
0.42959155821206596, -0.0236052199916608, 0.025028976168699528, 0.044171400433118034, 0.24738164172744476, 0.0, -0.29383135621980677, -0.20439062177915035, -0.020258028250317774, 0.24275704978975238, 0.1987432965703866, 0.0, 0.020371632429461783, -0.3915928431495911, 0.2052222362611406, -0.28690655297300904, -0.44753585024783876, 0.0, -0.50184270891078, -0.07947569679124923, 0.38261401426599884, -0.593632091037943, 0.0
0.42938734770826564, -0.023713637052267884, 0.025369327590143185, 0.06262633845797842, 0.2379169131800972, 0.0, -0.2806167493773059, -0.2083065995685575, -0.02074765174856505, 0.25408795767716086, 0.1955190939926414, 0.0, 0.024218102132342413, -0.38597713458022714, 0.2121470744145234, -0.29059381932657635, -0.4688915802928522, 0.0, -0.49818587062739184, -0.0818650874438145, 0.39321410741703666, -0.6104239072620391, 0.0
0.42918313720446527, -0.023822054112874965, 0.025709679011586842, 0.08108127648283882, 0.22845218463274972, 0.0, -0.267402142534805, -0.21222257735796468, -0.02123727524681233, 0.26541886556456923, 0.1922948914148962, 0.0, 0.02806457183522305, -0.38036142601086337, 0.21907191256790617, -0.2942810856801437, -0.4902473103378658, 0.0, -0.4945290323440038, -0.08425447809637979, 0.4038142005680745, -0.6272157234861349, 0.0
0.4289789267006649, -0.023930471173482053, 0.026050030433030502, 0.09953621450769921, 0.21898745608540215, 0.0, -0.25418753569230407, -0.21613855514737182, -0.021726898745059602, 0.2767497734519777, 0.189070688837151, 0.0, 0.03191104153810368, -0.37474571744149937, 0.22599675072128894, -0.297968352033711, -0.5116030403828792, 0.0, -0.4908721940606157, -0.08664386874894506, 0.41441429371911237, -0.644007539710231, 0.0
0.4258816933353438, -0.02999959045164113, 0.022366018874172056, 0.1239023722223566, 0.2167167198967045, 0.0, -0.239607079555753, -0.2225601031763325, -0.024863577947739184, 0.28647658413046323, 0.17991468983585948, 0.0, 0.03999522162844071, -0.36571292646809395, 0.23665135748618363, -0.2951295530613912, -0.5192284606793295, 0.0, -0.4829355710865593, -0.09020334418907645, 0.42940270660568314, -0.6508840880938696, 0.0
0.4227844599700227, -0.03606870972980021, 0.018682007315313616, 0.148268529937014, 0.21444598370800677, 0.0, -0.22502662341920193, -0.22898165120529318, -0.028000257150418758, 0.2962033948089487, 0.17075869083456802, 0.0, 0.04807940171877773, -0.35668013549468847, 0.24730596425107826, -0.2922907540890714, -0.5268538809757798, 0.0, -0.47499894811250293, -0.09376281962920786, 0.4443911194922539, -0.6577606364775082, 0.0
0.41968722660470154, -0.042137829007959295, 0.014997995756455173, 0.17263468765167142, 0.2121752475193091, 0.0, -0.2104461672826508, -0.23540319923425387, -0.031136936353098336, 0.3059302054874342, 0.1616026918332765, 0.0, 0.05616358180911474, -0.347647344521283, 0.2579605710159729, -0.2894519551167516, -0.5344793012722302, 0.0, -0.4670623251384466, -0.09732229506933925, 0.45937953237882473, -0.6646371848611466, 0.0
0.41658999323938045, -0.04820694828611838, 0.011313984197596732, 0.1970008453663288, 0.2099045113306114, 0.0, -0.1958657111460997, -0.24182474726321454, -0.03427361555577791, 0.3156570161659198, 0.15244669283198498, 0.0, 0.06424776189945176, -0.33861455354787756, 0.2686151777808676, -0.2866131561444318, -0.5421047215686805, 0.0, -0.4591257021643901, -0.10088177050947063, 0.4743679452653954, -0.6715137332447852, 0.0
0.41349275987405937, -0.05427606756427745, 0.00762997263873829, 0.22136700308098622, 0.2076337751419137, 0.0, -0.18128525500954862, -0.24824629529217523, -0.037410294758457495, 0.32538382684440526, 0.14329069383069348, 0.0, 0.07233194198978879, -0.3295817625744721, 0.27926978454576223, -0.28377435717211197, -0.5497301418651308, 0.0, -0.45118907919033374, -0.10444124594960204, 0.48935635815196615, -0.6783902816284239, 0.0
0.4040580335365536, -0.06794779359116818, 0.0019778295183875702, 0.23857452182632216, 0.2111933619340514, 0.0, -0.1714438125020555, -0.2574404524269031, -0.045957220974692785, 0.3326230022867307, 0.13089088208124725, 0.0, 0.08390868997431615, -0.3231347117944813, 0.300051622407452, -0.2723992191507995, -0.543384302728463, 0.0, -0.44400180285864554, -0.10851065947327637, 0.5083642643058799, -0.682412532515985, 0.0
0.39462330719904787, -0.0816195196180589, -0.0036743136019631506, 0.2557820405716581, 0.21475294872618902, 0.0, -0.16160236999456243, -0.26663460956163093, -0.054504147190928075, 0.33986217772905614, 0.11849107033180101, 0.0, 0.09548543795884354, -0.3166876610144905, 0.32083346026914167, -0.26102408112948705, -0.5370384635917954, 0.0, -0.43681452652695746, -0.11258007299695069, 0.5273721704597936, -0.686434783403546, 0.0
0.3851885808615421, -0.09529124564494962, -0.00932645672231387, 0.27298955931699403, 0.21831253551832674, 0.0, -0.15176092748706935, -0.2758287666963588, -0.06305107340716336, 0.34710135317138163, 0.10609125858235474, 0.0, 0.1070621859433709, -0.31024061023449956, 0.34161529813083136, -0.24964894310817454, -0.5306926244551278, 0.0, -0.4296272501952692, -0.11664948652062503, 0.5463800766137072, -0.6904570342911073, 0.0
0.37575385452403637, -0.10896297167184035, -0.014978599842664591, 0.29019707806232997, 0.2218721223104644, 0.0, -0.14191948497957627, -0.2850229238310867, -0.07159799962339865, 0.35434052861370713, 0.09369144683290848, 0.0, 0.11863893392789825, -0.30379355945450875, 0.3623971359925211, -0.23827380508686202, -0.52434678531846, 0.0, -0.422439973863581, -0.12071890004429936, 0.565387982767621, -0.6944792851786683, 0.0
0.3663191281865307, -0.12263469769873109, -0.020630742963015314, 0.30740459680766596, 0.22543170910260205, 0.0, -0.13207804247208316, -0.2942170809658145, -0.08014492583963394, 0.3615797040560326, 0.08129163508346224, 0.0, 0.1302156819124256, -0.29734650867451795, 0.3831789738542108, -0.22689866706554954, -0.5180009461817925, 0.0, -0.4152526975318929, -0.1247883135679737, 0.5843958889215347, -0.6985015360662293, 0.0
0.35774032178617843, -0.13948794741810214, -0.027701355902446566, 0.31316983820602373, 0.2319514615725847, 0.0, -0.1251743632942882, -0.3048508694433914, -0.09026513477871652, 0.366255078093641, 0.07428883900651234, 0.0, 0.13988983600737845, -0.2950116735237115, 0.41846647700334516, -0.2045349535269733, -0.49724816456148996, 0.0, -0.40532708337962975, -0.12702871628333756, 0.6066236692366487, -0.7040550131757842, 0.0
0.3491615153858262, -0.15634119713747316, -0.03477196884187782, 0.3189350796043815, 0.23847121404256735, 0.0, -0.11827068411649316, -0.3154846579209683, -0.10038534371779909, 0.37093045213124937, 0.06728604292956242, 0.0, 0.1495639901023313, -0.29267683837290503, 0.45375398015247953, -0.182171239988397, -0.4764953829411874, 0.0, -0.3954014692273666, -0.12926911899870144, 0.6288514495517626, -0.7096084902853389, 0.0
0.34058270898547405, -0.17319444685684424, -0.04184258178130907, 0.3247003210027392, 0.24499096651254998, 0.0, -0.11136700493869817, -0.32611844639854515, -0.11050555265688165, 0.3756058261688578, 0.0602832468526125, 0.0, 0.1592381441972841, -0.29034200322209863, 0.48904148330161384, -0.15980752644982074, -0.45574260132088484, 0.0, -0.3854758550751034, -0.13150952171406532, 0.6510792298668764, -0.7151619673948937, 0.0
0.3320039025851218, -0.19004769657621526, -0.04891319472074032, 0.330465562401097, 0.25151071898253263, 0.0, -0.10446332576090317, -0.33675223487612205, -0.12062576159596422, 0.38028120020646616, 0.0532804507756626, 0.0, 0.16891229829223697, -0.2880071680712922, 0.5243289864507482, -0.13744381291124447, -0.4349898197005823, 0.0, -0.3755502409228402, -0.1337499244294292, 0.6733070101819905, -0.7207154445044485, 0.0
0.32342509618476956, -0.2069009462955863, -0.05598380766017159, 0.33623080379945475, 0.2580304714525153, 0.0, -0.09755964658310816, -0.3473860233536989, -0.1307459705350468, 0.38495657424407453, 0.046277654698712686, 0.0, 0.1785864523871898, -0.28567233292048577, 0.5596164895998825, -0.11508009937266818, -0.41423703808027984, 0.0, -0.36562462677057705, -0.1359903271447931, 0.6955347904971044, -0.7262689216140032, 0.0
0.32100014968468266, -0.22486663955864714, -0.05973932720853324, 0.33269490636125437, 0.2687204490600309, 0.0, -0.08741216163847541, -0.3618364035917574, -0.13734934940894122, 0.38519037855067173, 0.04650550149844109, 0.0, 0.17880633245701452, -0.29275242509215044, 0.6045013698101745, -0.08198724129283234, -0.3798445467528852, 0.0, -0.3583854827441781, -0.14043759083795607, 0.7143147741040001, -0.7319500939929509, 0.0
0.31857520318459576, -0.2428323328217079, -0.06349484675689489, 0.32915900892305405, 0.27941042666754645, 0.0, -0.07726467669384268, -0.37628678382981584, -0.14395272828283562, 0.38542418285726887, 0.04673334829816948, 0.0, 0.1790262125268393, -0.2998325172638151, 0.6493862500204666, -0.04889438321299648, -0.34545205542549057, 0.0, -0.35114633871777917, -0.14488485453111896, 0.7330947577108958, -0.7376312663718987, 0.0
0.3161502566845088, -0.2607980260847687, -0.06725036630525655, 0.3256231114848536, 0.29010040427506206, 0.0, -0.06711719174920994, -0.3907371640678743, -0.15055610715673, 0.38565798716386596, 0.046961195097897895, 0.0, 0.17924609259666405, -0.3069126094354798, 0.6942711302307585, -0.01580152513316063, -0.3110595640980959, 0.0, -0.3439071946913803, -0.1493321182242819, 0.7518747413177916, -0.7433124387508463, 0.0
0.3137253101844219, -0.27876371934782945, -0.0710058858536182, 0.3220872140466533, 0.3007903818825776, 0.0, -0.056969706804577185, -0.4051875443059328, -0.15715948603062443, 0.38589179147046315, 0.047189041897626294, 0.0, 0.1794659726664888, -0.31399270160714443, 0.7391560104410505, 0.017291332946675227, -0.27666707277070124, 0.0, -0.33666805066498134, -0.15377938191744484, 0.7706547249246876, -0.7489936111297941, 0.0
0.311300363684335, -0.2967294126108903, -0.07476140540197987, 0.318551316608453, 0.31148035949009323, 0.0, -0.046822221859944446, -0.41963792454399124, -0.16376286490451886, 0.3861255957770603, 0.04741688869735469, 0.0, 0.17968585273631354, -0.32107279377880915, 0.7840408906513423, 0.05038419102651108, -0.2422745814433066, 0.0, -0.32942890663858243, -0.15822664561060779, 0.7894347085315832, -0.7546747835087417, 0.0
0.312289696589511, -0.31473543694230616, -0.07516026549593813, 0.31470636324762646, 0.324568869784796, 0.0, -0.03138710381956465, -0.4385943993355072, -0.16499351052273406, 0.3805464623275012, 0.054602076568059925, 0.0, 0.17033190512351198, -0.3367081129526316, 0.8220762785720601, 0.08597202519734086, -0.20187497331036408, 0.0, -0.3272318442882699, -0.15903244318230256, 0.8059177480857334, -0.754987455753578, 0.0
0.313279029494687, -0.33274146127372206, -0.0755591255898964, 0.3108614098868, 0.3376573800794988, 0.0, -0.015951985779184854, -0.45755087412702317, -0.1662241561409493, 0.3749673288779421, 0.06178726443876514, 0.0, 0.16097795751071045, -0.3523434321264541, 0.8601116664927779, 0.12155985936817064, -0.16147536517742161, 0.0, -0.32503478193795743, -0.15983824075399733, 0.8224007876398834, -0.7553001279984143, 0.0
0.314268362399863, -0.35074748560513797, -0.07595798568385466, 0.3070164565259735, 0.3507458903742016, 0.0, -0.0005168677388050607, -0.4765073489185391, -0.1674548017591645, 0.369388195428383, 0.06897245230947037, 0.0, 0.1516240098979089, -0.3679787513002766, 0.8981470544134956, 0.15714769353900043, -0.12107575704447912, 0.0, -0.3228377195876449, -0.1606440383256921, 0.8388838271940335, -0.7556128002432505, 0.0
0.31525769530503894, -0.36875350993655387, -0.07635684577781292, 0.303171503165147, 0.36383440066890443, 0.0, 0.01491825030157473, -0.49546382371005504, -0.16868544737737973, 0.363809061978824, 0.07615764018017558, 0.0, 0.14227006228510733, -0.38361407047409907, 0.9361824423342134, 0.1927355277098302, -0.08067614891153663, 0.0, -0.32064065723733237, -0.16144983589738685, 0.8553668667481836, -0.7559254724880868, 0.0
0.31624702821021494, -0.3867595342679697, -0.07675570587177118, 0.2993265498043205, 0.3769229109636072, 0.0, 0.03035336834195453, -0.5144202985015709, -0.16991609299559493, 0.3582299285292649, 0.08334282805088081, 0.0, 0.13291611467230582, -0.39924938964792145, 0.9742178302549311, 0.22832336188066, -0.04027654077859417, 0.0, -0.3184435948870199, -0.16225563346908162, 0.8718499063023338, -0.7562381447329232, 0.0
0.3179650395687571, -0.39934130566764847, -0.0774453343284532, 0.29931180526279966, 0.38497368894271955, 0.0, 0.04236439648134598, -0.5297169295527269, -0.1707460284708448, 0.3522633738736651, 0.09340028088418112, 0.0, 0.12488213932696826, -0.4095941934892702, 0.9992988922844981, 0.2543542600144301, -0.009500367123475703, 0.0, -0.31353739756517673, -0.1599900564736528, 0.8859786817004441, -0.7531229379669651, 0.0
0.31968305092729915, -0.41192307706732734, -0.07813496278513521, 0.2992970607212788, 0.39302446692183196, 0.0, 0.05437542462073743, -0.5450135606038828, -0.17157596394609462, 0.3462968192180653, 0.10345773371748145, 0.0, 0.11684816398163071, -0.4199389973306188, 1.0243799543140648, 0.28038515814820025, 0.021275806531642755, 0.0, -0.3086312002433336, -0.157724479478224, 0.9001074570985548, -0.7500077312010068, 0.0
0.32140106228584125, -0.4245048484670061, -0.07882459124181723, 0.2992823161797579, 0.4010752449009443, 0.0, 0.06638645276012888, -0.5603101916550388, -0.17240589942134446, 0.34033026456246557, 0.11351518655078176, 0.0, 0.10881418863629315, -0.4302838011719674, 1.0494610163436318, 0.3064160562819704, 0.05205198018676122, 0.0, -0.3037250029214904, -0.15545890248279523, 0.9142362324966652, -0.7468925244350487, 0.0
0.3231190736443834, -0.43708661986668473, -0.07951421969849924, 0.2992675716382371, 0.4091260228800567, 0.0, 0.07839748089952032, -0.5756068227061948, -0.1732358348965943, 0.33436370990686576, 0.12357263938408207, 0.0, 0.10078021329095559, -0.44062860501331613, 1.0745420783731985, 0.33244695441574057, 0.08282815384187968, 0.0, -0.2988188055996473, -0.15319332548736642, 0.9283650078947757, -0.7437773176690905, 0.0
0.32483708500292546, -0.4496683912663636, -0.08020384815518125, 0.29925282709671625, 0.41717680085916903, 0.0, 0.09040850903891179, -0.5909034537573506, -0.17406577037184415, 0.328397155251266, 0.1336300922173824, 0.0, 0.09274623794561802, -0.45097340885466475, 1.0996231404027652, 0.35847785254951064, 0.11360432749699813, 0.0, -0.29391260827780413, -0.1509277484919376, 0.9424937832928861, -0.7406621109031324, 0.0
0.3265336846622041, -0.4529495928068204, -0.08162336178587423, 0.29850285911713426, 0.41963571495715823, 0.0, 0.09489879789066319, -0.5967980449972322, -0.17505984010061004, 0.3273407144363509, 0.13965650363781104, 0.0, 0.0908656690640061, -0.451618573303323, 1.1120568136340951, 0.37107194946436706, 0.12913045712748655, 0.0, -0.29271077106422233, -0.15039695023317481, 0.9479291469906416, -0.735933696309556, 0.0
0.32823028432148277, -0.4562307943472772, -0.08304287541656723, 0.29775289113755227, 0.4220946290551475, 0.0, 0.09938908674241459, -0.6026926362371138, -0.1760539098293759, 0.32628427362143564, 0.1456829150582397, 0.0, 0.08898510018239421, -0.4522637377519812, 1.124490486865425, 0.3836660463792234, 0.14465658675797502, 0.0, -0.2915089338506406, -0.14986615197441205, 0.9533645106883968, -0.7312052817159794, 0.0
0.3299268839807614, -0.45951199588773406, -0.0844623890472602, 0.29700292315797033, 0.42455354315313665, 0.0, 0.10387937559416599, -0.6085872274769953, -0.1770479795581418, 0.3252278328065205, 0.15170932647866828, 0.0, 0.08710453130078229, -0.45290890220063934, 1.1369241600967555, 0.39626014329407966, 0.16018271638846343, 0.0, -0.29030709663705867, -0.14933535371564927, 0.958799874386152, -0.726476867122403, 0.0
0.33162348364004013, -0.46279319742819086, -0.08588190267795319, 0.29625295517838834, 0.42701245725112597, 0.0, 0.1083696644459174, -0.6144818187168769, -0.1780420492869077, 0.32417139199160533, 0.15773573789909692, 0.0, 0.08522396241917038, -0.4535540666492976, 1.1493578333280854, 0.4088542402089361, 0.17570884601895187, 0.0, -0.2891052594234769, -0.1488045554568865, 0.9642352380839074, -0.7217484525288265, 0.0
0.3333200832993187, -0.46607439896864766, -0.08730141630864617, 0.29550298719880636, 0.4294713713491151, 0.0, 0.1128599532976688, -0.6203764099567585, -0.17903611901567357, 0.3231149511766902, 0.16376214931952554, 0.0, 0.08334339353755846, -0.45419923109795585, 1.1617915065594153, 0.4214483371237924, 0.1912349756494403, 0.0, -0.2879034222098951, -0.14827375719812372, 0.9696706017816629, -0.7170200379352498, 0.0
0.33614130680607096, -0.4598404982688859, -0.08781856539452665, 0.2954301231931941, 0.42892129592876405, 0.0, 0.11031363066727876, -0.6164887483891357, -0.17860102588644391, 0.3276522173105883, 0.1605033298813963, 0.0, 0.08245082831836421, -0.4485461236133802, 1.1627274917306747, 0.42115906974422546, 0.19144486894528517, 0.0, -0.2886188675768726, -0.14972096501525564, 0.9671755942747423, -0.7162607778227303, 0.0
0.33896253031282314, -0.4536065975691242, -0.08833571448040713, 0.2953572591875819, 0.428371220508413, 0.0, 0.1077673080368887, -0.6126010868215128, -0.17816593275721426, 0.33218948344448634, 0.15724451044326704, 0.0, 0.08155826309916996, -0.4428930161288046, 1.1636634769019345, 0.4208698023646583, 0.19165476224112998, 0.0, -0.2893343129438501, -0.1511681728323876, 0.9646805867678219, -0.7155015177102106, 0.0
0.3417837538195754, -0.4473726968693624, -0.0888528635662876, 0.2952843951819696, 0.42782114508806196, 0.0, 0.10522098540649866, -0.60871342525389, -0.1777308396279846, 0.3367267495783844, 0.15398569100513781, 0.0, 0.0806656978799757, -0.4372399086442289, 1.1645994620731936, 0.42058053498509135, 0.19186465553697482, 0.0, -0.2900497583108277, -0.1526153806495195, 0.9621855792609013, -0.7147422575976912, 0.0
0.34460497732632756, -0.4411387961696006, -0.08937001265216808, 0.29521153117635734, 0.4272710696677109, 0.0, 0.10267466277610862, -0.6048257636862672, -0.17729574649875493, 0.34126401571228254, 0.15072687156700856, 0.0, 0.07977313266078145, -0.4315868011596533, 1.1655354472444535, 0.4202912676055243, 0.19207454883281969, 0.0, -0.2907652036778052, -0.15406258846665144, 0.9596905717539809, -0.7139829974851716, 0.0
0.3474262008330798, -0.4349048954698388, -0.08988716173804856, 0.2951386671707451, 0.4267209942473598, 0.0, 0.10012834014571857, -0.6009381021186444, -0.17686065336952528, 0.3458012818461806, 0.1474680521288793, 0.0, 0.0788805674415872, -0.42593369367507766, 1.166471432415713, 0.4200020002259573, 0.1922844421286645, 0.0, -0.29148064904478266, -0.15550979628378336, 0.9571955642470604, -0.7132237373726521, 0.0
0.3518275477061496, -0.42457117795989885, -0.0887914175046419, 0.29414255191609584, 0.42466743286814634, 0.0, 0.09159197107706275, -0.5896737575982484, -0.17558389615247233, 0.3532891387816472, 0.1351879190025057, 0.0, 0.07954615154436202, -0.4189496434814918, 1.156597232172555, 0.4084496484537143, 0.17733783511366677, 0.0, -0.29106851048587523, -0.15810014065576475, 0.9488666715423013, -0.7126377011883929, 0.0
0.3562288945792194, -0.4142374604499588, -0.08769567327123523, 0.29314643666144663, 0.42261387148893276, 0.0, 0.08305560200840692, -0.5784094130778527, -0.17430713893541946, 0.36077699571711386, 0.12290778587613212, 0.0, 0.08021173564713688, -0.4119655932879059, 1.146723031929397, 0.39689729668147133, 0.16239122809866904, 0.0, -0.2906563719269678, -0.16069048502774616, 0.9405377788375421, -0.7120516650041339, 0.0
0.3606302414522891, -0.40390374294001885, -0.08659992903782855, 0.2921503214067974, 0.4205603101097192, 0.0, 0.07451923293975109, -0.5671450685574567, -0.17303038171836654, 0.36826485265258047, 0.11062765274975853, 0.0, 0.08087731974991172, -0.4049815430943199, 1.1368488316862393, 0.38534494490922827, 0.1474446210836713, 0.0, -0.2902442333680604, -0.16328082939972755, 0.9322088861327831, -0.7114656288198745, 0.0
0.3650315883253589, -0.39357002543007885, -0.08550418480442187, 0.2911542061521482, 0.41850674873050564, 0.0, 0.06598286387109527, -0.5558807240370608, -0.17175362450131362, 0.3757527095880471, 0.09834751962338492, 0.0, 0.08154290385268656, -0.39799749290073394, 1.126974631443081, 0.37379259313698526, 0.13249801406867356, 0.0, -0.28983209480915295, -0.16587117377170896, 0.9238799934280237, -0.7108795926356154, 0.0
0.3694329351984287, -0.3832363079201389, -0.08440844057101522, 0.290158090897499, 0.41645318735129216, 0.0, 0.05744649480243945, -0.544616379516665, -0.17047686728426073, 0.3832405665235137, 0.08606738649701133, 0.0, 0.08220848795546139, -0.391013442707148, 1.1171004311999233, 0.3622402413647423, 0.11755140705367582, 0.0, -0.2894199562502455, -0.16846151814369037, 0.9155511007232647, -0.7102935564513563, 0.0
0.3738856610740187, -0.37481264732765496, -0.0827358587366391, 0.28716347940153664, 0.4129898851379993, 0.0, 0.04492205223270093, -0.5301764538008259, -0.16933698925912472, 0.38910502639918876, 0.07243730193167809, 0.0, 0.08622619749630879, -0.38519188302448687, 1.0955362111037836, 0.3420763617593307, 0.08755986291895224, 0.0, -0.29149678635904663, -0.16869691419056534, 0.9035001118743854, -0.7076464958600022, 0.0
0.37833838694960864, -0.366388986735171, -0.081063276902263, 0.2841688679055743, 0.40952658292470634, 0.0, 0.03239760966296242, -0.5157365280849869, -0.16819711123398873, 0.39496948627486395, 0.058807217366344845, 0.0, 0.09024390703715619, -0.37937032334182574, 1.073971991007644, 0.32191248215391915, 0.05756831878422864, 0.0, -0.2935736164678478, -0.16893231023744032, 0.8914491230255062, -0.704999435268648, 0.0
0.3827911128251987, -0.35796532614268706, -0.0793906950678869, 0.2811742564096119, 0.40606328071141345, 0.0, 0.0198731670932239, -0.5012966023691479, -0.1670572332088527, 0.400833946150539, 0.045177132801011606, 0.0, 0.09426161657800361, -0.37354876365916473, 1.0524077709115043, 0.30174860254850755, 0.027576774649505056, 0.0, -0.29565044657664896, -0.1691677062843153, 0.8793981341766269, -0.7023523746772936, 0.0
0.38724383870078855, -0.3495416655502031, -0.07771811323351081, 0.2781796449136496, 0.40259997849812057, 0.0, 0.007348724523485392, -0.48685667665330884, -0.16591735518371672, 0.4066984060262142, 0.03154704823567836, 0.0, 0.098279326118851, -0.3677272039765036, 1.0308435508153646, 0.28158472294309594, -0.00241476948521853, 0.0, -0.29772727668545007, -0.16940310233119024, 0.8673471453277476, -0.6997053140859394, 0.0
0.39169656457637864, -0.34111800495771916, -0.0760455313991347, 0.27518503341768724, 0.3991366762848277, 0.0, -0.00517571804625312, -0.4724167509374698, -0.1647774771585807, 0.4125628659018893, 0.017916963670345117, 0.0, 0.1022970356596984, -0.3619056442938425, 1.009279330719225, 0.26142084333768434, -0.03240631361994211, 0.0, -0.2998041067942512, -0.16963849837806524, 0.8552961564788684, -0.6970582534945852, 0.0
0.39315437875937487, -0.3347159871630883, -0.07662985576446348, 0.27317866574144767, 0.391632619203244, 0.0, -0.019324793717959397, -0.4590823900736726, -0.1641821802573105, 0.4121664876661274, 0.013574232633006026, 0.0, 0.10856260326434251, -0.35360971736799496, 0.9749270552684547, 0.2356251091219987, -0.07382167824480407, 0.0, -0.30409881055936555, -0.16989240887764537, 0.8382036025713614, -0.6938300366595604, 0.0
0.3946121929423712, -0.3283139693684574, -0.07721418012979228, 0.27117229806520804, 0.3841285621216604, 0.0, -0.03347386938966568, -0.4457480292098754, -0.16358688335604027, 0.4117701094303655, 0.00923150159566693, 0.0, 0.11482817086898661, -0.34531379044214755, 0.9405747798176846, 0.20982937490631304, -0.11523704286966602, 0.0, -0.30839351432448, -0.17014631937722552, 0.8211110486638541, -0.6906018198245357, 0.0
0.3960700071253675, -0.32191195157382657, -0.07779850449512105, 0.2691659303889684, 0.3766245050400768, 0.0, -0.04762294506137195, -0.43241366834607814, -0.16299158645477005, 0.4113737311946035, 0.004888770558327835, 0.0, 0.12109373847363072, -0.33701786351630003, 0.9062225043669141, 0.18403364069062736, -0.15665240749452797, 0.0, -0.3126882180895944, -0.17040022987680564, 0.8040184947563471, -0.6873736029895109, 0.0
0.3975278213083638, -0.3155099337791957, -0.07838282886044985, 0.26715956271272884, 0.3691204479584932, 0.0, -0.061772020733078234, -0.4190793074822809, -0.16239628955349983, 0.41097735295884164, 0.0005460395209887421, 0.0, 0.12735930607827484, -0.3287219365904526, 0.8718702289161441, 0.15823790647494165, -0.19806777211938992, 0.0, -0.31698292185470883, -0.17065414037638582, 0.78692594084884, -0.6841453861544861, 0.0
0.39898563549136, -0.3091079159845648, -0.07896715322577863, 0.2651531950364892, 0.3616163908769095, 0.0, -0.0759210964047845, -0.4057449466184837, -0.1618009926522296, 0.41058097472307975, -0.0037966915163503527, 0.0, 0.13362487368291892, -0.32042600966460516, 0.8375179534653737, 0.132442172259256, -0.23948313674425187, 0.0, -0.3212776256198232, -0.17090805087596594, 0.769833386941333, -0.6809171693194613, 0.0
0.3971862324484805, -0.30007088386107694, -0.08135807627742717, 0.26923282885919736, 0.34996699181693863, 0.0, -0.08965804049890037, -0.3949964411398318, -0.16063398871985912, 0.4043337536704667, 0.0006717507000879875, 0.0, 0.1396316257146531, -0.3037792303013499, 0.7939657263867591, 0.10406300203383417, -0.2799447696900201, 0.0, -0.3220783582460287, -0.17337127593720758, 0.7511064892689658, -0.6831275590039421, 0.0
0.39538682940560077, -0.29103385173758917, -0.08374899932907567, 0.2733124626819055, 0.3383175927569677, 0.0, -0.1033949845930162, -0.3842479356611799, -0.1594669847874886, 0.3980865326178537, 0.005140192916526327, 0.0, 0.14563837774638727, -0.2871324509380947, 0.7504134993081446, 0.07568383180841233, -0.32040640263578823, 0.0, -0.32287909087223415, -0.17583450099844924, 0.7323795915965988, -0.6853379486884228, 0.0
0.39358742636272126, -0.28199681961410134, -0.08613992238072421, 0.27739209650461366, 0.32666819369699684, 0.0, -0.11713192868713204, -0.37349943018252785, -0.15829998085511812, 0.39183931156524066, 0.009608635132964668, 0.0, 0.15164512977812142, -0.2704856715748395, 0.7068612722295298, 0.0473046615829905, -0.36086803558155633, 0.0, -0.32367982349843966, -0.17829772605969088, 0.7136526939242316, -0.6875483383729035, 0.0
0.3917880233198416, -0.27295978749061356, -0.08853084543237273, 0.2814717303273218, 0.31501879463702603, 0.0, -0.1308688727812479, -0.3627509247038758, -0.1571329769227476, 0.3855920905126277, 0.014077077349403007, 0.0, 0.1576518818098556, -0.25383889221158423, 0.663309045150915, 0.018925491357568665, -0.4013296685273245, 0.0, -0.32448055612464505, -0.18076095112093252, 0.6949257962518646, -0.6897587280573843, 0.0
0.389988620276962, -0.2639227553671257, -0.09092176848402127, 0.28555136415003, 0.3033693955770551, 0.0, -0.14460581687536375, -0.35200241922522396, -0.15596597299037712, 0.3793448694600147, 0.018545519565841346, 0.0, 0.16365863384158977, -0.23719211284832903, 0.6197568180723004, -0.009453678867853154, -0.4417913014730927, 0.0, -0.32528128875085055, -0.18322417618217415, 0.6761988985794974, -0.691969117741865, 0.0
0.3881275163543659, -0.2518194345659546, -0.09146423426883363, 0.2924868278678989, 0.29380672613340264, 0.0, -0.15867923042960097, -0.3424865176242079, -0.15402305850442302, 0.3715025501161021, 0.021911437642860722, 0.0, 0.1686254237590744, -0.21471194745140115, 0.5800215248387007, -0.035284772057920834, -0.4707673903597257, 0.0, -0.32212285366997906, -0.18616572617821733, 0.6608863640881973, -0.6967133589810987, 0.0
0.3862664124317698, -0.2397161137647836, -0.09200670005364597, 0.29942229158576783, 0.2842440566897502, 0.0, -0.1727526439838382, -0.33297061602319195, -0.15208014401846892, 0.3636602307721895, 0.025277355719880094, 0.0, 0.17359221367655903, -0.19223178205447333, 0.540286231605101, -0.06111586524798851, -0.4997434792463587, 0.0, -0.31896441858910746, -0.18910727617426057, 0.6455738295968972, -0.7014576002203322, 0.0
0.3844053085091736, -0.22761279296361253, -0.09254916583845833, 0.3063577553036368, 0.2746813872460978, 0.0, -0.18682605753807538, -0.3234547144221759, -0.1501372295325148, 0.3558179114282767, 0.028643273796899467, 0.0, 0.17855900359404364, -0.1697516166575455, 0.5005509383715013, -0.08694695843805618, -0.5287195681329918, 0.0, -0.315805983508236, -0.19204882617030378, 0.630261295105597, -0.7062018414595658, 0.0
0.38254420458657745, -0.21550947216244146, -0.09309163162327068, 0.3132932190215057, 0.26511871780244534, 0.0, -0.2008994710923126, -0.31393881282115993, -0.1481943150465607, 0.34797559208436407, 0.03200919187391883, 0.0, 0.18352579351152828, -0.14727145126061766, 0.4608156451379017, -0.11277805162812385, -0.5576956570196248, 0.0, -0.3126475484273644, -0.194990376166347, 0.614948760614297, -0.7109460826987993, 0.0
0.38068310066398137, -0.2034061513612704, -0.09363409740808305, 0.3202286827393746, 0.2555560483587929, 0.0, -0.21497288464654984, -0.30442291122014387, -0.1462514005606066, 0.34013327274045146, 0.03537510995093821, 0.0, 0.18849258342901293, -0.12479128586368983, 0.42108035190430193, -0.13860914481819156, -0.5866717459062578, 0.0, -0.30948911334649293, -0.19793192616239022, 0.5996362261229968, -0.7156903239380329, 0.0
0.38257533427911605, -0.189222736685597, -0.09151550785346702, 0.3219791711846378, 0.25114598182078013, 0.0, -0.22884142447187095, -0.29549752431824766, -0.14338520201342556, 0.33307581748918513, 0.036888305525495386, 0.0, 0.19044275324866758, -0.10806799231322474, 0.39417841230073897, -0.15341836824111854, -0.6020675360935365, 0.0, -0.3046573717705398, -0.20130031038964266, 0.587059226453493, -0.7192342464001339, 0.0
0.38446756789425074, -0.1750393220099236, -0.08939691829885098, 0.323729659629901, 0.2467359152827674, 0.0, -0.24270996429719208, -0.28657213741635146, -0.14051900346624457, 0.3260183622379188, 0.03840150110005257, 0.0, 0.19239292306832223, -0.09134469876275964, 0.36727647269717606, -0.16822759166404555, -0.6174633262808152, 0.0, -0.29982563019458675, -0.2046686946168951, 0.5744822267839892, -0.722778168862235, 0.0
0.3863598015093855, -0.16085590733425018, -0.08727832874423493, 0.32548014807516434, 0.24232584874475466, 0.0, -0.2565785041225132, -0.2776467505144552, -0.13765280491906356, 0.31896090698665247, 0.03991469667460974, 0.0, 0.19434309288797685, -0.07462140521229453, 0.34037453309361315, -0.1830368150869726, -0.632859116468094, 0.0, -0.2949938886186337, -0.20803707884414754, 0.5619052271144853, -0.7263220913243359, 0.0
0.38825203512452017, -0.14667249265857676, -0.08515973918961889, 0.32723063652042755, 0.23791578220674192, 0.0, -0.2704470439478343, -0.26872136361255894, -0.13478660637188256, 0.31190345173538614, 0.04142789224916692, 0.0, 0.1962932627076315, -0.05789811166182944, 0.3134725934900502, -0.19784603850989954, -0.6482549066553727, 0.0, -0.29016214704268056, -0.21140546307139998, 0.5493282274449816, -0.7298660137864371, 0.0
0.39014426873965485, -0.13248907798290335, -0.08304114963500284, 0.32898112496569076, 0.23350571566872919, 0.0, -0.2843155837731554, -0.2597959767106627, -0.13192040782470155, 0.30484599648411986, 0.04294108782372409, 0.0, 0.19824343252728613, -0.04117481811136434, 0.28657065388648717, -0.21265526193282658, -0.6636506968426515, 0.0, -0.2853304054667275, -0.21477384729865243, 0.5367512277754777, -0.733409936248538, 0.0
0.39497542388497925, -0.12012088810884475, -0.08066687213749643, 0.3220746092787954, 0.2335843619501533, 0.0, -0.29601405101971684, -0.25271781487315076, -0.1282639678254488, 0.29832502402899, 0.04569378027926506, 0.0, 0.1962198977925239, -0.036076311511357276, 0.2743305341785448, -0.2158475878171133, -0.6690819869419327, 0.0, -0.28526412135239526, -0.21620087038298502, 0.5254374206240804, -0.7366298697509328, 0.0
0.3998065790303037, -0.10775269823478612, -0.07829259463999004, 0.3151680935919, 0.23366300823157743, 0.0, -0.30771251826627827, -0.24563965303563873, -0.12460752782619607, 0.29180405157386025, 0.04844647273480602, 0.0, 0.1941963630577617, -0.0309778049113502, 0.2620904144706025, -0.21903991370140008, -0.6745132770412138, 0.0, -0.285197837238063, -0.21762789346731765, 0.5141236134726829, -0.7398498032533276, 0.0
0.40463773417562804, -0.0953845083607275, -0.07591831714248362, 0.30826157790500475, 0.23374165451300155, 0.0, -0.31941098551283975, -0.23856149119812678, -0.12095108782694332, 0.28528307911873046, 0.05119916519034698, 0.0, 0.1921728283229995, -0.025879298311343137, 0.2498502947626601, -0.22223223958568686, -0.679944567140495, 0.0, -0.2851315531237308, -0.21905491655165024, 0.5028098063212855, -0.7430697367557225, 0.0
0.40946888932095243, -0.08301631848666888, -0.07354403964497723, 0.3013550622181094, 0.23382030079442567, 0.0, -0.33110945275940123, -0.23148332936061478, -0.11729464782769057, 0.2787621066636007, 0.05395185764588793, 0.0, 0.1901492935882373, -0.02078079171133607, 0.23761017505471774, -0.22542456546997364, -0.6853758572397761, 0.0, -0.2850652690093986, -0.22048193963598284, 0.49149599916988806, -0.7462896702581173, 0.0
0.41430004446627683, -0.07064812861261024, -0.07116976214747081, 0.29444854653121405, 0.2338989470758498, 0.0, -0.34280792000596266, -0.2244051675231028, -0.11363820782843784, 0.27224113420847085, 0.0567045501014289, 0.0, 0.18812575885347502, -0.015682285111329, 0.22537005534677534, -0.22861689135426036, -0.6908071473390573, 0.0, -0.28499898489506637, -0.22190896272031546, 0.48018219201849066, -0.7495096037605121, 0.0
0.4169251802315675, -0.06638128937806978, -0.06998263666321992, 0.2810737603512821, 0.23527811846808047, 0.0, -0.35111403267332475, -0.22007792558474343, -0.10977607449365225, 0.26549800228351317, 0.0629016376184759, 0.0, 0.18409206907799636, -0.021018075855395855, 0.22515582316241006, -0.22897422657465522, -0.6914236430094223, 0.0, -0.2890301055458861, -0.22070581650979465, 0.47296467960284094, -0.7509849550118324, 0.0
0.41955031599685816, -0.062114450143529315, -0.06879551117896904, 0.2676989741713502, 0.23665728986031115, 0.0, -0.3594201453406869, -0.2157506836463841, -0.10591394115886667, 0.25875487035855554, 0.06909872513552291, 0.0, 0.1800583793025177, -0.02635386659946271, 0.22494159097804475, -0.22933156179505004, -0.6920401386797872, 0.0, -0.29306122619670577, -0.21950267029927387, 0.4657471671871913, -0.7524603062631527, 0.0
0.4221754517621488, -0.057847610908988836, -0.06760838569471815, 0.25432418799141826, 0.23803646125254183, 0.0, -0.36772625800804903, -0.21142344170802474, -0.10205180782408109, 0.2520117384335979, 0.07529581265256992, 0.0, 0.17602468952703906, -0.03168965734352957, 0.22472735879367944, -0.22968889701544484, -0.6926566343501521, 0.0, -0.2970923468475255, -0.2182995240887531, 0.4585296547715415, -0.7539356575144731, 0.0
0.4248005875274395, -0.05358077167444836, -0.06642126021046726, 0.24094940181148639, 0.23941563264477253, 0.0, -0.37603237067541123, -0.2070961997696654, -0.09818967448929553, 0.24526860650864027, 0.08149290016961691, 0.0, 0.17199099975156038, -0.03702544808759642, 0.22451312660931416, -0.23004623223583967, -0.693273130020517, 0.0, -0.30112346749834523, -0.2170963778782323, 0.4513121423558919, -0.7554110087657934, 0.0
0.42742572329273015, -0.049313932439907886, -0.06523413472621638, 0.22757461563155446, 0.24079480403700318, 0.0, -0.38433848334277326, -0.20276895783130608, -0.09432754115450993, 0.23852547458368262, 0.08768998768666392, 0.0, 0.16795730997608171, -0.042361238831663275, 0.22429889442494888, -0.23040356745623447, -0.693889625690882, 0.0, -0.30515458814916496, -0.21589323166771152, 0.4440946299402421, -0.7568863600171138, 0.0
0.42791477502111447, -0.05174625679580881, -0.06407694443116399, 0.2161163091807259, 0.24376300521072436, 0.0, -0.38958477901331856, -0.20026229676097004, -0.09096490464555017, 0.23209109489406127, 0.09688077319434277, 0.0, 0.1642474381180426, -0.0518661738308573, 0.22786221098569806, -0.2314181448037113, -0.6878795250704448, 0.0, -0.3073132846718601, -0.21378076891690165, 0.4408861143818139, -0.7533117372134702, 0.0
0.42840382674949873, -0.05417858115170975, -0.0629197541361116, 0.20465800272989737, 0.24673120638444554, 0.0, -0.3948310746838638, -0.197755635690634, -0.08760226813659039, 0.22565671520443992, 0.10607155870202162, 0.0, 0.16053756626000343, -0.06137110883005132, 0.2314255275464472, -0.2324327221511881, -0.6818694244500079, 0.0, -0.30947198119455527, -0.21166830616609184, 0.4376775988233855, -0.7497371144098265, 0.0
0.4288928784778831, -0.05661090550761069, -0.06176256384105923, 0.19319969627906883, 0.2496994075581667, 0.0, -0.40007737035440905, -0.19524897462029797, -0.08423963162763061, 0.21922233551481854, 0.1152623442097005, 0.0, 0.15682769440196426, -0.07087604382924534, 0.23498884410719642, -0.23344729949866497, -0.6758593238295708, 0.0, -0.3116306777172505, -0.20955584341528197, 0.43446908326495737, -0.7461624916061831, 0.0
0.42938193020626736, -0.05904322986351162, -0.06060537354600684, 0.18174138982824034, 0.25266760873188787, 0.0, -0.40532366602495434, -0.19274231354996196, -0.08087699511867084, 0.2127879558251972, 0.12445312971737935, 0.0, 0.15311782254392511, -0.08038097882843936, 0.2385521606679456, -0.23446187684614175, -0.6698492232091339, 0.0, -0.31378937423994563, -0.2074433806644721, 0.4312605677065291, -0.7425878688025394, 0.0
0.4298709819346517, -0.061475554219412566, -0.05944818325095446, 0.1702830833774118, 0.255635809905609, 0.0, -0.4105699616954996, -0.19023565247962593, -0.07751435860971106, 0.20635357613557584, 0.1336439152250582, 0.0, 0.14940795068588597, -0.08988591382763339, 0.24211547722869475, -0.23547645419361857, -0.6638391225886967, 0.0, -0.3159480707626408, -0.2053309179136623, 0.42805205214810077, -0.7390132459988957, 0.0
0.4298967813916547, -0.06293623388397478, -0.05767841938943221, 0.1656730998455586, 0.2585204482054032, 0.0, -0.4135365432036749, -0.18781825627388316, -0.0752640497545787, 0.2020987671065035, 0.14221769926595487, 0.0, 0.14603145626266537, -0.09647910975253994, 0.24477454568530274, -0.23224977673899408, -0.6468761279622237, 0.0, -0.31756169397862116, -0.20704443330405126, 0.4231915545273919, -0.7290329367185336, 0.0
0.4299225808486577, -0.06439691354853701, -0.05590865552790996, 0.16106311631370543, 0.26140508650519734, 0.0, -0.4165031247118502, -0.1854008600681404, -0.07301374089944637, 0.1978439580774312, 0.15079148330685158, 0.0, 0.1426549618394448, -0.10307230567744655, 0.24743361414191062, -0.22902309928436956, -0.6299131333357507, 0.0, -0.31917531719460146, -0.20875794869444025, 0.41833105690668293, -0.7190526274381713, 0.0
0.4299483803056607, -0.06585759321309921, -0.05413889166638771, 0.15645313278185227, 0.2642897248049916, 0.0, -0.41946970622002555, -0.18298346386239758, -0.07076343204431403, 0.19358914904835886, 0.1593652673477482, 0.0, 0.13927846741622418, -0.10966550160235311, 0.2500926825985186, -0.22579642182974505, -0.6129501387092776, 0.0, -0.3207889404105818, -0.2104714640848292, 0.413470559285974, -0.7090723181578094, 0.0
0.42997417976266367, -0.06731827287766144, -0.05236912780486546, 0.1518431492499991, 0.2671743631047857, 0.0, -0.42243628772820074, -0.18056606765665478, -0.06851312318918167, 0.18933434001928653, 0.1679390513886449, 0.0, 0.13590197299300355, -0.11625869752725967, 0.2527517510551265, -0.22256974437512053, -0.5959871440828046, 0.0, -0.3224025636265621, -0.21218497947521817, 0.4086100616652651, -0.6990920088774472, 0.0
0.4299999792196667, -0.06877895254222366, -0.050599363943343204, 0.14723316571814593, 0.2700590014045799, 0.0, -0.42540286923637616, -0.17814867145091207, -0.0662628143340493, 0.1850795309902142, 0.17651283542954158, 0.0, 0.13252547856978295, -0.12285189345216625, 0.25541081951173444, -0.21934306692049602, -0.5790241494563316, 0.0, -0.3240161868425425, -0.21389849486560714, 0.40374956404455614, -0.689111699597085, 0.0
0.4299999792196667, -0.07010702348648276, -0.048220919297714736, 0.14691226599121573, 0.2710826928614107, 0.0, -0.42617307605396426, -0.17605302669277442, -0.0644046935282107, 0.18290478441971766, 0.18431269614874096, 0.0, 0.12819811166584916, -0.12258182259997606, 0.25690836786048166, -0.2096084616015711, -0.5487376778392767, 0.0, -0.3195501336327843, -0.21693332572885246, 0.3923319063120066, -0.6673840887576906, 0.0
0.4299999792196667, -0.07143509443074185, -0.04584247465208627, 0.14659136626428557, 0.2721063843182414, 0.0, -0.4269432828715523, -0.1739573819346368, -0.06254657272237209, 0.18073003784922118, 0.19211255686794035, 0.0, 0.12387074476191536, -0.12231175174778587, 0.2584059162092288, -0.1998738562826462, -0.518451206222222, 0.0, -0.31508408042302605, -0.21996815659209779, 0.380914248579457, -0.6456564779182962, 0.0
0.4299999792196667, -0.07276316537500095, -0.04346403000645779, 0.1462704665373554, 0.27313007577507215, 0.0, -0.4277134896891404, -0.1718617371764992, -0.06068845191653347, 0.17855529127872466, 0.19991241758713976, 0.0, 0.11954337785798158, -0.12204168089559567, 0.25990346455797597, -0.19013925096372128, -0.4881647346051671, 0.0, -0.31061802721326787, -0.22300298745534305, 0.36949659084690745, -0.6239288670789017, 0.0
0.4299999792196667, -0.07409123631926004, -0.041085585360829326, 0.14594956681042523, 0.2741537672319029, 0.0, -0.4284836965067285, -0.16976609241836155, -0.05883033111069485, 0.17638054470822817, 0.20771227830633915, 0.0, 0.11521601095404779, -0.12177161004340545, 0.26140101290672324, -0.18040464564479636, -0.45787826298811224, 0.0, -0.30615197400350963, -0.22603781831858838, 0.35807893311435784, -0.6022012562395074, 0.0
0.4299999792196667, -0.07541930726351913, -0.03870714071520086, 0.14562866708349503, 0.2751774586887336, 0.0, -0.4292539033243166, -0.16767044766022393, -0.05697221030485624, 0.17420579813773165, 0.21551213902553856, 0.0, 0.110888644050114, -0.12150153919121526, 0.2628985612554704, -0.17067004032587146, -0.42759179137105735, 0.0, -0.3016859207937514, -0.22907264918183365, 0.3466612753818083, -0.5804736454001128, 0.0
0.4299999792196667, -0.07881320645910649, -0.03646574281309749, 0.14609597899071652, 0.2758976862578616, 0.0, -0.4280865189101692, -0.16692853612046915, -0.05391328098249695, 0.17223594973076078, 0.22145518758677246, 0.0, 0.10533294932521164, -0.11450085286826517, 0.261689191200837, -0.15536601606000405, -0.3832953768433433, 0.0, -0.2901049316591417, -0.23264574656771103, 0.33159367690707453, -0.5445518826194868, 0.0
0.4299999792196667, -0.08220710565469382, -0.03422434491099412, 0.146563290897938, 0.2766179138269896, 0.0, -0.4269191344960218, -0.16618662458071443, -0.05085435166013767, 0.1702661013237899, 0.22739823614800642, 0.0, 0.09977725460030928, -0.10750016654531505, 0.26047982114620355, -0.14006199179413664, -0.33899896231562937, 0.0, -0.278523942524532, -0.2362188439535884, 0.3165260784323408, -0.5086301198388608, 0.0
0.4299999792196667, -0.08560100485028117, -0.03198294700889075, 0.14703060280515948, 0.2773381413961175, 0.0, -0.42575175008187427, -0.16544471304095965, -0.04779542233777838, 0.16829625291681902, 0.23334128470924032, 0.0, 0.09422155987540692, -0.10049948022236496, 0.2592704510915702, -0.12475796752826927, -0.29470254778791527, 0.0, -0.2669429533899223, -0.23979194133946574, 0.30145847995760705, -0.4727083570582346, 0.0
0.4299999792196667, -0.08899490404586849, -0.02974154910678737, 0.14749791471238094, 0.27805836896524555, 0.0, -0.42458436566772684, -0.1647028015012049, -0.04473649301541909, 0.16632640450984815, 0.23928433327047424, 0.0, 0.08866586515050456, -0.09349879389941486, 0.25806108103693676, -0.10945394326240186, -0.2504061332602012, 0.0, -0.2553619642553126, -0.2433650387253431, 0.2863908814828733, -0.43678659427760846, 0.0
0.4299999792196667, -0.09238880324145583, -0.027500151204684003, 0.14796522661960243, 0.2787785965343735, 0.0, -0.4234169812535795, -0.16396088996145014, -0.04167756369305981, 0.16435655610287728, 0.24522738183170817, 0.0, 0.08311017042560222, -0.08649810757646476, 0.25685171098230336, -0.09414991899653447, -0.20610971873248723, 0.0, -0.2437809751207029, -0.24693813611122045, 0.27132328300813957, -0.4008648314969824, 0.0
0.4299999792196667, -0.09811578876793914, -0.026175038244441194, 0.14548076613735178, 0.28063019190320476, 0.0, -0.419210626055201, -0.16512003293086963, -0.036316637589770356, 0.15994497810973232, 0.2498105431436167, 0.0, 0.07631347958188862, -0.07709312339474224, 0.25555380386537485, -0.07798836228381763, -0.14778831166903988, 0.0, -0.22963923541690862, -0.2500514195243429, 0.25853355911874415, -0.35071102218640526, 0.0
0.4299999792196667, -0.10384277429442242, -0.02484992528419838, 0.14299630565510113, 0.28248178727203604, 0.0, -0.41500427085682257, -0.16627917590028915, -0.030955711486480905, 0.15553340011658734, 0.25439370445552517, 0.0, 0.06951678873817502, -0.06768813921301974, 0.25425589674844623, -0.061826805571100776, -0.08946690460559255, 0.0, -0.21549749571311427, -0.2531647029374654, 0.24574383522934878, -0.3005572128758282, 0.0
0.4299999792196667, -0.10956975982090571, -0.02352481232395557, 0.14051184517285045, 0.28433338264086727, 0.0, -0.4107979156584441, -0.16743831886970867, -0.025594785383191456, 0.15112182212344236, 0.25897686576743373, 0.0, 0.06272009789446141, -0.058283155031297225, 0.25295798963151767, -0.04566524885838394, -0.03114549754214521, 0.0, -0.20135575600931999, -0.2562779863505878, 0.2329541113399534, -0.25040340356525115, 0.0
0.4299999792196667, -0.115296745347389, -0.02219969936371276, 0.1380273846905998, 0.28618497800969855, 0.0, -0.4065915604600656, -0.1685974618391282, -0.020233859279902004, 0.14671024413029737, 0.2635600270793423, 0.0, 0.05592340705074781, -0.04887817084957471, 0.2516600825145891, -0.02950369214566709, 0.027175909521302107, 0.0, -0.1872140163055257, -0.25939126976371024, 0.220164387450558, -0.20024959425467403, 0.0
0.4299999792196667, -0.12102373087387228, -0.020874586403469945, 0.13554292420834912, 0.2880365733785298, 0.0, -0.4023852052616872, -0.16975660480854768, -0.014872933176612554, 0.14229866613715242, 0.2681431883912508, 0.0, 0.04912671620703421, -0.03947318666785219, 0.25036217539766054, -0.01334213543295024, 0.08549731658474943, 0.0, -0.17307227660173144, -0.2625045531768327, 0.2073746635611626, -0.15009578494409695, 0.0
0.4299999792196667, -0.125438174697649, -0.019546022822576184, 0.12898222177625865, 0.2908248764849309, 0.0, -0.398654735027816, -0.17073865969074287, -0.009818675036466672, 0.13627622150104773, 0.2759386840419909, 0.0, 0.041878783400653936, -0.03272894157189762, 0.24959695673107463, 0.00021744289205726292, 0.1520173037878167, 0.0, -0.16105637585213423, -0.26333559519082833, 0.19513645673408042, -0.08927091739509589, 0.0
0.4299999792196667, -0.12985261852142574, -0.018217459241682426, 0.12242151934416814, 0.293613179591332, 0.0, -0.3949242647939448, -0.171720714572938, -0.004764416896320789, 0.13025377686494305, 0.28373417969273107, 0.0, 0.03463085059427367, -0.025984696475943043, 0.24883173806448874, 0.013777021217064764, 0.21853729099088398, 0.0, -0.14904047510253707, -0.2641666372048239, 0.18289824990699824, -0.02844604984609484, 0.0
0.4299999792196667, -0.1342670623452025, -0.01688889566078866, 0.11586081691207764, 0.2964014826977331, 0.0, -0.3911937945600736, -0.17270276945513321, 0.00028984124382509357, 0.12423133222883835, 0.29152967534347124, 0.0, 0.027382917787893396, -0.019240451379988473, 0.24806651939790286, 0.02733659954207226, 0.2850572781939512, 0.0, -0.13702457435293994, -0.2649976792188195, 0.17066004307991606, 0.032378817702906224, 0.0
0.4299999792196667, -0.13868150616897923, -0.015560332079894903, 0.10930011447998715, 0.2991897858041342, 0.0, -0.3874633243262024, -0.17368482433732838, 0.005344099383970976, 0.11820888759273364, 0.29932517099421135, 0.0, 0.020134984981513122, -0.0124962062840339, 0.24730130073131693, 0.04089617786707977, 0.3515772653970185, 0.0, -0.12500867360334272, -0.2658287212328151, 0.15842183625283385, 0.09320368525190725, 0.0
0.4299999792196667, -0.14309594999275596, -0.014231768499001141, 0.10273941204789665, 0.3019780889105353, 0.0, -0.3837328540923312, -0.17466687921952354, 0.010398357524116858, 0.11218644295662895, 0.3071206666449515, 0.0, 0.012887052175132856, -0.0057519611880793246, 0.24653608206473107, 0.05445575619208728, 0.4180972526000858, 0.0, -0.11299277285374557, -0.26665976324681073, 0.14618362942575167, 0.1540285528009083, 0.0
0.4299999792196667, -0.1424103008867685, -0.011788144951335965, 0.09492611683131294, 0.3066783164366921, 0.0, -0.38560759950836093, -0.1712536958810309, 0.012082208600407237, 0.10901527046287636, 0.3119748182485002, 0.0, 0.0075095927074656016, -0.0007940242786925054, 0.2445035903002476, 0.06691770724795813, 0.47695994420950777, 0.0, -0.10391603169724808, -0.2665986889402957, 0.1299220948429599, 0.21389322048060763, 0.0
0.4299999792196667, -0.14172465178078103, -0.009344521403670787, 0.08711282161472927, 0.31137854396284886, 0.0, -0.3874823449243906, -0.1678405125425383, 0.013766059676697617, 0.10584409796912377, 0.3168289698520489, 0.0, 0.002132133239798347, 0.004163912630694313, 0.2424710985357641, 0.07937965830382898, 0.5358226358189295, 0.0, -0.09483929054075059, -0.2665376146337807, 0.11366056026016813, 0.273757888160307, 0.0
0.4299999792196667, -0.14103900267479358, -0.006900897856005611, 0.07929952639814557, 0.3160787714890057, 0.0, -0.3893570903404203, -0.16442732920404562, 0.015449910752987997, 0.10267292547537119, 0.3216831214555975, 0.0, -0.0032453262278689067, 0.009121849540081132, 0.2404386067712807, 0.09184160935969984, 0.5946853274283517, 0.0, -0.08576254938425311, -0.2664765403272656, 0.09739902567737635, 0.33362255584000633, 0.0
0.4299999792196667, -0.1403533535688061, -0.004457274308340434, 0.07148623118156189, 0.3207789990151625, 0.0, -0.3912318357564501, -0.16101414586555302, 0.01713376182927838, 0.09950175298161859, 0.3265372730591462, 0.0, -0.00862278569553616, 0.014079786449467951, 0.2384061150067972, 0.1043035604155707, 0.6535480190377735, 0.0, -0.07668580822775561, -0.26641546602075056, 0.0811374910945846, 0.39348722351970566, 0.0
0.4299999792196667, -0.13966770446281865, -0.002013650760675257, 0.0636729359649782, 0.3254792265413193, 0.0, -0.3931065811724797, -0.15760096252706038, 0.018817612905568756, 0.096330580487866, 0.33139142466269494, 0.0, -0.014000245163203412, 0.01903772335885477, 0.23637362324231373, 0.11676551147144157, 0.7124107106471953, 0.0, -0.06760906707125813, -0.2663543917142355, 0.06487595651179284, 0.4533518911994051, 0.0
0.4299999792196667, -0.13634983809263346, -0.0005321366819529599, 0.05616181169618738, 0.3301979475762302, 0.0, -0.39663266636962546, -0.15409810417160028, 0.018808640167884257, 0.09365246106434084, 0.33093742961766615, 0.0, -0.017070274570165873, 0.024744897652998667, 0.2327598527035479, 0.1289939549266881, 0.7579288731045981, 0.0, -0.06130543139216707, -0.26370636071981723, 0.04172019440723732, 0.5030843151966976, 0.0
0.4299999792196667, -0.13303197172244832, 0.0009493773967693368, 0.04865068742739657, 0.3349166686111411, 0.0, -0.40015875156677105, -0.15059524581614017, 0.018799667430199753, 0.09097434164081569, 0.3304834345726374, 0.0, -0.02014030397712833, 0.030452071947142563, 0.22914608216478208, 0.14122239838193462, 0.8034470355620006, 0.0, -0.05500179571307603, -0.2610583297253989, 0.018564432302681802, 0.5528167391939902, 0.0
0.4299999792196667, -0.12971410535226313, 0.0024308914754916327, 0.04113956315860576, 0.33963538964605205, 0.0, -0.4036848367639167, -0.14709238746068007, 0.018790694692515247, 0.08829622221729055, 0.3300294395276086, 0.0, -0.023210333384090794, 0.03615924624128646, 0.22553231162601625, 0.15345084183718116, 0.8489651980194032, 0.0, -0.048698160033984965, -0.2584102987309806, -0.00459132980187372, 0.6025491631912827, 0.0
0.4299999792196667, -0.12639623898207797, 0.00391240555421393, 0.03362843888981495, 0.34435411068096294, 0.0, -0.40721092196106234, -0.14358952910521997, 0.018781721954830747, 0.0856181027937654, 0.3295754444825799, 0.0, -0.026280362791053256, 0.04186642053543036, 0.22191854108725043, 0.1656792852924277, 0.8944833604768058, 0.0, -0.042394524354893916, -0.25576226773656224, -0.02774709190642924, 0.6522815871885754, 0.0
0.4299999792196667, -0.12307837261189279, 0.005393919632936227, 0.02611731462102413, 0.34907283171587383, 0.0, -0.410737007158208, -0.14008667074975986, 0.018772749217146244, 0.08293998337024025, 0.3291214494375511, 0.0, -0.029350392198015714, 0.04757359482957425, 0.21830477054848457, 0.17790772874767424, 0.9400015229342084, 0.0, -0.03609088867580286, -0.25311423674214395, -0.050902854010984745, 0.7020140111858679, 0.0
0.4299999792196667, -0.12082877480389771, 0.005713642554164958, 0.021269718264706437, 0.3534651063674918, 0.0, -0.4130628259380986, -0.13793105752572127, 0.018466841868490694, 0.08037302536303802, 0.327617432898596, 0.0, -0.02965647442866231, 0.050822773767047184, 0.2162610807515203, 0.1894904248142924, 0.972525175039762, 0.0, -0.0327767028559443, -0.24864166821828804, -0.08026255684242814, 0.7395333645879657, 0.0
0.4299999792196667, -0.11857917699590263, 0.00603336547539369, 0.01642212190838874, 0.3578573810191097, 0.0, -0.4153886447179893, -0.13577544430168267, 0.018160934519835144, 0.07780606735583578, 0.32611341635964086, 0.0, -0.029962556659308914, 0.054071952704520115, 0.21421739095455605, 0.20107312088091053, 1.005048827145316, 0.0, -0.029462517036085732, -0.24416909969443212, -0.10962225967387154, 0.7770527179900631, 0.0
0.4299999792196667, -0.11632957918790753, 0.006353088396622422, 0.011574525552071042, 0.3622496556707276, 0.0, -0.4177144634978799, -0.13361983107764408, 0.017855027171179594, 0.07523910934863358, 0.3246093998206858, 0.0, -0.030268638889955513, 0.057321131641993046, 0.21217370115759182, 0.2126558169475287, 1.0375724792508694, 0.0, -0.026148331216227175, -0.23969653117057624, -0.13898196250531494, 0.8145720713921608, 0.0
0.4299999792196667, -0.11407998137991246, 0.006672811317851153, 0.006726929195753347, 0.3666419303223455, 0.0, -0.42004028227777057, -0.1314642178536055, 0.017549119822524047, 0.07267215134143136, 0.3231053832817307, 0.0, -0.030574721120602114, 0.060570310579465964, 0.21013001136062756, 0.22423851301414688, 1.0700961313564232, 0.0, -0.022834145396368615, -0.23522396264672032, -0.16834166533675834, 0.8520914247942585, 0.0
0.4299999792196667, -0.11183038357191737, 0.006992534239079886, 0.0018793328394356508, 0.3710342049739634, 0.0, -0.42236610105766115, -0.12930860462956686, 0.017243212473868494, 0.07010519333422913, 0.3216013667427756, 0.0, -0.030880803351248712, 0.0638194895169389, 0.2080863215636633, 0.23582120908076504, 1.1026197834619769, 0.0, -0.019519959576510055, -0.2307513941228644, -0.19770136816820175, 0.889610778196356, 0.0
0.4299999792196667, -0.11089970071092539, 0.006868416440867956, -0.0004398831504551801, 0.37457819375857593, 0.0, -0.4234722837562582, -0.1278031628547446, 0.016662478006464962, 0.06827885078527912, 0.3208369683809382, 0.0, -0.028990693452747844, 0.06425949609707877, 0.2073114512263139, 0.24618837058983173, 1.123223625665231, 0.0, -0.018594665245050705, -0.2267002650174998, -0.22688478471667917, 0.9151551972170593, 0.0
0.4299999792196667, -0.10996901784993343, 0.006744298642656025, -0.002759099140346011, 0.3781221825431886, 0.0, -0.4245784664548552, -0.12629772107992235, 0.01608174353906143, 0.06645250823632912, 0.3200725700191008, 0.0, -0.027100583554246986, 0.06469950267721866, 0.20653658088896445, 0.2565555320988985, 1.1438274678684854, 0.0, -0.017669370913591352, -0.22264913591213525, -0.25606820126515656, 0.9406996162377625, 0.0
0.4299999792196667, -0.10903833498894146, 0.006620180844444095, -0.005078315130236842, 0.38166617132780123, 0.0, -0.42568464915345217, -0.12479227930510008, 0.015501009071657901, 0.06462616568737913, 0.3193081716572633, 0.0, -0.025210473655746114, 0.06513950925735855, 0.20576171055161505, 0.26692269360796517, 1.1644313100717398, 0.0, -0.016744076582132, -0.21859800680677063, -0.285251617813634, 0.9662440352584659, 0.0
0.4299999792196667, -0.10810765212794951, 0.0064960630462321655, -0.007397531120127672, 0.3852101601124138, 0.0, -0.4267908318520491, -0.12328683753027782, 0.014920274604254368, 0.0627998231384291, 0.3185437732954258, 0.0, -0.023320363757245253, 0.06557951583749842, 0.2049868402142656, 0.27728985511703186, 1.1850351522749942, 0.0, -0.015818782250672646, -0.21454687770140607, -0.31443503436211145, 0.9917884542791691, 0.0
0.4299999792196667, -0.10717696926695754, 0.006371945248020235, -0.009716747110018503, 0.3887541488970264, 0.0, -0.42789701455064616, -0.12178139575545556, 0.01433954013685084, 0.060973480589479115, 0.3177793749335884, 0.0, -0.021430253858744388, 0.0660195224176383, 0.20421196987691617, 0.28765701662609855, 1.2056389944782484, 0.0, -0.014893487919213293, -0.21049574859604148, -0.34361845091058885, 1.0173328732998723, 0.0
0.4299999792196667, -0.10564764894450705, 0.006617137723266903, -0.012081444844326565, 0.3898835200400654, 0.0, -0.42808729732701556, -0.12011623994798083, 0.013534672930367147, 0.059865036293237375, 0.31692402746442955, 0.0, -0.019361166030505108, 0.06505533307473241, 0.2038146142567732, 0.2967466599545585, 1.2160254977260858, 0.0, -0.01441509596376845, -0.20722924621854494, -0.36691218408504134, 1.0322040210046601, 0.0
0.4299999792196667, -0.10411832862205654, 0.006862330198513572, -0.014446142578634625, 0.3910128911831044, 0.0, -0.428277580103385, -0.1184510841405061, 0.01272980572388346, 0.05875659199699565, 0.31606867999527066, 0.0, -0.01729207820226583, 0.0640911437318265, 0.20341725863663013, 0.3058363032830184, 1.226412000973923, 0.0, -0.013936704008323605, -0.20396274384104843, -0.3902059172594937, 1.047075168709448, 0.0
0.4299999792196667, -0.10258900829960604, 0.007107522673760239, -0.016810840312942686, 0.39214226232614335, 0.0, -0.4284678628797544, -0.11678592833303139, 0.01192493851739977, 0.05764814770075392, 0.3152133325261118, 0.0, -0.015222990374026553, 0.06312695438892062, 0.20301990301648706, 0.3149259466114784, 1.2367985042217604, 0.0, -0.013458312052878764, -0.20069624146355192, -0.41349965043394626, 1.0619463164142358, 0.0
0.4299999792196667, -0.10105968797715553, 0.007352715149006908, -0.019175538047250747, 0.39327163346918237, 0.0, -0.4286581456561238, -0.11512077252555666, 0.01112007131091608, 0.05653970340451219, 0.3143579850569529, 0.0, -0.013153902545787277, 0.062162765046014715, 0.202622547396344, 0.3240155899399383, 1.2471850074695976, 0.0, -0.012979920097433921, -0.1974297390860554, -0.43679338360839876, 1.0768174641190233, 0.0
0.4299999792196667, -0.09953036765470503, 0.007597907624253576, -0.021540235781558805, 0.39440100461222133, 0.0, -0.42884842843249327, -0.11345561671808194, 0.01031520410443239, 0.05543125910827045, 0.31350263758779406, 0.0, -0.011084814717547997, 0.061198575703108826, 0.20222519177620102, 0.3331052332683982, 1.257571510717435, 0.0, -0.01250152814198908, -0.19416323670855884, -0.4600871167828512, 1.0916886118238112, 0.0
0.4299999792196667, -0.09654035894104607, 0.008042464626819257, -0.02390978378585816, 0.3942210821102918, 0.0, -0.4289932977417258, -0.11137019958936101, 0.008823487738474144, 0.054653589611866685, 0.31170434457431867, 0.0, -0.00843868187341098, 0.06016329176938634, 0.20047003632051796, 0.340531483571928, 1.2608425230257188, 0.0, -0.011903740481343333, -0.19234372398203775, -0.47532295452550166, 1.0985910958001344, 0.0
0.4299999792196667, -0.09355035022738707, 0.008487021629384936, -0.026279331790157515, 0.39404115960836217, 0.0, -0.42913816705095836, -0.10928478246064008, 0.007331771372515902, 0.053875920115462925, 0.3099060515608433, 0.0, -0.005792549029273962, 0.059128007835663854, 0.19871488086483488, 0.3479577338754577, 1.2641135353340025, 0.0, -0.011305952820697586, -0.19052421125551666, -0.4905587922681522, 1.1054935797764576, 0.0
0.4299999792196667, -0.09056034151372809, 0.008931578631950618, -0.02864887979445687, 0.3938612371064326, 0.0, -0.42928303636019094, -0.10719936533191914, 0.005840055006557655, 0.05309825061905915, 0.308107758547368, 0.0, -0.003146416185136944, 0.058092723901941375, 0.19695972540915183, 0.35538398417898737, 1.267384547642286, 0.0, -0.010708165160051837, -0.18870469852899557, -0.5057946300108027, 1.112396063752781, 0.0
0.4299999792196667, -0.08757033280006908, 0.009376135634516296, -0.031018427798756222, 0.39368131460450295, 0.0, -0.42942790566942346, -0.10511394820319821, 0.004348338640599411, 0.05232058112265538, 0.3063094655338926, 0.0, -0.0005002833409999263, 0.057057439968218875, 0.19520456995346874, 0.36281023448251715, 1.2706555599505698, 0.0, -0.010110377499406091, -0.18688518580247448, -0.5210304677534532, 1.1192985477291042, 0.0
0.4299999792196667, -0.08458032408641011, 0.009820692637081978, -0.033387975803055574, 0.3935013921025734, 0.0, -0.429572774978656, -0.10302853107447728, 0.0028566222746411666, 0.05154291162625161, 0.30451117252041726, 0.0, 0.0021458495031370906, 0.0560221560344964, 0.1934494144977857, 0.37023648478604687, 1.2739265722588535, 0.0, -0.009512589838760344, -0.1850656730759534, -0.5362663054961035, 1.1262010317054274, 0.0
0.4299999792196667, -0.08251522398644578, 0.008941317988055765, -0.034685803332970264, 0.39414898604955034, 0.0, -0.4296522991606938, -0.10176251251924603, 0.0014195232998170369, 0.05026854900093244, 0.30229697103685016, 0.0, 0.0059590500190688876, 0.05626510377197891, 0.19066615888358135, 0.3757240408097538, 1.2750822734389882, 0.0, -0.010714057705765835, -0.18628401761360053, -0.5454255281205235, 1.12795243121256, 0.0
0.4299999792196667, -0.08045012388648148, 0.008061943339029553, -0.03598363086288495, 0.39479657999652734, 0.0, -0.42973182334273174, -0.10049649396401479, -1.7575675007093166e-05, 0.04899418637561327, 0.30008276955328306, 0.0, 0.009772250535000682, 0.05650805150946142, 0.18788290326937704, 0.3812115968334608, 1.2762379746191226, 0.0, -0.011915525572771328, -0.1875023621512477, -0.5545847507449434, 1.129703830719693, 0.0
0.4299999792196667, -0.07838502378651714, 0.007182568690003341, -0.03728145839279963, 0.39544417394350434, 0.0, -0.4298113475247695, -0.09923047540878355, -0.001454674649831223, 0.04771982375029409, 0.29786856806971596, 0.0, 0.01358545105093248, 0.05675099924694393, 0.1850996476551727, 0.38669915285716766, 1.2773936757992572, 0.0, -0.01311699343977682, -0.18872070668889485, -0.5637439733693634, 1.1314552302268257, 0.0
0.4299999792196667, -0.07631992368655284, 0.006303194040977129, -0.03857928592271431, 0.39609176789048134, 0.0, -0.4298908717068075, -0.09796445685355233, -0.0028917736246553533, 0.046445461124974934, 0.29565436658614885, 0.0, 0.01739865156686428, 0.056993946984426426, 0.18231639204096836, 0.39218670888087465, 1.2785493769793919, 0.0, -0.014318461306782312, -0.189939051226542, -0.5729031959937834, 1.1332066297339587, 0.0
0.4299999792196667, -0.07425482358658851, 0.005423819391950918, -0.039877113452629, 0.3967393618374583, 0.0, -0.4299703958888453, -0.09669843829832109, -0.0043288725994794835, 0.04517109849965576, 0.29344016510258175, 0.0, 0.021211852082796075, 0.057236894721908946, 0.17953313642676402, 0.39767426490458163, 1.2797050781595265, 0.0, -0.015519929173787804, -0.19115739576418916, -0.5820624186182033, 1.1349580292410912, 0.0
0.4299999792196667, -0.07337606531804095, 0.004795367552984691, -0.040920141412242574, 0.3975911488349431, 0.0, -0.4299761729286694, -0.09610612800446688, -0.004823671941436719, 0.043822586259197306, 0.2925326602140563, 0.0, 0.023355741930249026, 0.057479775089682314, 0.17967546453660566, 0.40187106617063467, 1.2811953589572682, 0.0, -0.017610722824176094, -0.19376931938704223, -0.587818067686992, 1.134344703088648, 0.0
0.4299999792196667, -0.07249730704949336, 0.004166915714018465, -0.041963169371856165, 0.3984429358324279, 0.0, -0.4299819499684935, -0.09551381771061265, -0.005318471283393955, 0.04247407401873885, 0.29162515532553085, 0.0, 0.025499631777701978, 0.0577226554574557, 0.1798177926464473, 0.4060678674366877, 1.2826856397550102, 0.0, -0.019701516474564383, -0.1963812430098953, -0.593573716755781, 1.1337313769362045, 0.0
0.4299999792196667, -0.07161854878094578, 0.00353846387505224, -0.043006197331469743, 0.39929472282991274, 0.0, -0.4299877270083176, -0.09492150741675845, -0.005813270625351191, 0.04112556177828041, 0.29071765043700537, 0.0, 0.027643521625154932, 0.057965535825229085, 0.17996012075628892, 0.41026466870274075, 1.284175920552752, 0.0, -0.021792310124952675, -0.19899316663274835, -0.5993293658245696, 1.1331180507837613, 0.0
