isaac-sim2real/sage/motion_files/h1_2/amass/0-punch_left02_poses_action_sequence.txt
left_hip_yaw_joint, left_hip_pitch_joint, left_hip_roll_joint, left_knee_joint, left_ankle_pitch_joint, left_ankle_roll_joint, right_hip_yaw_joint, right_hip_pitch_joint, right_hip_roll_joint, right_knee_joint, right_ankle_pitch_joint, right_ankle_roll_joint, torso_joint, left_shoulder_pitch_joint, left_shoulder_roll_joint, left_shoulder_yaw_joint, left_elbow_joint, left_wrist_roll_joint, right_shoulder_pitch_joint, right_shoulder_roll_joint, right_shoulder_yaw_joint, right_elbow_joint, right_wrist_roll_joint
0.4299999792196667, -0.023566467050015364, 0.004724734915914523, -0.08403756857694193, 0.39176766929010487, 0.0, -0.4095971326237305, -0.051197552855183986, -0.025229682051361862, -0.02427581947257417, 0.2630599343981098, 0.0, 0.0011822122078735994, -0.011525703387091838, 0.1648062401846536, 0.3193701378270261, 1.2516583352116784, 0.0, -0.05754840981345115, -0.19836012524107446, -0.4901279333076879, 1.0716832988716016, 0.0
0.4299999792196667, -0.02381555729926734, 0.004986097447801896, -0.08422410343327563, 0.39181554716214556, 0.0, -0.409685976863974, -0.05122509345264876, -0.02493272475111054, -0.02431557004442004, 0.26268734150939405, 0.0, 0.0012757603198907538, -0.011769191269071253, 0.16498693063145406, 0.31949063186792526, 1.2515468784856458, 0.0, -0.057700155719936544, -0.19846074347245196, -0.4898443347575313, 1.071445909658721, 0.0
0.4299999792196667, -0.024064647548519322, 0.005247459979689273, -0.08441063828960932, 0.39186342503418625, 0.0, -0.40977482110421753, -0.05125263405011353, -0.02463576745085922, -0.024355320616265917, 0.26231474862067833, 0.0, 0.0013693084319079082, -0.012012679151050667, 0.16516762107825453, 0.31961112590882446, 1.2514354217596135, 0.0, -0.05785190162642194, -0.19856136170382943, -0.4895607362073747, 1.0712085204458401, 0.0
0.4299999792196667, -0.024313737797771295, 0.005508822511576647, -0.08459717314594302, 0.391911302906227, 0.0, -0.40986366534446106, -0.051280174647578294, -0.024338810150607893, -0.024395071188111784, 0.26194215573196256, 0.0, 0.0014628565439250623, -0.012256167033030084, 0.165348311525055, 0.31973161994972366, 1.2513239650335812, 0.0, -0.058003647532907335, -0.19866197993520693, -0.48927713765721814, 1.0709711312329595, 0.0
0.4299999792196667, -0.024562828047023273, 0.005770185043464023, -0.0847837080022767, 0.39195918077826764, 0.0, -0.40995250958470464, -0.051307715245043066, -0.024041852850356572, -0.024434821759957658, 0.2615695628432468, 0.0, 0.0015564046559422167, -0.0124996549150095, 0.16552900197185544, 0.3198521139906228, 1.251212508307549, 0.0, -0.05815539343939273, -0.1987625981665844, -0.4889935391070616, 1.0707337420200786, 0.0
0.4299999792196667, -0.02481191829627525, 0.006031547575351398, -0.0849702428586104, 0.3920070586503084, 0.0, -0.41004135382494816, -0.05133525584250784, -0.02374489555010525, -0.02447457233180353, 0.26119696995453107, 0.0, 0.001649952767959371, -0.012743142796988913, 0.1657096924186559, 0.319972608031522, 1.2511010515815164, 0.0, -0.058307139345878126, -0.1988632163979619, -0.4887099405569051, 1.070496352807198, 0.0
0.4299999792196667, -0.02521837371407234, 0.0064524372849415045, -0.08517025793995482, 0.3922516979609019, 0.0, -0.410199225837108, -0.05126878323261637, -0.023219121047061413, -0.02436128719884678, 0.260730415520205, 0.0, 0.0019286767880480346, -0.012832500513098368, 0.16594317558467073, 0.32025627639484866, 1.2510102037032915, 0.0, -0.058525045448318866, -0.19918237079564005, -0.48845350282056804, 1.07015715504839, 0.0
0.4299999792196667, -0.025624829131869437, 0.006873326994531612, -0.08537027302129921, 0.3924963372714954, 0.0, -0.4103570978492679, -0.05120231062272492, -0.022693346544017577, -0.024248002065890034, 0.26026386108587884, 0.0, 0.002207400808136698, -0.012921858229207826, 0.16617665875068552, 0.3205399447581753, 1.2509193558250669, 0.0, -0.05874295155075961, -0.19950152519331826, -0.488197065084231, 1.0698179572895818, 0.0
0.4299999792196667, -0.02603128454966653, 0.007294216704121718, -0.08557028810264361, 0.392740976582089, 0.0, -0.4105149698614277, -0.051135838012833466, -0.022167572040973745, -0.024134716932933287, 0.2597973066515527, 0.0, 0.0024861248282253617, -0.013011215945317284, 0.1664101419167003, 0.3208236131215019, 1.250828507946842, 0.0, -0.05896085765320035, -0.19982067959099645, -0.48794062734789395, 1.0694787595307735, 0.0
0.4299999792196667, -0.026437739967463625, 0.0077151064137118254, -0.08577030318398801, 0.39298561589268255, 0.0, -0.41067284187358766, -0.05106936540294202, -0.02164179753792991, -0.024021431799976536, 0.25933075221722657, 0.0, 0.0027648488483140257, -0.01310057366142674, 0.1666436250827151, 0.3211072814848286, 1.2507376600686173, 0.0, -0.0591787637556411, -0.2001398339886746, -0.48768418961155696, 1.0691395617719657, 0.0
0.4299999792196667, -0.026844195385260713, 0.00813599612330193, -0.08597031826533241, 0.39323025520327604, 0.0, -0.4108307138857475, -0.05100289279305055, -0.021116023034886078, -0.02390814666701979, 0.2588641977829005, 0.0, 0.003043572868402689, -0.013189931377536195, 0.1668771082487299, 0.3213909498481552, 1.2506468121903924, 0.0, -0.05939666985808185, -0.20045898838635282, -0.4874277518752199, 1.0688003640131576, 0.0
0.4299999792196667, -0.027389365034150265, 0.008394192802459115, -0.08618485972204117, 0.39362329636950816, 0.0, -0.4110318246847963, -0.05091234964931314, -0.020488430561136948, -0.02361097469127047, 0.2581673506444322, 0.0, 0.0036090920091729393, -0.013020913692773063, 0.1669063180790913, 0.32170923158120746, 1.2506147539826917, 0.0, -0.05960195618283312, -0.20077958093533463, -0.48746731499870416, 1.0686168077357254, 0.0
0.4299999792196667, -0.02793453468303981, 0.008652389481616297, -0.08639940117874992, 0.39401633753574034, 0.0, -0.4112329354838451, -0.05082180650557573, -0.019860838087387818, -0.023313802715521154, 0.25747050350596395, 0.0, 0.004174611149943189, -0.012851896008009933, 0.16693552790945265, 0.3220275133142596, 1.250582695774991, 0.0, -0.059807242507584395, -0.20110017348431647, -0.48750687812218835, 1.0684332514582928, 0.0
0.4299999792196667, -0.028479704331929357, 0.00891058616077348, -0.08661394263545866, 0.39440937870197246, 0.0, -0.41143404628289393, -0.05073126336183832, -0.019233245613638688, -0.023016630739771834, 0.25677365636749566, 0.0, 0.004740130290713439, -0.012682878323246802, 0.16696473773981405, 0.32234579504731176, 1.2505506375672903, 0.0, -0.06001252883233566, -0.2014207660332983, -0.48754644124567253, 1.0682496951808607, 0.0
0.4299999792196667, -0.029024873980818905, 0.009168782839930664, -0.08682848409216741, 0.3948024198682046, 0.0, -0.4116351570819427, -0.05064072021810091, -0.01860565313988956, -0.022719458764022517, 0.2560768092290274, 0.0, 0.005305649431483689, -0.01251386063848367, 0.1669939475701754, 0.32266407678036396, 1.2505185793595899, 0.0, -0.06021781515708695, -0.2017413585822801, -0.4875860043691568, 1.0680661389034285, 0.0
0.4299999792196667, -0.029570043629708456, 0.009426979519087846, -0.08704302554887616, 0.39519546103443665, 0.0, -0.41183626788099154, -0.050550177074363496, -0.01797806066614043, -0.0224222867882732, 0.2553799620905592, 0.0, 0.005871168572253939, -0.012344842953720542, 0.1670231574005368, 0.32298235851341617, 1.2504865211518892, 0.0, -0.06042310148183821, -0.20206195113126194, -0.48762556749264097, 1.0678825826259961, 0.0
0.4299999792196667, -0.030216477979930413, 0.009316232827901784, -0.08723066799115319, 0.39532772557581136, 0.0, -0.4120971492256042, -0.05055668575621004, -0.017434709999397315, -0.02197017320817808, 0.25455579667381645, 0.0, 0.006689004308118233, -0.012108911788896901, 0.16679556995673525, 0.32315660171395977, 1.250505318347933, 0.0, -0.060645419776628, -0.20202659425127503, -0.4877852371939304, 1.0679670042019151, 0.0
0.4299999792196667, -0.030862912330152367, 0.009205486136715723, -0.0874183104334302, 0.3954599901171859, 0.0, -0.41235803057021675, -0.05056319443805657, -0.016891359332654194, -0.021518059628082967, 0.25373163125707365, 0.0, 0.007506840043982525, -0.01187298062407326, 0.1665679825129337, 0.32333084491450337, 1.2505241155439772, 0.0, -0.060867738071417786, -0.20199123737128813, -0.48794490689521997, 1.0680514257778344, 0.0
0.4299999792196667, -0.031509346680374334, 0.009094739445529661, -0.08760595287570719, 0.3955922546585606, 0.0, -0.4126189119148293, -0.050569703119903116, -0.016348008665911077, -0.021065946047987855, 0.2529074658403309, 0.0, 0.00832467577984682, -0.011637049459249618, 0.16634039506913212, 0.32350508811504697, 1.2505429127400212, 0.0, -0.061090056366207575, -0.20195588049130125, -0.4881045765965093, 1.0681358473537532, 0.0
0.4299999792196667, -0.03215578103059629, 0.0089839927543436, -0.08779359531798421, 0.3957245191999351, 0.0, -0.41287979325944196, -0.05057621180174964, -0.015804657999167956, -0.02061383246789274, 0.2520833004235882, 0.0, 0.009142511515711112, -0.011401118294425978, 0.16611280762533057, 0.32367933131559057, 1.250561709936065, 0.0, -0.061312374660997364, -0.20192052361131438, -0.48826424629779874, 1.068220268929672, 0.0
0.4299999792196667, -0.03280221538081825, 0.008873246063157538, -0.08798123776026122, 0.39585678374130984, 0.0, -0.4131406746040545, -0.05058272048359618, -0.015261307332424836, -0.020161718887797622, 0.25125913500684544, 0.0, 0.009960347251575406, -0.011165187129602334, 0.16588522018152901, 0.32385357451613417, 1.2505805071321092, 0.0, -0.061534692955787146, -0.20188516673132745, -0.4884239159990882, 1.068304690505591, 0.0
0.4299999792196667, -0.033238808795072926, 0.008586100689801661, -0.08806583317097369, 0.39586846348466415, 0.0, -0.413394490855855, -0.05083778220235094, -0.014950424189698192, -0.019713898119530712, 0.2509619054352308, 0.0, 0.010451991980722832, -0.011049661133512368, 0.16558758220286943, 0.3237700360768167, 1.2506016081627658, 0.0, -0.0615660324369018, -0.20177191231616554, -0.4885315923419608, 1.0684290975746733, 0.0
0.4299999792196667, -0.03367540220932761, 0.008298955316445785, -0.08815042858168616, 0.39588014322801857, 0.0, -0.4136483071076556, -0.05109284392110569, -0.014639541046971545, -0.019266077351263802, 0.2506646758636162, 0.0, 0.01094363670987026, -0.010934135137422403, 0.1652899442242098, 0.32368649763749924, 1.2506227091934223, 0.0, -0.061597371918016466, -0.20165865790100362, -0.48863926868483326, 1.0685535046437555, 0.0
0.4299999792196667, -0.03411199562358229, 0.008011809943089908, -0.08823502399239862, 0.3958918229713729, 0.0, -0.41390212335945614, -0.05134790563986044, -0.0143286579042449, -0.018818256582996896, 0.2503674462920015, 0.0, 0.011435281439017685, -0.010818609141332433, 0.16499230624555022, 0.32360295919818177, 1.250643810224079, 0.0, -0.06162871139913112, -0.20154540348584174, -0.4887469450277059, 1.0686779117128375, 0.0
0.4299999792196667, -0.03454858903783697, 0.007724664569734031, -0.08831961940311109, 0.39590350271472724, 0.0, -0.4141559396112567, -0.05160296735861518, -0.014017774761518255, -0.018370435814729986, 0.2500702167203869, 0.0, 0.011926926168165111, -0.010703083145242466, 0.1646946682668906, 0.3235194207588643, 1.2506649112547354, 0.0, -0.06166005088024579, -0.20143214907067977, -0.48885462137057833, 1.0688023187819198, 0.0
0.4299999792196667, -0.03498518245209165, 0.007437519196378155, -0.08840421481382355, 0.39591518245808155, 0.0, -0.4144097558630572, -0.05185802907736994, -0.013706891618791607, -0.017922615046463072, 0.24977298714877227, 0.0, 0.012418570897312535, -0.0105875571491525, 0.16439703028823102, 0.3234358823195469, 1.2506860122853922, 0.0, -0.06169139036136045, -0.20131889465551786, -0.4889622977134509, 1.068926725851002, 0.0
0.4299999792196667, -0.035165404103455034, 0.00710542290304375, -0.0885835655458902, 0.3960055241908233, 0.0, -0.41473313046686666, -0.05237729175697459, -0.013685916112214798, -0.017505358728403184, 0.25026256247593215, 0.0, 0.012571833145852066, -0.010530439364425393, 0.1643098685453864, 0.3231246866232578, 1.2506494650908555, 0.0, -0.06166520658285617, -0.2013383306420681, -0.48901728954752277, 1.0689193605615586, 0.0
0.4299999792196667, -0.03534562575481842, 0.006773326609709344, -0.08876291627795682, 0.396095865923565, 0.0, -0.4150565050706762, -0.05289655443657923, -0.01366494060563799, -0.017088102410343295, 0.25075213780309213, 0.0, 0.012725095394391593, -0.010473321579698285, 0.16422270680254183, 0.3228134909269687, 1.2506129178963188, 0.0, -0.061639022804351906, -0.20135776662861832, -0.4890722813815946, 1.0689119952721151, 0.0
0.4299999792196667, -0.0355258474061818, 0.0064412303163749384, -0.08894226701002346, 0.39618620765630674, 0.0, -0.4153798796744857, -0.05341581711618388, -0.013643965099061184, -0.016670846092283406, 0.251241713130252, 0.0, 0.01287835764293112, -0.01041620379497118, 0.16413554505969719, 0.3225022952306796, 1.2505763707017818, 0.0, -0.06161283902584764, -0.2013772026151685, -0.4891272732156664, 1.0689046299826717, 0.0
0.4299999792196667, -0.035706069057545184, 0.0061091340230405335, -0.08912161774209008, 0.39627654938904844, 0.0, -0.4157032542782952, -0.053935079795788515, -0.013622989592484376, -0.016253589774223514, 0.25173128845741194, 0.0, 0.013031619891470649, -0.010359086010244073, 0.16404838331685262, 0.3221910995343905, 1.2505398235072451, 0.0, -0.06158665524734337, -0.20139663860171872, -0.4891822650497382, 1.0688972646932282, 0.0
0.4299999792196667, -0.035886290708908565, 0.0057770377297061285, -0.08930096847415674, 0.3963668911217902, 0.0, -0.41602662888210473, -0.054454342475393165, -0.013602014085907567, -0.015836333456163625, 0.25222086378457187, 0.0, 0.013184882140010176, -0.010301968225516966, 0.163961221574008, 0.32187990383810144, 1.2505032763127084, 0.0, -0.0615604714688391, -0.2014160745882689, -0.4892372568838101, 1.0688898994037848, 0.0
0.4299999792196667, -0.03577553665243306, 0.0055933097816886585, -0.08940019532905451, 0.3963844002648462, 0.0, -0.4165647138904946, -0.054878645979187006, -0.013710679332334287, -0.014997537398087016, 0.2525812777657672, 0.0, 0.013358802943334348, -0.010307638451190844, 0.16422568084358719, 0.32131273815371486, 1.250232505932554, 0.0, -0.0615523776789659, -0.20141749877693857, -0.4891473026141623, 1.0688373091427636, 0.0
0.4299999792196667, -0.03566478259595755, 0.005409581833671189, -0.08949942218395229, 0.3964019094079022, 0.0, -0.41710279889888446, -0.05530294948298084, -0.013819344578761005, -0.014158741340010408, 0.25294169174696257, 0.0, 0.013532723746658521, -0.010313308676864724, 0.16449014011316637, 0.3207455724693283, 1.2499617355523995, 0.0, -0.0615442838890927, -0.20141892296560818, -0.48905734834451453, 1.0687847188817428, 0.0
0.4299999792196667, -0.03555402853948205, 0.005225853885653719, -0.08959864903885009, 0.3964194185509583, 0.0, -0.41764088390727433, -0.055727252986774674, -0.013928009825187722, -0.013319945281933797, 0.25330210572815787, 0.0, 0.013706644549982697, -0.010318978902538604, 0.16475459938274561, 0.3201784067849417, 1.2496909651722452, 0.0, -0.061536190099219505, -0.20142034715427784, -0.4889673940748667, 1.0687321286207216, 0.0
0.4299999792196667, -0.03544327448300655, 0.005042125937636249, -0.08969787589374788, 0.3964369276940143, 0.0, -0.4181789689156641, -0.05615155649056851, -0.01403667507161444, -0.012481149223857188, 0.2536625197093532, 0.0, 0.013880565353306867, -0.010324649128212484, 0.16501905865232477, 0.3196112411005551, 1.2494201947920907, 0.0, -0.0615280963093463, -0.20142177134294745, -0.48887743980521897, 1.0686795383597005, 0.0
0.4299999792196667, -0.035332520426531046, 0.004858397989618779, -0.08979710274864565, 0.39645443683707027, 0.0, -0.418717053924054, -0.05657585999436234, -0.01414534031804116, -0.011642353165780578, 0.2540229336905485, 0.0, 0.014054486156631043, -0.01033031935388636, 0.16528351792190396, 0.3190440754161685, 1.2491494244119363, 0.0, -0.06152000251947311, -0.20142319553161706, -0.48878748553557116, 1.0686269480986794, 0.0
0.4299999792196667, -0.03493916195944091, 0.004794864165121831, -0.08969847768327395, 0.39607987521695825, 0.0, -0.41952581157416013, -0.05660592992297911, -0.014209213574171035, -0.009972115762375508, 0.2532377519479783, 0.0, 0.014737779277567828, -0.010039095250788329, 0.16566749035734274, 0.31809899009818915, 1.2486456665392747, 0.0, -0.061687298262396224, -0.20122269210714797, -0.48831977569328017, 1.0684843197922063, 0.0
0.4299999792196667, -0.03454580349235079, 0.004731330340624883, -0.08959985261790226, 0.3957053135968463, 0.0, -0.4203345692242663, -0.05663599985159587, -0.01427308683030091, -0.008301878358970439, 0.2524525702054081, 0.0, 0.015421072398504614, -0.009747871147690296, 0.1660514627927815, 0.3171539047802097, 1.2481419086666132, 0.0, -0.061854594005319334, -0.20102218868267885, -0.4878520658509893, 1.0683416914857333, 0.0
0.4299999792196667, -0.03415244502526066, 0.004667796516127936, -0.08950122755253055, 0.3953307519767343, 0.0, -0.4211433268743724, -0.05666606978021262, -0.014336960086430785, -0.00663164095556537, 0.2516673884628379, 0.0, 0.0161043655194414, -0.009456647044592266, 0.1664354352282202, 0.3162088194622303, 1.2476381507939516, 0.0, -0.062021889748242444, -0.20082168525820976, -0.48738435600869834, 1.0681990631792604, 0.0
0.4299999792196667, -0.03375908655817053, 0.004604262691630987, -0.08940260248715887, 0.39495619035662227, 0.0, -0.4219520845244786, -0.056696139708829384, -0.014400833342560662, -0.004961403552160301, 0.25088220672026773, 0.0, 0.016787658640378185, -0.009165422941494234, 0.16681940766365896, 0.31526373414425085, 1.2471343929212901, 0.0, -0.06218918549116555, -0.20062118183374064, -0.4869166461664074, 1.0680564348727875, 0.0
0.4299999792196667, -0.033365728091080404, 0.00454072886713404, -0.08930397742178718, 0.39458162873651026, 0.0, -0.42276084217458465, -0.05672620963744615, -0.014464706598690537, -0.0032911661487552307, 0.25009702497769754, 0.0, 0.01747095176131497, -0.008874198838396201, 0.16720338009909771, 0.3143186488262715, 1.2466306350486285, 0.0, -0.06235648123408867, -0.20042067840927152, -0.48644893632411645, 1.0679138065663145, 0.0
0.4299999792196667, -0.03282416673588643, 0.004637366107207469, -0.0890910182805783, 0.39387843558088176, 0.0, -0.4234335549001564, -0.05718720449997296, -0.014496673700204216, -0.0015066499615436686, 0.2489630636187258, 0.0, 0.01812912275262489, -0.008367210989607663, 0.16739068185310474, 0.3125759445494722, 1.2455939443795288, 0.0, -0.0621952135093361, -0.20030730880237896, -0.4857377286165628, 1.067618587613998, 0.0
0.4299999792196667, -0.032282605380692456, 0.004734003347280899, -0.08887805913936939, 0.39317524242525326, 0.0, -0.42410626762572806, -0.05764819936249977, -0.014528640801717894, 0.0002778662256678935, 0.24782910225975405, 0.0, 0.018787293743934813, -0.007860223140819125, 0.16757798360711174, 0.3108332402726728, 1.244557253710429, 0.0, -0.062033945784583516, -0.20019393919548645, -0.4850265209090091, 1.0673233686616816, 0.0
0.4299999792196667, -0.03174104402549848, 0.004830640587354326, -0.08866509999816051, 0.3924720492696247, 0.0, -0.4247789803512998, -0.058109194225026584, -0.014560607903231573, 0.002062382412879455, 0.24669514090078232, 0.0, 0.019445464735244732, -0.007353235292030586, 0.1677652853611188, 0.3090905359958735, 1.2435205630413295, 0.0, -0.06187267805983094, -0.20008056958859385, -0.4843153132014555, 1.0670281497093654, 0.0
0.4299999792196667, -0.031199482670304507, 0.004927277827427756, -0.0884521408569516, 0.3917688561139962, 0.0, -0.4254516930768715, -0.05857018908755341, -0.014592575004745248, 0.0038468986000910173, 0.24556117954181056, 0.0, 0.020103635726554655, -0.006846247443242049, 0.16795258711512584, 0.3073478317190741, 1.2424838723722298, 0.0, -0.06171141033507837, -0.19996719998170134, -0.4836041054939018, 1.0667329307570492, 0.0
0.4299999792196667, -0.030657921315110533, 0.0050239150675011855, -0.08823918171574271, 0.3910656629583677, 0.0, -0.4261244058024432, -0.059031183950080224, -0.014624542106258928, 0.00563141478730258, 0.24442721818283883, 0.0, 0.020761806717864574, -0.006339259594453511, 0.16813988886913284, 0.3056051274422748, 1.24144718170313, 0.0, -0.06155014261032579, -0.1998538303748088, -0.48289289778634814, 1.0664377118047326, 0.0
0.4299999792196667, -0.03034462459146789, 0.0050444103641876, -0.0880384489550099, 0.3901162143172583, 0.0, -0.4265768579764132, -0.06017112410893759, -0.014578718347121475, 0.0074978330978446835, 0.24380789856974414, 0.0, 0.021660300820527854, -0.005105977921693202, 0.1680089298340387, 0.30284796450038776, 1.2392140189625696, 0.0, -0.060870290091850056, -0.19997818508401338, -0.481517525975899, 1.0655453493927975, 0.0
0.4299999792196667, -0.03003132786782525, 0.005064905660874013, -0.08783771619427708, 0.3891667656761489, 0.0, -0.4270293101503831, -0.06131106426779496, -0.014532894587984025, 0.009364251408386787, 0.2431885789566495, 0.0, 0.02255879492319113, -0.0038726962489328922, 0.16787797079894456, 0.3000908015585007, 1.2369808562220086, 0.0, -0.06019043757337431, -0.20010253979321796, -0.4801421541654499, 1.0646529869808625, 0.0
0.4299999792196667, -0.029718031144182602, 0.005085400957560428, -0.08763698343354426, 0.3882173170350395, 0.0, -0.42748176232435314, -0.06245100442665233, -0.014487070828846574, 0.01123066971892889, 0.24256925934355478, 0.0, 0.02345728902585441, -0.0026394145761725837, 0.16774701176385043, 0.29733363861661377, 1.234747693481448, 0.0, -0.059510585054898556, -0.2002268945024226, -0.47876678235500086, 1.063760624568927, 0.0
0.4299999792196667, -0.02940473442053996, 0.005105896254246842, -0.08743625067281144, 0.38726786839393007, 0.0, -0.42793421449832314, -0.0635909445855097, -0.014441247069709121, 0.013097088029470995, 0.24194993973046008, 0.0, 0.024355783128517692, -0.0014061329034122747, 0.16761605272875627, 0.2945764756747267, 1.2325145307408871, 0.0, -0.05883073253642282, -0.2003512492116272, -0.4773914105445518, 1.062868262156992, 0.0
0.4299999792196667, -0.029091437696897315, 0.005126391550933257, -0.0872355179120786, 0.38631841975282066, 0.0, -0.42838666667229314, -0.06473088474436707, -0.01439542331057167, 0.014963506340013099, 0.24133062011736545, 0.0, 0.025254277231180972, -0.00017285123065196635, 0.16748509369366213, 0.2918193127328397, 1.2302813680003266, 0.0, -0.05815088001794707, -0.20047560392083177, -0.47601603873410264, 1.0619758997450568, 0.0
0.4299999792196667, -0.029330668232138927, 0.005089206543274646, -0.08676594964320015, 0.38545093526404345, 0.0, -0.42863424860800553, -0.06692285771458077, -0.014152238557376741, 0.016938593666893105, 0.24152105299205057, 0.0, 0.026355220800429333, 0.002420325866555957, 0.16692376439029422, 0.2877640297438554, 1.2253173932989254, 0.0, -0.05613440095121895, -0.20078158108265742, -0.472787961525418, 1.0592595495823984, 0.0
0.4299999792196667, -0.029569898767380535, 0.005052021535616036, -0.08629638137432169, 0.38458345077526623, 0.0, -0.428881830543718, -0.06911483068479446, -0.013909053804181813, 0.01891368099377311, 0.24171148586673566, 0.0, 0.027456164369677696, 0.00501350296376388, 0.16636243508692633, 0.283708746754871, 1.2203534185975242, 0.0, -0.05411792188449084, -0.20108755824448304, -0.4695598843167334, 1.05654319941974, 0.0
0.4299999792196667, -0.02980912930262215, 0.005014836527957427, -0.08582681310544325, 0.3837159662864889, 0.0, -0.42912941247943037, -0.07130680365500815, -0.013665869050986884, 0.02088876832065312, 0.24190191874142078, 0.0, 0.028557107938926057, 0.007606680060971803, 0.1658011057835584, 0.2796534637658867, 1.215389443896123, 0.0, -0.05210144281776274, -0.2013935354063087, -0.46633180710804883, 1.053826849257082, 0.0
0.4299999792196667, -0.030048359837863754, 0.004977651520298817, -0.08535724483656477, 0.38284848179771164, 0.0, -0.42937699441514277, -0.07349877662522183, -0.013422684297791952, 0.022863855647533127, 0.24209235161610584, 0.0, 0.029658051508174417, 0.010199857158179724, 0.1652397764801905, 0.27559818077690235, 1.2104254691947218, 0.0, -0.05008496375103462, -0.2016995125681343, -0.4631037298993642, 1.0511104990944236, 0.0
0.4299999792196667, -0.03028759037310537, 0.0049404665126402065, -0.08488767656768632, 0.3819809973089344, 0.0, -0.42962457635085516, -0.07569074959543554, -0.013179499544597024, 0.024838942974413133, 0.24228278449079094, 0.0, 0.03075899507742278, 0.012793034255387647, 0.16467844717682256, 0.27154289778791796, 1.2054614944933209, 0.0, -0.0480684846843065, -0.20200548972995994, -0.45987565269067954, 1.048394148931765, 0.0
0.4299999792196667, -0.03151104069694632, 0.005026661761958219, -0.08357413060252818, 0.3816289853427582, 0.0, -0.42968294714235883, -0.07915187189249269, -0.012570441245773601, 0.02743093005028651, 0.243483085814631, 0.0, 0.03185359088418164, 0.017802844200192746, 0.1638634447386528, 0.26600950243673666, 1.1952065471831816, 0.0, -0.04368162264776489, -0.202497393326342, -0.4521689105230618, 1.0408282722880757, 0.0
0.4299999792196667, -0.03273449102078726, 0.005112857011276231, -0.08226058463737003, 0.3812769733765819, 0.0, -0.42974131793386255, -0.08261299418954986, -0.011961382946950172, 0.030022917126159884, 0.24468338713847101, 0.0, 0.0329481866909405, 0.022812654144997842, 0.16304844230048302, 0.2604761070855553, 1.1849515998730429, 0.0, -0.039294760611223264, -0.2029892969227241, -0.44446216835544405, 1.0332623956443865, 0.0
0.4299999792196667, -0.033957941344628206, 0.005199052260594243, -0.08094703867221188, 0.3809249614104057, 0.0, -0.4297996887253663, -0.08607411648660701, -0.011352324648126749, 0.032614904202033265, 0.2458836884623111, 0.0, 0.034042782497699355, 0.02782246408980294, 0.16223343986231323, 0.254942711734374, 1.1746966525629037, 0.0, -0.03490789857468164, -0.20348120051910618, -0.43675542618782637, 1.0256965190006972, 0.0
0.4299999792196667, -0.035181391668469154, 0.005285247509912256, -0.07963349270705372, 0.38057294944422954, 0.0, -0.42985805951686995, -0.08953523878366418, -0.010743266349303322, 0.03520689127790664, 0.24708398978615115, 0.0, 0.03513737830445821, 0.03283227403460804, 0.16141843742414344, 0.24940931638319266, 1.164441705252765, 0.0, -0.03052103653814002, -0.20397310411548825, -0.4290486840202086, 1.018130642357008, 0.0
0.4299999792196667, -0.0364048419923101, 0.005371442759230269, -0.07831994674189559, 0.3802209374780533, 0.0, -0.4299164303083737, -0.09299636108072133, -0.010134208050479897, 0.03779887835378001, 0.24828429110999117, 0.0, 0.03623197411121707, 0.03784208397941314, 0.16060343498597368, 0.24387592103201136, 1.1541867579426257, 0.0, -0.026134174501598398, -0.20446500771187032, -0.42134194185259083, 1.0105647657133188, 0.0
0.4299999792196667, -0.03954380932163904, 0.004915007394841365, -0.076175549701762, 0.3801943246976189, 0.0, -0.4299247171316622, -0.09769195999370185, -0.008821023961888861, 0.041908202321459705, 0.2505766676360844, 0.0, 0.03741168438960793, 0.04545575087961467, 0.15908010114285753, 0.2362165087030492, 1.135623970089165, 0.0, -0.019623053382898558, -0.20413107037542771, -0.4056568249445505, 0.9941976055495255, 0.0
0.4299999792196667, -0.042682776650967987, 0.004458572030452462, -0.07403115266162844, 0.3801677119171844, 0.0, -0.4299330039549506, -0.10238755890668234, -0.0075078398732978235, 0.046017526289139396, 0.25286904416217754, 0.0, 0.038591394667998796, 0.053069417779816205, 0.15755676729974136, 0.22855709637408705, 1.1170611822357048, 0.0, -0.013111932264198718, -0.20379713303898517, -0.38997170803651016, 0.9778304453857323, 0.0
0.4299999792196667, -0.045821743980296925, 0.004002136666063558, -0.07188675562149484, 0.38014109913675004, 0.0, -0.42994129077823906, -0.10708315781966285, -0.006194655784706787, 0.05012685025681908, 0.2551614206882707, 0.0, 0.03977110494638967, 0.060683084680017735, 0.1560334334566252, 0.2208976840451249, 1.098498394382244, 0.0, -0.0066008111454988775, -0.2034631957025426, -0.3742865911284698, 0.961463285221939, 0.0
0.4299999792196667, -0.04896071130962587, 0.003545701301674654, -0.06974235858136126, 0.3801144863563156, 0.0, -0.4299495776015276, -0.11177875673264336, -0.00488147169611575, 0.05423617422449877, 0.25745379721436384, 0.0, 0.040950815224780536, 0.06829675158021926, 0.15451009961350903, 0.21323827171616277, 1.0799356065287833, 0.0, -8.969002679903524e-05, -0.20312925836610005, -0.3586014742204294, 0.9450961250581458, 0.0
0.4299999792196667, -0.05209967863895481, 0.003089265937285751, -0.06759796154122769, 0.38008787357588125, 0.0, -0.42995786442481604, -0.11647435564562386, -0.0035682876075247135, 0.058345498192178456, 0.25974617374045705, 0.0, 0.042130525503171395, 0.0759104184804208, 0.15298676577039289, 0.20557885938720058, 1.0613728186753226, 0.0, 0.0064214310919008056, -0.20279532102965744, -0.34291635731238906, 0.9287289648943526, 0.0
0.4299999792196667, -0.05762259608050472, 0.0009643462130990662, -0.06529201333487102, 0.37972199671412715, 0.0, -0.42987400135425763, -0.12375750640378255, -0.0011263020862691182, 0.06286410536010932, 0.2634243416926337, 0.0, 0.041662900483882104, 0.08078739340553195, 0.15052834734591122, 0.19416790022832017, 1.0318394636118207, 0.0, 0.011380690262728936, -0.19966081441283073, -0.3170539323206555, 0.9005402045052697, 0.0
0.4299999792196667, -0.06314551352205462, -0.0011605735110876184, -0.06298606512851433, 0.37935611985237305, 0.0, -0.42979013828369933, -0.1310406571619413, 0.0013156834349864772, 0.06738271252804018, 0.26710250964481036, 0.0, 0.04119527546459282, 0.08566436833064311, 0.14806992892142956, 0.18275694106943977, 1.0023061085483183, 0.0, 0.016339949433557065, -0.19652630779600405, -0.2911915073289218, 0.8723514441161869, 0.0
0.4299999792196667, -0.06866843096360452, -0.0032854932352743035, -0.060680116922157655, 0.37899024299061906, 0.0, -0.4297062752131411, -0.1383238079201, 0.0037576689562420725, 0.07190131969597104, 0.27078067759698704, 0.0, 0.04072765044530353, 0.09054134325575428, 0.14561151049694793, 0.17134598191055933, 0.972772753484816, 0.0, 0.021299208604385198, -0.19339180117917737, -0.26532908233718816, 0.844162683727104, 0.0
0.4299999792196667, -0.07419134840515443, -0.005410412959460988, -0.058374168715800964, 0.37862436612886496, 0.0, -0.4296224121425827, -0.1456069586782587, 0.006199654477497667, 0.0764199268639019, 0.2744588455491637, 0.0, 0.04026002542601424, 0.09541831818086544, 0.14315309207246626, 0.15993502275167892, 0.9432393984213137, 0.0, 0.026258467775213325, -0.1902572945623507, -0.23946665734545458, 0.8159739233380211, 0.0
0.4299999792196667, -0.07971426584670432, -0.007535332683647674, -0.05606822050944427, 0.37825848926711086, 0.0, -0.4295385490720243, -0.15289010943641743, 0.008641639998753264, 0.08093853403183277, 0.2781370135013404, 0.0, 0.03979240040672495, 0.1002952931059766, 0.14069467364798463, 0.14852406359279852, 0.9137060433578114, 0.0, 0.03121772694604145, -0.18712278794552395, -0.21360423235372095, 0.7877851629489383, 0.0
0.4299999792196667, -0.08568030388484552, -0.010347737530381753, -0.05345049157243324, 0.3766592615268009, 0.0, -0.4288641782836633, -0.16174993479029176, 0.011457820551164769, 0.08659940264652614, 0.2826080478807838, 0.0, 0.03717488439988266, 0.09532875451590422, 0.1402555470628536, 0.13406124753475374, 0.8715766226480567, 0.0, 0.026634539454194153, -0.18157315754164058, -0.18055219577975998, 0.7463505298891342, 0.0
0.4299999792196667, -0.09164634192298672, -0.013160142377115836, -0.0508327626354222, 0.37506003378649105, 0.0, -0.4281898074953022, -0.1706097601441661, 0.014274001103576274, 0.09226027126121952, 0.28707908226022716, 0.0, 0.034557368393040355, 0.09036221592583189, 0.13981642047772255, 0.11959843147670896, 0.8294472019383018, 0.0, 0.02205135196234684, -0.17602352713775724, -0.147500159205799, 0.7049158968293303, 0.0
0.4299999792196667, -0.09761237996112791, -0.015972547223849918, -0.04821503369841116, 0.3734608060461812, 0.0, -0.4275154367069411, -0.1794695854980404, 0.017090181655987777, 0.09792113987591294, 0.2915501166396706, 0.0, 0.03193985238619805, 0.08539567733575953, 0.13937729389259151, 0.10513561541866417, 0.7873177812285468, 0.0, 0.017468164470499536, -0.17047389673387384, -0.11444812263183805, 0.6634812637695263, 0.0
0.4299999792196667, -0.10357841799926909, -0.018784952070583998, -0.04559730476140012, 0.3718615783058713, 0.0, -0.42684106591858006, -0.18832941085191474, 0.019906362208399284, 0.10358200849060631, 0.29602115101911397, 0.0, 0.02932233637935576, 0.0804291387456872, 0.1389381673074605, 0.09067279936061937, 0.7451883605187919, 0.0, 0.012884976978652232, -0.16492426632999047, -0.08139608605787708, 0.6220466307097223, 0.0
0.4299999792196667, -0.1095444560374103, -0.021597356917318077, -0.04297957582438908, 0.37026235056556145, 0.0, -0.426166695130219, -0.19718923620578907, 0.02272254276081079, 0.1092428771052997, 0.3004921853985574, 0.0, 0.026704820372513458, 0.07546260015561485, 0.1384990407223295, 0.0762099833025746, 0.703058939809037, 0.0, 0.008301789486804928, -0.15937463592610707, -0.04834404948391613, 0.5806119976499184, 0.0
0.4299999792196667, -0.11354901975833168, -0.024570800711046382, -0.039611138888193224, 0.3662084987465637, 0.0, -0.42529722445675294, -0.2059262776467856, 0.02484360719230616, 0.11668895504726379, 0.3020580249902766, 0.0, 0.023257998256149593, 0.05708006711477344, 0.1422140351217232, 0.06047983326954795, 0.6477170485397856, 0.0, -0.010043913616160891, -0.15407307615012666, -0.017730649772694725, 0.5255498302998842, 0.0
0.4299999792196667, -0.11755358347925306, -0.027544244504774686, -0.03624270195199737, 0.362154646927566, 0.0, -0.42442775378328695, -0.2146633190877821, 0.02696467162380153, 0.12413503298922787, 0.30362386458199586, 0.0, 0.01981117613978572, 0.03869753407393203, 0.14592902952111697, 0.044749683236521294, 0.5923751572705344, 0.0, -0.028389616719126713, -0.14877151637414626, 0.012882749938526682, 0.47048766294985, 0.0
0.4299999792196667, -0.12155814720017444, -0.03051768829850299, -0.03287426501580152, 0.35810079510856835, 0.0, -0.4235582831098209, -0.22340036052877865, 0.029085736055296903, 0.13158111093119193, 0.30518970417371505, 0.0, 0.016364354023421852, 0.020315001033090627, 0.14964402392051074, 0.029019533203494628, 0.537033266001283, 0.0, -0.04673531982209253, -0.14346995659816586, 0.04349614964974808, 0.41542549559981584, 0.0
0.4299999792196667, -0.12556271092109583, -0.03349113209223129, -0.029505828079605678, 0.35404694328957065, 0.0, -0.4226888124363549, -0.23213740196977517, 0.031206800486792266, 0.13902718887315604, 0.30675554376543435, 0.0, 0.012917531907057985, 0.0019324679922492199, 0.15335901831990448, 0.013289383170467975, 0.4816913747320316, 0.0, -0.06508102292505835, -0.13816839682218543, 0.0741095493609695, 0.36036332824978157, 0.0
0.4299999792196667, -0.1295672746420172, -0.036464575885959596, -0.02613739114340982, 0.34999309147057295, 0.0, -0.42181934176288893, -0.2408744434107717, 0.03332786491828764, 0.14647326681512013, 0.3083213833571536, 0.0, 0.009470709790694115, -0.01645006504859219, 0.15707401271929822, -0.002440766862558683, 0.42634948346278034, 0.0, -0.08342672602802419, -0.132866837046205, 0.1047229490721909, 0.3053011608997474, 0.0
0.4299999792196667, -0.1289659633361446, -0.03762186915543785, -0.02016272042753559, 0.3433146484290112, 0.0, -0.4227959512178179, -0.24585103335200628, 0.03376762750139809, 0.15708635917842687, 0.30531018774263874, 0.0, 0.006624922380422988, -0.046129963890211366, 0.1642247104405231, -0.0178469266094289, 0.36345665452103926, 0.0, -0.11369131365971998, -0.12788023589638098, 0.12774441088333227, 0.2424690648781197, 0.0
0.4299999792196667, -0.128364652030272, -0.03877916242491611, -0.01418804971166135, 0.3366362053874495, 0.0, -0.4237725606727468, -0.2508276232932409, 0.03420739008450854, 0.16769945154173357, 0.302298992128124, 0.0, 0.003779134970151862, -0.07580986273183055, 0.17137540816174796, -0.033253086356299116, 0.30056382557929817, 0.0, -0.14395590129141575, -0.12289363474655696, 0.1507658726944736, 0.17963696885649197, 0.0
0.4299999792196667, -0.1277633407243994, -0.03993645569439435, -0.008213378995787113, 0.32995776234588775, 0.0, -0.4247491701276757, -0.25580421323447544, 0.03464715266761899, 0.1783125439050403, 0.29928779651360915, 0.0, 0.0009333475598807353, -0.10548976157344973, 0.1785261058829728, -0.048659246103169324, 0.2376709966375571, 0.0, -0.17422048892311154, -0.11790703359673292, 0.17378733450561498, 0.11680487283486422, 0.0
0.4299999792196667, -0.1271620294185268, -0.0410937489638726, -0.002238708279912877, 0.3232793193043261, 0.0, -0.42572577958260466, -0.26078080317571, 0.03508691525072945, 0.18892563626834702, 0.2962766008990944, 0.0, -0.0019124398503903915, -0.1351696604150689, 0.18567680360419767, -0.06406540585003954, 0.174778167695816, 0.0, -0.20448507655480733, -0.11292043244690891, 0.19680879631675635, 0.05397277681323648, 0.0
0.4299999792196667, -0.1265607181126542, -0.042251042233350855, 0.0037359624359613597, 0.3166008762627643, 0.0, -0.4267023890375336, -0.26575739311694463, 0.0355266778338399, 0.19953872863165373, 0.2932654052845796, 0.0, -0.004758227260661518, -0.16484955925668807, 0.19282750132542253, -0.07947156559690977, 0.1118853387540749, 0.0, -0.23474966418650312, -0.10793383129708489, 0.2198302581278977, -0.00885931920839125, 0.0
0.4299427079855917, -0.12324311773064704, -0.042653163649549394, 0.013514993086413855, 0.3057901253616692, 0.0, -0.4271389412620179, -0.2675963173954064, 0.035401178188646, 0.21012558520564448, 0.28538136908088574, 0.0, -0.006381253123827705, -0.19332638972947108, 0.20070350552389868, -0.09255675871883623, 0.05773284154803619, 0.0, -0.26571178068227297, -0.10389576214144712, 0.23792789130109224, -0.06288963184761728, 0.0
0.42988543675151675, -0.11992551734863989, -0.043055285065747934, 0.023294023736866343, 0.29497937446057415, 0.0, -0.42757549348650226, -0.2694352416738682, 0.035275678543452094, 0.22071244177963523, 0.2774973328771919, 0.0, -0.008004278986993891, -0.22180322020225415, 0.20857950972237485, -0.10564195184076268, 0.003580344341997483, 0.0, -0.2966738971780429, -0.09985769298580936, 0.2560255244742868, -0.11691994448684333, 0.0
0.42982816551744185, -0.11660791696663272, -0.04345740648194648, 0.03307305438731884, 0.28416862355947897, 0.0, -0.42801204571098656, -0.27127416595232995, 0.03515017889825819, 0.231299298353626, 0.2696132966734981, 0.0, -0.009627304850160081, -0.25028005067503717, 0.216455513920851, -0.11872714496268914, -0.05057215286404124, 0.0, -0.3276360136738128, -0.09581962383017156, 0.27412315764748135, -0.17095025712606934, 0.0
0.42977089428336684, -0.11329031658462557, -0.043859527898145026, 0.04285208503777133, 0.2733578726583839, 0.0, -0.4284485979354709, -0.2731130902307918, 0.03502467925306429, 0.24188615492761675, 0.26172926046980427, 0.0, -0.011250330713326267, -0.27875688114782016, 0.22433151811932714, -0.13181233808461562, -0.10472465007007992, 0.0, -0.35859813016958264, -0.09178155467453382, 0.2922207908206759, -0.22498056976529537, 0.0
0.42971362304929195, -0.10997271620261842, -0.04426164931434356, 0.052631115688223824, 0.26254712175728884, 0.0, -0.4288851501599552, -0.2749520145092535, 0.034899179607870374, 0.2524730115016075, 0.25384522426611045, 0.0, -0.012873356576492455, -0.3072337116206032, 0.23220752231780328, -0.14489753120654206, -0.15887714727611862, 0.0, -0.38956024666535244, -0.08774348551889605, 0.3103184239938705, -0.27901088240452143, 0.0
0.42859008828727163, -0.10515811550524917, -0.04416838345697304, 0.07065044710798862, 0.25163675793446544, 0.0, -0.4266605116074612, -0.27482504529682944, 0.03041935086339203, 0.2616354560038266, 0.24480615359805633, 0.0, -0.009743801144594404, -0.32498103277831303, 0.236282380919678, -0.15675527370998202, -0.19870596921367417, 0.0, -0.4104512269464864, -0.08590270176664919, 0.3264914616569399, -0.31864085199908027, 0.0
0.42746655352525126, -0.10034351480787994, -0.04407511759960252, 0.0886697785277534, 0.240726394111642, 0.0, -0.4244358730549672, -0.27469807608440533, 0.025939522118913677, 0.2707979005060457, 0.23576708293000218, 0.0, -0.006614245712696348, -0.3427283539360228, 0.2403572395215527, -0.16861301621342195, -0.2385347911512298, 0.0, -0.4313422072276204, -0.08406191801440235, 0.3426644993200093, -0.3582708215936391, 0.0
0.42634301876323094, -0.09552891411051069, -0.043981851742232, 0.10668910994751817, 0.2298160302888186, 0.0, -0.42221123450247316, -0.2745711068719813, 0.02145969337443533, 0.2799603450082649, 0.22672801226194805, 0.0, -0.003484690280798293, -0.3604756750937326, 0.2444320981234274, -0.1804707587168619, -0.2783636130887853, 0.0, -0.45223318750875424, -0.08222113426215549, 0.35883753698307874, -0.397900791188198, 0.0
0.42521948400121057, -0.09071431341314147, -0.04388858588486147, 0.12470844136728297, 0.2189056664659952, 0.0, -0.4199865959499791, -0.27444413765955716, 0.016979864629956976, 0.289122789510484, 0.2176889415938939, 0.0, -0.00035513484890023993, -0.3782229962514423, 0.24850695672530212, -0.19232850122030185, -0.3181924350263409, 0.0, -0.4731241677898882, -0.08038035050990865, 0.37501057464614806, -0.43753076078275677, 0.0
0.4240959492391903, -0.08589971271577224, -0.04379532002749095, 0.14272777278704776, 0.20799530264317181, 0.0, -0.4177619573974852, -0.2743171684471331, 0.012500035885478624, 0.29828523401270307, 0.20864987092583975, 0.0, 0.0027744205829978125, -0.3959703174091521, 0.2525818153271768, -0.2041862437237418, -0.35802125696389653, 0.0, -0.4940151480710221, -0.07853956675766179, 0.39118361230921744, -0.47716073037731566, 0.0
0.41760928995715474, -0.08395279444451406, -0.047433054635018373, 0.1678637498561993, 0.203577305329038, 0.0, -0.4095217972318974, -0.2752807123672816, 0.006439631036274751, 0.3052642402047508, 0.20034088195587035, 0.0, 0.012822903855112866, -0.40077030446469436, 0.2554184326379316, -0.2123600150552422, -0.38360219176321003, 0.0, -0.5019431735531832, -0.07978171653910861, 0.4050721710610589, -0.5025042724730899, 0.0
0.4111226306751191, -0.08200587617325589, -0.05107078924254579, 0.19299972692535086, 0.19915930801490422, 0.0, -0.40128163706630965, -0.2762442562874301, 0.000379226187070878, 0.3122432463967985, 0.19203189298590095, 0.0, 0.022871387127227916, -0.40557029152023666, 0.2582550499486864, -0.2205337863867426, -0.4091831265625234, 0.0, -0.5098711990353444, -0.08102386632055542, 0.41896072981290045, -0.5278478145688641, 0.0
0.40463597139308355, -0.0800589579019977, -0.05470852385007321, 0.21813570399450238, 0.19474131070077041, 0.0, -0.3930414769007219, -0.27720780020757857, -0.005681178662132995, 0.31922225258884607, 0.18372290401593155, 0.0, 0.03291987039934297, -0.4103702785757789, 0.2610916672594412, -0.22870755771824297, -0.43476406136183693, 0.0, -0.5177992245175054, -0.08226601610200224, 0.4328492885647419, -0.5531913566646383, 0.0
0.39814931211104787, -0.07811203963073952, -0.05834625845760062, 0.24327168106365393, 0.1903233133866366, 0.0, -0.3848013167351341, -0.27817134412772715, -0.011741583511336869, 0.3262012587808938, 0.17541391504596213, 0.0, 0.04296835367145802, -0.4151702656313212, 0.26392828457019607, -0.23688132904974338, -0.46034499616115043, 0.0, -0.5257272499996665, -0.08350816588344905, 0.4467378473165835, -0.5785348987604125, 0.0
0.39166265282901236, -0.07616512135948135, -0.061983993065128036, 0.2684076581328055, 0.1859053160725028, 0.0, -0.37656115656954636, -0.2791348880478756, -0.017801988360540737, 0.33318026497294145, 0.16710492607599275, 0.0, 0.053016836943573065, -0.4199702526868635, 0.26676490188095087, -0.2450551003812438, -0.4859259309604639, 0.0, -0.5336552754818276, -0.08475031566489585, 0.460626406068425, -0.6038784408561868, 0.0
0.37784135208522573, -0.08357854872899667, -0.06623177120984163, 0.2880752010055349, 0.18744157233340072, 0.0, -0.36452762450384557, -0.2839710173815682, -0.023718296383239006, 0.33744709582990157, 0.15584743476543775, 0.0, 0.06665428819461312, -0.4137669441182307, 0.27137359037849906, -0.2474525544549533, -0.49731624985561024, 0.0, -0.5313215259258158, -0.0873434197514905, 0.47365344935753095, -0.6160635861833498, 0.0
0.3640200513414391, -0.090991976098512, -0.07047954935455522, 0.30774274387826434, 0.18897782859429865, 0.0, -0.3524940924381448, -0.28880714671526075, -0.029634604405937275, 0.34171392668686157, 0.1445899434548827, 0.0, 0.0802917394456532, -0.4075636355495979, 0.27598227887604726, -0.24985000852866276, -0.5087065687507566, 0.0, -0.5289877763698042, -0.08993652383808518, 0.48668049264663704, -0.6282487315105129, 0.0
0.3501987505976525, -0.09840540346802731, -0.07472732749926882, 0.3274102867509939, 0.19051408485519658, 0.0, -0.3404605603724439, -0.2936432760489534, -0.03555091242863555, 0.3459807575438217, 0.1333324521443277, 0.0, 0.09392919069669325, -0.401360326980965, 0.28059096737359546, -0.25224746260237224, -0.5200968876459029, 0.0, -0.5266540268137925, -0.09252962792467982, 0.49970753593574313, -0.6404338768376759, 0.0
0.33637744985386575, -0.10581883083754264, -0.07897510564398243, 0.3470778296237233, 0.1920503411160945, 0.0, -0.3284270283067431, -0.29847940538264595, -0.04146722045133381, 0.35024758840078174, 0.12207496083377269, 0.0, 0.10756664194773331, -0.3951570184123322, 0.2851996558711436, -0.25464491667608175, -0.5314872065410492, 0.0, -0.5243202772577809, -0.09512273201127448, 0.5127345792248492, -0.652619022164839, 0.0
0.3225561491100791, -0.11323225820705797, -0.08322288378869601, 0.3667453724964527, 0.19358659737699244, 0.0, -0.3163934962410423, -0.30331553471633854, -0.04738352847403207, 0.35451441925774185, 0.11081746952321768, 0.0, 0.12120409319877339, -0.38895370984369937, 0.2898083443686918, -0.2570423707497912, -0.5428775254361955, 0.0, -0.5219865277017691, -0.09771583609786912, 0.5257616225139553, -0.6648041674920021, 0.0
0.3121785226068175, -0.12603704952388584, -0.08474415814329483, 0.3753767935924356, 0.196198981766768, 0.0, -0.30675969764905403, -0.3092716348497189, -0.05536790644894986, 0.35798259792096476, 0.10088771789342971, 0.0, 0.13478045443533512, -0.37764223445218265, 0.3002606814359144, -0.25059053253166214, -0.5400052859554075, 0.0, -0.5147942632190787, -0.10075858866152337, 0.5390127207004569, -0.6696325056759137, 0.0
0.3018008961035558, -0.1388418408407137, -0.08626543249789363, 0.3840082146884184, 0.1988113661565436, 0.0, -0.2971258990570658, -0.3152277349830992, -0.06335228442386764, 0.3614507765841878, 0.09095796626364179, 0.0, 0.14835681567189687, -0.36633075906066587, 0.31071301850313693, -0.24413869431353313, -0.5371330464746195, 0.0, -0.5076019987363883, -0.10380134122517765, 0.5522638188869584, -0.6744608438598253, 0.0
0.29142326960029413, -0.15164663215754157, -0.08778670685249243, 0.39263963578440125, 0.2014237505463192, 0.0, -0.2874921004650776, -0.3211838351164796, -0.07133666239878542, 0.3649189552474107, 0.08102821463385383, 0.0, 0.16193317690845863, -0.3550192836691492, 0.3211653555703594, -0.2376868560954041, -0.5342608069938315, 0.0, -0.500409734253698, -0.10684409378883189, 0.56551491707346, -0.6792891820437371, 0.0
0.28104564309703245, -0.16445142347436942, -0.08930798120709124, 0.40127105688038406, 0.2040361349360948, 0.0, -0.2778583018730894, -0.3271399352498599, -0.07932104037370322, 0.3683871339106337, 0.0710984630040659, 0.0, 0.1755095381450204, -0.3437078082776325, 0.33161769263758195, -0.23123501787727502, -0.5313885675130435, 0.0, -0.49321746977100767, -0.10988684635248612, 0.5787660152599616, -0.6841175202276488, 0.0
0.2706680165937708, -0.17725621479119727, -0.09082925556169005, 0.4099024779763669, 0.2066485193258704, 0.0, -0.2682245032811012, -0.3330960353832403, -0.08730541834862099, 0.3718553125738567, 0.06116871137427795, 0.0, 0.18908589938158216, -0.33239633288611564, 0.3420700297048045, -0.224783179659146, -0.5285163280322555, 0.0, -0.4860252052883173, -0.11292959891614039, 0.5920171134464632, -0.6889458584115604, 0.0
0.27002355725813043, -0.1898319892395662, -0.09042552948977724, 0.40741564908232125, 0.21086582471997586, 0.0, -0.2602677810953788, -0.33977872655620134, -0.09532579618282211, 0.3741844684232771, 0.053603866918308304, 0.0, 0.19910093722340047, -0.3235198780351283, 0.3637142731471482, -0.2071728905841956, -0.5112246460197298, 0.0, -0.4774572897424975, -0.11941838086761226, 0.6023799639922776, -0.6952852188860448, 0.0
0.26937909792249004, -0.20240776368793512, -0.09002180341786442, 0.4049288201882757, 0.2150831301140813, 0.0, -0.25231105890965644, -0.34646141772916245, -0.10334617401702323, 0.3765136242726975, 0.04603902246233866, 0.0, 0.2091159750652188, -0.314643423184141, 0.38535851658949183, -0.1895626015092452, -0.4939329640072042, 0.0, -0.46888937419667776, -0.1259071628190841, 0.6127428145380918, -0.7016245793605289, 0.0
0.2687346385868496, -0.21498353813630403, -0.08961807734595158, 0.40244199129423003, 0.21930043550818681, 0.0, -0.24435433672393406, -0.3531441089021235, -0.11136655185122435, 0.378842780122118, 0.03847417800636901, 0.0, 0.2191310129070372, -0.3057669683331537, 0.40700276003183544, -0.17195231243429482, -0.4766412819946786, 0.0, -0.46032145865085794, -0.132395944770556, 0.6231056650839061, -0.7079639398350133, 0.0
0.2680901792512092, -0.22755931258467293, -0.08921435127403876, 0.39995516240018447, 0.22351774090229226, 0.0, -0.23639761453821168, -0.3598268000750846, -0.11938692968542546, 0.3811719359715384, 0.030909333550399362, 0.0, 0.22914605074885555, -0.2968905134821664, 0.4286470034741791, -0.1543420233593444, -0.459349599982153, 0.0, -0.4517535431050382, -0.13888472672202784, 0.6334685156297204, -0.7143033003094975, 0.0
0.2674457199155688, -0.24013508703304187, -0.08881062520212593, 0.3974683335061388, 0.22773504629639774, 0.0, -0.2284408923524893, -0.3665094912480457, -0.1274073075196266, 0.38350109182095893, 0.023344489094429717, 0.0, 0.2391610885906739, -0.28801405863117907, 0.4502912469165227, -0.13673173428439403, -0.44205791796962735, 0.0, -0.4431856275592184, -0.1453735086734997, 0.6438313661755347, -0.7206426607839818, 0.0
0.2733302161710568, -0.2531296602167438, -0.0868728594374652, 0.3881686572554938, 0.23857198411758976, 0.0, -0.2188232939066181, -0.3748669061234409, -0.13223379565453114, 0.3835485228887111, 0.02032917938980212, 0.0, 0.2431993546194513, -0.2866143115523966, 0.4843185141353036, -0.10697191891072115, -0.41035738757392365, 0.0, -0.4337586958621521, -0.15291363298407581, 0.6527149943297477, -0.7294522346180328, 0.0
0.27921471242654483, -0.2661242334004458, -0.08493509367280448, 0.37886898100484895, 0.24940892193878175, 0.0, -0.20920569546074685, -0.3832243209988362, -0.13706028378943572, 0.3835959539564633, 0.01731386968517453, 0.0, 0.24723762064822866, -0.28521456447361415, 0.5183457813540844, -0.07721210353704826, -0.37865685717822006, 0.0, -0.4243317641650858, -0.16045375729465192, 0.6615986224839607, -0.7382618084520837, 0.0
0.28509920868203287, -0.2791188065841477, -0.08299732790814378, 0.36956930475420396, 0.2602458597599738, 0.0, -0.19958809701487568, -0.3915817358742314, -0.14188677192434027, 0.38364338502421547, 0.014298559980546936, 0.0, 0.25127588667700607, -0.2838148173948318, 0.5523730485728653, -0.047452288163375336, -0.3469563267825164, 0.0, -0.41490483246801935, -0.16799388160522802, 0.6704822506381737, -0.7470713822861347, 0.0
0.2909837049375209, -0.2921133797678497, -0.08105956214348306, 0.3602696285035591, 0.2710827975811657, 0.0, -0.18997049856900447, -0.3999391507496267, -0.14671326005924484, 0.3836908160919677, 0.011283250275919341, 0.0, 0.2553141527057835, -0.2824150703160493, 0.586400315791646, -0.017692472789702443, -0.3152557963868128, 0.0, -0.405477900770953, -0.17553400591580412, 0.6793658787923867, -0.7558809561201855, 0.0
0.2968682011930089, -0.3051079529515517, -0.07912179637882234, 0.35096995225291416, 0.28191973540235776, 0.0, -0.18035290012313326, -0.40829656562502187, -0.15153974819414942, 0.3837382471597199, 0.00826794057129175, 0.0, 0.2593524187345609, -0.28101532323726686, 0.6204275830104269, 0.012067342583970448, -0.28355526599110914, 0.0, -0.3960509690738867, -0.18307413022638022, 0.6882495069465997, -0.7646905299542365, 0.0
0.30139748768156693, -0.3187366251964542, -0.07800305987598159, 0.34614118122734794, 0.2963516779821982, 0.0, -0.16589312303238204, -0.4196803185915222, -0.15118480756548833, 0.3799561815025012, 0.012735623569505474, 0.0, 0.25344814091733076, -0.29002912502841066, 0.6595014697613494, 0.04848745341470869, -0.24349952332552632, 0.0, -0.39007103472424115, -0.18455632316836837, 0.7026199476142584, -0.7721001682139456, 0.0
0.3059267741701248, -0.33236529744135673, -0.07688432337314084, 0.3413124102017818, 0.3107836205620386, 0.0, -0.15143334594163085, -0.43106407155802257, -0.15082986693682726, 0.3761741158452826, 0.017203306567719193, 0.0, 0.2475438631001006, -0.2990429268195544, 0.6985753565122718, 0.08490756424544695, -0.20344378065994345, 0.0, -0.3840911003745956, -0.18603851611035652, 0.7169903882819171, -0.7795098064736549, 0.0
0.3104560606586828, -0.3459939696862593, -0.07576558687030012, 0.3364836391762156, 0.32521556314187894, 0.0, -0.13697356885087963, -0.44244782452452286, -0.1504749263081662, 0.37239205018806393, 0.021670989565932917, 0.0, 0.2416395852828705, -0.30805672861069816, 0.7376492432631943, 0.12132767507618519, -0.16338803799436055, 0.0, -0.37811116602495, -0.18752070905234466, 0.7313608289495757, -0.7869194447333642, 0.0
0.31498534714724075, -0.35962264193116183, -0.07464685036745936, 0.3316548681506495, 0.3396475057217194, 0.0, -0.12251379176012842, -0.45383157749102315, -0.1501199856795051, 0.3686099845308453, 0.026138672564146637, 0.0, 0.23573530746564036, -0.3170705304018419, 0.7767231300141165, 0.15774778590692343, -0.12333229532877772, 0.0, -0.37213123167530443, -0.18900290199433284, 0.7457312696172342, -0.7943290829930733, 0.0
0.31951463363579874, -0.3732513141760643, -0.07352811386461863, 0.32682609712508326, 0.3540794483015598, 0.0, -0.10805401466937721, -0.46521533045752356, -0.149765045050844, 0.36482791887362664, 0.030606355562360358, 0.0, 0.22983102964841026, -0.3260843321929857, 0.815797016765039, 0.19416789673766166, -0.08327655266319484, 0.0, -0.3661512973256589, -0.190485094936321, 0.7601017102848929, -0.8017387212527826, 0.0
0.3233516806551137, -0.3878551297993241, -0.07211721552817935, 0.32766086716236115, 0.36260315465742654, 0.0, -0.0917780507515275, -0.47667083740023186, -0.14623672932291434, 0.35912890922972357, 0.040854160985200186, 0.0, 0.21820446996703097, -0.339923770398359, 0.8458894601291497, 0.22223060595750696, -0.05158936705495196, 0.0, -0.3600556790625326, -0.18553310366556397, 0.7795999946174225, -0.8025741405525422, 0.0
0.3271887276744287, -0.4024589454225839, -0.07070631719174006, 0.328495637199639, 0.3711268610132933, 0.0, -0.07550208683367782, -0.4881263443429402, -0.14270841359498465, 0.35342989958582055, 0.05110196640804, 0.0, 0.20657791028565167, -0.3537632086037324, 0.8759819034932603, 0.2502933151773523, -0.01990218144670906, 0.0, -0.35396006079940634, -0.180581112394807, 0.799098278949952, -0.8034095598523018, 0.0
0.33102577469374356, -0.41706276104584367, -0.06929541885530077, 0.32933040723691687, 0.3796505673691601, 0.0, -0.05922612291582811, -0.49958185128564847, -0.13918009786705496, 0.3477308899419175, 0.061349771830879835, 0.0, 0.19495135060427238, -0.3676026468091058, 0.906074346857371, 0.27835602439719764, 0.011785004161533835, 0.0, -0.34786444253628007, -0.17562912112405005, 0.8185965632824814, -0.8042449791520615, 0.0
0.3348628217130586, -0.4316665766691035, -0.06788452051886147, 0.3301651772741947, 0.38817427372502683, 0.0, -0.04295015899797841, -0.5110373582283568, -0.13565178213912524, 0.3420318802980144, 0.07159757725371967, 0.0, 0.18332479092289308, -0.3814420850144791, 0.9361667902214814, 0.3064187336170429, 0.043472189769776716, 0.0, -0.3417688242731538, -0.17067712985329306, 0.8380948476150111, -0.8050803984518211, 0.0
0.3386998687323735, -0.4462703922923633, -0.06647362218242218, 0.3309999473114726, 0.3966979800808936, 0.0, -0.026674195080128714, -0.5224928651710652, -0.13212346641119557, 0.3363328706541114, 0.0818453826765595, 0.0, 0.17169823124151382, -0.39528152321985255, 0.9662592335855921, 0.3344814428368883, 0.0751593753780196, 0.0, -0.3356732060100276, -0.16572513858253607, 0.8575931319475406, -0.8059158177515807, 0.0
0.34322660354956513, -0.4550544843193351, -0.06490388317608815, 0.33150405424998464, 0.3994876236001602, 0.0, -0.017895864838803364, -0.5272568600467727, -0.1305289137098201, 0.33412732949429264, 0.08920179083754386, 0.0, 0.1645825643727716, -0.4023598456276557, 0.9831337888882081, 0.3490050780343114, 0.09201658908918778, 0.0, -0.33082485588091254, -0.16379555841206722, 0.8684886290557955, -0.801847455265182, 0.0
0.34775333836675665, -0.46383857634630693, -0.06333414416975412, 0.33200816118849663, 0.4022772671194268, 0.0, -0.009117534597478013, -0.5320208549224805, -0.1289343610084446, 0.331921788334474, 0.09655819899852823, 0.0, 0.15746689750402937, -0.4094381680354588, 1.000008344190824, 0.36352871323173463, 0.10887380280035595, 0.0, -0.3259765057517975, -0.16186597824159837, 0.8793841261640504, -0.797779092778783, 0.0
0.3522800731839482, -0.4726226683732787, -0.061764405163420084, 0.3325122681270087, 0.4050669106386935, 0.0, -0.0003392043561526633, -0.5367848497981882, -0.12733980830706912, 0.32971624717465525, 0.1039146071595126, 0.0, 0.15035123063528713, -0.41651649044326206, 1.01688289949344, 0.3780523484291578, 0.12573101651152413, 0.0, -0.3211281556226824, -0.15993639807112947, 0.8902796232723053, -0.7937107302923843, 0.0
0.35680680800113973, -0.4814067604002505, -0.06019466615708604, 0.3330163750655207, 0.40785655415796007, 0.0, 0.008439125885172687, -0.5415488446738959, -0.1257452556056936, 0.3275107060148366, 0.11127101532049698, 0.0, 0.1432355637665449, -0.4235948128510652, 1.0337574547960562, 0.39257598362658097, 0.14258823022269232, 0.0, -0.3162798054935674, -0.15800681790066062, 0.9011751203805602, -0.7896423678059855, 0.0
0.3613335428183313, -0.49019085242722227, -0.058624927150751995, 0.3335204820040327, 0.4106461976772267, 0.0, 0.017217456126498037, -0.5463128395496034, -0.12415070290431812, 0.3253051648550178, 0.11862742348148135, 0.0, 0.13611989689780266, -0.4306731352588683, 1.0506320100986721, 0.4070996188240042, 0.15944544393386048, 0.0, -0.3114314553644523, -0.15607723773019175, 0.9120706174888151, -0.7855740053195868, 0.0
0.3650181772153866, -0.48915538697925753, -0.05862350540554332, 0.33203263768592656, 0.4108623636864032, 0.0, 0.017037329525765716, -0.5433628491412976, -0.12416719626574947, 0.32755789273649344, 0.11630884362919629, 0.0, 0.1331616001185207, -0.42828803462560444, 1.0548662416958634, 0.4084678382751786, 0.16108484915355126, 0.0, -0.31168795244198394, -0.15664587647246703, 0.9102813164116461, -0.7818560700404034, 0.0
0.3687028116124419, -0.48811992153129286, -0.058622083660334647, 0.3305447933678205, 0.4110785296955797, 0.0, 0.0168572029250334, -0.5404128587329917, -0.12418368962718081, 0.3298106206179691, 0.11399026377691122, 0.0, 0.13020330333923877, -0.4259029339923405, 1.0591004732930547, 0.409836057726353, 0.1627242543732421, 0.0, -0.3119444495195155, -0.1572145152147423, 0.908492015334477, -0.77813813476122, 0.0
0.3723874460094972, -0.48708445608332823, -0.05862066191512598, 0.3290569490497144, 0.4112946957047562, 0.0, 0.01667707632430108, -0.5374628683246859, -0.12420018298861216, 0.3320633484994447, 0.11167168392462617, 0.0, 0.12724500655995682, -0.42351783335907667, 1.063334704890246, 0.41120427717752733, 0.16436365959293286, 0.0, -0.3122009465970471, -0.15778315395701756, 0.9067027142573079, -0.7744201994820366, 0.0
0.37607208040655254, -0.48604899063536344, -0.0586192401699173, 0.32756910473160833, 0.41151086171393275, 0.0, 0.01649694972356876, -0.53451287791638, -0.1242166763500435, 0.3343160763809203, 0.10935310407234108, 0.0, 0.12428670978067488, -0.42113273272581286, 1.0675689364874374, 0.4125724966287018, 0.1660030648126237, 0.0, -0.3124574436745787, -0.15835179269929284, 0.9049134131801387, -0.7707022642028534, 0.0
0.37975671480360784, -0.4850135251873988, -0.058617818424708625, 0.32608126041350216, 0.4117270277231092, 0.0, 0.01631682312283644, -0.5315628875080741, -0.12423316971147484, 0.33656880426239594, 0.10703452422005603, 0.0, 0.12132841300139294, -0.41874763209254895, 1.0718031680846287, 0.4139407160798762, 0.16764247003231447, 0.0, -0.31271394075211034, -0.1589204314415681, 0.9031241121029697, -0.76698432892367, 0.0
0.38349719275541, -0.4766023436990666, -0.05912086071237694, 0.3222132861598419, 0.4109458916537451, 0.0, 0.008526325047876449, -0.5223261268863051, -0.12478962047051759, 0.3416840431594089, 0.09482856723782633, 0.0, 0.12050030418773823, -0.4093557919854232, 1.0642194576666426, 0.40362115668082843, 0.15402537630166965, 0.0, -0.3123610491399911, -0.16168395785390788, 0.8927403560033751, -0.766028136330331, 0.0
0.3872376707072121, -0.4681911622107344, -0.05962390300004524, 0.3183453119061816, 0.41016475558438104, 0.0, 0.0007358269729164566, -0.513089366264536, -0.12534607122956032, 0.34679928205642196, 0.08262261025559667, 0.0, 0.11967219537408352, -0.3999639518782975, 1.0566357472486565, 0.3933015972817806, 0.14040828257102486, 0.0, -0.3120081575278718, -0.16444748426624767, 0.8823565999037803, -0.7650719437369916, 0.0
0.39097814865901415, -0.4597799807224023, -0.060126945287713555, 0.3144773376525212, 0.409383619515017, 0.0, -0.007054671102043537, -0.503852605642767, -0.12590252198860305, 0.3519145209534349, 0.07041665327336696, 0.0, 0.11884408656042883, -0.3905721117711718, 1.0490520368306702, 0.38298203788273283, 0.12679118884038004, 0.0, -0.31165526591575254, -0.16721101067858743, 0.8719728438041858, -0.7641157511436526, 0.0
0.3947186266108163, -0.45136879923407003, -0.06062998757538186, 0.3106093633988609, 0.4086024834456529, 0.0, -0.014845169177003526, -0.494615845020998, -0.1264589727476458, 0.35702975985044794, 0.05821069629113727, 0.0, 0.11801597774677411, -0.38118027166404594, 1.041468326412684, 0.372662478483685, 0.11317409510973526, 0.0, -0.3113023743036333, -0.16997453709092725, 0.8615890877045912, -0.7631595585503135, 0.0
0.3984591045626184, -0.44295761774573783, -0.06113302986305018, 0.30674138914520066, 0.40782134737628883, 0.0, -0.022635667251963518, -0.485379084399229, -0.1270154235066885, 0.36214499874746103, 0.046004739308907576, 0.0, 0.11718786893311942, -0.3717884315569202, 1.033884615994698, 0.36234291908463717, 0.09955700137909046, 0.0, -0.31094948269151407, -0.172738063503267, 0.8512053316049966, -0.7622033659569744, 0.0
0.40105000045864336, -0.4332900993926011, -0.06265416738383563, 0.2998246946981077, 0.40528741553639036, 0.0, -0.035978141802387426, -0.4724047954320937, -0.12847542388910588, 0.3670529064919711, 0.03139835665538396, 0.0, 0.11935043554889797, -0.3586563787880387, 1.0147820676167656, 0.34335725889736934, 0.07089544316388126, 0.0, -0.30887467018332826, -0.17915705637020277, 0.834970449945212, -0.7625427836272682, 0.0
0.4036408963546685, -0.4236225810394644, -0.06417530490462107, 0.2929080002510147, 0.40275348369649194, 0.0, -0.049320616352811326, -0.45943050646495837, -0.12993542427152321, 0.37196081423648114, 0.016791974001860326, 0.0, 0.1215130021646765, -0.3455243260191571, 0.9956795192388334, 0.32437159871010157, 0.04223388494867206, 0.0, -0.3067998576751425, -0.18557604923713855, 0.8187355682854275, -0.7628822012975621, 0.0
0.4062317922506935, -0.41395506268632765, -0.06569644242540652, 0.2859913058039218, 0.4002195518565935, 0.0, -0.06266309090323523, -0.44645621749782305, -0.13139542465394058, 0.3768687219809913, 0.0021855913483366917, 0.0, 0.12367556878045503, -0.33239227325027554, 0.9765769708609009, 0.30538593852283386, 0.013572326733462847, 0.0, -0.30472504516695664, -0.19199504210407434, 0.8025006866256429, -0.7632216189678559, 0.0
0.4088226881467185, -0.40428754433319086, -0.06721757994619199, 0.27907461135682876, 0.3976856200166951, 0.0, -0.07600556545365912, -0.4334819285306878, -0.1328554250363579, 0.3817766297255014, -0.012420791305186933, 0.0, 0.12583813539623356, -0.319260220481394, 0.9574744224829684, 0.286400278335566, -0.015089231481746351, 0.0, -0.30265023265877083, -0.19841403497101012, 0.7862658049658582, -0.7635610366381498, 0.0
0.41141358404274353, -0.39462002598005413, -0.06873871746697743, 0.2721579169097358, 0.3951516881767967, 0.0, -0.08934804000408304, -0.42050763956355247, -0.13431542541877525, 0.38668453747001147, -0.02702717395871055, 0.0, 0.12800070201201214, -0.30612816771251244, 0.9383718741050362, 0.26741461814829826, -0.04375078969695557, 0.0, -0.300575420150585, -0.20483302783794588, 0.7700309233060737, -0.7639004543084437, 0.0
0.41118825854565255, -0.3857913931505714, -0.07228343091229547, 0.26637820673187895, 0.38742437904927335, 0.0, -0.1045066762488642, -0.40814250192128976, -0.1362991491932995, 0.3862024356427087, -0.03208817849454709, 0.0, 0.13314389410232508, -0.2919952768280258, 0.907691715549926, 0.24339851414039637, -0.08426216766799823, 0.0, -0.29728420740153877, -0.2149486175886301, 0.7485725015785314, -0.7634399003160858, 0.0
0.4109629330485616, -0.3769627603210888, -0.07582814435761348, 0.2605984965540222, 0.3796970699217502, 0.0, -0.11966531249364536, -0.39577736427902704, -0.1382828729678237, 0.3857203338154057, -0.03714918303038362, 0.0, 0.13828708619263805, -0.27786238594353907, 0.8770115569948157, 0.21938241013249443, -0.12477354563904088, 0.0, -0.2939929946524925, -0.22506420733931434, 0.727114079850989, -0.762979346323728, 0.0
0.4107376075514707, -0.36813412749160607, -0.0793728578029315, 0.2548187863761654, 0.37196976079422694, 0.0, -0.13482394873842654, -0.38341222663676433, -0.14026659674234795, 0.3852382319881029, -0.042210187566220164, 0.0, 0.14343027828295102, -0.2637294950590524, 0.8463313984397055, 0.19536630612459258, -0.16528492361008354, 0.0, -0.2907017819034462, -0.2351797970899986, 0.7056556581234468, -0.7625187923313703, 0.0
0.41051228205437973, -0.35930549466212336, -0.08291757124824954, 0.24903907619830865, 0.3642424516667037, 0.0, -0.1499825849832077, -0.3710470889945016, -0.1422503205168722, 0.3847561301607999, -0.04727119210205671, 0.0, 0.14857347037326396, -0.24959660417456572, 0.8156512398845954, 0.1713502021166907, -0.2057963015811262, 0.0, -0.28741056915439994, -0.2452953868406829, 0.6841972363959044, -0.7620582383390127, 0.0
0.41028695655728875, -0.3504768618326407, -0.08646228469356756, 0.24325936602045187, 0.35651514253918043, 0.0, -0.16514122122798885, -0.3586819513522389, -0.1442340442913964, 0.3842740283334971, -0.05233219663789326, 0.0, 0.1537166624635769, -0.23546371329007904, 0.7849710813294853, 0.14733409810878878, -0.24630767955216884, 0.0, -0.2841193564053537, -0.25541097659136713, 0.662738814668362, -0.7615976843466548, 0.0
0.40822517118663976, -0.338131006587954, -0.08956170879616578, 0.24554326548236807, 0.34444303520635206, 0.0, -0.17815641722213238, -0.3484542486317235, -0.14381232387489556, 0.37801037675130583, -0.04707171667651703, 0.0, 0.15836994761417206, -0.2215775596019468, 0.7460508812911765, 0.12060142647020368, -0.2874181334113781, 0.0, -0.27989526866177494, -0.261897880219498, 0.643626974157492, -0.7647413085634939, 0.0
0.4061633858159909, -0.32578515134326735, -0.09266113289876399, 0.24782716494428433, 0.3323709278735236, 0.0, -0.1911716132162759, -0.33822654591120815, -0.14339060345839466, 0.37174672516911456, -0.0418112367151408, 0.0, 0.1630232327647672, -0.20769140591381458, 0.7071306812528676, 0.09386875483161859, -0.32852858727058737, 0.0, -0.27567118091819626, -0.26838478384762887, 0.624515133646622, -0.767884932780333, 0.0
0.4041016004453419, -0.3134392960985807, -0.09576055700136218, 0.25011106440620057, 0.3202988205406953, 0.0, -0.20418680921041946, -0.3279988431906928, -0.14296888304189379, 0.3654830735869233, -0.036550756753764575, 0.0, 0.16767651791536237, -0.19380525222568232, 0.6682104812145588, 0.06713608319303352, -0.36963904112979673, 0.0, -0.2714470931746175, -0.27487168747575974, 0.6054032931357521, -0.7710285569971721, 0.0
0.40203981507469305, -0.30109344085389395, -0.0988599811039604, 0.25239496386811683, 0.30822671320786693, 0.0, -0.21720200520456295, -0.31777114047017746, -0.14254716262539288, 0.35921942200473206, -0.031290276792388355, 0.0, 0.17232980306595752, -0.17991909853755006, 0.62929028117625, 0.04040341155444843, -0.410749494989006, 0.0, -0.26722300543103883, -0.2813585911038906, 0.586291452624882, -0.7741721812140112, 0.0
0.399978029704044, -0.28874758560920727, -0.1019594052065586, 0.25467886333003303, 0.2961546058750385, 0.0, -0.2302172011987065, -0.3075434377496621, -0.142125442208892, 0.3529557704225408, -0.026029796831012128, 0.0, 0.17698308821655265, -0.1660329448494178, 0.5903700811379412, 0.013670739915863348, -0.45185994884821534, 0.0, -0.2629989176874601, -0.2878454947320215, 0.5671796121140122, -0.7773158054308504, 0.0
0.3984986641954441, -0.2727418569535633, -0.10121568341130367, 0.2630285568688175, 0.28590594175020667, 0.0, -0.24214021203485403, -0.2984403065167428, -0.1398868539378185, 0.3450927444923825, -0.021156677058965945, 0.0, 0.18008636565707342, -0.1546335554781489, 0.5539473390488225, -0.012923336523084264, -0.4819240550465906, 0.0, -0.26133416679637184, -0.2889468254152979, 0.5536984236815616, -0.7810508100301182, 0.0
0.39701929868684416, -0.2567361282979193, -0.10047196161604877, 0.2713782504076019, 0.2756572776253749, 0.0, -0.2540632228710016, -0.2893371752838234, -0.13764826566674498, 0.33722971856222417, -0.016283557286919766, 0.0, 0.1831896430975942, -0.14323416610687992, 0.5175245969597041, -0.03951741296203188, -0.5119881612449658, 0.0, -0.25966941590528353, -0.2900481560985744, 0.5402172352491112, -0.7847858146293861, 0.0
0.39553993317824426, -0.24073039964227536, -0.09972823982079383, 0.2797279439463863, 0.26540861350054307, 0.0, -0.26598623370714913, -0.2802340440509041, -0.13540967739567147, 0.3293666926320658, -0.011410437514873585, 0.0, 0.18629292053811494, -0.13183477673561095, 0.48110185487058554, -0.0661114894009795, -0.542052267443341, 0.0, -0.25800466501419533, -0.2911494867818508, 0.5267360468166606, -0.7885208192286539, 0.0
0.3940605676696443, -0.22472467098663138, -0.09898451802553893, 0.28807763748517073, 0.25515994937571124, 0.0, -0.27790924454329663, -0.27113091281798474, -0.13317108912459796, 0.32150366670190755, -0.006537317742827404, 0.0, 0.18939619797863572, -0.12043538736434199, 0.444679112781467, -0.0927055658399271, -0.5721163736417163, 0.0, -0.2563399141231071, -0.2922508174651272, 0.5132548583842103, -0.7922558238279218, 0.0
0.3925812021610444, -0.2087189423309874, -0.09824079623028399, 0.2964273310239551, 0.24491128525087946, 0.0, -0.2898322553794441, -0.2620277815850654, -0.13093250085352445, 0.3136406407717492, -0.0016641979707812233, 0.0, 0.1924994754191565, -0.10903599799307305, 0.40825637069234844, -0.11929964227887471, -0.6021804798400916, 0.0, -0.25467516323201883, -0.29335214814840366, 0.4997736699517597, -0.7959908284271896, 0.0
0.3944998181731523, -0.18964711349321944, -0.09460531728628185, 0.3006780699452118, 0.23882701860920819, 0.0, -0.30119441862309737, -0.2530485058971846, -0.12782299887075937, 0.3073068932761393, 0.00044016303145402984, 0.0, 0.19178238071603582, -0.10461278738046355, 0.38350728075848645, -0.14115924887893896, -0.6180623337520752, 0.0, -0.2543433377439711, -0.2895378357879252, 0.49301098684852124, -0.797552042896391, 0.0
0.39641843418526007, -0.17057528465545146, -0.0909698383422797, 0.30492880886646845, 0.23274275196753685, 0.0, -0.3125565818667505, -0.24406923020930374, -0.12471349688799431, 0.30097314578052947, 0.002544524033689283, 0.0, 0.1910652860129152, -0.10018957676785403, 0.3587581908246245, -0.1630188554790032, -0.6339441876640589, 0.0, -0.25401151225592344, -0.2857235234274467, 0.48624830374528266, -0.7991132573655926, 0.0
0.398337050197368, -0.15150345581768343, -0.08733435939827758, 0.30917954778772516, 0.2266584853258656, 0.0, -0.32391874511040364, -0.23508995452142295, -0.12160399490522923, 0.2946393982849196, 0.004648885035924536, 0.0, 0.19034819130979455, -0.09576636615524453, 0.3340091008907625, -0.18487846207906747, -0.6498260415760425, 0.0, -0.2536796867678758, -0.28190921106696826, 0.47948562064204425, -0.800674471834794, 0.0
0.4002556662094757, -0.13243162697991545, -0.08369888045427541, 0.3134302867089819, 0.2205742186841943, 0.0, -0.3352809083540568, -0.22611067883354213, -0.11849449292246415, 0.28830565078930975, 0.00675324603815979, 0.0, 0.18963109660667388, -0.09134315554263503, 0.30926001095690053, -0.20673806867913172, -0.6657078954880262, 0.0, -0.25334786127982817, -0.27809489870648973, 0.4727229375388057, -0.8022356863039956, 0.0
0.40217428222158363, -0.11335979814214746, -0.08006340151027327, 0.31768102563023853, 0.21448995204252302, 0.0, -0.34664307159770996, -0.21713140314566132, -0.11538499093969909, 0.28197190329369987, 0.008857607040395041, 0.0, 0.18891400190355323, -0.08691994493002553, 0.28451092102303865, -0.22859767527919594, -0.6815897494000099, 0.0, -0.25301603579178045, -0.27428058634601127, 0.4659602544355672, -0.8037969007731969, 0.0
0.406142490734186, -0.09610842450869664, -0.07681153127509377, 0.31243208753120577, 0.21191648500440843, 0.0, -0.35610295162039546, -0.2087997353673915, -0.11205382934940392, 0.2774749455388766, 0.011250592722153578, 0.0, 0.18442561895134502, -0.09084153430204371, 0.2730264101988207, -0.2398725022470793, -0.6834886815888137, 0.0, -0.25457513143127, -0.2703361422365041, 0.4625627581163915, -0.8036983455209952, 0.0
0.4101106992467883, -0.07885705087524582, -0.07355966103991428, 0.307183149432173, 0.20934301796629382, 0.0, -0.36556283164308095, -0.20046806758912167, -0.10872266775910876, 0.2729779877840533, 0.013643578403912112, 0.0, 0.1799372359991368, -0.09476312367406187, 0.2615418993746027, -0.2511473292149627, -0.6853876137776176, 0.0, -0.2561342270707595, -0.2663916981269969, 0.4591652617972158, -0.8035997902687936, 0.0
0.41407890775939066, -0.061605677241795005, -0.07030779080473477, 0.30193421133314013, 0.20676955092817917, 0.0, -0.37502271166576645, -0.19213639981085187, -0.1053915061688136, 0.26848103002923007, 0.016036564085670647, 0.0, 0.17544885304692853, -0.09868471304608004, 0.25005738855038473, -0.26242215618284603, -0.6872865459664214, 0.0, -0.25769332271024903, -0.2624472540174897, 0.4557677654780401, -0.803501235016592, 0.0
0.41804711627199304, -0.044354303608344185, -0.06705592056955527, 0.29668527323410737, 0.20419608389006455, 0.0, -0.38448259168845195, -0.18380473203258205, -0.10206034457851844, 0.2639840722744068, 0.01842954976742918, 0.0, 0.17096047009472032, -0.10260630241809819, 0.23857287772616678, -0.2736969831507294, -0.6891854781552254, 0.0, -0.25925241834973856, -0.2585028099079825, 0.45237026915886447, -0.8034026797643905, 0.0
0.42201532478459536, -0.027102929974893365, -0.06380405033437575, 0.2914363351350746, 0.20162261685194993, 0.0, -0.39394247171113744, -0.1754730642543122, -0.0987291829882233, 0.2594871145195835, 0.020822535449187718, 0.0, 0.1664720871425121, -0.10652789179011636, 0.2270883669019488, -0.2849718101186128, -0.6910844103440291, 0.0, -0.2608115139892281, -0.25455836579847535, 0.44897277283968867, -0.8033041245121889, 0.0
0.4235105309014863, -0.01890251500553738, -0.06107358953378086, 0.2775051763868504, 0.200400963170041, 0.0, -0.39957372069216107, -0.1692784195000863, -0.09548010074199093, 0.2555494929021224, 0.026118003327946972, 0.0, 0.1611666003757147, -0.1129170129978384, 0.22652875849322338, -0.28444617977976516, -0.6793016576572304, 0.0, -0.26298846665589914, -0.2533248683122624, 0.4413398930060154, -0.800438231048561, 0.0
0.42500573701837735, -0.010702100036181404, -0.05834312873318595, 0.26357401763862626, 0.19917930948813203, 0.0, -0.4052049696731847, -0.16308377474586036, -0.09223101849575856, 0.2516118712846612, 0.03141347120670623, 0.0, 0.1558611136089173, -0.11930613420556044, 0.22596915008449794, -0.2839205494409175, -0.6675189049704315, 0.0, -0.26516541932257015, -0.2520913708260494, 0.43370701317234206, -0.7975723375849333, 0.0
0.4265009431352685, -0.0025016850668254263, -0.05561266793259105, 0.24964285889040205, 0.19795765580622313, 0.0, -0.41083621865420833, -0.15688912999163446, -0.08898193624952619, 0.24767424966720009, 0.036708939085465485, 0.0, 0.15055562684211987, -0.12569525541328247, 0.22540954167577248, -0.28339491910206993, -0.6557361522836328, 0.0, -0.2673423719892412, -0.25085787333983645, 0.4260741333386687, -0.7947064441213055, 0.0
0.4279961492521594, 0.005698729902530556, -0.05288220713199613, 0.2357117001421779, 0.19673600212431416, 0.0, -0.41646746763523196, -0.15069448523740855, -0.0857328540032938, 0.24373662804973897, 0.042004406964224736, 0.0, 0.14525014007532247, -0.1320843766210045, 0.224849933267047, -0.2828692887632223, -0.6439533995968341, 0.0, -0.2695193246559123, -0.24962437585362346, 0.41844125350499534, -0.7918405506576778, 0.0
0.4294913553690505, 0.013899144871886539, -0.05015174633140123, 0.2217805413939537, 0.1955143484424052, 0.0, -0.4220987166162556, -0.14449984048318262, -0.08248377175706145, 0.2397990064322778, 0.047299874842983994, 0.0, 0.1399446533085251, -0.13847349782872653, 0.22429032485832157, -0.2823436584243747, -0.6321706469100352, 0.0, -0.2716962773225833, -0.2483908783674105, 0.41080837367132206, -0.78897465719405, 0.0
0.4295930801391737, 0.013762604588003784, -0.04621314907488823, 0.2062606094276391, 0.1985505685877351, 0.0, -0.42358588025595345, -0.14092399769439187, -0.07902820030515732, 0.23554880158177227, 0.05772604174527043, 0.0, 0.13491277831790432, -0.13775602578542162, 0.2302273310896851, -0.2714519800965231, -0.6065669914145193, 0.0, -0.2684723854134449, -0.2508738675371017, 0.39537235364478485, -0.7765953230436515, 0.0
0.4296948049092969, 0.013626064304121027, -0.042274551818375215, 0.19074067746132453, 0.201586788733065, 0.0, -0.42507304389565126, -0.13734815490560115, -0.07557262885325322, 0.23129859673126668, 0.06815220864755685, 0.0, 0.12988090332728358, -0.13703855374211668, 0.2361643373210486, -0.26056030176867157, -0.5809633359190034, 0.0, -0.26524849350430657, -0.2533568567067929, 0.3799363336182476, -0.7642159888932532, 0.0
0.42979652967942017, 0.013489524020238274, -0.038335954561862215, 0.1752207454950099, 0.20462300887839488, 0.0, -0.4265602075353491, -0.13377231211681043, -0.0721170574013491, 0.22704839188076112, 0.07857837554984329, 0.0, 0.12484902833666282, -0.13632108169881174, 0.24210134355241214, -0.24966862344082003, -0.5553596804234875, 0.0, -0.26202460159516827, -0.2558398458764842, 0.36450031359171037, -0.7518366547428545, 0.0
0.42989825444954344, 0.013352983736355519, -0.034397357305349215, 0.1597008135286953, 0.2076592290237248, 0.0, -0.42804737117504693, -0.13019646932801965, -0.06866148594944499, 0.22279818703025558, 0.08900454245212971, 0.0, 0.11981715334604207, -0.1356036096555068, 0.24803834978377565, -0.23877694511296843, -0.5297560249279715, 0.0, -0.2588007096860299, -0.2583228350461754, 0.3490642935651731, -0.7394573205924562, 0.0
0.4299999792196667, 0.013216443452472765, -0.03045876004883621, 0.14418088156238068, 0.21069544916905467, 0.0, -0.4295345348147448, -0.12662062653922893, -0.06520591449754087, 0.21854798217975, 0.09943070935441616, 0.0, 0.11478527835542131, -0.1348861376122019, 0.25397535601513915, -0.22788526678511686, -0.5041523694324556, 0.0, -0.2555768177768916, -0.2608058242158666, 0.3336282735386359, -0.7270779864420577, 0.0
0.4299999792196667, 0.01149616145548039, -0.027701502859169582, 0.13284317980632593, 0.21720791139875173, 0.0, -0.4295578419415759, -0.12537965520409305, -0.06276197288107281, 0.2130574695682902, 0.1109200268153941, 0.0, 0.10888349740621908, -0.12553285636610875, 0.26237797491816106, -0.20682991348942525, -0.4645168741254849, 0.0, -0.2463636400439755, -0.26989119497831765, 0.30892957126027903, -0.7017162126369171, 0.0
0.4299999792196667, 0.009775879458488016, -0.024944245669502957, 0.12150547805027116, 0.22372037362844882, 0.0, -0.4295811490684071, -0.12413868386895718, -0.060318031264604756, 0.20756695695683033, 0.12240934427637207, 0.0, 0.10298171645701688, -0.11617957512001562, 0.27078059382118297, -0.1857745601937336, -0.4248813788185143, 0.0, -0.23715046231105943, -0.27897656574076873, 0.2842308689819221, -0.6763544388317766, 0.0
0.4299999792196667, 0.008055597461495643, -0.02218698847983633, 0.1101677762942164, 0.23023283585814588, 0.0, -0.42960445619523824, -0.12289771253382131, -0.05787408964813669, 0.2020764443453705, 0.13389866173735004, 0.0, 0.09707993550781466, -0.10682629387392249, 0.2791832127242048, -0.16471920689804193, -0.38524588351154365, 0.0, -0.2279372845781433, -0.28806193650321976, 0.25953216670356527, -0.6509926650266361, 0.0
0.4299999792196667, 0.006335315464503269, -0.019429731290169703, 0.09883007453816162, 0.23674529808784292, 0.0, -0.4296277633220693, -0.12165674119868544, -0.05543014803166863, 0.1965859317339107, 0.14538797919832802, 0.0, 0.09117815455861243, -0.09747301262782937, 0.28758583162722673, -0.1436638536023503, -0.345610388204573, 0.0, -0.21872410684522722, -0.2971473072656708, 0.23483346442520836, -0.6256308912214956, 0.0
0.4299999792196667, 0.004615033467510896, -0.016672474100503078, 0.08749237278210686, 0.24325776031754, 0.0, -0.42965107044890044, -0.12041576986354958, -0.05298620641520057, 0.1910954191224509, 0.15687729665930597, 0.0, 0.08527637360941022, -0.08811973138173622, 0.29598845053024864, -0.12260850030665864, -0.30597489289760227, 0.0, -0.20951092911231115, -0.3062326780281218, 0.21013476214685148, -0.600269117416355, 0.0
0.4299999792196667, 0.0016969248490248797, -0.014893533995905544, 0.07820043427416773, 0.24897763362732145, 0.0, -0.42876290031782854, -0.12027621892161373, -0.049823989205839955, 0.1843733812468328, 0.16602482208707905, 0.0, 0.07934874712651276, -0.07672272438489626, 0.30450002684781396, -0.09492415263777276, -0.25223924698851724, 0.0, -0.1976162589325575, -0.31423448206842325, 0.1818578535548308, -0.5618461896072074, 0.0
0.4299999792196667, -0.0012211837694611361, -0.013114593891308007, 0.0689084957662286, 0.25469750693710286, 0.0, -0.4278747301867567, -0.12013666797967787, -0.046661771996479355, 0.17765134337121477, 0.17517234751485208, 0.0, 0.07342112064361532, -0.06532571738805627, 0.31301160316537946, -0.06723980496888689, -0.1985036010794322, 0.0, -0.18572158875280387, -0.3222362861087247, 0.15358094496281013, -0.5234232617980598, 0.0
0.4299999792196667, -0.004139292387947151, -0.011335653786710472, 0.05961655725828947, 0.26041738024688427, 0.0, -0.4269865600556848, -0.119997117037742, -0.04349955478711874, 0.1709293054955967, 0.1843198729426252, 0.0, 0.06749349416071787, -0.053928710391216286, 0.3215231794829448, -0.03955545730000101, -0.1447679551703472, 0.0, -0.17382691857305024, -0.330238090149026, 0.1253040363707894, -0.4850003339889122, 0.0
0.4299999792196667, -0.007057401006433168, -0.009556713682112937, 0.05032461875035032, 0.2661372535566657, 0.0, -0.4260983899246129, -0.11985756609580614, -0.04033733757775813, 0.16420726761997867, 0.19346739837039825, 0.0, 0.061565867677820414, -0.042531703394376306, 0.3300347558005103, -0.011871109631115123, -0.09103230926126216, 0.0, -0.16193224839329656, -0.3382398941893274, 0.09702712777876875, -0.4465774061797646, 0.0
0.4299999792196667, -0.009975509624919183, -0.007777773577515403, 0.041032680242411176, 0.2718571268664471, 0.0, -0.42521021979354107, -0.11971801515387029, -0.03717512036839752, 0.15748522974436063, 0.2026149237981713, 0.0, 0.055638241194922965, -0.03113469639753633, 0.3385463321180756, 0.015813238037770763, -0.037296663352177156, 0.0, -0.15003757821354294, -0.3462416982296288, 0.06875021918674808, -0.40815447837061697, 0.0
0.4299999792196667, -0.012817415632373385, -0.0060489846014027135, 0.03253963174677301, 0.2760559457331154, 0.0, -0.4236269827598379, -0.11887731623312339, -0.032542252079392195, 0.15076143606751508, 0.20805539083865945, 0.0, 0.05047083999162145, -0.02398852089421655, 0.34234020318235475, 0.04081484290594296, 0.02570900845608823, 0.0, -0.14111979047520987, -0.3495810576314206, 0.04357524099013148, -0.35936102056694635, 0.0
0.4299999792196667, -0.015659321639827584, -0.0043201956252900235, 0.024046583251134842, 0.28025476459978377, 0.0, -0.42204374572613484, -0.1180366173123765, -0.02790938379038687, 0.1440376423906695, 0.21349585787914763, 0.0, 0.04530343878831993, -0.016842345390896775, 0.3461340742466339, 0.06581644777411516, 0.08871468026435363, 0.0, -0.13220200273687682, -0.35292041703321236, 0.018400262793514872, -0.3105675627632757, 0.0
0.4299999792196667, -0.018501227647281782, -0.0025914066491773335, 0.01555353475549667, 0.2844535834664521, 0.0, -0.4204605086924317, -0.11719591839162963, -0.02327651550138154, 0.13731384871382396, 0.21893632491963574, 0.0, 0.04013603758501841, -0.009696169887577, 0.349927945310913, 0.09081805264228736, 0.15172035207261902, 0.0, -0.12328421499854375, -0.35625977643500417, -0.006774715403101723, -0.261774104959605, 0.0
0.4299999792196667, -0.021343133654735984, -0.0008626176730646446, 0.007060486259858501, 0.2886524023331205, 0.0, -0.4188772716587285, -0.11635521947088273, -0.01864364721237622, 0.1305900550369784, 0.2243767919601239, 0.0, 0.03496863638171689, -0.0025499943842572227, 0.3537218163751921, 0.11581965751045957, 0.2147260238808844, 0.0, -0.11436642726021072, -0.3595991358367959, -0.03194969359971834, -0.21298064715593437, 0.0
0.4299999792196667, -0.024185039662190183, 0.000866171303048045, -0.001432562235779666, 0.29285122119978885, 0.0, -0.41729403462502546, -0.11551452055013584, -0.0140107789233709, 0.12386626136013285, 0.22981725900061203, 0.0, 0.029801235178415375, 0.004596181119062554, 0.3575156874394712, 0.14082126237863177, 0.27773169568914974, 0.0, -0.10544863952187765, -0.36293849523858773, -0.05712467179633496, -0.1641871893522637, 0.0
0.4299999792196667, -0.023908608132074016, 0.002537607398583384, -0.007173464075240557, 0.29713008784727063, 0.0, -0.41821277245261684, -0.11279535517139398, -0.012244618712968412, 0.11879035764660371, 0.23264241997015675, 0.0, 0.02559263025063109, 0.007528938216147386, 0.3548091774431356, 0.15754286575224924, 0.33566773614815176, 0.0, -0.09957735750322233, -0.36259501793245374, -0.07686689521336214, -0.11165385608444874, 0.0
0.4299999792196667, -0.023632176601957853, 0.004209043494118723, -0.012914365914701449, 0.30140895449475247, 0.0, -0.41913151028020806, -0.11007618979265214, -0.010478458502565926, 0.11371445393307461, 0.23546758093970147, 0.0, 0.021384025322846813, 0.010461695313232221, 0.35210266744679997, 0.1742644691258667, 0.3936037766071539, 0.0, -0.09370607548456701, -0.3622515406263197, -0.0966091186303893, -0.05912052281663374, 0.0
0.4299999792196667, -0.02335574507184168, 0.005880479589654063, -0.018655267754162336, 0.30568782114223425, 0.0, -0.4200502481077994, -0.10735702441391028, -0.008712298292163438, 0.1086385502195455, 0.23829274190924615, 0.0, 0.017175420395062528, 0.01339445241031705, 0.3493961574504643, 0.19098607249948418, 0.4515398170661559, 0.0, -0.08783479346591169, -0.36190806332018577, -0.1163513420474165, -0.006587189548818753, 0.0
0.4299999792196667, -0.023079313541725512, 0.007551915685189401, -0.02439616959362323, 0.3099666877897161, 0.0, -0.42096898593539067, -0.10463785903516842, -0.006946138081760951, 0.10356264650601638, 0.24111790287879087, 0.0, 0.012966815467278245, 0.016327209507401887, 0.34668964745412867, 0.20770767587310163, 0.509475857525158, 0.0, -0.08196351144725637, -0.3615645860140518, -0.13609356546444368, 0.04594614371899624, 0.0
0.4299999792196667, -0.022802882011609342, 0.009223351780724741, -0.030137071433084126, 0.31424555443719787, 0.0, -0.42188772376298206, -0.10191869365642658, -0.0051799778713584625, 0.09848674279248727, 0.2439430638483356, 0.0, 0.008758210539493966, 0.01925996660448672, 0.343983137457793, 0.22442927924671913, 0.56741189798416, 0.0, -0.07609222942860105, -0.36122110870791785, -0.15583578888147084, 0.0984794769868112, 0.0
0.4299999792196667, -0.021991634474792306, 0.010157557484092099, -0.03341846775228547, 0.3179482320480603, 0.0, -0.42315917517910884, -0.09854682016693356, -0.005026947507263355, 0.09401080613224085, 0.24526063384461716, 0.0, 0.005888114113587892, 0.0195927223530257, 0.3407549555293533, 0.2360687630912094, 0.614234704529404, 0.0, -0.07184427954348907, -0.3585931245652879, -0.17156757938436806, 0.14753764050055143, 0.0
0.4299999792196667, -0.02118038693797527, 0.011091763187459453, -0.036699864071486815, 0.32165090965892273, 0.0, -0.42443062659523567, -0.09517494667744054, -0.004873917143168247, 0.08953486947199446, 0.24657820384089868, 0.0, 0.003018017687681818, 0.019925478101564677, 0.3375267736009136, 0.2477082469356997, 0.6610575110746478, 0.0, -0.06759632965837707, -0.35596514042265803, -0.18729936988726523, 0.19659580401429164, 0.0
0.4299999792196667, -0.020369139401158236, 0.01202596889082681, -0.03998126039068815, 0.3253535872697852, 0.0, -0.42570207801136256, -0.0918030731879475, -0.004720886779073139, 0.08505893281174805, 0.24789577383718026, 0.0, 0.00014792126177574536, 0.020258233850103658, 0.33429859167247383, 0.25934773078019, 0.7078803176198918, 0.0, -0.06334837977326509, -0.3533371562800281, -0.20303116039016242, 0.2456539675280319, 0.0
0.4299999792196667, -0.0195578918643412, 0.012960174594194166, -0.0432626567098895, 0.3290562648806476, 0.0, -0.4269735294274894, -0.08843119969845449, -0.004567856414978032, 0.08058299615150166, 0.24921334383346178, 0.0, -0.0027221751641303277, 0.020590989598642636, 0.33107040974403407, 0.27098721462468034, 0.7547031241651355, 0.0, -0.059100429888153096, -0.35070917213739816, -0.21876295089305964, 0.29471213104177213, 0.0
0.4299999792196667, -0.018746644327524164, 0.01389438029756152, -0.04654405302909084, 0.33275894249151006, 0.0, -0.42824498084361623, -0.08505932620896146, -0.004414826050882924, 0.07610705949125525, 0.2505309138297433, 0.0, -0.005592271590036402, 0.020923745347181614, 0.32784222781559436, 0.2826266984691706, 0.8015259307103795, 0.0, -0.0548524800030411, -0.3480811879947682, -0.2344947413959568, 0.3437702945555124, 0.0
0.4299999792196667, -0.018959558439238355, 0.014153247462404149, -0.048310073508433415, 0.3356198966733547, 0.0, -0.428576052349427, -0.08161956150596095, -0.004329824955839126, 0.07180681430576574, 0.2513557285089678, 0.0, -0.006840039027840025, 0.021731799629599202, 0.3254001666168624, 0.2925229806180248, 0.838013993492083, 0.0, -0.05101096075205082, -0.34276306155352787, -0.24725791184611237, 0.3874082242817169, 0.0
0.4299999792196667, -0.019172472550952543, 0.014412114627246779, -0.05007609398777599, 0.3384808508551993, 0.0, -0.4289071238552378, -0.07817979680296044, -0.004244823860795329, 0.06750656912027625, 0.2521805431881923, 0.0, -0.008087806465643646, 0.022539853912016787, 0.32295810541813047, 0.3024192627668789, 0.8745020562737869, 0.0, -0.047169441501060554, -0.33744493511228757, -0.2600210822962679, 0.43104615400792157, 0.0
0.4299999792196667, -0.019385386662666735, 0.014670981792089408, -0.05184211446711855, 0.34134180503704387, 0.0, -0.4292381953610486, -0.07474003209995995, -0.00415982276575153, 0.06320632393478676, 0.2530053578674168, 0.0, -0.00933557390344727, 0.023347908194434375, 0.3205160442193985, 0.31231554491573305, 0.9109901190554907, 0.0, -0.04332792225007027, -0.3321268086710472, -0.2727842527464235, 0.4746840837341262, 0.0
0.4299999792196667, -0.019598300774380923, 0.014929848956932038, -0.053608134946461126, 0.3442027592188885, 0.0, -0.4295692668668595, -0.07130026739695945, -0.004074821670707733, 0.05890607874929726, 0.25383017254664125, 0.0, -0.010583341341250892, 0.02415596247685196, 0.3180739830206666, 0.32221182706458723, 0.9474781818371942, 0.0, -0.03948640299907999, -0.32680868222980686, -0.285547423196579, 0.5183220134603308, 0.0
0.4299999792196667, -0.019811214886095115, 0.015188716121774665, -0.0553741554258037, 0.3470637134007331, 0.0, -0.4299003383726702, -0.06786050269395894, -0.003989820575663935, 0.05460583356380777, 0.25465498722586577, 0.0, -0.011831108779054514, 0.02496401675926955, 0.31563192182193456, 0.33210810921344136, 0.983966244618898, 0.0, -0.03564488374808972, -0.3214905557885665, -0.2983105936467345, 0.5619599431865353, 0.0
0.4299999792196667, -0.01980742507815734, 0.015766263617964054, -0.056581645062701004, 0.3491079512310825, 0.0, -0.42992026654206944, -0.06438409480331281, -0.004042898132612185, 0.050553385687660365, 0.25542415731787815, 0.0, -0.0118164829199228, 0.025846798011742975, 0.3120058816185272, 0.3395712173801147, 1.010398903583843, 0.0, -0.03254695713798972, -0.3138526040280869, -0.310027442700978, 0.5986718339728319, 0.0
0.4299999792196667, -0.01980363527021955, 0.016343811114153443, -0.05778913469959831, 0.35115218906143186, 0.0, -0.4299401947114688, -0.06090768691266669, -0.004095975689560435, 0.046500937811512974, 0.25619332740989054, 0.0, -0.011801857060791088, 0.0267295792642164, 0.3083798414151198, 0.3470343255467881, 1.0368315625487885, 0.0, -0.029449030527889726, -0.3062146522676073, -0.32174429175522146, 0.6353837247591283, 0.0
0.4299999792196667, -0.019799845462281772, 0.016921358610342833, -0.05899662433649562, 0.3531964268917813, 0.0, -0.4299601228808681, -0.057431279022020554, -0.004149053246508685, 0.042448489935365576, 0.256962497501903, 0.0, -0.011787231201659377, 0.027612360516689825, 0.3047538012117125, 0.3544974337134614, 1.0632642215137336, 0.0, -0.026351103917789723, -0.2985767005071276, -0.33346114080946493, 0.6720956155454247, 0.0
0.4299999792196667, -0.01979605565434399, 0.017498906106532226, -0.06020411397339293, 0.3552406647221306, 0.0, -0.4299800510502674, -0.053954871131374434, -0.004202130803456935, 0.03839604205921818, 0.25773166759391536, 0.0, -0.011772605342527664, 0.028495141769163245, 0.30112776100830513, 0.36196054188013477, 1.0896968804786789, 0.0, -0.023253177307689728, -0.290938748746648, -0.3451779898637084, 0.7088075063317211, 0.0
0.4299999792196667, -0.01979226584640621, 0.01807645360272161, -0.06141160361029024, 0.35728490255248, 0.0, -0.4299999792196667, -0.05047846324072831, -0.004255208360405185, 0.03434359418307078, 0.2585008376859278, 0.0, -0.011757979483395952, 0.02937792302163667, 0.2975017208048978, 0.3694236500468081, 1.116129539443624, 0.0, -0.020155250697589732, -0.2833007969861684, -0.3568948389179519, 0.7455193971180176, 0.0
0.4299999792196667, -0.01962030553652422, 0.018724696114048638, -0.06264976391813284, 0.35881599962010907, 0.0, -0.4299999792196667, -0.04744469249047067, -0.004358926889946145, 0.03041934841993107, 0.2595933649284572, 0.0, -0.01099351284427816, 0.02854588651903328, 0.2937749890662844, 0.37509874867995885, 1.1327516293792803, 0.0, -0.018123378978776333, -0.2755969415931334, -0.3699110402217446, 0.7741852746740595, 0.0
0.4299999792196667, -0.019448345226642225, 0.019372938625375664, -0.06388792422597545, 0.3603470966877381, 0.0, -0.4299999792196667, -0.04441092174021303, -0.004462645419487105, 0.026495102656791367, 0.26068589217098653, 0.0, -0.01022904620516037, 0.02771385001642989, 0.290048257327671, 0.3807738473131096, 1.149373719314937, 0.0, -0.016091507259962938, -0.2678930862000985, -0.3829272415255372, 0.8028511522301016, 0.0
0.4299999792196667, -0.019276384916760234, 0.020021181136702683, -0.06512608453381806, 0.3618781937553671, 0.0, -0.4299999792196667, -0.04137715098995539, -0.004566363949028067, 0.022570856893651667, 0.261778419413516, 0.0, -0.009464579566042582, 0.026881813513826503, 0.28632152558905755, 0.3864489459462603, 1.1659958092505935, 0.0, -0.014059635541149541, -0.2601892308070636, -0.39594344282932986, 0.8315170297861437, 0.0
0.4299999792196667, -0.019104424606878237, 0.02066942364802971, -0.06636424484166066, 0.36340929082299617, 0.0, -0.4299999792196667, -0.03834338023969775, -0.004670082478569027, 0.018646611130511963, 0.2628709466560454, 0.0, -0.00870011292692479, 0.02604977701122311, 0.28259479385044417, 0.39212404457941114, 1.18261789918625, 0.0, -0.012027763822336146, -0.2524853754140286, -0.4089596441331225, 0.8601829073421858, 0.0
0.4299999792196667, -0.018932464296996247, 0.021317666159356735, -0.06760240514950328, 0.36494038789062516, 0.0, -0.4299999792196667, -0.03530960948944011, -0.004773801008109988, 0.014722365367372257, 0.2639634738985748, 0.0, -0.007935646287806998, 0.025217740508619718, 0.27886806211183074, 0.39779914321256177, 1.1992399891219063, 0.0, -0.009995892103522747, -0.24478152002099365, -0.42197584543691524, 0.8888487848982278, 0.0
0.4299999792196667, -0.019669925247158417, 0.021740244928783754, -0.0686122160027929, 0.3662883196345744, 0.0, -0.4299999792196667, -0.03321570796615938, -0.004233286885373795, 0.011019140700509083, 0.26606085002333035, 0.0, -0.007181022886791435, 0.022811584083633443, 0.2762618247716807, 0.4018717468490429, 1.2075699569494847, 0.0, -0.009790566927742324, -0.2389039771572456, -0.43425671858289167, 0.9081873436789318, 0.0
0.4299999792196667, -0.02040738619732059, 0.02216282369821077, -0.06962202685608251, 0.36763625137852374, 0.0, -0.4299999792196667, -0.03112180644287865, -0.003692772762637603, 0.007315916033645913, 0.268158226148086, 0.0, -0.006426399485775873, 0.020405427658647172, 0.2736555874315307, 0.4059443504855241, 1.2158999247770632, 0.0, -0.0095852417519619, -0.23302643429349754, -0.44653759172886814, 0.9275259024596358, 0.0
0.4299999792196667, -0.02114484714748276, 0.022585402467637784, -0.07063183770937213, 0.3689841831224729, 0.0, -0.4299999792196667, -0.02902790491959792, -0.0031522586399014107, 0.003612691366782743, 0.27025560227284157, 0.0, -0.005671776084760309, 0.017999271233660897, 0.27104935009138054, 0.4100169541220052, 1.2242298926046418, 0.0, -0.009379916576181478, -0.22714889142974945, -0.4588184648748446, 0.94686446124034, 0.0
0.4299999792196667, -0.021882308097644933, 0.023007981237064802, -0.07164164856266177, 0.3703321148664222, 0.0, -0.4299999792196667, -0.026934003396317185, -0.002611744517165218, -9.053330008042868e-05, 0.27235297839759715, 0.0, -0.004917152683744746, 0.015593114808674622, 0.2684431127512305, 0.4140895577584863, 1.23255986043222, 0.0, -0.009174591400401055, -0.2212713485660014, -0.471099338020821, 0.966203020021044, 0.0
0.4299999792196667, -0.022619769047807103, 0.023430560006491817, -0.0726514594159514, 0.3716800466103714, 0.0, -0.4299999792196667, -0.024840101873036455, -0.002071230394429026, -0.0037937579669436007, 0.2744503545223528, 0.0, -0.004162529282729184, 0.013186958383688347, 0.2658368754110805, 0.4181621613949675, 1.2408898282597984, 0.0, -0.008969266224620631, -0.2153938057022533, -0.4833802111667974, 0.985541578801748, 0.0
0.4299999792196667, -0.024021162321140026, 0.02371369639346245, -0.07317573747369456, 0.3730094499389815, 0.0, -0.4299999792196667, -0.02369844151766832, -0.0010602117732970188, -0.006798402243764937, 0.2771272881691841, 0.0, -0.0038495089843334704, 0.010532175813442152, 0.2634404057030691, 0.41995589909909503, 1.2436771539818186, 0.0, -0.01057558628487892, -0.21135572118771812, -0.49169588474780196, 0.9960877098629728, 0.0
0.4299999792196667, -0.025422555594472953, 0.023996832780433082, -0.07370001553143775, 0.37433885326759153, 0.0, -0.4299999792196667, -0.022556781162300185, -4.919315216501158e-05, -0.009803046520586275, 0.27980422181601544, 0.0, -0.003536488685937757, 0.007877393243195956, 0.2610439359950577, 0.42174963680322275, 1.2464644797038382, 0.0, -0.012181906345137208, -0.20731763667318295, -0.5000115583288065, 1.0066338409241975, 0.0
0.4299999792196667, -0.02682394886780588, 0.02427996916740371, -0.07422429358918091, 0.3756682565962016, 0.0, -0.4299999792196667, -0.021415120806932045, 0.0009618254689669953, -0.012807690797407612, 0.2824811554628468, 0.0, -0.003223468387542045, 0.00522261067294976, 0.2586474662870463, 0.4235433745073504, 1.2492518054258586, 0.0, -0.013788226405395496, -0.20327955215864774, -0.5083272319098111, 1.017179971985422, 0.0
0.4299999792196667, -0.028225342141138806, 0.02456310555437434, -0.0747485716469241, 0.37699765992481166, 0.0, -0.4299999792196667, -0.020273460451563904, 0.001972844090099003, -0.01581233507422895, 0.28515808910967816, 0.0, -0.0029104480891463318, 0.002567828102703565, 0.25625099657903494, 0.4253371122114781, 1.2520391311478782, 0.0, -0.015394546465653787, -0.19924146764411257, -0.5166429054908156, 1.0277261030466467, 0.0
