isaac-sim2real/sage/motion_files/h1_2/amass/0-stir_left07_poses_action_sequence.txt
left_hip_yaw_joint, left_hip_pitch_joint, left_hip_roll_joint, left_knee_joint, left_ankle_pitch_joint, left_ankle_roll_joint, right_hip_yaw_joint, right_hip_pitch_joint, right_hip_roll_joint, right_knee_joint, right_ankle_pitch_joint, right_ankle_roll_joint, torso_joint, left_shoulder_pitch_joint, left_shoulder_roll_joint, left_shoulder_yaw_joint, left_elbow_joint, left_wrist_roll_joint, right_shoulder_pitch_joint, right_shoulder_roll_joint, right_shoulder_yaw_joint, right_elbow_joint, right_wrist_roll_joint
0.4299999792196667, 0.01689126054701853, 0.011776151851567716, -0.0951270817208363, 0.32507406580876125, 0.0, -0.26556970040918515, 0.06483453112199676, -0.04707697535355329, -0.13306271534815634, 0.21182333329157094, 0.0, -0.03346286439060015, 0.0761208772629433, 0.1573221985389318, -0.007541244811955879, 1.124943940858386, 0.0, 0.023725798157429926, -0.13659945752571465, -0.2944929826139698, 0.9709649728615269, 0.0
0.4299999792196667, 0.016766273993718127, 0.011798636439628968, -0.09514442715200847, 0.32535798899015866, 0.0, -0.2656371189875312, 0.06474831883826525, -0.04707310595860162, -0.13301147248131778, 0.21210323872503029, 0.0, -0.033422678882704684, 0.07594810083710307, 0.1565955621207905, -0.008351139858228959, 1.1242890933230376, 0.0, 0.023923506611634896, -0.1361346190991091, -0.29341570954910284, 0.9709410304348479, 0.0
0.4299999792196667, 0.016641287440417724, 0.01182112102769022, -0.09516177258318063, 0.32564191217155614, 0.0, -0.2657045375658772, 0.06466210655453374, -0.047069236563649954, -0.1329602296144792, 0.21238314415848963, 0.0, -0.03338249337480921, 0.07577532441126285, 0.15586892570264924, -0.00916103490450204, 1.1236342457876891, 0.0, 0.02412121506583986, -0.13566978067250354, -0.29233843648423585, 0.9709170880081691, 0.0
0.4299999792196667, 0.01651630088711732, 0.011843605615751472, -0.0951791180143528, 0.3259258353529536, 0.0, -0.2657719561442232, 0.06457589427080222, -0.04706536716869828, -0.13290898674764068, 0.21266304959194898, 0.0, -0.033342307866913744, 0.07560254798542261, 0.1551422892845079, -0.009970929950775118, 1.1229793982523413, 0.0, 0.02431892352004482, -0.13520494224589796, -0.2912611634193689, 0.9708931455814902, 0.0
0.4299999792196667, 0.01639131433381692, 0.011866090203812726, -0.09519646344552499, 0.326209758534351, 0.0, -0.26583937472256924, 0.06448968198707071, -0.04706149777374661, -0.1328577438808021, 0.21294295502540833, 0.0, -0.03330212235901827, 0.0754297715595824, 0.15441565286636663, -0.010780824997048199, 1.1223245507169928, 0.0, 0.02451663197424979, -0.1347401038192924, -0.290183890354502, 0.9708692031548113, 0.0
0.4299999792196667, 0.016266327780516513, 0.011888574791873979, -0.09521380887669716, 0.3264936817157485, 0.0, -0.2659067933009153, 0.0644034697033392, -0.04705762837879493, -0.13280650101396357, 0.21322286045886762, 0.0, -0.03326193685112281, 0.07525699513374216, 0.15368901644822533, -0.01159072004332128, 1.1216697031816447, 0.0, 0.024714340428454752, -0.13427526539268686, -0.28910661728963505, 0.9708452607281324, 0.0
0.4299999792196667, 0.015975554426151103, 0.011693759535063462, -0.09534448377218906, 0.32698597626588294, 0.0, -0.2659256987073729, 0.06411139827779591, -0.047108525321375744, -0.1328431644474285, 0.2135646482862857, 0.0, -0.0332642979325349, 0.07504663897657969, 0.15315143758531855, -0.012480917618665448, 1.1208589488748744, 0.0, 0.025031617899055343, -0.1342379258186697, -0.2882547779322726, 0.9710347685783141, 0.0
0.4299999792196667, 0.01568478107178569, 0.011498944278252942, -0.09547515866768097, 0.32747827081601755, 0.0, -0.26594460411383053, 0.06381932685225261, -0.047159422263956544, -0.13287982788089345, 0.21390643611370375, 0.0, -0.033266659013947, 0.07483628281941723, 0.1526138587224118, -0.013371115194009617, 1.1200481945681038, 0.0, 0.025348895369655934, -0.13420058624465253, -0.2874029385749102, 0.9712242764284955, 0.0
0.4299999792196667, 0.015394007717420279, 0.011304129021442422, -0.0956058335631729, 0.32797056536615204, 0.0, -0.26596350952028813, 0.06352725542670931, -0.04721031920653736, -0.1329164913143584, 0.21424822394112183, 0.0, -0.0332690200953591, 0.07462592666225476, 0.152076279859505, -0.014261312769353784, 1.1192374402613332, 0.0, 0.02566617284025653, -0.13416324667063537, -0.2865510992175479, 0.9714137842786771, 0.0
0.4299999792196667, 0.01510323436305487, 0.011109313764631902, -0.09573650845866481, 0.3284628599162866, 0.0, -0.2659824149267457, 0.06323518400116603, -0.047261216149118164, -0.13295315474782335, 0.21459001176853987, 0.0, -0.0332713811767712, 0.07441557050509229, 0.15153870099659822, -0.015151510344697956, 1.1184266859545628, 0.0, 0.025983450310857123, -0.1341259070966182, -0.2856992598601855, 0.9716032921288587, 0.0
0.4299999792196667, 0.014812461008689456, 0.010914498507821384, -0.09586718335415671, 0.3289551544664211, 0.0, -0.26600132033320334, 0.06294311257562274, -0.04731211309169898, -0.13298981818128827, 0.2149317995959579, 0.0, -0.03327374225818329, 0.07420521434792983, 0.15100112213369143, -0.016041707920042125, 1.1176159316477925, 0.0, 0.026300727781457717, -0.13408856752260104, -0.28484742050282313, 0.9717927999790401, 0.0
0.4299999792196667, 0.014411692781166573, 0.010660100363248243, -0.09600920079539152, 0.3294368583586545, 0.0, -0.2659794531030051, 0.06255438935396006, -0.04734913012887037, -0.13306599028396476, 0.2151938991803884, 0.0, -0.033381089082893056, 0.07433285167239156, 0.1506035047141606, -0.017012216541664134, 1.1171786708196318, 0.0, 0.026537401758411003, -0.13430302310911058, -0.2845220492423493, 0.9719285412162849, 0.0
0.4299999792196667, 0.014010924553643687, 0.0104057022186751, -0.09615121823662627, 0.32991856225088795, 0.0, -0.2659575858728068, 0.06216566613229738, -0.04738614716604177, -0.13314216238664123, 0.21545599876481888, 0.0, -0.03348843590760282, 0.07446048899685333, 0.15020588729462975, -0.01798272516328614, 1.1167414099914712, 0.0, 0.02677407573536429, -0.13451747869562014, -0.2841966779818756, 0.9720642824535294, 0.0
0.4299999792196667, 0.013610156326120802, 0.010151304074101957, -0.09629323567786108, 0.33040026614312135, 0.0, -0.2659357186426086, 0.0617769429106347, -0.047423164203213165, -0.13321833448931775, 0.21571809834924938, 0.0, -0.033595782732312576, 0.07458812632131506, 0.1498082698750989, -0.01895323378490815, 1.1163041491633106, 0.0, 0.027010749712317584, -0.13473193428212968, -0.28387130672140176, 0.972200023690774, 0.0
0.4299999792196667, 0.013209388098597917, 0.009896905929528814, -0.09643525311909583, 0.3308819700353548, 0.0, -0.2659138514124104, 0.06138821968897202, -0.047460181240384564, -0.1332945065919942, 0.21598019793367987, 0.0, -0.033703129557022336, 0.07471576364577681, 0.14941065245556806, -0.019923742406530155, 1.11586688833515, 0.0, 0.027247423689270873, -0.13494638986863924, -0.283545935460928, 0.9723357649280185, 0.0
0.4299999792196667, 0.012808619871075035, 0.009642507784955671, -0.09657727056033064, 0.3313636739275882, 0.0, -0.26589198418221216, 0.06099949646730934, -0.04749719827755596, -0.13337067869467073, 0.21624229751811036, 0.0, -0.0338104763817321, 0.07484340097023856, 0.14901303503603722, -0.020894251028152164, 1.1154296275069893, 0.0, 0.027484097666224158, -0.13516084545514878, -0.2832205642004542, 0.9724715061652632, 0.0
0.4299999792196667, 0.012483817029432033, 0.009505320018827012, -0.0966191675380906, 0.33158452789113557, 0.0, -0.26594020239345695, 0.06070338844427203, -0.047428058804567456, -0.13336308127643678, 0.21629844126948852, 0.0, -0.03394036064307286, 0.0755153736762074, 0.14853192804640797, -0.022093257317687225, 1.1153906857207188, 0.0, 0.027644707052782883, -0.13516961852716686, -0.2829400513924152, 0.9723522373454989, 0.0
0.4299999792196667, 0.012159014187789032, 0.009368132252698353, -0.09666106451585059, 0.33180538185468295, 0.0, -0.26598842060470185, 0.06040728042123473, -0.04735891933157895, -0.13335548385820287, 0.21635458502086666, 0.0, -0.034070244904413634, 0.07618734638217624, 0.14805082105677872, -0.023292263607222294, 1.1153517439344482, 0.0, 0.02780531643934161, -0.13517839159918493, -0.28265953858437615, 0.9722329685257347, 0.0
0.4299999792196667, 0.011834211346146028, 0.009230944486569692, -0.09670296149361056, 0.3320262358182303, 0.0, -0.2660366388159467, 0.06011117239819743, -0.04728977985859045, -0.13334788643996892, 0.21641072877224482, 0.0, -0.0342001291657544, 0.07685931908814508, 0.1475697140671495, -0.02449126989675736, 1.115312802148178, 0.0, 0.027965925825900326, -0.13518716467120304, -0.2823790257763371, 0.9721136997059704, 0.0
0.4299999792196667, 0.011509408504503025, 0.009093756720441033, -0.09674485847137052, 0.33224708978177764, 0.0, -0.2660848570271916, 0.059815064375160126, -0.047220640385601954, -0.133340289021735, 0.21646687252362298, 0.0, -0.034330013427095164, 0.07753129179411393, 0.14708860707752025, -0.02569027618629242, 1.1152738603619072, 0.0, 0.02812653521245905, -0.13519593774322108, -0.2820985129682981, 0.9719944308862062, 0.0
0.4299999792196667, 0.011184605662860024, 0.008956568954312374, -0.0967867554491305, 0.332467943745325, 0.0, -0.2661330752384364, 0.05951895635212282, -0.047151500912613456, -0.13333269160350106, 0.21652301627500112, 0.0, -0.03445989768843593, 0.07820326450008276, 0.146607500087891, -0.02688928247582749, 1.1152349185756367, 0.0, 0.028287144599017773, -0.13520471081523916, -0.28181800016025904, 0.9718751620664419, 0.0
0.4299999792196667, 0.01126748471678608, 0.009135765050207285, -0.09650458946522399, 0.3324636851419501, 0.0, -0.26630981076915183, 0.05940621262030004, -0.04697852342484339, -0.13316435983313396, 0.21635458153020817, 0.0, -0.03479507071798892, 0.07910245464005175, 0.1461342924584563, -0.028129374165020347, 1.1152003924723737, 0.0, 0.028783269448728728, -0.13495940723233232, -0.2816302306580125, 0.9718887058214373, 0.0
0.4299999792196667, 0.011350363770712132, 0.009314961146102195, -0.09622242348131746, 0.33245942653857524, 0.0, -0.2664865462998673, 0.059293468888477266, -0.04680554593707333, -0.13299602806276686, 0.2161861467854152, 0.0, -0.03513024374754191, 0.08000164478002071, 0.14566108482902154, -0.029369465854213208, 1.1151658663691109, 0.0, 0.029279394298439686, -0.13471410364942546, -0.28144246115576593, 0.9719022495764329, 0.0
0.4299999792196667, 0.011433242824638186, 0.009494157241997108, -0.09594025749741092, 0.3324551679352004, 0.0, -0.2666632818305827, 0.059180725156654485, -0.046632568449303274, -0.1328276962923998, 0.21601771204062226, 0.0, -0.0354654167770949, 0.0809008349199897, 0.14518787719958684, -0.03060955754340607, 1.1151313402658478, 0.0, 0.029775519148150638, -0.1344688000665186, -0.28125469165351935, 0.9719157933314283, 0.0
0.4299999792196667, 0.01151612187856424, 0.009673353337892017, -0.09565809151350442, 0.33245090933182553, 0.0, -0.26684001736129814, 0.05906798142483171, -0.046459590961533216, -0.13265936452203267, 0.21584927729582928, 0.0, -0.035800589806647895, 0.08180002505995865, 0.1447146695701521, -0.031849649232598934, 1.115096814162585, 0.0, 0.030271643997861596, -0.13422349648361176, -0.2810669221512728, 0.9719293370864237, 0.0
0.4299999792196667, 0.011599000932490292, 0.009852549433786929, -0.0953759255295979, 0.3324466507284507, 0.0, -0.2670167528920136, 0.05895523769300893, -0.046286613473763165, -0.1324910327516656, 0.2156808425510363, 0.0, -0.03613576283620088, 0.08269921519992764, 0.1442414619407174, -0.033089740921791795, 1.115062288059322, 0.0, 0.030767768847572555, -0.1339781929007049, -0.28087915264902624, 0.9719428808414193, 0.0
0.4299999792196667, 0.011609974166563432, 0.010029439111981916, -0.09517270043869323, 0.3324394494999569, 0.0, -0.2674134348150654, 0.05914964607866423, -0.04601144905268395, -0.13196174943869354, 0.2151579244538463, 0.0, -0.03606437433193826, 0.08368758817401502, 0.14399617685830063, -0.03395563506655462, 1.114847427556426, 0.0, 0.03107571125013593, -0.13381532366183072, -0.28062140940640873, 0.972074321587387, 0.0
0.4299999792196667, 0.01162094740063657, 0.0102063287901769, -0.09496947534778855, 0.3324322482714632, 0.0, -0.26781011673811717, 0.05934405446431952, -0.04573628463160473, -0.1314324661257215, 0.21463500635665625, 0.0, -0.03599298582767564, 0.0846759611481024, 0.14375089177588382, -0.034821529211317453, 1.11463256705353, 0.0, 0.0313836536526993, -0.1336524544229565, -0.28036366616379127, 0.9722057623333547, 0.0
0.4299999792196667, 0.011631920634709707, 0.010383218468371888, -0.09476625025688389, 0.3324250470429695, 0.0, -0.268206798661169, 0.05953846284997482, -0.0454611202105255, -0.13090318281274943, 0.21411208825946623, 0.0, -0.03592159732341301, 0.08566433412218978, 0.14350560669346707, -0.03568742335608028, 1.114417706550634, 0.0, 0.03169159605526268, -0.1334895851840823, -0.2801059229211737, 0.9723372030793223, 0.0
0.4299999792196667, 0.011642893868782846, 0.010560108146566875, -0.09456302516597923, 0.3324178458144758, 0.0, -0.26860348058422073, 0.05973287123563011, -0.045185955789446286, -0.1303738994997774, 0.2135891701622762, 0.0, -0.03585020881915039, 0.08665270709627716, 0.1432603216110503, -0.036553317500843105, 1.114202846047738, 0.0, 0.031999538457826056, -0.1333267159452081, -0.2798481796785562, 0.97246864382529, 0.0
0.4299999792196667, 0.011653867102855986, 0.01073699782476186, -0.09435980007507455, 0.332410644585982, 0.0, -0.26900016250727254, 0.05992727962128541, -0.044910791368367065, -0.12984461618680537, 0.2130662520650862, 0.0, -0.035778820314887765, 0.08764108007036453, 0.1430150365286335, -0.03741921164560594, 1.113987985544842, 0.0, 0.03230748086038943, -0.13316384670633388, -0.27959043643593867, 0.9726000845712577, 0.0
0.4299999792196667, 0.011434554125411793, 0.010932462832746312, -0.09408743865277402, 0.3324140340153894, 0.0, -0.26939973120490707, 0.05988589891191817, -0.04455607134932344, -0.12937006430478076, 0.21298194917155636, 0.0, -0.035771049759992034, 0.08827676947557951, 0.14311258298052748, -0.038194152145191285, 1.1133661247323563, 0.0, 0.03230453195208526, -0.13321747578732576, -0.2792285075089526, 0.972808354710898, 0.0
0.4299999792196667, 0.0112152411479676, 0.011127927840730764, -0.0938150772304735, 0.33241742344479674, 0.0, -0.26979929990254164, 0.059844518202550934, -0.04420135133027981, -0.12889551242275615, 0.21289764627802654, 0.0, -0.0357632792050963, 0.08891245888079449, 0.14321012943242145, -0.038969092644776625, 1.1127442639198708, 0.0, 0.03230158304378109, -0.13327110486831767, -0.27886657858196656, 0.9730166248505385, 0.0
0.4299999792196667, 0.01099592817052341, 0.011323392848715213, -0.09354271580817299, 0.33242081287420416, 0.0, -0.2701988686001763, 0.0598031374931837, -0.04384663131123619, -0.12842096054073154, 0.2128133433844967, 0.0, -0.03575550865020058, 0.08954814828600949, 0.1433076758843154, -0.039744033144361986, 1.1121224031073853, 0.0, 0.03229863413547692, -0.13332473394930952, -0.27850464965498045, 0.9732248949901791, 0.0
0.4299999792196667, 0.010776615193079219, 0.011518857856699665, -0.09327035438587246, 0.3324242023036115, 0.0, -0.2705984372978108, 0.05976175678381646, -0.043491911292192556, -0.12794640865870696, 0.2127290404909669, 0.0, -0.03574773809530485, 0.09018383769122447, 0.14340522233620936, -0.040518973643947326, 1.1115005422948996, 0.0, 0.03229568522717275, -0.1333783630303014, -0.2781427207279944, 0.9734331651298196, 0.0
0.4299999792196667, 0.010557302215635027, 0.011714322864684117, -0.09299799296357196, 0.3324275917330189, 0.0, -0.2709980059954454, 0.05972037607444923, -0.04313719127314893, -0.12747185677668235, 0.21264473759743702, 0.0, -0.03573996754040912, 0.09081952709643944, 0.14350276878810334, -0.04129391414353268, 1.1108786814824139, 0.0, 0.03229273631886858, -0.13343199211129328, -0.27778079180100834, 0.97364143526946, 0.0
0.4299999792196667, 0.009765909544388678, 0.011729070547797617, -0.09296219451528429, 0.33201328198452196, 0.0, -0.2713865459575366, 0.05927732529102802, -0.04278580657830587, -0.1271536993110729, 0.21379906694877954, 0.0, -0.03573562585936186, 0.09152054696808337, 0.1438197275615825, -0.042663205226867826, 1.1095709062738945, 0.0, 0.03162909441848536, -0.13345874102740934, -0.2768685186729664, 0.9735358428497144, 0.0
0.4299999792196667, 0.008974516873142331, 0.01174381823091112, -0.09292639606699662, 0.3315989722360251, 0.0, -0.2717750859196278, 0.05883427450760681, -0.0424344218834628, -0.12683554184546345, 0.21495339630012206, 0.0, -0.035731284178314594, 0.0922215668397273, 0.14413668633506171, -0.044032496310202965, 1.1082631310653752, 0.0, 0.03096545251810214, -0.1334854899435254, -0.2759562455449245, 0.9734302504299687, 0.0
0.4299999792196667, 0.008183124201895984, 0.011758565914024622, -0.092890597618709, 0.3311846624875282, 0.0, -0.27216362588171905, 0.05839122372418559, -0.042083037188619735, -0.126517384379854, 0.21610772565146455, 0.0, -0.035726942497267336, 0.09292258671137124, 0.14445364510854086, -0.04540178739353811, 1.106955355856856, 0.0, 0.03030181061771892, -0.13351223885964147, -0.27504397241688255, 0.973324658010223, 0.0
0.4299999792196667, 0.007391731530649636, 0.011773313597138122, -0.09285479917042133, 0.33077035273903127, 0.0, -0.27255216584381026, 0.05794817294076439, -0.04173165249377667, -0.12619922691424457, 0.2172620550028071, 0.0, -0.03572260081622007, 0.09362360658301518, 0.14477060388202007, -0.04677107847687324, 1.1056475806483366, 0.0, 0.029638168717335697, -0.13353898777575754, -0.2741316992888407, 0.9732190655904774, 0.0
0.4299999792196667, 0.006600338859403287, 0.011788061280251625, -0.09281900072213367, 0.33035604299053434, 0.0, -0.2729407058059015, 0.05750512215734318, -0.041380267798933605, -0.12588106944863509, 0.2184163843541496, 0.0, -0.03571825913517281, 0.09432462645465911, 0.14508756265549924, -0.048140369560208396, 1.1043398054398172, 0.0, 0.02897452681695248, -0.1335657366918736, -0.27321942616079875, 0.9731134731707317, 0.0
0.4299999792196667, 0.005594976920190163, 0.0116295150124951, -0.09266298678749545, 0.3292038569035132, 0.0, -0.27321649400765535, 0.05680902830298008, -0.040889597452200985, -0.1255468423875367, 0.22050259735300948, 0.0, -0.036125519498820924, 0.09567578356706605, 0.14554731030574256, -0.050957159930660544, 1.1014801532735947, 0.0, 0.02808996777210297, -0.13344661308350309, -0.27175449801577134, 0.9728542533795671, 0.0
0.4299999792196667, 0.004589614980977041, 0.011470968744738573, -0.09250697285285722, 0.3280516708164922, 0.0, -0.2734922822094093, 0.05611293444861698, -0.04039892710546836, -0.1252126153264383, 0.22258881035186928, 0.0, -0.03653277986246904, 0.09702694067947296, 0.14600705795598592, -0.0537739503011127, 1.098620501107372, 0.0, 0.027205408727253463, -0.13332748947513257, -0.2702895698707439, 0.9725950335884024, 0.0
0.4299999792196667, 0.0035842530417639165, 0.011312422476982047, -0.09235095891821901, 0.3268994847294711, 0.0, -0.27376807041116313, 0.05541684059425387, -0.03990825675873574, -0.12487838826533985, 0.22467502335072914, 0.0, -0.03694004022611715, 0.09837809779187986, 0.1464668056062292, -0.056590740671564846, 1.0957608489411494, 0.0, 0.026320849682403953, -0.13320836586676205, -0.26882464172571646, 0.9723358137972377, 0.0
0.4299999792196667, 0.002578891102550793, 0.011153876209225522, -0.0921949449835808, 0.3257472986424501, 0.0, -0.2740438586129171, 0.054720746739890774, -0.03941758641200312, -0.12454416120424146, 0.226761236349589, 0.0, -0.037347300589765264, 0.09972925490428679, 0.14692655325647258, -0.059407531042017, 1.0929011967749267, 0.0, 0.02543629063755445, -0.13308924225839153, -0.267359713580689, 0.9720765940060729, 0.0
0.4299999792196667, 0.0015735291633376693, 0.010995329941468996, -0.09203893104894258, 0.32459511255542906, 0.0, -0.2743196468146709, 0.05402465288552767, -0.03892691606527049, -0.12420993414314305, 0.22884744934844883, 0.0, -0.03775456095341338, 0.10108041201669372, 0.14738630090671592, -0.06222432141246916, 1.0900415446087042, 0.0, 0.024551731592704944, -0.132970118650021, -0.2658947854356616, 0.9718173742149083, 0.0
0.4299999792196667, 0.0006503369762425885, 0.010782210579034772, -0.09159223043298957, 0.3226493112948921, 0.0, -0.27455829615527166, 0.05342487816752852, -0.03819130795664223, -0.12355679877579097, 0.2301385758612334, 0.0, -0.03841029022909976, 0.10382539605106032, 0.14846191590879346, -0.0672640235066534, 1.0839973297827075, 0.0, 0.02366387527183257, -0.13276674730052504, -0.2638670968172796, 0.9717562562751619, 0.0
0.4299999792196667, -0.00027285521085249244, 0.010569091216600547, -0.09114552981703662, 0.32070351003435527, 0.0, -0.2747969454958723, 0.052825103449529384, -0.03745569984801398, -0.1229036634084389, 0.231429702374018, 0.0, -0.039066019504786144, 0.10657038008542692, 0.14953753091087105, -0.07230372560083766, 1.077953114956711, 0.0, 0.0227760189509602, -0.13256337595102904, -0.26183940819889767, 0.9716951383354155, 0.0
0.4299999792196667, -0.0011960473979475733, 0.010355971854166323, -0.09069882920108362, 0.3187577087738183, 0.0, -0.27503559483647305, 0.05222532873153024, -0.03672009173938572, -0.12225052804108684, 0.23272082888680257, 0.0, -0.039721748780472514, 0.10931536411979352, 0.15061314591294864, -0.07734342769502191, 1.0719089001307145, 0.0, 0.02188816263008782, -0.13236000460153305, -0.2598117195805157, 0.9716340203956692, 0.0
0.4299999792196667, -0.0021192395850426543, 0.0101428524917321, -0.09025212858513064, 0.3168119075132815, 0.0, -0.2752742441770737, 0.051625554013531104, -0.03598448363075747, -0.12159739267373477, 0.23401195539958716, 0.0, -0.04037747805615889, 0.11206034815416012, 0.15168876091502617, -0.08238312978920614, 1.065864685304718, 0.0, 0.02100030630921545, -0.13215663325203705, -0.2577840309621337, 0.971572902455923, 0.0
0.4299999792196667, -0.0030424317721377348, 0.009929733129297874, -0.08980542796917766, 0.3148661062527445, 0.0, -0.2755128935176744, 0.05102577929553195, -0.035248875522129214, -0.12094425730638271, 0.23530308191237176, 0.0, -0.041033207331845276, 0.11480533218852673, 0.15276437591710376, -0.08742283188339041, 1.0598204704787215, 0.0, 0.02011244998834308, -0.13195326190254109, -0.2557563423437518, 0.9715117845161766, 0.0
0.4299999792196667, -0.004022219820700406, 0.010111369195487073, -0.08941654662068475, 0.313182819965, 0.0, -0.27552958235598196, 0.050187942365692476, -0.03421005799480314, -0.1203993253713373, 0.23571009618459532, 0.0, -0.04182967158083207, 0.11847250456641584, 0.15616008501912543, -0.09502365350936312, 1.0475983067181236, 0.0, 0.019447529320123502, -0.13176146068972244, -0.2531050580556077, 0.9717245226987022, 0.0
0.4299999792196667, -0.0050020078692630775, 0.010293005261676274, -0.08902766527219184, 0.31149953367725564, 0.0, -0.27554627119428954, 0.04935010543585301, -0.03317124046747707, -0.11985439343629185, 0.2361171104568189, 0.0, -0.042626135829818855, 0.12213967694430493, 0.1595557941211471, -0.10262447513533582, 1.0353761429575257, 0.0, 0.018782608651903933, -0.13156965947690377, -0.2504537737674637, 0.9719372608812277, 0.0
0.4299999792196667, -0.005981795917825748, 0.010474641327865472, -0.08863878392369892, 0.3098162473895112, 0.0, -0.2755629600325971, 0.048512268506013555, -0.03213242294015099, -0.11930946150124644, 0.2365241247290425, 0.0, -0.04342260007880566, 0.12580684932219405, 0.16295150322316873, -0.11022529676130852, 1.023153979196928, 0.0, 0.018117687983684357, -0.1313778582640851, -0.24780248947931965, 0.9721499990637533, 0.0
0.4299999792196667, -0.006961583966388419, 0.010656277394054673, -0.08824990257520601, 0.3081329611017668, 0.0, -0.2755796488709047, 0.04767443157617408, -0.031093605412824923, -0.11876452956620101, 0.23693113900126603, 0.0, -0.04421906432779245, 0.12947402170008315, 0.1663472123251904, -0.11782611838728124, 1.0109318154363303, 0.0, 0.017452767315464784, -0.13118605705126643, -0.2451512051911756, 0.972362737246279, 0.0
0.4299999792196667, -0.007941372014951091, 0.010837913460243872, -0.0878610212267131, 0.3064496748140223, 0.0, -0.2755963377092122, 0.046836594646334606, -0.030054787885498854, -0.1182195976311556, 0.23733815327348964, 0.0, -0.04501552857677925, 0.13314119407797226, 0.16974292142721206, -0.12542694001325394, 0.9987096516757322, 0.0, 0.01678784664724521, -0.13099425583844776, -0.24249992090303157, 0.9725754754288044, 0.0
0.42999198910235104, -0.008979572184414147, 0.011321940176272192, -0.08773857067172244, 0.30583187014671837, 0.0, -0.2758122000310989, 0.04594501239657508, -0.02888140163311966, -0.11781215645139696, 0.23742508288754374, 0.0, -0.04533676759571602, 0.13539511750998548, 0.17645492016897266, -0.13473506610093947, 0.9768455909954169, 0.0, 0.016806885536484007, -0.13091772943393312, -0.23996110912254456, 0.9724315660506605, 0.0
0.4299839989850354, -0.010017772353877205, 0.011805966892300514, -0.08761612011673178, 0.30521406547941443, 0.0, -0.27602806235298555, 0.045053430146815544, -0.027708015380740476, -0.11740471527163836, 0.2375120125015978, 0.0, -0.04565800661465278, 0.1376490409419987, 0.1831669189107332, -0.144043192188625, 0.9549815303151017, 0.0, 0.016825924425722803, -0.13084120302941848, -0.23742229734205753, 0.9722876566725165, 0.0
0.4299760088677197, -0.01105597252334026, 0.012289993608328836, -0.0874936695617411, 0.30459626081211044, 0.0, -0.2762439246748722, 0.044161847897056024, -0.02653462912836128, -0.11699727409187972, 0.2375989421156519, 0.0, -0.04597924563358955, 0.13990296437401195, 0.1898789176524938, -0.15335131827631054, 0.9331174696347861, 0.0, 0.016844963314961596, -0.13076467662490385, -0.23488348556157057, 0.9721437472943728, 0.0
0.4299680187504041, -0.012094172692803318, 0.012774020324357156, -0.08737121900675042, 0.3039784561448065, 0.0, -0.2764597869967589, 0.04327026564729649, -0.0253612428759821, -0.11658983291212112, 0.23768587172970596, 0.0, -0.046300484652526314, 0.1421568878060252, 0.1965909163942544, -0.1626594443639961, 0.9112534089544708, 0.0, 0.016864002204200392, -0.13068815022038918, -0.23234467378108353, 0.9719998379162288, 0.0
0.4299600286330885, -0.013132372862266374, 0.013258047040385478, -0.08724876845175976, 0.3033606514775026, 0.0, -0.2766756493186455, 0.042378683397536955, -0.02418785662360291, -0.11618239173236249, 0.23777280134376005, 0.0, -0.0466217236714631, 0.1444108112380384, 0.20330291513601495, -0.17196757045168162, 0.8893893482741555, 0.0, 0.01688304109343919, -0.13061162381587454, -0.22980586200059652, 0.9718559285380849, 0.0
0.42985294570216165, -0.014051426454825955, 0.013530110569889264, -0.08726712163604203, 0.3040416545170212, 0.0, -0.278056599201384, 0.042114085548815156, -0.02354791036034231, -0.11528241968488864, 0.23763064078552662, 0.0, -0.04548815989849496, 0.14259257748879317, 0.21105843576556743, -0.18301481695708044, 0.8558799132631244, 0.0, 0.01814580775120811, -0.13061323475477413, -0.2299694168048009, 0.9706519550414986, 0.0
0.4297458627712347, -0.014970480047385538, 0.013802174099393053, -0.0872854748203243, 0.3047226575565399, 0.0, -0.27943754908412244, 0.04184948770009336, -0.022907964097081714, -0.11438244763741476, 0.23748848022729316, 0.0, -0.04435459612552682, 0.14077434373954795, 0.2188139563951199, -0.19406206346247923, 0.8223704782520934, 0.0, 0.01940857440897703, -0.13061484569367374, -0.23013297160900528, 0.9694479815449123, 0.0
0.42963877984030785, -0.01588953363994512, 0.014074237628896842, -0.08730382800460657, 0.30540366059605856, 0.0, -0.28081849896686095, 0.04158488985137156, -0.02226801783382112, -0.11348247558994089, 0.23734631966905972, 0.0, -0.04322103235255868, 0.13895610999030272, 0.22656947702467237, -0.20510930996787807, 0.7888610432410623, 0.0, 0.02067134106674595, -0.13061645663257332, -0.23029652641320966, 0.9682440080483261, 0.0
0.42953169690938103, -0.016808587232504703, 0.014346301158400632, -0.08732218118888885, 0.30608466363557724, 0.0, -0.2821994488495994, 0.041320292002649764, -0.021628071570560528, -0.11258250354246702, 0.2372041591108263, 0.0, -0.042087468579590545, 0.13713787624105747, 0.23432499765422488, -0.21615655647327686, 0.7553516082300311, 0.0, 0.021934107724514876, -0.1306180675714729, -0.23046008121741404, 0.9670400345517398, 0.0
0.42942461397845416, -0.017727640825064284, 0.01461836468790442, -0.08734053437317112, 0.30676566667509586, 0.0, -0.2835803987323378, 0.04105569415392797, -0.020988125307299932, -0.11168253149499316, 0.23706199855259283, 0.0, -0.04095390480662241, 0.13531964249181222, 0.24208051828377733, -0.22720380297867568, 0.721842173219, 0.0, 0.023196874382283798, -0.13061967851037248, -0.23062363602161845, 0.9658360610551537, 0.0
0.4292597676306033, -0.017770164725091575, 0.01447446647986769, -0.08701843735037407, 0.3084839712489523, 0.0, -0.2862295537187945, 0.04124916041085304, -0.021623230027215494, -0.10980756442214845, 0.23700751984532106, 0.0, -0.03911247598068402, 0.12749430485245564, 0.2476796811318323, -0.24096362275423158, 0.6791763255636447, 0.0, 0.025765655560422655, -0.13046690320869428, -0.23374661648406495, 0.9649714598503008, 0.0
0.42909492128275245, -0.017812688625118863, 0.014330568271830962, -0.08669634032757703, 0.3102022758228088, 0.0, -0.288878708705251, 0.0414426266677781, -0.02225833474713106, -0.10793259734930373, 0.23695304113804935, 0.0, -0.03727104715474563, 0.11966896721309903, 0.25327884397988726, -0.2547234425297875, 0.6365104779082893, 0.0, 0.028334436738561515, -0.13031412790701608, -0.23686959694651147, 0.9641068586454478, 0.0
0.4289300749349016, -0.017855212525146158, 0.014186670063794236, -0.08637424330477997, 0.31192058039666526, 0.0, -0.2915278636917077, 0.041636092924703175, -0.022893439467046618, -0.10605763027645902, 0.23689856243077756, 0.0, -0.03542961832880724, 0.11184362957374244, 0.25887800682794226, -0.26848326230534336, 0.593844630252934, 0.0, 0.030903217916700376, -0.13016135260533784, -0.23999257740895802, 0.9632422574405948, 0.0
0.42876522858705063, -0.017897736425173446, 0.014042771855757507, -0.08605214628198292, 0.3136388849705217, 0.0, -0.2941770186781642, 0.041829559181628236, -0.023528544186962184, -0.10418266320361431, 0.23684408372350585, 0.0, -0.03358818950286885, 0.10401829193438582, 0.2644771696759972, -0.2822430820808993, 0.5511787825975787, 0.0, 0.033471999094839236, -0.1300085773036596, -0.2431155578714045, 0.9623776562357419, 0.0
0.4286003822391998, -0.017940260325200737, 0.01389887364772078, -0.08573004925918587, 0.3153571895443782, 0.0, -0.29682617366462083, 0.0420230254385533, -0.024163648906877746, -0.10230769613076961, 0.23678960501623408, 0.0, -0.03174676067693046, 0.09619295429502923, 0.2700763325240522, -0.29600290185645517, 0.5085129349422233, 0.0, 0.03604078027297809, -0.1298558020019814, -0.24623853833385106, 0.9615130550308889, 0.0
0.42876522858705063, -0.017380182876692112, 0.013598847011446898, -0.08566440602975496, 0.31687758774369246, 0.0, -0.29892578032016054, 0.041743521430821925, -0.025044311329639246, -0.09916855845730566, 0.2376592781478933, 0.0, -0.03167590345089215, 0.08338457737378607, 0.2725493768076656, -0.3105065355806505, 0.4677580552661935, 0.0, 0.03628200257796208, -0.12952224933610595, -0.24587029131497276, 0.9630352264847233, 0.0
0.4289300749349016, -0.016820105428183484, 0.013298820375173019, -0.08559876280032405, 0.3183979859430067, 0.0, -0.30102538697570014, 0.04146401742309055, -0.02592497375240075, -0.09602942078384172, 0.23852895127955256, 0.0, -0.031605046224853835, 0.07057620045254293, 0.27502242109127895, -0.3250101693048458, 0.4270031755901638, 0.0, 0.03652322488294606, -0.12918869667023053, -0.24550204429609448, 0.9645573979385575, 0.0
0.42909492128275245, -0.016260027979674855, 0.012998793738899136, -0.08553311957089314, 0.3199183841423211, 0.0, -0.30312499363123985, 0.04118451341535916, -0.026805636175162257, -0.09289028311037778, 0.23939862441121182, 0.0, -0.031534188998815514, 0.057767823531299764, 0.2774954653748923, -0.3395138030290411, 0.386248295914134, 0.0, 0.03676444718793006, -0.12885514400435508, -0.2451337972772162, 0.9660795693923919, 0.0
0.4292597676306033, -0.01569995053116623, 0.012698767102625257, -0.08546747634146225, 0.32143878234163537, 0.0, -0.30522460028677945, 0.040905009407627785, -0.02768629859792376, -0.08975114543691384, 0.24026829754287107, 0.0, -0.031463331772777194, 0.04495944661005661, 0.27996850965850567, -0.35401743675323644, 0.3454934162381043, 0.0, 0.03700566949291405, -0.12852159133847965, -0.24476555025833793, 0.9676017408462262, 0.0
0.42942461397845416, -0.015139873082657605, 0.012398740466351376, -0.08540183311203134, 0.3229591805409497, 0.0, -0.3073242069423191, 0.04062550539989641, -0.02856696102068526, -0.0866120077634499, 0.2411379706745303, 0.0, -0.03139247454673889, 0.032151069688813455, 0.282441553942119, -0.3685210704774317, 0.30473853656207456, 0.0, 0.03724689179789803, -0.12818803867260417, -0.24439730323945963, 0.9691239123000606, 0.0
0.429531689928064, -0.015300636477069522, 0.011687915160436815, -0.08645828230452689, 0.3238423764836534, 0.0, -0.30638552000137753, 0.03741491848471188, -0.028409132990822518, -0.08388339107774265, 0.24268654546928883, 0.0, -0.03658311934688675, 0.01528557683380552, 0.2771702285047709, -0.38248896491575185, 0.27604422061120054, 0.0, 0.031031126465327886, -0.12741684364959363, -0.23521793777014244, 0.973451445708405, 0.0
0.4296387658776739, -0.015461399871481442, 0.010977089854522254, -0.08751473149702248, 0.324725572426357, 0.0, -0.3054468330604359, 0.034204331569527346, -0.02825130496095977, -0.0811547743920354, 0.24423512026404734, 0.0, -0.04177376414703464, -0.00157991602120242, 0.2718989030674228, -0.39645685935407204, 0.24734990466032647, 0.0, 0.02481536113275774, -0.12664564862658306, -0.22603857230082522, 0.9777789791167494, 0.0
0.42974584182728376, -0.01562216326589336, 0.010266264548607695, -0.08857118068951803, 0.3256087683690607, 0.0, -0.30450814611949434, 0.03099374465434282, -0.02809347693109703, -0.07842615770632816, 0.24578369505880582, 0.0, -0.04696440894718251, -0.01844540887621036, 0.2666275776300747, -0.4104247537923922, 0.21865558870945248, 0.0, 0.018599595800187593, -0.1258744536035725, -0.21685920683150803, 0.982106512525094, 0.0
0.42985291777689366, -0.01578292666030528, 0.009555439242693132, -0.08962762988201362, 0.32649196431176447, 0.0, -0.3035694591785527, 0.02778315773915829, -0.027935648901234286, -0.0756975410206209, 0.24733226985356432, 0.0, -0.05215505374733039, -0.03531090173121829, 0.2613562521927266, -0.4243926482307123, 0.18996127275857838, 0.0, 0.012383830467617443, -0.12510325858056193, -0.20767984136219084, 0.9864340459334383, 0.0
0.42995999372650345, -0.0159436900547172, 0.008844613936778569, -0.09068407907450916, 0.32737516025446817, 0.0, -0.30263077223761115, 0.024572570823973756, -0.02777782087137154, -0.07296892433491364, 0.24888084464832286, 0.0, -0.057345698547478265, -0.05217639458622623, 0.2560849267553785, -0.43836054266903246, 0.16126695680770436, 0.0, 0.006168065135047292, -0.12433206355755136, -0.19850047589287362, 0.9907615793417828, 0.0
0.4299679908251361, -0.016311543501849157, 0.007389539641455225, -0.092235558097143, 0.32741030071362776, 0.0, -0.2987568394298845, 0.01799539038934933, -0.02708353692344275, -0.07123146721597752, 0.2517398335894297, 0.0, -0.06771029861133475, -0.07428080385970201, 0.2452969122584491, -0.4453663222118057, 0.1475670157881259, 0.0, -0.006865817401265642, -0.12201606400003244, -0.1806320665841873, 0.9967431961888272, 0.0
0.42997598792376873, -0.016679396948981115, 0.005934465346131881, -0.09378703711977682, 0.32744544117278745, 0.0, -0.2948829066221579, 0.011418209954724907, -0.02638925297551397, -0.06949401009704138, 0.25459882253053656, 0.0, -0.07807489867519124, -0.09638521313317777, 0.23450889776151973, -0.45237210175457904, 0.13386707476854742, 0.0, -0.019899699937578574, -0.11970006444251352, -0.16276365727550096, 1.0027248130358717, 0.0
0.42998398502240137, -0.017047250396113073, 0.004479391050808535, -0.09533851614241064, 0.32748058163194715, 0.0, -0.29100897381443125, 0.004841029520100484, -0.025694969027585182, -0.06775655297810525, 0.2574578114716434, 0.0, -0.08843949873904772, -0.11848962240665353, 0.2237208832645904, -0.4593778812973523, 0.12016713374896895, 0.0, -0.032933582473891505, -0.1173840648849946, -0.14489524796681463, 1.0087064298829163, 0.0
0.429991982121034, -0.017415103843245034, 0.003024316755485191, -0.09688999516504446, 0.32751572209110685, 0.0, -0.2871350410067046, -0.0017361509145239417, -0.025000685079656398, -0.06601909585916912, 0.26031680041275035, 0.0, -0.0988040988029042, -0.14059403168012932, 0.21293286876766102, -0.46638366084012556, 0.10646719272939048, 0.0, -0.04596746501020444, -0.11506806532747568, -0.12702683865812828, 1.0146880467299606, 0.0
0.4299999792196667, -0.017782957290376992, 0.001569242460161846, -0.09844147418767829, 0.3275508625502665, 0.0, -0.28326110819897804, -0.008313331349148367, -0.024306401131727613, -0.06428163874023299, 0.2631757893538572, 0.0, -0.10916869886676069, -0.16269844095360508, 0.20214485427073164, -0.4733894403828989, 0.09276725170981204, 0.0, -0.05900134754651737, -0.11275206576995676, -0.10915842934944195, 1.0206696635770052, 0.0
0.4299999792196667, -0.017392278601820375, -0.0014363996562994409, -0.09918602326899867, 0.3269825589112076, 0.0, -0.27802064890945144, -0.017694566835738994, -0.02403599587445273, -0.06392719169068437, 0.2665620876405521, 0.0, -0.12117875381056123, -0.19230818209715014, 0.1985586145555868, -0.4682660158916939, 0.09460874162227426, 0.0, -0.0757495577664498, -0.1079814452753427, -0.0870707339597485, 1.0253707637677878, 0.0
0.4299999792196667, -0.017001599913263762, -0.0044420417727607285, -0.09993057235031902, 0.3264142552721487, 0.0, -0.27278018961992484, -0.027075802322329614, -0.023765590617177847, -0.06357274464113576, 0.269948385927247, 0.0, -0.13318880875436176, -0.22191792324069523, 0.19497237484044191, -0.4631425914004891, 0.09645023153473645, 0.0, -0.09249776798638223, -0.10321082478072861, -0.06498303857005507, 1.0300718639585706, 0.0
0.4299999792196667, -0.016610921224707146, -0.0074476838892220155, -0.10067512143163941, 0.3258459516330898, 0.0, -0.26753973033039824, -0.03645703780892024, -0.023495185359902963, -0.06321829759158715, 0.2733346842139419, 0.0, -0.14519886369816232, -0.2515276643842403, 0.19138613512529706, -0.4580191669092842, 0.09829172144719868, 0.0, -0.10924597820631464, -0.09844020428611452, -0.04289534318036163, 1.0347729641493535, 0.0
0.4299999792196667, -0.01622024253615053, -0.010453326005683302, -0.10141967051295976, 0.3252776479940309, 0.0, -0.2622992710408716, -0.045838273295510865, -0.02322478010262808, -0.06286385054203852, 0.2767209825006368, 0.0, -0.15720891864196282, -0.2811374055277853, 0.18779989541015218, -0.45289574241807934, 0.10013321135966087, 0.0, -0.12599418842624704, -0.09366958379150046, -0.020807647790668196, 1.0394740643401366, 0.0
0.4299999792196667, -0.015829563847593913, -0.01345896812214459, -0.10216421959428015, 0.32470934435497206, 0.0, -0.25705881175134504, -0.055219508782101495, -0.0229543748453532, -0.06250940349248992, 0.2801072807873317, 0.0, -0.16921897358576338, -0.3107471466713304, 0.18421365569500728, -0.44777231792687444, 0.10197470127212309, 0.0, -0.1427423986461795, -0.08889896329688637, 0.0012800475990252303, 1.0441751645309192, 0.0
0.4299999792196667, -0.015263398935000425, -0.018147089800263454, -0.10160633557085567, 0.3249124169041001, 0.0, -0.2526278571128444, -0.06515170701443489, -0.023073509274765078, -0.0630640712231688, 0.2831554250221113, 0.0, -0.17847001100081375, -0.340915277983783, 0.1938396596465561, -0.42903278058006444, 0.11858936657714161, 0.0, -0.15622267950741894, -0.08304916872478407, 0.01955208340859056, 1.04541468689371, 0.0
0.4299999792196667, -0.01469723402240694, -0.02283521147838232, -0.10104845154743121, 0.32511548945322816, 0.0, -0.24819690247434384, -0.07508390524676828, -0.023192643704176955, -0.06361873895384772, 0.2862035692568908, 0.0, -0.18772104841586407, -0.3710834092962356, 0.2034656635981049, -0.4102932432332544, 0.13520403188216013, 0.0, -0.16970296036865842, -0.07719937415268174, 0.03782411921815589, 1.0466542092565008, 0.0
0.4299999792196667, -0.014131069109813451, -0.02752333315650118, -0.10049056752400672, 0.32531856200235615, 0.0, -0.24376594783584318, -0.08501610347910166, -0.02331177813358884, -0.0641734066845266, 0.2892517134916703, 0.0, -0.19697208583091444, -0.40125154060868823, 0.21309166754965372, -0.3915537058864444, 0.15181869718717866, 0.0, -0.18318324122989785, -0.07134957958057944, 0.05609615502772122, 1.0478937316192918, 0.0
0.4299999792196667, -0.013564904197219962, -0.03221145483462005, -0.09993268350058225, 0.3255216345514842, 0.0, -0.2393349931973426, -0.09494830171143506, -0.023430912563000724, -0.06472807441520552, 0.2922998577264498, 0.0, -0.20622312324596478, -0.4314196719211409, 0.22271767150120256, -0.3728141685396343, 0.16843336249219718, 0.0, -0.1966635220911373, -0.06549978500847711, 0.07436819083728656, 1.0491332539820826, 0.0
0.4299999792196667, -0.012998739284626476, -0.03689957651273891, -0.09937479947715777, 0.3257247071006123, 0.0, -0.23490403855884198, -0.10488049994376845, -0.0235500469924126, -0.0652827421458844, 0.29534800196122935, 0.0, -0.21547416066101516, -0.4615878032335935, 0.2323436754527514, -0.35407463119282423, 0.1850480277972157, 0.0, -0.2101438029523768, -0.0596499904363748, 0.09264022664685191, 1.0503727763448736, 0.0
0.4299999792196667, -0.01492183241533153, -0.04104966578669158, -0.09841906555634608, 0.3266591773260811, 0.0, -0.23268708643637376, -0.1121304999181148, -0.02298861366742127, -0.06571882208427315, 0.29866572626161336, 0.0, -0.21976098251922754, -0.4830961972282789, 0.25285418093826756, -0.32496177132468795, 0.21137413092066815, 0.0, -0.21526807043761037, -0.05685287237005358, 0.10157913286913409, 1.0489199538035376, 0.0
0.4299999792196667, -0.016844925546036584, -0.045199755060644255, -0.0974633316355344, 0.3275936475515498, 0.0, -0.2304701343139055, -0.11938049989246112, -0.022427180342429943, -0.0661549020226619, 0.3019834505619974, 0.0, -0.22404780437743996, -0.5046045912229643, 0.2733646864237837, -0.2958489114565516, 0.23770023404412063, 0.0, -0.22039233792284396, -0.054055754303732356, 0.11051803909141628, 1.0474671312622024, 0.0
0.4299999792196667, -0.01876801867674164, -0.049349844334596916, -0.09650759771472273, 0.3285281177770187, 0.0, -0.22825318219143728, -0.12663049986680747, -0.021865747017438607, -0.06659098196105065, 0.3053011748623815, 0.0, -0.22833462623565234, -0.5261129852176497, 0.29387519190929984, -0.2667360515884154, 0.26402633716757307, 0.0, -0.22551660540807753, -0.05125863623741113, 0.11945694531369846, 1.0460143087208666, 0.0
0.4299999792196667, -0.020691111807446698, -0.05349993360854959, -0.09555186379391103, 0.3294625880024874, 0.0, -0.22603623006896906, -0.1338804998411538, -0.02130431369244728, -0.0670270618994394, 0.3086188991627655, 0.0, -0.23262144809386476, -0.5476213792123351, 0.31438569739481603, -0.23762319172027907, 0.2903524402910256, 0.0, -0.23064087289331114, -0.048461518171089915, 0.12839585153598065, 1.0445614861795312, 0.0
0.4299999792196667, -0.02261420493815175, -0.057650022882502254, -0.09459612987309934, 0.33039705822795623, 0.0, -0.22381927794650083, -0.14113049981550013, -0.020742880367455946, -0.06746314183782813, 0.31193662346314954, 0.0, -0.23690826995207714, -0.5691297732070205, 0.3348962028803322, -0.2085103318521428, 0.31667854341447804, 0.0, -0.2357651403785447, -0.04566440010476869, 0.13733475775826284, 1.0431086636381954, 0.0
0.4299999792196667, -0.027292689501553048, -0.057687611689536615, -0.09314298130425948, 0.3313250881884851, 0.0, -0.22398156913232675, -0.14340314364907025, -0.018523698761401215, -0.06727539572299356, 0.3146533820328529, 0.0, -0.23640622250208246, -0.5780184348907963, 0.358230898932329, -0.18018539040284381, 0.342070870953504, 0.0, -0.23088777065995675, -0.04765092094395217, 0.13552363832011458, 1.0411774184236202, 0.0
0.4299999792196667, -0.031971174064954345, -0.057725200496570955, -0.09168983273541963, 0.33225311814901404, 0.0, -0.22414386031815273, -0.14567578748264037, -0.016304517155346476, -0.06708764960815897, 0.3173701406025563, 0.0, -0.23590417505208786, -0.5869070965745722, 0.38156559498432574, -0.15186044895354484, 0.3674631984925299, 0.0, -0.22601040094136876, -0.04963744178313566, 0.13371251888196634, 1.0392461732090448, 0.0
0.4299999792196667, -0.03664965862835564, -0.057762789303605316, -0.09023668416657975, 0.333181148109543, 0.0, -0.22430615150397865, -0.14794843131621047, -0.014085335549291741, -0.06689990349332438, 0.3200868991722596, 0.0, -0.23540212760209317, -0.5957957582583479, 0.4049002910363225, -0.12353550750424591, 0.39285552603155593, 0.0, -0.22113303122278083, -0.05162396262231913, 0.13190139944381807, 1.0373149279944696, 0.0
0.4299999792196667, -0.041328143191756934, -0.05780037811063966, -0.0887835355977399, 0.3341091780700719, 0.0, -0.22446844268980462, -0.15022107514978061, -0.011866153943237008, -0.0667121573784898, 0.32280365774196296, 0.0, -0.2349000801520985, -0.6046844199421236, 0.4282349870883193, -0.09521056605494695, 0.4182478535705819, 0.0, -0.2162556615041929, -0.05361048346150261, 0.13009028000566983, 1.0353836827798943, 0.0
0.4299999792196667, -0.04600662775515824, -0.05783796691767402, -0.08733038702890002, 0.3350372080306008, 0.0, -0.22463073387563057, -0.15249371898335073, -0.009646972337182274, -0.06652441126365523, 0.32552041631166634, 0.0, -0.23439803270210383, -0.6135730816258994, 0.4515696831403161, -0.06688562460564797, 0.4436401811096079, 0.0, -0.2113782917856049, -0.0555970043006861, 0.12827916056752156, 1.0334524375653191, 0.0
0.4299999792196667, -0.05151639623518947, -0.05426068807197473, -0.08476525009823932, 0.33596193931884344, 0.0, -0.22780766246525622, -0.14939736805649945, -0.006718692603040751, -0.0657553214567884, 0.32646343166915287, 0.0, -0.22888534044650966, -0.609679978121669, 0.4703031048534272, -0.047444355292859175, 0.4601683862941411, 0.0, -0.19766271261592858, -0.06030427702290149, 0.11656611807637672, 1.0314834862575837, 0.0
0.4299999792196667, -0.05702616471522069, -0.05068340922627544, -0.08220011316757862, 0.33688667060708616, 0.0, -0.2309845910548819, -0.14630101712964813, -0.0037904128688992277, -0.0649862316499216, 0.3274064470266394, 0.0, -0.22337264819091548, -0.6057868746174384, 0.4890365265665383, -0.028003085980070386, 0.4766965914786743, 0.0, -0.18394713344625227, -0.06501154974511689, 0.10485307558523187, 1.0295145349498485, 0.0
0.4299999792196667, -0.06253593319525193, -0.04710613038057615, -0.07963497623691794, 0.3378114018953289, 0.0, -0.23416151964450754, -0.14320466620279684, -0.0008621331347577051, -0.06421714184305478, 0.328349462384126, 0.0, -0.2178599559353213, -0.601893771113208, 0.5077699482796493, -0.008561816667281594, 0.4932247966632075, 0.0, -0.1702315542765759, -0.06971882246733228, 0.09314003309408701, 1.027545583642113, 0.0
0.4299999792196667, -0.06804570167528315, -0.043528851534876865, -0.07706983930625724, 0.3387361331835715, 0.0, -0.23733844823413325, -0.14010831527594556, 0.0020661465993838174, -0.06344805203618797, 0.3292924777416125, 0.0, -0.21234726367972712, -0.5980006676089774, 0.5265033699927604, 0.01087945264550719, 0.5097530018477407, 0.0, -0.15651597510689957, -0.07442609518954768, 0.08142699060294215, 1.0255766323343776, 0.0
0.4299999792196667, -0.07355547015531438, -0.03995157268917758, -0.07450470237559655, 0.33966086447181415, 0.0, -0.2405153768237589, -0.13701196434909424, 0.004994426333525339, -0.06267896222932116, 0.33023549309909905, 0.0, -0.20683457142413295, -0.5941075641047469, 0.5452367917058715, 0.030320721958295976, 0.526281207032274, 0.0, -0.14280039593722327, -0.07913336791176306, 0.06971394811179729, 1.0236076810266423, 0.0
0.4299348400413237, -0.07877213153142419, -0.03751823255165199, -0.07052622364754377, 0.3416419842150944, 0.0, -0.2478454874107718, -0.13056212348576118, 0.005872548429560564, -0.062330934151695536, 0.3279842906353897, 0.0, -0.19560471111909794, -0.5780470059306515, 0.5542251012179606, 0.036732623901546746, 0.5309457949351051, 0.0, -0.12355679074727645, -0.08342123208060476, 0.05010022072122385, 1.0203261304203353, 0.0
0.42986970086298076, -0.08398879290753399, -0.035084892414126385, -0.06654774491949099, 0.34362310395837464, 0.0, -0.2551755979977846, -0.12411228262242813, 0.006750670525595791, -0.0619829060740699, 0.32573308817168034, 0.0, -0.18437485081406296, -0.5619864477565563, 0.5632134107300497, 0.043144525844797506, 0.535610382837936, 0.0, -0.1043131855573296, -0.08770909624944646, 0.0304864933306504, 1.017044579814028, 0.0
0.4298045616846378, -0.08920545428364378, -0.03265155227660079, -0.06256926619143822, 0.34560422370165494, 0.0, -0.26250570858479755, -0.11766244175909504, 0.007628792621631016, -0.06163487799644427, 0.323481885707971, 0.0, -0.173144990509028, -0.5459258895824608, 0.5722017202421388, 0.04955642778804828, 0.5402749707407672, 0.0, -0.08506958036738275, -0.09199696041828816, 0.010872765940076943, 1.0137630292077209, 0.0
0.429739422506295, -0.0944221156597536, -0.030218212139075194, -0.05859078746338543, 0.3475853434449352, 0.0, -0.2698358191718104, -0.11121260089576196, 0.008506914717666243, -0.06128684991881864, 0.32123068324426163, 0.0, -0.16191513020399304, -0.5298653314083654, 0.581190029754228, 0.055968329731299046, 0.5449395586435982, 0.0, -0.06582597517743594, -0.09628482458712985, -0.008740961450496508, 1.0104814786014134, 0.0
0.429674283327952, -0.09963877703586341, -0.027784872001549596, -0.05461230873533266, 0.34956646318821544, 0.0, -0.27716592975882326, -0.10476276003242892, 0.009385036813701468, -0.06093882184119301, 0.31897948078055227, 0.0, -0.15068526989895803, -0.5138047732342701, 0.5901783392663171, 0.062380231674549806, 0.5496041465464293, 0.0, -0.04658236998748912, -0.10057268875597156, -0.028354688841069956, 1.0071999279951063, 0.0
0.42871508527764096, -0.10486577145927672, -0.02979852642741628, -0.049864622216155646, 0.35240102450111144, 0.0, -0.2868219114856044, -0.09874366747568558, 0.007529302438437009, -0.06220728630083799, 0.31284815308093017, 0.0, -0.1353964614135095, -0.48758334099671824, 0.5873184148287313, 0.05436697129303833, 0.5410214690057962, 0.0, -0.02769439273686281, -0.10331291502279721, -0.049953443767118876, 1.0033190906648588, 0.0
0.42775588722732993, -0.11009276588269004, -0.03181218085328297, -0.04511693569697861, 0.3552355858140074, 0.0, -0.2964778932123854, -0.09272457491894227, 0.00567356806317255, -0.06347575076048298, 0.3067168253813081, 0.0, -0.12010765292806101, -0.4613619087591664, 0.5844584903911453, 0.046353710911526826, 0.532438791465163, 0.0, -0.008806415486236492, -0.10605314128962288, -0.07155219869316781, 0.9994382533346113, 0.0
0.42679668917701885, -0.11531976030610334, -0.03382583527914965, -0.040369249177801596, 0.35807014712690327, 0.0, -0.30613387493916644, -0.08670548236219897, 0.003817833687908092, -0.06474421522012795, 0.300585497681686, 0.0, -0.1048188444426125, -0.4351404765216145, 0.5815985659535593, 0.03834045053001534, 0.5238561139245299, 0.0, 0.010081561764389825, -0.10879336755644856, -0.09315095361921674, 0.9955574160043638, 0.0
0.42583749112670777, -0.12054675472951665, -0.03583948970501634, -0.035621562658624574, 0.3609047084397992, 0.0, -0.31578985666594755, -0.08068638980545563, 0.001962099312643633, -0.06601267967977294, 0.2944541699820639, 0.0, -0.089530035957164, -0.40891904428406267, 0.5787386415159733, 0.030327190148503862, 0.5152734363838968, 0.0, 0.028969539015016137, -0.11153359382327423, -0.11474970854526566, 0.9916765786741163, 0.0
0.42487829307639674, -0.12577374915293, -0.03785314413088302, -0.03087387613944755, 0.3637392697526952, 0.0, -0.3254458383927286, -0.07466729724871232, 0.00010636493737917466, -0.06728114413941791, 0.2883228422824419, 0.0, -0.07424122747171547, -0.38269761204651076, 0.5758787170783874, 0.022313929766992383, 0.5066907588432636, 0.0, 0.047857516265642434, -0.11427382009009987, -0.1363484634713146, 0.9877957413438687, 0.0
0.42233142834674103, -0.1299715871445587, -0.0413928746611866, -0.02660492435838046, 0.3652817393857302, 0.0, -0.33352469173818855, -0.06987422658392985, -0.0022980978968954523, -0.0680188717758898, 0.2818217962513821, 0.0, -0.060760870653746954, -0.3539088004792753, 0.5615605315685335, 0.0006549941430054403, 0.4887426584990629, 0.0, 0.06059359571514854, -0.11625167746394231, -0.15139154530604557, 0.9856682897054428, 0.0
0.4197845636170853, -0.13416942513618743, -0.04493260519149019, -0.02233597257731337, 0.3668242090187652, 0.0, -0.3416035450836485, -0.06508115591914736, -0.004702560731170078, -0.06875659941236167, 0.2753207502203223, 0.0, -0.04728051383577844, -0.32511998891203975, 0.5472423460586795, -0.021003941480981503, 0.4707945581548622, 0.0, 0.07332967516465462, -0.11822953483778476, -0.16643462714077656, 0.9835408380670168, 0.0
0.4172376988874296, -0.13836726312781614, -0.04847233572179377, -0.01806702079624628, 0.36836667865180034, 0.0, -0.3496823984291084, -0.06028808525436489, -0.0071070235654447055, -0.06949432704883354, 0.26881970418926254, 0.0, -0.033800157017809924, -0.29633117734480424, 0.5329241605488256, -0.04266287710496844, 0.45284645781066146, 0.0, 0.0860657546141607, -0.12020739221162717, -0.18147770897550752, 0.9814133864285909, 0.0
0.41469083415777386, -0.1425651011194449, -0.052012066252097346, -0.013798069015179193, 0.36990914828483523, 0.0, -0.3577612517745683, -0.055495014589582406, -0.009511486399719334, -0.07023205468530543, 0.26231865815820277, 0.0, -0.020319800199841417, -0.26754236577756874, 0.5186059750389718, -0.06432181272895539, 0.43489835746646077, 0.0, 0.0988018340636668, -0.12218524958546961, -0.19652079081023852, 0.9792859347901648, 0.0
0.4121439694281182, -0.1467629391110736, -0.05555179678240093, -0.009529117234112105, 0.37145161791787035, 0.0, -0.3658401051200283, -0.05070194392479992, -0.01191594923399396, -0.0709697823217773, 0.25581761212714305, 0.0, -0.0068394433818729046, -0.23875355421033323, 0.5042877895291178, -0.08598074835294232, 0.41695025712226014, 0.0, 0.1115379135131729, -0.12416310695931206, -0.21156387264496948, 0.9771584831517389, 0.0
0.41114499532415416, -0.14795026216659582, -0.057236861560653156, -0.007574697179936357, 0.37015752260002804, 0.0, -0.36909229579765845, -0.04832183004627484, -0.013018234263305402, -0.07015886953911081, 0.25215416079121916, 0.0, -0.000914017619535878, -0.21981497253430876, 0.4827426912602629, -0.11458422340690858, 0.3992715483481047, 0.0, 0.1128258499131507, -0.12584713675731785, -0.2146913071876671, 0.9746961621710497, 0.0
0.41014602122019017, -0.14913758522211804, -0.05892192633890537, -0.00562027712576061, 0.36886342728218596, 0.0, -0.37234448647528856, -0.045941716167749766, -0.014120519292616847, -0.0693479567564443, 0.24849070945529528, 0.0, 0.005011408142801148, -0.20087639085828424, 0.4611975929914081, -0.1431876984608748, 0.38159283957394935, 0.0, 0.11411378631312846, -0.12753116655532362, -0.21781874173036475, 0.9722338411903607, 0.0
0.4091470471162262, -0.15032490827764028, -0.06060699111715759, -0.0036658570715848637, 0.36756933196434366, 0.0, -0.3755966771529188, -0.0435616022892247, -0.015222804321928289, -0.0685370439737778, 0.24482725811937145, 0.0, 0.010936833905138173, -0.18193780918225977, 0.43965249472255324, -0.17179117351484105, 0.36391413079979396, 0.0, 0.11540172271310624, -0.1292151963533294, -0.22094617627306232, 0.9697715202096715, 0.0
0.4081480730122622, -0.15151223133316247, -0.0622920558954098, -0.0017114370174091164, 0.36627523664650147, 0.0, -0.37884886783054894, -0.041181488410699615, -0.016325089351239736, -0.06772613119111129, 0.24116380678344757, 0.0, 0.0168622596674752, -0.16299922750623527, 0.4181073964536983, -0.20039464856880732, 0.3462354220256386, 0.0, 0.11668965911308402, -0.13089922615133517, -0.22407361081575994, 0.9673091992289825, 0.0
0.40714909890829826, -0.1526995543886847, -0.06397712067366201, 0.00024298303676662984, 0.3649811413286592, 0.0, -0.38210105850817916, -0.03880137453217454, -0.01742737438055118, -0.06691521840844479, 0.23750035544752374, 0.0, 0.022787685429812226, -0.14406064583021078, 0.3965622981848435, -0.22899812362277353, 0.3285567132514833, 0.0, 0.1179775955130618, -0.13258325594934095, -0.2272010453584576, 0.9648468782482933, 0.0
0.4089615919205678, -0.15018970460180528, -0.06344363006999512, -0.00023558693702592832, 0.361988324031168, 0.0, -0.38011105154834773, -0.04022648124498846, -0.017830650506582838, -0.06544794942782459, 0.2369542523965502, 0.0, 0.01747480611152849, -0.139691480036021, 0.3736090996914062, -0.2510105617241179, 0.3092791537281364, 0.0, 0.10674838586677195, -0.1328977182038581, -0.21764442173533402, 0.9622415484793543, 0.0
0.41077408493283735, -0.14767985481492585, -0.06291013946632822, -0.0007141569108184866, 0.3589955067336767, 0.0, -0.37812104458851636, -0.04165158795780238, -0.0182339266326145, -0.06398068044720438, 0.23640814934557672, 0.0, 0.012161926793244756, -0.1353223142418312, 0.3506559011979688, -0.2730229998254623, 0.29000159420478966, 0.0, 0.09551917622048212, -0.1332121804583752, -0.20808779811221048, 0.9596362187104153, 0.0
0.412586577945107, -0.14517000502804642, -0.06237664886266132, -0.0011927268846110446, 0.35600268943618535, 0.0, -0.3761310376286849, -0.043076694670616304, -0.018637202758646162, -0.06251341146658418, 0.2358620462946032, 0.0, 0.0068490474749610215, -0.1309531484476414, 0.32770270270453145, -0.29503543792680664, 0.2707240346814428, 0.0, 0.08428996657419228, -0.13352664271289233, -0.19853117448908691, 0.9570308889414763, 0.0
0.41439907095737644, -0.14266015524116699, -0.06184315825899442, -0.0016712968584036028, 0.3530098721386941, 0.0, -0.37414103066885346, -0.044501801383430226, -0.01904047888467782, -0.061046142485963996, 0.23531594324362967, 0.0, 0.0015361681566772865, -0.12658398265345158, 0.3047495042110941, -0.31704787602815104, 0.251446475158096, 0.0, 0.07306075692790244, -0.13384110496740947, -0.18897455086596343, 0.9544255591725372, 0.0
0.4162115639696461, -0.14015030545428755, -0.06130966765532752, -0.0021498668321961612, 0.3500170548412028, 0.0, -0.3721510237090221, -0.04592690809624414, -0.019443755010709482, -0.05957887350534379, 0.23476984019265615, 0.0, -0.0037767111616064473, -0.12221481685926179, 0.28179630571765674, -0.33906031412949544, 0.23216891563474917, 0.0, 0.061831547281612595, -0.1341555672219266, -0.17941792724283986, 0.9518202294035982, 0.0
0.4182891899485861, -0.1350322513411911, -0.06054982111217926, -0.004392649003798508, 0.34612875448307384, 0.0, -0.36635117941291434, -0.05097162347417182, -0.019944094132432304, -0.05828510840379605, 0.23669307783662327, 0.0, -0.019346293521443503, -0.13281357238996094, 0.26348742138245923, -0.3480257598283834, 0.2128068458727574, 0.0, 0.04026543699389297, -0.13162518468359502, -0.15911535225589174, 0.9526527793820675, 0.0
0.42036681592752617, -0.1299141972280946, -0.05978997456903101, -0.006635431175400854, 0.34224045412494475, 0.0, -0.3605513351168064, -0.0560163388520995, -0.020444433254155122, -0.05699134330224831, 0.23861631548059042, 0.0, -0.03491587588128056, -0.14341232792066008, 0.24517853704726178, -0.3569912055272714, 0.19344477611076555, 0.0, 0.018699326706173344, -0.12909480214526342, -0.13881277726894364, 0.9534853293605369, 0.0
0.4224444419064662, -0.12479614311499813, -0.05903012802588276, -0.0088782133470032, 0.3383521537668157, 0.0, -0.35475149082069873, -0.061061054230027174, -0.02094477237587794, -0.055697578200700565, 0.24053955312455752, 0.0, -0.050485458241117616, -0.15401108345135922, 0.22686965271206436, -0.36595665122615945, 0.1740827063487738, 0.0, -0.0028667835815462785, -0.12656441960693182, -0.1185102022819955, 0.9543178793390061, 0.0
0.42452206788540625, -0.11967808900190167, -0.058270281482734505, -0.011120995518605547, 0.3344638534086867, 0.0, -0.3489516465245909, -0.06610576960795486, -0.021445111497600762, -0.05440381309915282, 0.24246279076852464, 0.0, -0.06605504060095467, -0.1646098389820584, 0.20856076837686693, -0.37492209692504747, 0.154720636586782, 0.0, -0.024432893869265903, -0.12403403706860025, -0.09820762729504738, 0.9551504293174755, 0.0
0.4265996938643462, -0.11456003488880519, -0.057510434939586255, -0.013363777690207893, 0.33057555305055764, 0.0, -0.34315180222848307, -0.07115048498588254, -0.021945450619323587, -0.05311004799760509, 0.24438602841249177, 0.0, -0.08162462296079173, -0.1752085945127575, 0.19025188404166948, -0.3838875426239355, 0.13535856682479022, 0.0, -0.045999004156985525, -0.12150365453026866, -0.07790505230809927, 0.9559829792959448, 0.0
0.42723853323979516, -0.10815276400219166, -0.059327424269074815, -0.016060402630352428, 0.3271261262048181, 0.0, -0.3353288595299261, -0.07940895889131146, -0.022877101439918703, -0.05332271427256549, 0.24821943467498706, 0.0, -0.10240583110768732, -0.19942180204374566, 0.18524821008110245, -0.37883602569791275, 0.12590375663451592, 0.0, -0.07085352663843367, -0.1140303689996611, -0.05314061115626846, 0.9601671723034815, 0.0
0.42787737261524417, -0.10174549311557812, -0.06114441359856339, -0.018757027570496958, 0.32367669935907856, 0.0, -0.32750591683136904, -0.0876674327967404, -0.023808752260513818, -0.053535380547525886, 0.25205284093748237, 0.0, -0.12318703925458292, -0.22363500957473378, 0.18024453612053543, -0.37378450877189007, 0.11644894644424163, 0.0, -0.0957080491198818, -0.10655708346905352, -0.028376170004437658, 0.9643513653110181, 0.0
0.4285162119906932, -0.09533822222896461, -0.06296140292805194, -0.021453652510641495, 0.32022727251333905, 0.0, -0.31968297413281205, -0.09592590670216933, -0.024740403081108933, -0.053748046822486295, 0.2558862471999777, 0.0, -0.1439682474014785, -0.2478482171057219, 0.1752408621599684, -0.36873299184586733, 0.10699413625396734, 0.0, -0.12056257160132994, -0.09908379793844595, -0.0036117288526068543, 0.9685355583185549, 0.0
0.4291550513661422, -0.08893095134235109, -0.0647783922575405, -0.024150277450786028, 0.3167778456675995, 0.0, -0.31186003143425506, -0.10418438060759826, -0.02567205390170405, -0.0539607130974467, 0.259719653462473, 0.0, -0.1647494555483741, -0.27206142463671, 0.17023718819940137, -0.3636814749198446, 0.09753932606369303, 0.0, -0.1454170940827781, -0.09161051240783838, 0.02115271229922394, 0.9727197513260913, 0.0
0.42979389074159113, -0.08252368045573756, -0.06659538158702907, -0.02684690239093056, 0.3133284188218599, 0.0, -0.304037088735698, -0.1124428545130272, -0.02660370472229917, -0.054173379372407106, 0.2635530597249683, 0.0, -0.1855306636952697, -0.29627463216769817, 0.16523351423883434, -0.35862995799382197, 0.08808451587341874, 0.0, -0.1702716165642262, -0.0841372268772308, 0.045917153451054744, 0.9769039443336281, 0.0
0.4298351084372062, -0.07763706956782614, -0.07163778230930276, -0.02876376434714015, 0.31276181862415103, 0.0, -0.2969057432252193, -0.12170884590910863, -0.028102862962748408, -0.055974179376820025, 0.2679893306363705, 0.0, -0.20339563051653942, -0.32548412742585886, 0.17642401038791983, -0.33941405397163116, 0.09398747980678795, 0.0, -0.18736757735443316, -0.07440545562394528, 0.06447954651103852, 0.9819672945919793, 0.0
0.42987632613282134, -0.07275045867991471, -0.07668018303157643, -0.03068062630334973, 0.31219521842644204, 0.0, -0.28977439771474056, -0.13097483730519008, -0.029602021203197645, -0.05777497938123294, 0.2724256015477727, 0.0, -0.22126059733780912, -0.35469362268401955, 0.18761450653700534, -0.32019814994944024, 0.0998904437401572, 0.0, -0.2044635381446402, -0.06467368437065976, 0.08304193957102231, 0.9870306448503304, 0.0
0.42991754382843644, -0.0678638477920033, -0.08172258375385012, -0.03259748825955931, 0.3116286182287331, 0.0, -0.28264305220426184, -0.1402408287012715, -0.03110117944364688, -0.059575779385645844, 0.2768618724591748, 0.0, -0.23912556415907882, -0.3839031179421803, 0.19880500268609083, -0.30098224592724937, 0.1057934076735264, 0.0, -0.22155949893484714, -0.054941913117374244, 0.10160433263100609, 0.9920939951086816, 0.0
0.42995876152405155, -0.06297723690409189, -0.08676498447612381, -0.034514350215768895, 0.3110620180310242, 0.0, -0.27551170669378305, -0.14950682009735294, -0.03260033768409612, -0.061376579390058764, 0.281298143370577, 0.0, -0.2569905309803485, -0.413112613200341, 0.20999549883517632, -0.28176634190505856, 0.11169637160689559, 0.0, -0.23865545972505417, -0.04521014186408871, 0.12016672569098985, 0.9971573453670329, 0.0
0.4299999792196667, -0.058090626016180466, -0.09180738519839748, -0.036431212171978485, 0.31049541783331525, 0.0, -0.2683803611833043, -0.1587728114934344, -0.03409949592454536, -0.06317737939447168, 0.2857344142819792, 0.0, -0.2748554978016182, -0.4423221084585017, 0.22118599498426184, -0.26255043788286764, 0.11759933554026485, 0.0, -0.2557514205152611, -0.0354783706108032, 0.13872911875097363, 1.002220695625384, 0.0
0.4299999792196667, -0.05795790978359542, -0.0962760295239632, -0.03786816303816229, 0.31194684760190783, 0.0, -0.26484392967435283, -0.16386777664585622, -0.035436331563242114, -0.06426794802851449, 0.2886282574482484, 0.0, -0.28389211453674407, -0.46213721542882874, 0.24584567868186114, -0.23188069545273335, 0.13772111920038171, 0.0, -0.2603883798560331, -0.03261641426090209, 0.1456360079383289, 1.0082417673854993, 0.0
0.4299999792196667, -0.05782519355101037, -0.10074467384952893, -0.039305113904346094, 0.31339827737050024, 0.0, -0.2613074981654014, -0.16896274179827808, -0.03677316720193887, -0.06535851666255729, 0.29152210061451755, 0.0, -0.2929287312718699, -0.4819523223991558, 0.2705053623794605, -0.20121095302259906, 0.1578429028604986, 0.0, -0.26502533919680515, -0.029754457911000974, 0.15254289712568417, 1.0142628391456143, 0.0
0.4299999792196667, -0.05769247731842532, -0.10521331817509465, -0.040742064770529905, 0.31484970713909277, 0.0, -0.2577710666564499, -0.17405770695069991, -0.03811000284063563, -0.06644908529660011, 0.29441594378078684, 0.0, -0.3019653480069957, -0.5017674293694829, 0.2951650460770598, -0.17054121059246474, 0.1779646865206155, 0.0, -0.2696622985375771, -0.026892501561099867, 0.15944978631303944, 1.0202839109057291, 0.0
0.4299999792196667, -0.05755976108584027, -0.10968196250066035, -0.04217901563671371, 0.31630113690768524, 0.0, -0.25423463514749844, -0.1791526721031218, -0.039446838479332384, -0.0675396539306429, 0.29730978694705595, 0.0, -0.3110019647421216, -0.52158253633981, 0.31982472977465903, -0.13987146816233048, 0.1980864701807324, 0.0, -0.27429925787834913, -0.024030545211198753, 0.1663566755003947, 1.0263049826658444, 0.0
0.4299999792196667, -0.05742704485325522, -0.11415060682622609, -0.043615966502897514, 0.31775256667627777, 0.0, -0.25069820363854695, -0.1842476372555436, -0.04078367411802914, -0.06863022256468572, 0.3002036301133252, 0.0, -0.3200385814772474, -0.5413976433101371, 0.34448441347225833, -0.10920172573219616, 0.2182082538408493, 0.0, -0.2789362172191211, -0.02116858886129764, 0.17326356468774998, 1.0323260544259596, 0.0
0.4299999792196667, -0.05921870247398033, -0.11390202307152304, -0.043549555677661576, 0.3193751713565889, 0.0, -0.24978518001892672, -0.18388399441523207, -0.0403314059017623, -0.06887668225368909, 0.30088055955436965, 0.0, -0.3203615721086215, -0.5470800374195611, 0.37164851200144633, -0.0780027219802384, 0.24227465823779365, 0.0, -0.2723761982579657, -0.024716624366313913, 0.16872432633179715, 1.0358156238444949, 0.0
0.4299999792196667, -0.06101036009470545, -0.11365343931681998, -0.043483144852425645, 0.32099777603689994, 0.0, -0.2488721563993064, -0.1835203515749206, -0.039879137685495454, -0.06912314194269245, 0.3015574889954141, 0.0, -0.3206845627399956, -0.5527624315289852, 0.39881261053063444, -0.04680371822828065, 0.26634106263473806, 0.0, -0.2658161792968103, -0.028264659871330183, 0.1641850879758443, 1.0393051932630304, 0.0
0.4299999792196667, -0.06280201771543056, -0.11340485556211696, -0.04341673402718971, 0.322620380717211, 0.0, -0.24795913277968612, -0.18315670873460907, -0.03942686946922862, -0.06936960163169584, 0.3022344184364587, 0.0, -0.32100755337136966, -0.5584448256384092, 0.4259767090598223, -0.015604714476322909, 0.2904074670316824, 0.0, -0.2592561603356549, -0.031812695376346456, 0.15964584961989148, 1.0427947626815657, 0.0
0.4299999792196667, -0.06459367533615569, -0.1131562718074139, -0.04335032320195377, 0.3242429853975221, 0.0, -0.24704610916006584, -0.18279306589429756, -0.03897460125296178, -0.0696160613206992, 0.30291134787750323, 0.0, -0.32133054400274375, -0.5641272197478334, 0.45314080758901043, 0.015594289275634853, 0.3144738714286268, 0.0, -0.2526961413744994, -0.035360730881362726, 0.15510661126393865, 1.0462843321001012, 0.0
0.4299999792196667, -0.0663853329568808, -0.11290768805271086, -0.04328391237671784, 0.3258655900778332, 0.0, -0.24613308554044558, -0.18242942305398602, -0.03852233303669493, -0.06986252100970257, 0.3035882773185477, 0.0, -0.3216535346341178, -0.5698096138572575, 0.4803049061181984, 0.046793293027592636, 0.3385402758255712, 0.0, -0.24613612241334404, -0.038908766386378996, 0.15056737290798583, 1.0497739015186365, 0.0
0.4299999792196667, -0.06855805110572065, -0.10846254039673303, -0.04215042504917094, 0.3266339328837802, 0.0, -0.24769808737412385, -0.17707917557319197, -0.036799580316706854, -0.06947526351554571, 0.3027570049210908, 0.0, -0.31473958384460893, -0.5615000175127083, 0.49740704537395736, 0.06751476972429968, 0.35408727784858424, 0.0, -0.23052765687539273, -0.04574600960619683, 0.13598152894003382, 1.0498479244228722, 0.0
0.4299999792196667, -0.07073076925456048, -0.10401739274075522, -0.041016937721624035, 0.32740227568972713, 0.0, -0.2492630892078021, -0.17172892809239793, -0.03507682759671877, -0.06908800602138886, 0.30192573252363397, 0.0, -0.30782563305510013, -0.5531904211681592, 0.5145091846297165, 0.08823624642100672, 0.36963427987159725, 0.0, -0.2149191913374415, -0.05258325282601468, 0.1213956849720818, 1.0499219473271078, 0.0
0.4299999792196667, -0.07290348740340034, -0.09957224508477738, -0.03988345039407714, 0.3281706184956741, 0.0, -0.2508280910414804, -0.16637868061160388, -0.03335407487673069, -0.068700748527232, 0.30109446012617713, 0.0, -0.3009116822655913, -0.5448808248236101, 0.5316113238854755, 0.10895772311771375, 0.3851812818946103, 0.0, -0.1993107257994902, -0.05942049604583252, 0.1068098410041298, 1.0499959702313433, 0.0
0.4299999792196667, -0.07507620555224018, -0.09512709742879959, -0.03874996306653024, 0.3289389613016211, 0.0, -0.25239309287515865, -0.16102843313080983, -0.03163132215674261, -0.06831349103307514, 0.30026318772872024, 0.0, -0.29399773147608244, -0.5365712284790611, 0.5487134631412347, 0.1296791998144208, 0.40072828391762333, 0.0, -0.1837022602615389, -0.06625773926565036, 0.09222399703617778, 1.0500699931355788, 0.0
0.4299999792196667, -0.07724892370108001, -0.09068194977282175, -0.037616475738983336, 0.32970730410756804, 0.0, -0.25395809470883696, -0.1556781856500158, -0.02990856943675452, -0.06792623353891829, 0.2994319153312634, 0.0, -0.2870837806865736, -0.5282616321345119, 0.5658156023969936, 0.15040067651112785, 0.41627528594063634, 0.0, -0.16809379472358765, -0.0730949824854682, 0.07763815306822577, 1.0501440160398146, 0.0
0.4299825119645127, -0.07977613497616073, -0.08635973089204964, -0.035438346371330615, 0.3310713417498547, 0.0, -0.2591159091676231, -0.14708914324266645, -0.029376523267576574, -0.06749204763183382, 0.2962881863946691, 0.0, -0.27389161179693633, -0.5070300787751194, 0.570154888852521, 0.15811858878595833, 0.41894442843768687, 0.0, -0.14693975143627616, -0.0793910018967694, 0.05644405342738344, 1.0471630983971634, 0.0
0.4299650447093587, -0.08230334625124144, -0.08203751201127753, -0.033260217003677886, 0.33243537939214135, 0.0, -0.2642737236264093, -0.13850010083531714, -0.028844477098398623, -0.06705786172474933, 0.2931444574580749, 0.0, -0.2606994429072991, -0.48579852541572677, 0.5744941753080484, 0.16583650106078884, 0.4216135709347372, 0.0, -0.12578570814896464, -0.0856870213080706, 0.0352499537865411, 1.044182180754512, 0.0
0.4299475774542048, -0.08483055752632215, -0.07771529313050543, -0.03108208763602516, 0.33379941703442795, 0.0, -0.2694315380851954, -0.12991105842796782, -0.02831243092922067, -0.06662367581766485, 0.2900007285214806, 0.0, -0.24750727401766182, -0.4645669720563342, 0.5788334617635758, 0.17355441333561936, 0.4242827134317877, 0.0, -0.10463166486165311, -0.09198304071937179, 0.014055854145698755, 1.041201263111861, 0.0
0.4299301101990508, -0.08735776880140286, -0.07339307424973332, -0.02890395826837244, 0.3351634546767146, 0.0, -0.2745893525439816, -0.12132201602061853, -0.027780384760042715, -0.06618948991058038, 0.2868569995848864, 0.0, -0.23431510512802456, -0.4433354186969416, 0.583172748219103, 0.18127232561044984, 0.4269518559288381, 0.0, -0.08347762157434159, -0.098279060130673, -0.0071382454951435855, 1.0382203454692098, 0.0
0.42991264294389686, -0.08988498007648356, -0.06907085536896121, -0.026725828900719714, 0.3365274923190012, 0.0, -0.27974716700276775, -0.1127329736132692, -0.027248338590864767, -0.06575530400349588, 0.28371327064829216, 0.0, -0.22112293623838727, -0.422103865337549, 0.5875120346746304, 0.18899023788528035, 0.4296209984258885, 0.0, -0.06232357828703007, -0.10457507954197419, -0.02833234513598593, 1.0352394278265586, 0.0
0.429647230724546, -0.0925626921401613, -0.06890010806290935, -0.023941421369209067, 0.3395713465344793, 0.0, -0.28704178457411206, -0.10473958555062092, -0.029061046278632336, -0.06695488485542071, 0.2782988543922193, 0.0, -0.20504769286396565, -0.39190803564986726, 0.5808381155264898, 0.18392763462784897, 0.4209387358887951, 0.0, -0.042802754074408575, -0.10766648455479119, -0.04892471598819859, 1.0297097604986594, 0.0
0.42938181850519536, -0.09524040420383903, -0.0687293607568575, -0.021157013837698413, 0.34261520074995744, 0.0, -0.29433640214545637, -0.09674619748797265, -0.03087375396639991, -0.06815446570734554, 0.27288443813614643, 0.0, -0.18897244948954403, -0.36171220596218545, 0.5741641963783494, 0.17886503137041762, 0.4122564733517017, 0.0, -0.023281929861787082, -0.11075788956760818, -0.06951708684041126, 1.0241800931707605, 0.0
0.4291164062858445, -0.09791811626751677, -0.06855861345080563, -0.018372606306187762, 0.34565905496543553, 0.0, -0.30163101971680073, -0.08875280942532436, -0.03268646165416748, -0.06935404655927035, 0.26747002188007357, 0.0, -0.17289720611512235, -0.3315163762745037, 0.5674902772302086, 0.17380242811298624, 0.4035742108146083, 0.0, -0.0037611056491655896, -0.11384929458042518, -0.09010945769262392, 1.0186504258428613, 0.0
0.42885099406649374, -0.10059582833119449, -0.06838786614475378, -0.015588198774677115, 0.3487029091809137, 0.0, -0.30892563728814504, -0.0807594213626761, -0.034499169341935046, -0.07055362741119518, 0.26205560562400065, 0.0, -0.15682196274070073, -0.30132054658682195, 0.5608163580820681, 0.1687398248555549, 0.39489194827751484, 0.0, 0.015759718563455906, -0.1169406995932422, -0.11070182854483658, 1.0131207585149622, 0.0
0.42858558184714296, -0.10327354039487222, -0.06821711883870193, -0.012803791243166465, 0.35174676339639177, 0.0, -0.3162202548594894, -0.07276603330002782, -0.036311877029702615, -0.07175320826312001, 0.25664118936792785, 0.0, -0.14074671936627908, -0.27112471689914014, 0.5541424389339276, 0.1636772215981235, 0.3862096857404214, 0.0, 0.0352805427760774, -0.12003210460605919, -0.13129419939704925, 1.0075910911870631, 0.0
0.42780093417532383, -0.10485768709418147, -0.06900763779812473, -0.010744480400331009, 0.3544343575142943, 0.0, -0.321924151425298, -0.06666385399517746, -0.038217182113737196, -0.07391191316339558, 0.25197126773890266, 0.0, -0.12678104498676745, -0.2392429609386874, 0.5367888535834922, 0.14570813541499683, 0.36978802941606387, 0.0, 0.047529302911014704, -0.12070518245451038, -0.1436984271785689, 1.0015910436631177, 0.0
0.4270162865035048, -0.10644183379349073, -0.06979815675754752, -0.008685169557495553, 0.35712195163219684, 0.0, -0.3276280479911067, -0.060561674690327104, -0.040122487197771776, -0.07607061806367117, 0.24730134610987747, 0.0, -0.11281537060725585, -0.20736120497823465, 0.5194352682330569, 0.12773904923187016, 0.35336637309170643, 0.0, 0.059778063045952, -0.12137826030296159, -0.15610265496008854, 0.9955909961391721, 0.0
0.4262316388316857, -0.10802598049279999, -0.07058867571697033, -0.0066258587146600986, 0.3598095457500994, 0.0, -0.3333319445569153, -0.054459495385476744, -0.04202779228180636, -0.07822932296394673, 0.24263142448085234, 0.0, -0.09884969622774425, -0.17547944901778184, 0.5020816828826214, 0.10976996304874348, 0.336944716767349, 0.0, 0.0720268231808893, -0.1220513381514128, -0.1685068827416082, 0.9895909486152266, 0.0
0.42544699115986656, -0.10961012719210926, -0.07137919467639312, -0.004566547871824643, 0.3624971398680019, 0.0, -0.33903584112272395, -0.04835731608062639, -0.04393309736584094, -0.08038802786422232, 0.23796150285182718, 0.0, -0.08488402184823264, -0.1435976930573291, 0.48472809753218615, 0.0918008768656168, 0.3205230604429915, 0.0, 0.08427558331582659, -0.122724415999864, -0.18091111052312783, 0.9835909010912811, 0.0
0.42466234348804754, -0.11119427389141848, -0.07216971363581592, -0.0025072370289891863, 0.36518473398590445, 0.0, -0.34473973768853255, -0.04225513677577604, -0.04583840244987551, -0.08254673276449791, 0.23329158122280202, 0.0, -0.07091834746872104, -0.11171593709687631, 0.4673745121817508, 0.07383179068249013, 0.304101404118634, 0.0, 0.0965243434507639, -0.12339749384831518, -0.19331533830464748, 0.9775908535673355, 0.0
0.42432534135343836, -0.11059315841148797, -0.07106134089807353, -0.002431902719260239, 0.36585856721285587, 0.0, -0.3465756809446319, -0.03877920919974006, -0.04644223715278065, -0.08512321084463806, 0.2319338581817491, 0.0, -0.062166393585529625, -0.08576096776688494, 0.4423370519675573, 0.046985075041789524, 0.2884197604158051, 0.0, 0.09852242814343938, -0.12309353393803903, -0.19401628347619942, 0.9708067238582485, 0.0
0.4239883392188293, -0.10999204293155744, -0.06995296816033111, -0.002356568409531292, 0.3665324004398073, 0.0, -0.3484116242007313, -0.03530328162370409, -0.047046071855685774, -0.08769968892477821, 0.23057613514069616, 0.0, -0.053414439702338196, -0.05980599843689357, 0.4172995917533638, 0.020138359401088927, 0.27273811671297626, 0.0, 0.10052051283611488, -0.12278957402776285, -0.19471722864775137, 0.9640225941491614, 0.0
0.42365133708422026, -0.10939092745162693, -0.06884459542258872, -0.002281234099802345, 0.3672062336667588, 0.0, -0.3502475674568307, -0.03182735404766811, -0.04764990655859091, -0.09027616700491836, 0.22921841209964325, 0.0, -0.04466248581914678, -0.0338510291069022, 0.39226213153917033, -0.006708356239611675, 0.25705647301014733, 0.0, 0.10251859752879039, -0.12248561411748668, -0.19541817381930335, 0.9572384644400745, 0.0
0.4233143349496112, -0.1087898119716964, -0.06773622268484633, -0.002205899790073398, 0.3678800668937103, 0.0, -0.3520835107129301, -0.028351426471632128, -0.04825374126149604, -0.09285264508505853, 0.2278606890585903, 0.0, -0.035910531935955364, -0.007896059776910819, 0.3672246713249769, -0.033555071880312266, 0.24137482930731846, 0.0, 0.10451668222146589, -0.1221816542072105, -0.19611911899085527, 0.9504543347309875, 0.0
0.42297733281500205, -0.10818869649176587, -0.06662784994710393, -0.0021305654803444513, 0.3685539001206617, 0.0, -0.35391945396902946, -0.024875498895596152, -0.04885757596440117, -0.09542912316519866, 0.2265029660175374, 0.0, -0.027158578052763952, 0.018058909553080562, 0.3421872111107834, -0.060401787521012856, 0.2256931856044896, 0.0, 0.10651476691414137, -0.12187769429693433, -0.19682006416240722, 0.9436702050219006, 0.0
0.42378280575545596, -0.10472823846702202, -0.06293945262018132, -0.004131834665866549, 0.3669686315237093, 0.0, -0.3520044507884732, -0.023031132436180563, -0.04768969797114128, -0.09734909006214756, 0.22842373576594222, 0.0, -0.025610471355310832, 0.03182024567069058, 0.31882520763730987, -0.08502269174796209, 0.21555520327950223, 0.0, 0.09892193505641846, -0.1204931451962124, -0.1861244631040417, 0.936359324472586, 0.0
0.4245882786959098, -0.10126778044227816, -0.0592510552932587, -0.006133103851388647, 0.3653833629267568, 0.0, -0.350089447607917, -0.02118676597676497, -0.046521819977881386, -0.09926905695909645, 0.230344505514347, 0.0, -0.024062364657857712, 0.04558158178830061, 0.2954632041638365, -0.10964359597491134, 0.20541722095451492, 0.0, 0.09132910319869553, -0.11910859609549046, -0.17542886204567618, 0.9290484439232717, 0.0
0.4253937516363637, -0.09780732241753431, -0.055562657966336096, -0.008134373036910746, 0.3637980943298044, 0.0, -0.34817444442736084, -0.019342399517349375, -0.04535394198462148, -0.10118902385604531, 0.23226527526275179, 0.0, -0.02251425796040459, 0.05934291790591061, 0.2721012006903629, -0.13426450020186056, 0.1952792386295276, 0.0, 0.08373627134097258, -0.11772404699476854, -0.16473326098731073, 0.9217375633739573, 0.0
0.4261992245768177, -0.09434686439279048, -0.05187426063941348, -0.010135642222432843, 0.362212825732852, 0.0, -0.3462594412468046, -0.01749803305793379, -0.044186063991361595, -0.1031089907529942, 0.2341860450111566, 0.0, -0.020966151262951472, 0.07310425402352064, 0.24873919721688947, -0.15888540442880977, 0.18514125630454023, 0.0, 0.07614343948324967, -0.11633949789404661, -0.1540376599289452, 0.9144266828246428, 0.0
0.42700469751727155, -0.09088640636804662, -0.048185863312490876, -0.012136911407954943, 0.3606275571358996, 0.0, -0.34434443806624837, -0.015653666598518197, -0.0430181859981017, -0.10502895764994309, 0.23610681475956138, 0.0, -0.019418044565498352, 0.08686559014113067, 0.225377193743416, -0.183506308655759, 0.1750032739795529, 0.0, 0.06855060762552674, -0.11495494879332467, -0.14334205887057966, 0.9071158022753284, 0.0
0.4275191263329799, -0.08631164323143284, -0.043193200983240525, -0.015550956939098061, 0.3576894977983604, 0.0, -0.34072798321109293, -0.013979876298168015, -0.0407565035303658, -0.10612856813670878, 0.2390559778818018, 0.0, -0.02207879377417595, 0.08927307741457818, 0.21191649896704243, -0.1983012273601367, 0.16951718752307612, 0.0, 0.058742287976578, -0.11350496415735284, -0.12869050849227784, 0.9018692482960537, 0.0
0.4280335551486881, -0.08173688009481905, -0.03820053865399018, -0.018965002470241174, 0.3547514384608212, 0.0, -0.33711152835593755, -0.012306085997817826, -0.0384948210626299, -0.10722817862347446, 0.2420051410040422, 0.0, -0.024739542982853552, 0.09168056468802567, 0.1984558041906688, -0.21309614606451432, 0.16403110106659938, 0.0, 0.048933968327629265, -0.11205497952138099, -0.114038958113976, 0.8966226943167794, 0.0
0.4285479839643964, -0.07716211695820528, -0.03320787632473983, -0.02237904800138429, 0.35181337912328187, 0.0, -0.3334950735007822, -0.010632295697467644, -0.036233138594894, -0.10832778911024014, 0.2449543041262826, 0.0, -0.027400292191531152, 0.09408805196147318, 0.18499510941429523, -0.227891064768892, 0.1585450146101226, 0.0, 0.03912564867868053, -0.11060499488540915, -0.09938740773567416, 0.8913761403375048, 0.0
0.42906241278010476, -0.07258735382159148, -0.02821521399548948, -0.025793093532527407, 0.34887531978574265, 0.0, -0.3298786186456268, -0.008958505397117462, -0.0339714561271581, -0.10942739959700584, 0.24790346724852302, 0.0, -0.030061041400208748, 0.09649553923492067, 0.17153441463792166, -0.2426859834732697, 0.15305892815364583, 0.0, 0.02931732902973179, -0.10915501024943729, -0.08473585735737232, 0.8861295863582302, 0.0
0.42957684159581305, -0.06801259068497773, -0.02322255166623913, -0.029207139063670527, 0.34593726044820344, 0.0, -0.3262621637904714, -0.007284715096767275, -0.0317097736594222, -0.11052701008377151, 0.25085263037076344, 0.0, -0.03272179060888635, 0.09890302650836819, 0.15807371986154808, -0.25748090217764735, 0.14757284169716908, 0.0, 0.019509009380783045, -0.10770502561346544, -0.07008430697907049, 0.8808830323789556, 0.0
0.4296577690225695, -0.06530463939574578, -0.019598005464671484, -0.03223763452905387, 0.3438027402263069, 0.0, -0.3239150485030479, -0.004552133721131197, -0.03016719441971015, -0.11088760488107738, 0.25322043130048155, 0.0, -0.03435675047497232, 0.09750918318031354, 0.15524055830271224, -0.2617202650428395, 0.14510758926146833, 0.0, 0.015571902764605608, -0.1073824583989679, -0.0625183650600672, 0.8779292092276124, 0.0
0.42973869644932605, -0.06259668810651384, -0.01597345926310384, -0.035268129994437215, 0.3416682200044104, 0.0, -0.32156793321562444, -0.0018195523454951168, -0.028624615179998095, -0.1112481996783832, 0.2555882322301996, 0.0, -0.035991710341058275, 0.09611533985225888, 0.15240739674387635, -0.2659596279080317, 0.14264233682576755, 0.0, 0.011634796148428172, -0.10705989118447039, -0.0549524231410639, 0.8749753860762692, 0.0
0.4298196238760825, -0.059888736817281914, -0.012348913061536189, -0.038298625459820566, 0.33953369978251385, 0.0, -0.319220817928201, 0.0009130290301409636, -0.02708203594028604, -0.11160879447568904, 0.2579560331599178, 0.0, -0.03762667020714424, 0.09472149652420424, 0.1495742351850405, -0.27019899077322385, 0.1401770843900668, 0.0, 0.007697689532250737, -0.10673732396997282, -0.0473864812220606, 0.8720215629249258, 0.0
0.429900551302839, -0.05718078552804998, -0.008724366859968543, -0.04132912092520391, 0.33739917956061727, 0.0, -0.31687370264077747, 0.0036456104057770427, -0.025539456700573983, -0.11196938927299488, 0.2603238340896359, 0.0, -0.039261630073230205, 0.09332765319614961, 0.14674107362620464, -0.27443835363841607, 0.13771183195436604, 0.0, 0.0037605829160733007, -0.1064147567554753, -0.039820539303057303, 0.8690677397735828, 0.0
0.42998147872959547, -0.05447283423881804, -0.005099820658400895, -0.044359616390587255, 0.33526465933872074, 0.0, -0.31452658735335404, 0.006378191781413122, -0.023996877460861932, -0.11232998407030072, 0.26269163501935394, 0.0, -0.04089658993931617, 0.09193380986809496, 0.14390791206736878, -0.27867771650360823, 0.13524657951866526, 0.0, -0.00017652370010413525, -0.10609218954097775, -0.032254597384054, 0.8661139166222395, 0.0
0.4299851788276098, -0.05345040430597065, -0.003046821345019671, -0.046201021829113675, 0.3338031625110028, 0.0, -0.31312327282158053, 0.008974508425748751, -0.023185814928945607, -0.11287342933388932, 0.2644404758738033, 0.0, -0.04160858129970398, 0.09097774677818635, 0.1454946781568194, -0.2777786345740529, 0.13616068105363158, 0.0, 0.0009377267236190121, -0.10586366206284108, -0.031279310539632225, 0.8649995971986696, 0.0
0.429988878925624, -0.05242797437312325, -0.0009938220316384474, -0.04804242726764008, 0.33234166568328477, 0.0, -0.311719958289807, 0.01157082507008438, -0.022374752397029286, -0.11341687459747787, 0.26618931672825263, 0.0, -0.0423205726600918, 0.09002168368827772, 0.14708144424627007, -0.27687955264449754, 0.1370747825885979, 0.0, 0.0020519771473421593, -0.1056351345847044, -0.030304023695210444, 0.8638852777750998, 0.0
0.4299925790236382, -0.051405544440275855, 0.0010591772817427761, -0.04988383270616649, 0.3308801688555667, 0.0, -0.3103166437580335, 0.014167141714420007, -0.021563689865112957, -0.11396031986106646, 0.267938157582702, 0.0, -0.04303256402047962, 0.0890656205983691, 0.1486682103357207, -0.27598047071494214, 0.1379888841235642, 0.0, 0.0031662275710653068, -0.10540660710656773, -0.029328736850788666, 0.8627709583515301, 0.0
0.4299962791216524, -0.05038311450742845, 0.0031121765951240003, -0.05172523814469291, 0.3294186720278487, 0.0, -0.30891332922625997, 0.016763458358755638, -0.020752627333196636, -0.11450376512465503, 0.2696869984371513, 0.0, -0.043744555380867446, 0.0881095575084605, 0.15025497642517135, -0.27508138878538685, 0.13890298565853051, 0.0, 0.004280477994788454, -0.10517807962843104, -0.02835345000636689, 0.8616566389279602, 0.0
0.4299999792196667, -0.04936068457458105, 0.005165175908505224, -0.053566643583219324, 0.32795717520013073, 0.0, -0.30751001469448647, 0.01935977500309127, -0.019941564801280308, -0.11504721038824361, 0.2714358392916007, 0.0, -0.04445654674125526, 0.08715349441855189, 0.15184174251462196, -0.27418230685583145, 0.13981708719349684, 0.0, 0.005394728418511601, -0.10494955215029436, -0.02737816316194511, 0.8605423195043904, 0.0
0.4299999792196667, -0.048210586250411226, 0.006060657293626881, -0.05430746324499403, 0.3271839594349122, 0.0, -0.3071223386703749, 0.021421467173158144, -0.020291867391987135, -0.1154460055559537, 0.2727531300352019, 0.0, -0.04505144745278528, 0.08632747999999957, 0.15215212837813816, -0.2733716991567182, 0.1406443086817598, 0.0, 0.008409279009634332, -0.10522234920677616, -0.028538687035868805, 0.8611158172433033, 0.0
0.4299999792196667, -0.0470604879262414, 0.006956138678748538, -0.05504828290676874, 0.3264107436696937, 0.0, -0.3067346626462635, 0.023483159343225025, -0.02064216998269397, -0.1158448007236638, 0.2740704207788031, 0.0, -0.04564634816431531, 0.08550146558144725, 0.1524625142416543, -0.27256109145760493, 0.1414715301700228, 0.0, 0.011423829600757064, -0.10549514626325798, -0.0296992109097925, 0.8616893149822161, 0.0
0.4299999792196667, -0.04591038960207156, 0.007851620063870194, -0.05578910256854344, 0.32563752790447514, 0.0, -0.30634698662215193, 0.0255448515132919, -0.020992472573400797, -0.11624359589137388, 0.2753877115224044, 0.0, -0.046241248875845326, 0.08467545116289496, 0.1527729001051705, -0.2717504837584917, 0.1422987516582858, 0.0, 0.014438380191879794, -0.10576794331973981, -0.030859734783716192, 0.8622628127211289, 0.0
0.4299999792196667, -0.04476029127790174, 0.008747101448991853, -0.05652992223031816, 0.32486431213925665, 0.0, -0.30595931059804055, 0.027606543683358777, -0.021342775164107628, -0.11664239105908397, 0.2767050022660056, 0.0, -0.04683614958737535, 0.08384943674434266, 0.15308328596868664, -0.27093987605937847, 0.1431259731465488, 0.0, 0.017452930783002526, -0.10604074037622162, -0.03202025865763988, 0.8628363104600416, 0.0
0.4299999792196667, -0.043610192953731905, 0.009642582834113508, -0.057270741892092865, 0.32409109637403805, 0.0, -0.305571634573929, 0.02966823585342565, -0.021693077754814456, -0.11704118622679406, 0.2780222930096068, 0.0, -0.047431050298905375, 0.08302342232579034, 0.15339367183220282, -0.2701292683602652, 0.14395319463481177, 0.0, 0.020467481374125258, -0.10631353743270344, -0.03318078253156358, 0.8634098081989546, 0.0
0.4299999792196667, -0.04248446605817108, 0.009502041033854705, -0.05733364495459815, 0.3241343526142195, 0.0, -0.30597452288780086, 0.03125214239542983, -0.02278531108389782, -0.11701975358357956, 0.27839420521991426, 0.0, -0.047836628514220415, 0.08188116820941067, 0.15273595497556428, -0.26873336100583717, 0.1469067996199985, 0.0, 0.023723298496875225, -0.10735925319936508, -0.035668188082394046, 0.8649816447419838, 0.0
0.4299999792196667, -0.04135873916261025, 0.009361499233595904, -0.05739654801710343, 0.324177608854401, 0.0, -0.3063774112016727, 0.03283604893743401, -0.023877544412981174, -0.11699832094036508, 0.2787661174302217, 0.0, -0.04824220672953546, 0.08073891409303102, 0.15207823811892573, -0.2673374536514091, 0.1498604046051852, 0.0, 0.026979115619625186, -0.10840496896602675, -0.03815559363322452, 0.8665534812850127, 0.0
0.4299999792196667, -0.040233012267049416, 0.0092209574333371, -0.057459451079608696, 0.32422086509458237, 0.0, -0.30678029951554464, 0.034419955479438186, -0.024969777742064533, -0.1169768882971506, 0.2791380296405292, 0.0, -0.048647784944850496, 0.07959665997665134, 0.1514205212622872, -0.265941546296981, 0.15281400959037197, 0.0, 0.03023493274237515, -0.10945068473268839, -0.040642999184055, 0.8681253178280419, 0.0
0.4299999792196667, -0.03910728537148859, 0.0090804156330783, -0.05752235414211398, 0.3242641213347638, 0.0, -0.30718318782941645, 0.036003862021442366, -0.02606201107114789, -0.11695545565393609, 0.27950994185083666, 0.0, -0.04905336316016554, 0.07845440586027169, 0.15076280440564863, -0.26454563894255295, 0.15576761457555868, 0.0, 0.03349074986512512, -0.11049640049935004, -0.04313040473488547, 0.8696971543710709, 0.0
0.4299999792196667, -0.03798155847592776, 0.008939873832819495, -0.05758525720461926, 0.32430737757494527, 0.0, -0.30758607614328837, 0.03758776856344654, -0.027154244400231252, -0.11693402301072162, 0.27988185406114413, 0.0, -0.04945894137548058, 0.07731215174389201, 0.15010508754901009, -0.2631497315881249, 0.15872121956074545, 0.0, 0.03674656698787508, -0.11154211626601171, -0.045617810285715946, 0.8712689909141, 0.0
0.4299999792196667, -0.037562135610854204, 0.008033737491867095, -0.057208300294641815, 0.32479957438664164, 0.0, -0.30769018852382835, 0.03802279013417687, -0.028028009630854722, -0.11718315828946828, 0.2785875981730107, 0.0, -0.050117022656866954, 0.0764354634358373, 0.1510194480908374, -0.25836520116843825, 0.17075921268801436, 0.0, 0.03900955740535242, -0.1127111674695948, -0.04942858486380064, 0.872729531301388, 0.0
0.4299999792196667, -0.03714271274578063, 0.007127601150914693, -0.05683134338466439, 0.3252917711983381, 0.0, -0.3077943009043683, 0.03845781170490721, -0.028901774861478196, -0.11743229356821497, 0.27729334228487734, 0.0, -0.05077510393825331, 0.07555877512778258, 0.1519338086326647, -0.2535806707487517, 0.18279720581528325, 0.0, 0.04127254782282977, -0.11388021867317788, -0.05323935944188534, 0.8741900716886758, 0.0
0.4299999792196667, -0.03672328988070708, 0.006221464809962289, -0.056454386474686945, 0.32578396801003445, 0.0, -0.30789841328490825, 0.03889283327563754, -0.029775540092101666, -0.11768142884696164, 0.2759990863967439, 0.0, -0.05143318521963968, 0.07468208681972788, 0.152848169174492, -0.24879614032906505, 0.19483519894255222, 0.0, 0.043535538240307106, -0.11504926987676095, -0.05705013401997003, 0.8756506120759638, 0.0
0.4299999792196667, -0.03630386701563351, 0.005315328469009889, -0.056077429564709506, 0.3262761648217309, 0.0, -0.3080025256654483, 0.03932785484636788, -0.030649305322725136, -0.11793056412570833, 0.27470483050861055, 0.0, -0.05209126650102605, 0.07380539851167317, 0.15376252971631932, -0.24401160990937842, 0.20687319206982113, 0.0, 0.04579852865778445, -0.11621832108034404, -0.06086090859805472, 0.8771111524632517, 0.0
0.4299999792196667, -0.035884444150559955, 0.004409192128057487, -0.055700472654732075, 0.3267683616334273, 0.0, -0.3081066380459882, 0.03976287641709821, -0.03152307055334861, -0.11817969940445501, 0.27341057462047713, 0.0, -0.052749347782412415, 0.07292871020361845, 0.1546768902581466, -0.23922707948969182, 0.21891118519709, 0.0, 0.04806151907526179, -0.11738737228392714, -0.06467168317613942, 0.8785716928505396, 0.0
0.4299999792196667, -0.03624958587963309, 0.0034876548447058545, -0.05508298214669348, 0.32724223946929476, 0.0, -0.30785262980796996, 0.03945456295753586, -0.03180993601079905, -0.11812666687700143, 0.27178772908472926, 0.0, -0.05410945738668452, 0.07363588270994152, 0.15758659497665795, -0.23008507977433057, 0.24371846091755497, 0.0, 0.048710828680893485, -0.11807199618351197, -0.06824293505086573, 0.8799299639249776, 0.0
0.4299999792196667, -0.036614727608706224, 0.002566117561354222, -0.0544654916386549, 0.3277161173051623, 0.0, -0.30759862156995177, 0.03914624949797351, -0.032096801468249496, -0.11807363434954792, 0.27016488354898144, 0.0, -0.05546956699095663, 0.07434305521626457, 0.16049629969516926, -0.22094308005896926, 0.26852573663801993, 0.0, 0.049360138286525176, -0.11875662008309681, -0.07181418692559204, 0.8812882349994158, 0.0
0.4299999792196667, -0.036979869337779366, 0.0016445802780025894, -0.053848001130616316, 0.32818999514102976, 0.0, -0.3073446133319334, 0.03883793603841117, -0.03238366692569994, -0.11802060182209434, 0.2685420380132335, 0.0, -0.05682967659522872, 0.07505022772258764, 0.16340600441368058, -0.21180108034360806, 0.29333301235848486, 0.0, 0.05000944789215688, -0.11944124398268167, -0.07538543880031834, 0.8826465060738538, 0.0
0.4299999792196667, -0.0373450110668525, 0.000723042994650957, -0.053230510622577734, 0.3286638729768973, 0.0, -0.3070906050939152, 0.038529622578848816, -0.03267053238315038, -0.11796756929464082, 0.26691919247748563, 0.0, -0.058189786199500826, 0.0757574002289107, 0.1663157091321919, -0.20265908062824675, 0.3181402880789498, 0.0, 0.05065875749778857, -0.12012586788226653, -0.07895669067504463, 0.8840047771482918, 0.0
0.4299999792196667, -0.037710152795925635, -0.00019849428870067528, -0.05261302011453914, 0.32913775081276475, 0.0, -0.306836596855897, 0.038221309119286465, -0.03295739784060082, -0.11791453676718724, 0.26529634694173776, 0.0, -0.05954989580377292, 0.07646457273523377, 0.16922541385070325, -0.1935170809128855, 0.34294756379941477, 0.0, 0.051308067103420264, -0.12081049178185137, -0.08252794254977093, 0.8853630482227299, 0.0
0.4299999792196667, -0.038481313959548714, -0.00016201176608270963, -0.05201727501271701, 0.32917233974788074, 0.0, -0.3058290636572812, 0.03671997131166734, -0.03272378796368233, -0.11788441133710029, 0.26458553367859505, 0.0, -0.06258852904132663, 0.07783288189633174, 0.17239644671811566, -0.18054618591301366, 0.3804172486216591, 0.0, 0.049835831613880596, -0.12100888580138651, -0.0833567812601188, 0.888183280382467, 0.0
0.4299999792196667, -0.0392524751231718, -0.00012552924346474395, -0.05142152991089487, 0.3292069286829967, 0.0, -0.3048215304586654, 0.035218633504048205, -0.03249017808676384, -0.1178542859070133, 0.2638747204154523, 0.0, -0.06562716227888032, 0.0792011910574297, 0.1755674795855281, -0.1675752909131418, 0.41788693344390343, 0.0, 0.04836359612434092, -0.12120727982092167, -0.0841856199704667, 0.891003512542204, 0.0
0.4299999792196667, -0.040023636286794874, -8.904672084677829e-05, -0.050825784809072724, 0.3292415176181128, 0.0, -0.30381399726004965, 0.033717295696429075, -0.032256568209845356, -0.11782416047692634, 0.26316390715230964, 0.0, -0.06866579551643401, 0.08056950021852768, 0.17873851245294053, -0.1546043959132699, 0.45535661826614776, 0.0, 0.046891360634801246, -0.12140567384045682, -0.08501445868081459, 0.8938237447019411, 0.0
0.4299999792196667, -0.040794797450417954, -5.256419822881262e-05, -0.05023003970725059, 0.32927610655322886, 0.0, -0.30280646406143386, 0.03221595788880995, -0.032022958332926864, -0.11779403504683936, 0.2624530938891669, 0.0, -0.0717044287539877, 0.08193780937962565, 0.18190954532035297, -0.14163350091339807, 0.4928263030883921, 0.0, 0.04541912514526158, -0.12160406785999198, -0.08584329739116246, 0.8966439768616781, 0.0
0.4299999792196667, -0.04156595861404103, -1.6081675610846945e-05, -0.049634294605428446, 0.32931069548834485, 0.0, -0.30179893086281806, 0.03071462008119082, -0.03178934845600838, -0.1177639096167524, 0.26174228062602417, 0.0, -0.0747430619915414, 0.08330611854072362, 0.18508057818776538, -0.12866260591352624, 0.5302959879106365, 0.0, 0.043946889655721896, -0.12180246187952712, -0.08667213610151035, 0.8994642090214152, 0.0
0.4299999792196667, -0.04220860385445691, -0.00031969588105207016, -0.048983501120866704, 0.32917554417238737, 0.0, -0.30045187876481183, 0.028524054195420083, -0.03137079685929741, -0.1175324108900971, 0.26162151605909095, 0.0, -0.07830257862144314, 0.08416332653086511, 0.18805760723684317, -0.11346467916569, 0.574402894588169, 0.0, 0.04085389709141729, -0.12188380120398706, -0.08529752246208833, 0.9040621462907712, 0.0
0.4299999792196667, -0.04285124909487279, -0.0006233100864932933, -0.04833270763630497, 0.32904039285643005, 0.0, -0.2991048266668056, 0.026333488309649346, -0.030952245262586445, -0.11730091216344184, 0.2615007514921577, 0.0, -0.08186209525134489, 0.08502053452100662, 0.19103463628592088, -0.09826675241785379, 0.6185098012657014, 0.0, 0.03776090452711268, -0.121965140528447, -0.0839229088226663, 0.9086600835601271, 0.0
0.4299999792196667, -0.04349389433528868, -0.0009269242919345167, -0.047681914151743235, 0.32890524154047257, 0.0, -0.29775777456879937, 0.024142922423878613, -0.030533693665875487, -0.11706941343678658, 0.26137998692522446, 0.0, -0.08542161188124663, 0.08587774251114812, 0.19401166533499867, -0.08306882567001758, 0.662616707943234, 0.0, 0.034667911962808065, -0.12204647985290694, -0.08254829518324429, 0.9132580208294829, 0.0
