isaac-sim2real/sage/motion_files/h1_2/amass/0-stir_left02_poses_action_sequence.txt
left_hip_yaw_joint, left_hip_pitch_joint, left_hip_roll_joint, left_knee_joint, left_ankle_pitch_joint, left_ankle_roll_joint, right_hip_yaw_joint, right_hip_pitch_joint, right_hip_roll_joint, right_knee_joint, right_ankle_pitch_joint, right_ankle_roll_joint, torso_joint, left_shoulder_pitch_joint, left_shoulder_roll_joint, left_shoulder_yaw_joint, left_elbow_joint, left_wrist_roll_joint, right_shoulder_pitch_joint, right_shoulder_roll_joint, right_shoulder_yaw_joint, right_elbow_joint, right_wrist_roll_joint
0.4299999792196667, -0.05004604046525418, -0.044860133186827925, -0.05512560832301495, 0.314068857303726, 0.0, -0.36263545372056394, -0.0509797026032793, -0.029309951173917752, -0.05816102910754742, 0.18310146208246642, 0.0, -0.05366146906680942, 0.08089920478246831, 0.20144180074144333, 0.02191341335557398, 1.206695861153501, 0.0, 0.04098897370728273, -0.1544949222303337, -0.2577082836725971, 0.9793510181179718, 0.0
0.4299999792196667, -0.04948212283860557, -0.04411707915454481, -0.055047202198895896, 0.3136644470627464, 0.0, -0.3626751564703883, -0.05030659962208687, -0.02916275010480455, -0.05792921412723168, 0.18330615080648183, 0.0, -0.05391897319931941, 0.08027458809509384, 0.20179522293365515, 0.021710794941117304, 1.206582694004802, 0.0, 0.04080528303949808, -0.1534354375612031, -0.2567776880780678, 0.9793905219002613, 0.0
0.4299999792196667, -0.04891820521195696, -0.0433740251222617, -0.05496879607477685, 0.31326003682176684, 0.0, -0.36271485922021274, -0.04963349664089444, -0.029015549035691347, -0.05769739914691595, 0.1835108395304972, 0.0, -0.054176477331829405, 0.07964997140771937, 0.202148645125867, 0.02150817652666063, 1.2064695268561025, 0.0, 0.040621592371713436, -0.15237595289207242, -0.25584709248353843, 0.979430025682551, 0.0
0.4299999792196667, -0.04835428758530833, -0.04263097108997859, -0.05489038995065782, 0.3128556265807872, 0.0, -0.3627545619700371, -0.048960393659702006, -0.02886834796657815, -0.057465584166600206, 0.1837155282545126, 0.0, -0.05443398146433939, 0.07902535472034489, 0.20250206731807888, 0.02130555811220395, 1.2063563597074032, 0.0, 0.04043790170392879, -0.15131646822294179, -0.2549164968890091, 0.9794695294648408, 0.0
0.4299999792196667, -0.04779036995865971, -0.04188791705769547, -0.05481198382653878, 0.3124512163398076, 0.0, -0.3627942647198615, -0.04828729067850958, -0.02872114689746495, -0.05723376918628447, 0.183920216978528, 0.0, -0.05469148559684938, 0.07840073803297042, 0.2028554895102907, 0.021102939697747274, 1.206243192558704, 0.0, 0.04025421103614415, -0.15025698355381115, -0.25398590129447973, 0.9795090332471302, 0.0
0.4299999792196667, -0.047226452332011094, -0.041144863025412357, -0.05473357770241973, 0.312046806098828, 0.0, -0.3628339674696858, -0.047614187697317144, -0.02857394582835174, -0.057001954205968736, 0.1841249057025434, 0.0, -0.054948989729359375, 0.07777612134559593, 0.20320891170250255, 0.0209003212832906, 1.2061300254100045, 0.0, 0.0400705203683595, -0.1491974988846805, -0.25305530569995033, 0.97954853702942, 0.0
0.4299999792196667, -0.046447413450276205, -0.04024287163199393, -0.054676425150733926, 0.3114937426747975, 0.0, -0.3628943942590484, -0.04671203259201489, -0.0284499855635581, -0.056786394524174374, 0.18461841849249586, 0.0, -0.055118572202668456, 0.07725459637021485, 0.20315694976001217, 0.02073812399617841, 1.2059714971540458, 0.0, 0.03966755107121034, -0.1491210744073942, -0.2527481033169898, 0.979315406419914, 0.0
0.4299999792196667, -0.04566837456854133, -0.039340880238575515, -0.05461927259904812, 0.31094067925076707, 0.0, -0.3629548210484109, -0.04580987748671262, -0.028326025298764455, -0.05657083484238001, 0.1851119312824482, 0.0, -0.05528815467597753, 0.07673307139483376, 0.20310498781752176, 0.020575926709066224, 1.2058129688980872, 0.0, 0.03926458177406118, -0.14904464993010788, -0.25244090093402927, 0.9790822758104082, 0.0
0.4299999792196667, -0.044889335686806454, -0.03843888884515709, -0.054562120047362314, 0.3103876158267366, 0.0, -0.3630152478377734, -0.04490772238141035, -0.028202065033970807, -0.056355275160585645, 0.18560544407240068, 0.0, -0.0554577371492866, 0.0762115464194527, 0.20305302587503143, 0.020413729421954036, 1.2056544406421288, 0.0, 0.038861612476912014, -0.1489682254528215, -0.25213369855106876, 0.9788491452009023, 0.0
0.4299999792196667, -0.04411029680507157, -0.03753689745173867, -0.05450496749567651, 0.3098345524027062, 0.0, -0.3630756746271359, -0.04400556727610809, -0.028078104769177162, -0.056139715478791284, 0.18609895686235306, 0.0, -0.05562731962259568, 0.07569002144407161, 0.20300106393254103, 0.02025153213484185, 1.2054959123861702, 0.0, 0.03845864317976286, -0.14889180097553517, -0.2518264961681082, 0.9786160145913965, 0.0
0.4299999792196667, -0.04333125792333669, -0.03663490605832024, -0.054447814943990695, 0.3092814889786757, 0.0, -0.3631361014164985, -0.04310341217080583, -0.027954144504383514, -0.055924155796996916, 0.1865924696523055, 0.0, -0.05579690209590476, 0.07516849646869053, 0.20294910199005065, 0.02008933484772966, 1.2053373841302113, 0.0, 0.038055673882613696, -0.14881537649824889, -0.2515192937851477, 0.9783828839818904, 0.0
0.4299999792196667, -0.04262369167073437, -0.0356436847068936, -0.054454044722222775, 0.30907346318513046, 0.0, -0.3632843636457969, -0.042213094237556446, -0.02798035376469487, -0.0558336486070421, 0.18757132010999397, 0.0, -0.05588589015127864, 0.07515854599755906, 0.2025054218409012, 0.02004013366705009, 1.2054133583125506, 0.0, 0.03776587068696629, -0.14966183326019808, -0.25188638888671966, 0.9781604941286013, 0.0
0.4299999792196667, -0.041916125418132055, -0.03465246335546697, -0.05446027450045484, 0.30886543739158523, 0.0, -0.36343262587509534, -0.04132277630430706, -0.028006563025006218, -0.055743141417087284, 0.18855017056768247, 0.0, -0.05597487820665252, 0.0751485955264276, 0.2020617416917517, 0.01999093248637052, 1.2054893324948899, 0.0, 0.0374760674913189, -0.1505082900221473, -0.25225348398829167, 0.9779381042753121, 0.0
0.4299999792196667, -0.04120855916552975, -0.03366124200404033, -0.054466504278686906, 0.30865741159804005, 0.0, -0.36358088810439376, -0.040432458371057675, -0.028032772285317562, -0.05565263422713245, 0.18952902102537095, 0.0, -0.05606386626202641, 0.07513864505529613, 0.20161806154260223, 0.01994173130569095, 1.2055653066772292, 0.0, 0.037186264295671505, -0.15135474678409655, -0.2526205790898636, 0.9777157144220231, 0.0
0.4299999792196667, -0.040500992912927435, -0.03267002065261369, -0.05447273405691897, 0.3084493858044948, 0.0, -0.36372915033369213, -0.03954214043780828, -0.028058981545628914, -0.05556212703717764, 0.19050787148305948, 0.0, -0.056152854317400296, 0.07512869458416466, 0.20117438139345276, 0.01989253012501138, 1.2056412808595687, 0.0, 0.036896461100024106, -0.15220120354604577, -0.2529876741914356, 0.9774933245687341, 0.0
0.4299999792196667, -0.039793426660325114, -0.03167879930118706, -0.054478963835151044, 0.30824136001094965, 0.0, -0.36387741256299055, -0.038651822504558904, -0.028085190805940262, -0.05547161984722282, 0.19148672194074798, 0.0, -0.05624184237277418, 0.0751187441130332, 0.20073070124430328, 0.019843328944331808, 1.205717255041908, 0.0, 0.036606657904376706, -0.15304766030799496, -0.25335476929300754, 0.9772709347154448, 0.0
0.4299999792196667, -0.0391232327939299, -0.030288038922723134, -0.05454861713307133, 0.3084982061543316, 0.0, -0.36407051579143124, -0.03778373099026781, -0.028076392601180958, -0.05546188265532594, 0.1925357625596347, 0.0, -0.056661721466914214, 0.07558229902450682, 0.20058496625176178, 0.019956534490274666, 1.2060401409535269, 0.0, 0.03692104057187995, -0.15382390596479495, -0.25420576391101196, 0.9774248518115197, 0.0
0.4299999792196667, -0.038453038927534704, -0.02889727854425921, -0.05461827043099162, 0.3087550522977136, 0.0, -0.3642636190198719, -0.03691563947597672, -0.028067594396421654, -0.05545214546342907, 0.1935848031785214, 0.0, -0.05708160056105424, 0.07604585393598046, 0.20043923125922025, 0.02006974003621752, 1.206363026865146, 0.0, 0.03723542323938318, -0.15460015162159496, -0.2550567585290163, 0.9775787689075947, 0.0
0.4299999792196667, -0.03778284506113949, -0.02750651816579528, -0.054687923728911916, 0.3090118984410956, 0.0, -0.36445672224831255, -0.03604754796168563, -0.02805879619166235, -0.05544240827153219, 0.19463384379740814, 0.0, -0.05750147965519427, 0.07650940884745411, 0.20029349626667872, 0.02018294558216038, 1.2066859127767646, 0.0, 0.03754980590688641, -0.15537639727839492, -0.25590775314702074, 0.9777326860036695, 0.0
0.4299999792196667, -0.03711265119474429, -0.026115757787331356, -0.0547575770268322, 0.3092687445844776, 0.0, -0.36464982547675323, -0.03517945644739454, -0.02804999798690305, -0.055432671079635315, 0.19568288441629483, 0.0, -0.05792135874933431, 0.07697296375892773, 0.2001477612741372, 0.02029615112810323, 1.2070087986883835, 0.0, 0.03786418857438964, -0.1561526429351949, -0.2567587477650251, 0.9778866030997444, 0.0
0.4299999792196667, -0.03644245732834908, -0.02472499740886743, -0.05482723032475249, 0.30952559072785957, 0.0, -0.3648429287051939, -0.03431136493310345, -0.028041199782143745, -0.055422933887738446, 0.19673192503518153, 0.0, -0.058341237843474336, 0.07743651867040137, 0.20000202628159564, 0.02040935667404609, 1.2073316846000026, 0.0, 0.03817857124189288, -0.1569288885919949, -0.2576097423830295, 0.9780405201958192, 0.0
0.4299999792196667, -0.035995077430251224, -0.023588614929157325, -0.05502238152253744, 0.30968030020341486, 0.0, -0.3649446395126831, -0.03335594133183277, -0.027716632769389273, -0.05519604387750598, 0.1975281756558679, 0.0, -0.058247273854403016, 0.07827628000027409, 0.20028660570679183, 0.02053584871345268, 1.2076657266562003, 0.0, 0.03834246463997216, -0.15678009229194537, -0.2578528213692718, 0.9782847964779283, 0.0
0.4299999792196667, -0.03554769753215337, -0.022452232449447218, -0.05521753272032238, 0.3098350096789701, 0.0, -0.3650463503201723, -0.032400517730562094, -0.027392065756634797, -0.054969153867273524, 0.19832442627655422, 0.0, -0.058153309865331695, 0.07911604133014681, 0.200571185131988, 0.02066234075285927, 1.207999768712398, 0.0, 0.038506358038051434, -0.15663129599189585, -0.25809590035551405, 0.9785290727600374, 0.0
0.4299999792196667, -0.03510031763405551, -0.021315849969737108, -0.05541268391810733, 0.3099897191545254, 0.0, -0.36514806112766157, -0.03144509412929141, -0.02706749874388033, -0.05474226385704106, 0.19912067689724056, 0.0, -0.058059345876260375, 0.07995580266001953, 0.2008557645571842, 0.020788832792265857, 1.208333810768596, 0.0, 0.03867025143613071, -0.15648249969184633, -0.2583389793417563, 0.9787733490421467, 0.0
0.4299999792196667, -0.03465293773595765, -0.020179467490027008, -0.05560783511589227, 0.3101444286300807, 0.0, -0.3652497719351508, -0.03048967052802073, -0.026742931731125855, -0.0545153738468086, 0.19991692751792695, 0.0, -0.05796538188718906, 0.08079556398989225, 0.2011403439823804, 0.020915324831672445, 1.2086678528247934, 0.0, 0.03883414483420999, -0.1563337033917968, -0.2585820583279986, 0.9790176253242557, 0.0
0.4299999792196667, -0.0342055578378598, -0.019043085010316898, -0.055802986313677215, 0.310299138105636, 0.0, -0.36535148274263995, -0.02953424692675005, -0.026418364718371383, -0.05428848383657614, 0.20071317813861328, 0.0, -0.057871417898117734, 0.08163532531976496, 0.20142492340757656, 0.021041816871079033, 1.209001894880991, 0.0, 0.03899803823228926, -0.1561849070917473, -0.25882513731424084, 0.979261901606365, 0.0
0.4299999792196667, -0.034295307554919253, -0.018674363610947924, -0.056270255634864944, 0.3100871050361282, 0.0, -0.3654997205373288, -0.028623731694330735, -0.026091392292841815, -0.05379483840160056, 0.201570581605631, 0.0, -0.05735472643756714, 0.08232179612676425, 0.20177598940529817, 0.02067296596827956, 1.208875791351876, 0.0, 0.03875556452623159, -0.15541257097247177, -0.25802388457991826, 0.9794143421538926, 0.0
0.4299999792196667, -0.03438505727197871, -0.01830564221157895, -0.05673752495605268, 0.3098750719666204, 0.0, -0.3656479583320177, -0.027713216461911418, -0.025764419867312243, -0.053301192966625, 0.20242798507264873, 0.0, -0.056838034977016526, 0.08300826693376356, 0.2021270554030198, 0.020304115065480084, 1.208749687822761, 0.0, 0.03851309082017392, -0.15464023485319625, -0.2572226318455957, 0.9795667827014203, 0.0
0.4299999792196667, -0.03447480698903816, -0.01793692081220997, -0.05720479427724041, 0.30966303889711266, 0.0, -0.36579619612670666, -0.0268027012294921, -0.02543744744178267, -0.05280754753164943, 0.20328538853966643, 0.0, -0.056321343516465915, 0.08369473774076289, 0.20247812140074148, 0.01993526416268061, 1.2086235842936457, 0.0, 0.03827061711411626, -0.1538678987339207, -0.25642137911127316, 0.9797192232489481, 0.0
0.4299999792196667, -0.034564556706097614, -0.017568199412840997, -0.05767206359842814, 0.3094510058276049, 0.0, -0.36594443392139553, -0.025892185997072787, -0.025110475016253103, -0.05231390209667385, 0.20414279200668417, 0.0, -0.0558046520559153, 0.0843812085477622, 0.20282918739846317, 0.01956641325988114, 1.2084974807645308, 0.0, 0.03802814340805859, -0.1530955626146452, -0.2556201263769506, 0.9798716637964757, 0.0
0.4299999792196667, -0.03465430642315707, -0.01719947801347202, -0.05813933291961587, 0.3092389727580971, 0.0, -0.3660926717160844, -0.02498167076465347, -0.02478350259072353, -0.05182025666169829, 0.20500019547370188, 0.0, -0.055287960595364706, 0.08506767935476149, 0.20318025339618478, 0.019197562357081664, 1.2083713772354157, 0.0, 0.037785669702000924, -0.15232322649536967, -0.25481887364262806, 0.9800241043440034, 0.0
0.4299999792196667, -0.03509727133637908, -0.01757705765692657, -0.05875653300486693, 0.30879142146866667, 0.0, -0.3661828319345839, -0.02442013237084117, -0.024589905783170416, -0.051321738267451136, 0.20606379911986725, 0.0, -0.05506937102198888, 0.08554579135939433, 0.20330900982576294, 0.017903319733450575, 1.2075354133929292, 0.0, 0.037360584290702194, -0.1518975895600273, -0.25396447563258223, 0.9801268169704833, 0.0
0.4299999792196667, -0.03554023624960109, -0.017954637300381115, -0.05937373309011799, 0.30834387017923626, 0.0, -0.3662729921530834, -0.02385859397702887, -0.0243963089756173, -0.050823219873204, 0.20712740276603256, 0.0, -0.05485078144861306, 0.08602390336402714, 0.20343776625534105, 0.016609077109819487, 1.206699449550443, 0.0, 0.036935498879403464, -0.15147195262468496, -0.25311007762253646, 0.9802295295969632, 0.0
0.4299999792196667, -0.0359832011628231, -0.018332216943835664, -0.05999093317536904, 0.30789631888980584, 0.0, -0.36636315237158296, -0.023297055583216566, -0.02420271216806418, -0.05032470147895686, 0.20819100641219793, 0.0, -0.054632191875237227, 0.08650201536865997, 0.20356652268491915, 0.0153148344861884, 1.2058634857079569, 0.0, 0.03651041346810473, -0.15104631568934257, -0.2522556796124907, 0.9803322422234431, 0.0
0.4299999792196667, -0.03642616607604511, -0.01870979658729021, -0.060608133260620096, 0.3074487676003754, 0.0, -0.3664533125900825, -0.022735517189404267, -0.02400911536051106, -0.04982618308470972, 0.20925461005836327, 0.0, -0.054413602301861416, 0.08698012737329279, 0.2036952791144973, 0.014020591862557313, 1.2050275218654707, 0.0, 0.03608532805680599, -0.15062067875400023, -0.25140128160244485, 0.9804349548499229, 0.0
0.4299999792196667, -0.036869130989267127, -0.01908737623074476, -0.06122533334587115, 0.307001216310945, 0.0, -0.366543472808582, -0.022173978795591964, -0.02381551855295795, -0.049327664690462576, 0.21031821370452858, 0.0, -0.05419501272848558, 0.08745823937792561, 0.20382403554407544, 0.012726349238926226, 1.2041915580229843, 0.0, 0.03566024264550727, -0.15019504181865787, -0.2505468835923991, 0.9805376674764026, 0.0
0.4299999792196667, -0.03711455220736556, -0.019511499267493942, -0.06160455080629577, 0.3064843719595519, 0.0, -0.3664225982859059, -0.022417065461282935, -0.023855607369612855, -0.049315196058286326, 0.21122750231954962, 0.0, -0.05434846137818922, 0.0883797627510031, 0.20395417078376263, 0.010354262269257411, 1.2023444621129649, 0.0, 0.035136034750000024, -0.15038923762321027, -0.2500436824797688, 0.9806215130936684, 0.0
0.4299999792196667, -0.037359973425463995, -0.01993562230424312, -0.06198376826672039, 0.3059675276081589, 0.0, -0.3663017237632298, -0.022660152126973903, -0.023895696186267766, -0.04930272742611008, 0.21213679093457063, 0.0, -0.054501910027892855, 0.0893012861240806, 0.20408430602344982, 0.007982175299588596, 1.2004973662029452, 0.0, 0.03461182685449278, -0.15058343342776265, -0.24954048136713855, 0.9807053587109343, 0.0
0.4299999792196667, -0.037605394643562426, -0.020359745340992302, -0.06236298572714501, 0.3054506832567658, 0.0, -0.3661808492405536, -0.022903238792664867, -0.023935785002922674, -0.04929025879393383, 0.21304607954959165, 0.0, -0.05465535867759651, 0.0902228094971581, 0.20421444126313704, 0.005610088329919781, 1.1986502702929258, 0.0, 0.03408761895898554, -0.15077762923231508, -0.24903728025450833, 0.9807892043282, 0.0
0.4299999792196667, -0.037850815861660864, -0.02078386837774148, -0.06274220318756962, 0.30493383890537273, 0.0, -0.3660599747178775, -0.023146325458355835, -0.02397587381957758, -0.04927779016175759, 0.21395536816461266, 0.0, -0.05480880732730015, 0.0911443328702356, 0.20434457650282423, 0.003238001360250966, 1.196803174382906, 0.0, 0.03356341106347829, -0.15097182503686746, -0.2485340791418781, 0.9808730499454659, 0.0
0.4299999792196667, -0.038096237079759294, -0.021207991414490663, -0.06312142064799424, 0.30441699455397964, 0.0, -0.3659391001952014, -0.023389412124046802, -0.024015962636232492, -0.04926532152958134, 0.2148646567796337, 0.0, -0.05496225597700379, 0.0920658562433131, 0.20447471174251144, 0.0008659143905821515, 1.1949560784728865, 0.0, 0.03303920316797104, -0.1511660208414199, -0.24803087802924786, 0.9809568955627318, 0.0
0.4299999792196667, -0.037996235996805336, -0.021399413192729946, -0.06314306691950917, 0.303951309293621, 0.0, -0.3656010997322602, -0.02436569869306412, -0.02420669850007574, -0.04969889971302028, 0.2152840384549369, 0.0, -0.055503212750144866, 0.09396145694764071, 0.20488255330080046, -0.0029899959378488585, 1.1910205215799303, 0.0, 0.03256821594641071, -0.15162211028155104, -0.24773659282808136, 0.9811385843378643, 0.0
0.4299999792196667, -0.037896234913851364, -0.021590834970969225, -0.06316471319102411, 0.3034856240332624, 0.0, -0.36526309926931894, -0.02534198526208144, -0.024397434363918984, -0.0501324778964592, 0.2157034201302401, 0.0, -0.05604416952328595, 0.09585705765196836, 0.20529039485908948, -0.0068459062662798685, 1.1870849646869743, 0.0, 0.03209722872485038, -0.1520781997216822, -0.2474423076269148, 0.9813202731129969, 0.0
0.4299999792196667, -0.0377962338308974, -0.021782256749208508, -0.06318635946253905, 0.3030199387729038, 0.0, -0.3649250988063777, -0.02631827183109876, -0.024588170227762232, -0.05056605607989814, 0.21612280180554333, 0.0, -0.056585126296427035, 0.097752658356296, 0.2056982364173785, -0.010701816594710879, 1.1831494077940183, 0.0, 0.031626241503290055, -0.15253428916181333, -0.2471480224257483, 0.9815019618881295, 0.0
0.4299999792196667, -0.037696232747943426, -0.02197367852744779, -0.06320800573405398, 0.3025542535125451, 0.0, -0.3645870983434365, -0.02729455840011608, -0.02477890609160548, -0.050999634263337076, 0.21654218348084653, 0.0, -0.057126083069568116, 0.09964825906062365, 0.20610607797566752, -0.014557726923141888, 1.1792138509010623, 0.0, 0.03115525428172972, -0.1529903786019445, -0.2468537372245818, 0.9816836506632621, 0.0
0.4299999792196667, -0.03759623166498946, -0.022165100305687066, -0.06322965200556892, 0.3020885682521865, 0.0, -0.36424909788049525, -0.028270844969133402, -0.024969641955448728, -0.05143321244677601, 0.21696156515614973, 0.0, -0.057667039842709204, 0.10154385976495127, 0.20651391953395656, -0.018413637251572898, 1.1752782940081064, 0.0, 0.030684267060169388, -0.15344646804207568, -0.24655945202341525, 0.9818653394383948, 0.0
0.4299999792196667, -0.03750336060109574, -0.022436141211875524, -0.06315037984907504, 0.3014085600503415, 0.0, -0.36387656084231557, -0.0292752906803024, -0.024978629004833098, -0.051634613319546496, 0.21715298937785, 0.0, -0.05837286949270578, 0.10476721027295564, 0.20733478627841306, -0.024624258749771567, 1.1671168481917837, 0.0, 0.030216024543390743, -0.15350389286512478, -0.2460309663259114, 0.9820551195599396, 0.0
0.4299999792196667, -0.03741048953720202, -0.022707182118063985, -0.06307110769258115, 0.30072855184849645, 0.0, -0.36350402380413593, -0.030279736391471395, -0.024987616054217465, -0.05183601419231698, 0.2173444135995502, 0.0, -0.05907869914270236, 0.10799056078096, 0.2081556530228695, -0.03083488024797024, 1.1589554023754607, 0.0, 0.0297477820266121, -0.1535613176881739, -0.24550248062840746, 0.9822448996814845, 0.0
0.4299999792196667, -0.03731761847330829, -0.02297822302425245, -0.06299183553608727, 0.3000485436466515, 0.0, -0.36313148676595625, -0.0312841821026404, -0.024996603103601838, -0.052037415065087474, 0.21753583782125044, 0.0, -0.059784528792698945, 0.11121391128896436, 0.20897651976732598, -0.037045501746168906, 1.1507939565591379, 0.0, 0.02927953950983345, -0.153618742511223, -0.2449739949309036, 0.9824346798030292, 0.0
0.4299999792196667, -0.037224747409414574, -0.023249263930440908, -0.06291256337959338, 0.29936853544480646, 0.0, -0.36275894972777656, -0.03228862781380939, -0.0250055901529862, -0.05223881593785796, 0.21772726204295065, 0.0, -0.06049035844269552, 0.11443726179696873, 0.20979738651178248, -0.04325612324436757, 1.142632510742815, 0.0, 0.028811296993054805, -0.15367616733427214, -0.24444550923339972, 0.9826244599245741, 0.0
0.4299999792196667, -0.03713187634552085, -0.023520304836629365, -0.0628332912230995, 0.29868852724296147, 0.0, -0.3623864126895968, -0.03329307352497839, -0.025014577202370575, -0.052440216810628444, 0.2179186862646509, 0.0, -0.06119618809269209, 0.1176606123049731, 0.21061825325623892, -0.04946674474256625, 1.1344710649264922, 0.0, 0.028343054476276164, -0.15373359215732127, -0.24391702353589584, 0.982814240046119, 0.0
0.4299999792196667, -0.037300605003759854, -0.023774705424663464, -0.06285118433859095, 0.29806791259556176, 0.0, -0.36220553025657864, -0.034125733110124734, -0.02482055662887507, -0.05232441735635127, 0.2179128079957302, 0.0, -0.06155351109578214, 0.12245600041793638, 0.21226030439507576, -0.059116479237822726, 1.1190388846243093, 0.0, 0.028190450914996334, -0.15331842719749084, -0.24317219380563174, 0.9827128783044802, 0.0
0.4299999792196667, -0.03746933366199886, -0.024029106012697556, -0.06286907745408239, 0.2974472979481621, 0.0, -0.3620246478235604, -0.03495839269527109, -0.02462653605537957, -0.052208617902074095, 0.2179069297268095, 0.0, -0.0619108340988722, 0.12725138853089968, 0.21390235553391257, -0.0687662137330792, 1.1036067043221265, 0.0, 0.028037847353716512, -0.15290326223766046, -0.24242736407536766, 0.9826115165628413, 0.0
0.4299999792196667, -0.03763806232023786, -0.024283506600731655, -0.06288697056957385, 0.2968266833007624, 0.0, -0.36184376539054236, -0.03579105228041744, -0.024432515481884073, -0.052092818447796924, 0.21790105145788874, 0.0, -0.06226815710196224, 0.13204677664386294, 0.21554440667274938, -0.07841594822833568, 1.0881745240199439, 0.0, 0.02788524379243669, -0.15248809727783005, -0.24168253434510356, 0.9825101548212026, 0.0
0.4299999792196667, -0.03780679097847686, -0.02453790718876575, -0.06290486368506529, 0.2962060686533628, 0.0, -0.3616628829575242, -0.03662371186556379, -0.02423849490838857, -0.05197701899351975, 0.21789517318896803, 0.0, -0.0626254801050523, 0.13684216475682623, 0.21718645781158621, -0.08806568272359216, 1.072742343717761, 0.0, 0.02773264023115686, -0.15207293231799968, -0.2409377046148395, 0.9824087930795637, 0.0
0.4299999792196667, -0.03797551963671586, -0.024792307776799843, -0.06292275680055673, 0.29558545400596314, 0.0, -0.3614820005245059, -0.037456371450710145, -0.02404447433489307, -0.05186121953924259, 0.21788929492004733, 0.0, -0.06298280310814235, 0.1416375528697895, 0.21882850895042302, -0.09771541721884865, 1.0573101634155782, 0.0, 0.027580036669877038, -0.15165776735816927, -0.24019287488457539, 0.9823074313379249, 0.0
0.4299999792196667, -0.038497209720244174, -0.025012606027513373, -0.06302322004669664, 0.29535036862769504, 0.0, -0.3616989309878948, -0.03803063434196704, -0.02368509777740512, -0.05152525133768239, 0.21795440442779296, 0.0, -0.06231586113920946, 0.1472613108976636, 0.22209991570311766, -0.11165781937811416, 1.031774181316479, 0.0, 0.028376679291513385, -0.15127069870863746, -0.24058596492002657, 0.9815931204349612, 0.0
0.4299999792196667, -0.039018899803772496, -0.0252329042782269, -0.06312368329283652, 0.2951152832494269, 0.0, -0.36191586145128374, -0.038604897233223925, -0.023325721219917172, -0.05118928313612219, 0.21801951393553864, 0.0, -0.06164891917027656, 0.15288506892553766, 0.2253713224558123, -0.12560022153737968, 1.0062381992173797, 0.0, 0.029173321913149735, -0.15088363005910566, -0.24097905495547775, 0.9808788095319975, 0.0
0.4299999792196667, -0.03954058988730081, -0.025453202528940424, -0.06322414653897643, 0.2948801978711588, 0.0, -0.3621327919146725, -0.03917916012448082, -0.022966344662429226, -0.050853314934561994, 0.2180846234432843, 0.0, -0.06098197720134368, 0.15850882695341173, 0.22864272920850695, -0.13954262369664522, 0.9807022171182809, 0.0, 0.029969964534786078, -0.1504965614095739, -0.2413721449909289, 0.9801644986290339, 0.0
0.4299999792196667, -0.04006227997082913, -0.025673500779653954, -0.06332460978511632, 0.29464511249289066, 0.0, -0.36234972237806146, -0.039753423015737706, -0.022606968104941276, -0.05051734673300178, 0.21814973295102993, 0.0, -0.06031503523241079, 0.16413258498128583, 0.23191413596120158, -0.15348502585591073, 0.9551662350191817, 0.0, 0.030766607156422425, -0.15010949276004212, -0.2417652350263801, 0.97945018772607, 0.0
0.4299999792196667, -0.040583970054357446, -0.025893799030367485, -0.06342507303125622, 0.29441002711462255, 0.0, -0.36256665284145034, -0.0403276859069946, -0.022247591547453326, -0.050181378531441584, 0.21821484245877557, 0.0, -0.059648093263477885, 0.1697563430091599, 0.2351855427138962, -0.16742742801517624, 0.9296302529200825, 0.0, 0.03156324977805877, -0.14972242411051032, -0.24215832506183127, 0.9787358768231064, 0.0
0.4299999792196667, -0.04148538339472761, -0.025978285183468768, -0.06369444784614073, 0.2946041321620539, 0.0, -0.3632228198457131, -0.040485914315387755, -0.021636166407631274, -0.04949087741013357, 0.2187319363922517, 0.0, -0.05765271557647224, 0.17364711126285126, 0.24185746171471392, -0.18486725357461115, 0.8924610300192275, 0.0, 0.03378140722490843, -0.14940753529752399, -0.24507363577789998, 0.9776615394020413, 0.0
0.4299999792196667, -0.04238679673509778, -0.02606277133657006, -0.06396382266102522, 0.29479823720948517, 0.0, -0.3638789868499758, -0.04064414272378091, -0.02102474126780922, -0.04880037628882557, 0.2192490303257278, 0.0, -0.055657337889466585, 0.1775378795165426, 0.24852938071553174, -0.20230707913404605, 0.8552918071183724, 0.0, 0.035999564671758105, -0.1490926464845377, -0.24798894649396874, 0.9765872019809763, 0.0
0.4299999792196667, -0.04328821007546794, -0.026147257489671352, -0.06423319747590973, 0.2949923422569164, 0.0, -0.36453515385423874, -0.04080237113217406, -0.020413316127987167, -0.04810987516751755, 0.21976612425920392, 0.0, -0.05366196020246093, 0.18142864777023396, 0.25520129971634953, -0.21974690469348096, 0.8181225842175175, 0.0, 0.03821772211860777, -0.14877775767155138, -0.2509042572100374, 0.975512864559911, 0.0
0.4299999792196667, -0.044189623415838104, -0.026231743642772636, -0.06450257229079423, 0.29518644730434773, 0.0, -0.3651913208585015, -0.04096059954056721, -0.019801890988165108, -0.047419374046209536, 0.22028321819268004, 0.0, -0.05166658251545528, 0.1853194160239253, 0.2618732187171673, -0.23718673025291587, 0.7809533613166623, 0.0, 0.04043587956545743, -0.14846286885856508, -0.25381956792610616, 0.9744385271388458, 0.0
0.4299999792196667, -0.045091036756208264, -0.026316229795873926, -0.06477194710567874, 0.295380552351779, 0.0, -0.3658474878627642, -0.041118827948960365, -0.019190465848343056, -0.04672887292490153, 0.22080031212615614, 0.0, -0.04967120482844963, 0.18921018427761666, 0.26854513771798505, -0.2546265558123508, 0.7437841384158074, 0.0, 0.04265403701230709, -0.14814798004557875, -0.25673487864217487, 0.9733641897177807, 0.0
0.4299999792196667, -0.045691125982538626, -0.026289393613295263, -0.06480372536256736, 0.29621836973393084, 0.0, -0.36713325796007446, -0.04124234036226795, -0.01902746920043345, -0.045717387602727526, 0.22175533534889644, 0.0, -0.0473051816911076, 0.18825874421583072, 0.27985486428959133, -0.2721211882009568, 0.6949820237790468, 0.0, 0.04645424466896851, -0.14753023471946936, -0.2624598727479816, 0.9725558020774762, 0.0
0.4299999792196667, -0.04629121520886897, -0.026262557430716597, -0.06483550361945596, 0.2970561871160827, 0.0, -0.36841902805738463, -0.04136585277557553, -0.018864472552523853, -0.044705902280553544, 0.2227103585716367, 0.0, -0.04493915855376558, 0.1873073041540448, 0.2911645908611976, -0.2896158205895628, 0.6461799091422862, 0.0, 0.05025445232562994, -0.14691248939336, -0.26818486685378845, 0.9717474144371713, 0.0
0.4299999792196667, -0.04689130443519933, -0.026235721248137934, -0.06486728187634458, 0.29789400449823455, 0.0, -0.36970479815469487, -0.04148936518888312, -0.01870147590461425, -0.04369441695837955, 0.22366538179437695, 0.0, -0.04257313541642356, 0.18635586409225888, 0.3024743174328038, -0.30711045297816886, 0.5973777945055257, 0.0, 0.05405465998229135, -0.1462947440672506, -0.27390986095959513, 0.9709390267968667, 0.0
0.4299999792196667, -0.047491393661529685, -0.02620888506555927, -0.06489906013323318, 0.29873182188038644, 0.0, -0.37099056825200505, -0.0416128776021907, -0.018538479256704654, -0.04268293163620556, 0.22462040501711722, 0.0, -0.040207112279081525, 0.18540442403047297, 0.31378404400441007, -0.3246050853667749, 0.5485756798687652, 0.0, 0.057854867638952784, -0.14567699874114123, -0.2796348550654019, 0.9701306391565618, 0.0
0.4299999792196667, -0.04809148288786003, -0.026182048882980605, -0.0649308383901218, 0.29956963926253827, 0.0, -0.37227633834931523, -0.04173639001549828, -0.018375482608795048, -0.04167144631403157, 0.2255754282398575, 0.0, -0.037841089141739497, 0.18445298396868703, 0.32509377057601635, -0.34209971775538095, 0.49977356523200456, 0.0, 0.061655075295614196, -0.14505925341503187, -0.28535984917120866, 0.9693222515162573, 0.0
0.4299999792196667, -0.04821276686477867, -0.02729642101549381, -0.06439404143471993, 0.30161027822397, 0.0, -0.37440713752924654, -0.04242513359024954, -0.019681867488032263, -0.040308849615575376, 0.22534768371642325, 0.0, -0.03576587660408912, 0.17714201091692228, 0.335999994477854, -0.3576780589104428, 0.44563315163850914, 0.0, 0.06430266437266591, -0.1450643602484232, -0.2901772720659784, 0.9687804070686585, 0.0
0.4299999792196667, -0.0483340508416973, -0.028410793148007017, -0.06385724447931805, 0.3036509171854018, 0.0, -0.3765379367091778, -0.043113877165000786, -0.020988252367269474, -0.03894625291711919, 0.225119939192989, 0.0, -0.03369066406643875, 0.16983103786515755, 0.34690621837969166, -0.37325640006550465, 0.39149273804501367, 0.0, 0.06695025344971763, -0.14506946708181453, -0.2949946949607481, 0.9682385626210599, 0.0
0.4299999792196667, -0.04845533481861594, -0.029525165280520217, -0.06332044752391616, 0.3056915561468335, 0.0, -0.3786687358891091, -0.04380262073975205, -0.022294637246506686, -0.03758365621866299, 0.22489219466955482, 0.0, -0.03161545152878837, 0.16252006481339276, 0.35781244228152936, -0.3888347412205665, 0.33735232445151825, 0.0, 0.06959784252676933, -0.1450745739152059, -0.29981211785551776, 0.9676967181734613, 0.0
0.4299999792196667, -0.048576618795534585, -0.03063953741303343, -0.06278365056851429, 0.30773219510826527, 0.0, -0.3807995350690404, -0.0444913643145033, -0.0236010221257439, -0.036221059520206794, 0.22466445014612058, 0.0, -0.029540238991137995, 0.155209091761628, 0.36871866618336696, -0.4044130823756283, 0.28321191085802283, 0.0, 0.07224543160382103, -0.14507968074859723, -0.3046295407502875, 0.9671548737258626, 0.0
0.4299999792196667, -0.04869790277245322, -0.03175390954554663, -0.062246853613112406, 0.3097728340696971, 0.0, -0.38293033424897166, -0.04518010788925455, -0.024907407004981112, -0.034858462821750605, 0.22443670562268633, 0.0, -0.027465026453487616, 0.14789811870986325, 0.37962489008520467, -0.41999142353069013, 0.22907149726452733, 0.0, 0.07489302068087275, -0.14508478758198856, -0.3094469636450572, 0.966613029278264, 0.0
0.4299999792196667, -0.049287439039994316, -0.0333811302726634, -0.06188962485780195, 0.3114859654876506, 0.0, -0.3833921064811474, -0.04754264036809259, -0.02558721589022556, -0.03365439228485795, 0.22388506289666696, 0.0, -0.029223907139926134, 0.13535326660891775, 0.3832921828908122, -0.43529812862228867, 0.18491290908400868, 0.0, 0.07332762091212504, -0.1449969730860037, -0.3087797347439953, 0.9673658246912341, 0.0
0.4299999792196667, -0.049876975307535404, -0.03500835099978017, -0.06153239610249152, 0.3131990969056042, 0.0, -0.38385387871332305, -0.04990517284693063, -0.026267024775470008, -0.0324503217479653, 0.22333342017064767, 0.0, -0.030982787826364645, 0.1228084145079723, 0.38695947569641964, -0.45060483371388715, 0.14075432090349002, 0.0, 0.0717622211433773, -0.14490915859001888, -0.3081125058429334, 0.9681186201042044, 0.0
0.4299999792196667, -0.050466511575076506, -0.036635571726896944, -0.06117516734718107, 0.31491222832355764, 0.0, -0.38431565094549863, -0.05226770532576866, -0.026946833660714445, -0.031246251211072648, 0.2227817774446283, 0.0, -0.03274166851280316, 0.1102635624070268, 0.39062676850202716, -0.4659115388054856, 0.09659573272297137, 0.0, 0.07019682137462957, -0.14482134409403402, -0.3074452769418714, 0.9688714155171746, 0.0
0.4299999792196667, -0.051056047842617594, -0.03826279245401372, -0.06081793859187064, 0.3166253597415112, 0.0, -0.38477742317767427, -0.0546302378046067, -0.027626642545958893, -0.030042180674179998, 0.222230134718609, 0.0, -0.03450054919924168, 0.09771871030608131, 0.3942940613076346, -0.48121824389708406, 0.05243714454245271, 0.0, 0.06863142160588184, -0.14473352959804917, -0.30677804804080955, 0.9696242109301446, 0.0
0.4299999792196667, -0.05164558411015869, -0.03989001318113049, -0.060460709836560184, 0.3183384911594648, 0.0, -0.38523919540984997, -0.05699277028344474, -0.02830645143120334, -0.02883811013728735, 0.22167849199258963, 0.0, -0.03625942988568019, 0.08517385820513582, 0.3979613541132421, -0.4965249489886825, 0.00827855636193408, 0.0, 0.0670660218371341, -0.14464571510206434, -0.30611081913974764, 0.9703770063431149, 0.0
0.4299999792196667, -0.052662959918558155, -0.04192080499492251, -0.060713110626337344, 0.3190502364284281, 0.0, -0.38364434844596257, -0.06143510132707569, -0.028350785586730796, -0.0280151706398112, 0.2217913030941215, 0.0, -0.042394126070758605, 0.06646932085338723, 0.39125601554790723, -0.5087725387058234, -0.02034145861884795, 0.0, 0.060389133534870056, -0.1442946560856597, -0.2984470923568745, 0.9736859690906539, 0.0
0.4299999792196667, -0.05368033572695763, -0.04395159680871453, -0.0609655114161145, 0.31976198169739134, 0.0, -0.3820495014820752, -0.06587743237070663, -0.028395119742258258, -0.027192231142335058, 0.22190411419565342, 0.0, -0.04852882225583702, 0.047764783501638645, 0.3845506769825722, -0.5210201284229643, -0.04896147359962997, 0.0, 0.05371224523260599, -0.14394359706925505, -0.29078336557400153, 0.976994931838193, 0.0
0.4299999792196667, -0.0546977115353571, -0.045982388622506545, -0.06121791220589167, 0.3204737269663547, 0.0, -0.38045465451818783, -0.0703197634143376, -0.028439453897785717, -0.026369291644858912, 0.22201692529718536, 0.0, -0.05466351844091543, 0.029060246149890053, 0.3778453384172373, -0.5332677181401053, -0.07758148858041199, 0.0, 0.04703535693034193, -0.1435925380528504, -0.2831196387911284, 0.9803038945857321, 0.0
0.4299999792196667, -0.055715087343756575, -0.048013180436298555, -0.06147031299566883, 0.3211854722353179, 0.0, -0.37885980755430043, -0.07476209445796855, -0.028483788053313176, -0.02554635214738276, 0.22212973639871722, 0.0, -0.06079821462599385, 0.010355708798141466, 0.37113999985190227, -0.5455153078572461, -0.10620150356119402, 0.0, 0.040358468628077876, -0.14324147903644577, -0.2754559120082553, 0.9836128573332712, 0.0
0.4299999792196667, -0.05673246315215604, -0.05004397225009058, -0.061722713785445985, 0.3218972175042812, 0.0, -0.37726496059041315, -0.0792044255015995, -0.028528122208840632, -0.024723412649906615, 0.22224254750024916, 0.0, -0.06693291081107225, -0.008348828553607128, 0.3644346612865674, -0.557762897574387, -0.13482151854197605, 0.0, 0.03368158032581382, -0.14289042002004113, -0.26779218522538223, 0.9869218200808102, 0.0
0.4299999792196667, -0.05704058776709333, -0.052479066094448586, -0.06224327568814581, 0.3209785180739334, 0.0, -0.3746889977314681, -0.0848004177845353, -0.02875183851236127, -0.023672993569976687, 0.22391741082902344, 0.0, -0.07598483582906733, -0.03497174711694931, 0.35179590139615247, -0.5608720620104748, -0.14769062349641066, 0.0, 0.022655599610153, -0.1420426273830824, -0.254156304770669, 0.9931006626239886, 0.0
0.4299999792196667, -0.05734871238203061, -0.054914159938806585, -0.06276383759084564, 0.3200598186435857, 0.0, -0.3721130348725232, -0.09039641006747111, -0.0289755548158819, -0.022622574490046756, 0.22559227415779778, 0.0, -0.08503676084706242, -0.06159466568029149, 0.33915714150573756, -0.5639812264465626, -0.16055972845084523, 0.0, 0.011629618894492176, -0.14119483474612374, -0.24052042431595566, 0.9992795051671668, 0.0
0.4299999792196667, -0.05765683699696789, -0.05734925378316458, -0.06328439949354547, 0.31914111921323796, 0.0, -0.3695370720135782, -0.09599240235040689, -0.029199271119402532, -0.021572155410116832, 0.2272671374865721, 0.0, -0.09408868586505752, -0.08821758424363367, 0.3265183816153227, -0.5670903908826503, -0.17342883340527981, 0.0, 0.0006036381788313541, -0.14034704210916502, -0.22688454386124243, 1.0054583477103451, 0.0
0.4299999792196667, -0.057964961611905175, -0.05978434762752258, -0.06380496139624531, 0.3182224197828902, 0.0, -0.36696110915463326, -0.10158839463334271, -0.029422987422923166, -0.0205217363301869, 0.22894200081534638, 0.0, -0.1031406108830526, -0.11484050280697584, 0.31387962172490774, -0.570199555318738, -0.18629793835971442, 0.0, -0.010422342536829466, -0.13949924947220635, -0.21324866340652915, 1.0116371902535235, 0.0
0.4299999792196667, -0.05827308622684246, -0.062219441471880584, -0.06432552329894513, 0.3173037203525424, 0.0, -0.36438514629568824, -0.10718438691627852, -0.0296467037264438, -0.019471317250256973, 0.23061686414412072, 0.0, -0.11219253590104768, -0.14146342137031803, 0.3012408618344929, -0.5733087197548258, -0.19916704331414903, 0.0, -0.021448323252490284, -0.13865145683524766, -0.19961278295181586, 1.0178160327967019, 0.0
0.4299999792196667, -0.05673882348101616, -0.06569646755814776, -0.06433096523555284, 0.3156461671992894, 0.0, -0.36159777519510766, -0.11346528584213798, -0.030371819962806617, -0.018631843550644987, 0.23290436945627155, 0.0, -0.12198555459751002, -0.17252037905764128, 0.29593308868637536, -0.5644265367332335, -0.19622543048625277, 0.0, -0.036659023366990146, -0.1367759354458325, -0.1827452417783978, 1.0245929508053198, 0.0
0.4299999792196667, -0.05520456073518986, -0.06917349364441494, -0.06433640717216058, 0.31398861404603634, 0.0, -0.3588104040945272, -0.11974618476799748, -0.031096936199169437, -0.017792369851032996, 0.2351918747684224, 0.0, -0.13177857329397238, -0.20357733674496453, 0.2906253155382578, -0.555544353711641, -0.19328381765835648, 0.0, -0.05186972348149, -0.13490041405641734, -0.16587770060497972, 1.0313698688139374, 0.0
0.4299999792196667, -0.053670297989363555, -0.07265051973068212, -0.06434184910876828, 0.31233106089278334, 0.0, -0.35602303299394666, -0.12602708369385696, -0.03182205243553225, -0.016952896151421006, 0.2374793800805733, 0.0, -0.14157159199043473, -0.2346342944322878, 0.28531754239014034, -0.5466621706900487, -0.19034220483046022, 0.0, -0.06708042359598985, -0.1330248926670022, -0.14901015943156165, 1.0381467868225553, 0.0
0.4299999792196667, -0.052136035243537264, -0.0761275458169493, -0.06434729104537601, 0.31067350773953023, 0.0, -0.3532356618933662, -0.1323079826197164, -0.03254716867189507, -0.01611342245180902, 0.23976688539272414, 0.0, -0.15136461068689705, -0.2656912521196111, 0.2800097692420228, -0.5377799876684562, -0.1874005920025639, 0.0, -0.08229112371048972, -0.13114937127758705, -0.13214261825814358, 1.044923704831173, 0.0
0.4299999792196667, -0.05060177249771096, -0.07960457190321649, -0.06435273298198371, 0.30901595458627723, 0.0, -0.35044829079278556, -0.1385888815455759, -0.033272284908257885, -0.015273948752197033, 0.24205439070487497, 0.0, -0.16115762938335942, -0.2967482098069343, 0.27470199609390533, -0.528897804646864, -0.1844589791746676, 0.0, -0.09750182382498959, -0.12927384988817192, -0.1152750770847255, 1.0517006228397907, 0.0
0.4299999792196667, -0.04786612388044743, -0.08445563776464764, -0.06349718410182917, 0.308952752723404, 0.0, -0.3480762940915457, -0.14562496349482232, -0.03466445272023062, -0.01611554058338924, 0.24424232149254108, 0.0, -0.1686812132086144, -0.3234183906297834, 0.2838051622334097, -0.5072151395263669, -0.16590676801647414, 0.0, -0.11357635161441793, -0.12629164558879616, -0.10028214449352378, 1.055279724158295, 0.0
0.4299999792196667, -0.04513047526318389, -0.08930670362607879, -0.0626416352216746, 0.3088895508605308, 0.0, -0.3457042973903058, -0.1526610454440687, -0.03605662053220335, -0.01695713241458145, 0.24643025228020715, 0.0, -0.17620479703386932, -0.3500885714526325, 0.2929083283729141, -0.4855324744058698, -0.14735455685828064, 0.0, -0.12965087940384623, -0.12330944128942038, -0.08528921190232204, 1.0588588254767992, 0.0
0.4299999792196667, -0.04239482664592035, -0.09415776948750992, -0.061786086341520045, 0.3088263489976576, 0.0, -0.3433323006890659, -0.1596971273933151, -0.03744878834417608, -0.01779872424577366, 0.24861818306787317, 0.0, -0.1837283808591243, -0.3767587522754816, 0.3020114945124185, -0.4638498092853726, -0.12880234570008714, 0.0, -0.14572540719327456, -0.12032723699004462, -0.07029627931112031, 1.0624379267953032, 0.0
0.4299999792196667, -0.039659178028656816, -0.09900883534894109, -0.060930537461365494, 0.30876314713478437, 0.0, -0.34096030398782595, -0.16673320934256147, -0.03884095615614881, -0.018640316076965868, 0.2508061138555393, 0.0, -0.19125196468437922, -0.40342893309833083, 0.31111466065192284, -0.4421671441648756, -0.11025013454189365, 0.0, -0.1617999349827029, -0.11734503269066886, -0.05530334671991859, 1.0660170281138075, 0.0
0.4299999792196667, -0.036923529411393284, -0.10385990121037225, -0.06007498858121093, 0.3086999452719112, 0.0, -0.33858830728658607, -0.17376929129180788, -0.04023312396812155, -0.019481907908158076, 0.25299404464320535, 0.0, -0.1987755485096342, -0.4300991139211799, 0.32021782679142724, -0.4204844790443786, -0.09169792338370017, 0.0, -0.17787446277213123, -0.11436282839129307, -0.040310414128716866, 1.0695961294323117, 0.0
0.4299999792196667, -0.03639226235719343, -0.10773949586619233, -0.05964350723633535, 0.3096827122484411, 0.0, -0.3372132775606704, -0.17857813240264556, -0.04073441918120861, -0.0207505852979718, 0.2544494188559074, 0.0, -0.2010971470833935, -0.4457822970044091, 0.3419391195389294, -0.3890019577255416, -0.06255318263331525, 0.0, -0.18671051325093488, -0.11244803325398373, -0.03212387030321745, 1.068441730267799, 0.0
0.4299999792196667, -0.03586099530299357, -0.1116190905220124, -0.059212025891459755, 0.31066547922497106, 0.0, -0.3358382478347547, -0.18338697351348318, -0.04123571439429567, -0.022019262687785528, 0.25590479306860936, 0.0, -0.20341874565715282, -0.46146548008763816, 0.3636604122864316, -0.35751943640670447, -0.03340844188293032, 0.0, -0.19554656372973855, -0.11053323811667434, -0.023937326477718034, 1.0672873311032864, 0.0
0.4299999792196667, -0.0353297282487937, -0.11549868517783249, -0.058780544546584164, 0.31164824620150106, 0.0, -0.334463218108839, -0.18819581462432083, -0.04173700960738274, -0.02328794007759925, 0.2573601672813114, 0.0, -0.20574034423091211, -0.47714866317086735, 0.3853817050339338, -0.3260369150878675, -0.004263701132545407, 0.0, -0.20438261420854217, -0.10861844297936497, -0.015750782652218617, 1.066132931938774, 0.0
0.4299999792196667, -0.03479846119459384, -0.11937827983365258, -0.05834906320170858, 0.31263101317803105, 0.0, -0.3330881883829232, -0.1930046557351585, -0.04223830482046981, -0.024556617467412976, 0.2588155414940134, 0.0, -0.20806194280467144, -0.4928318462540965, 0.407102997781436, -0.2945543937690305, 0.024881039617839516, 0.0, -0.21321866468734585, -0.1067036478420556, -0.007564238826719202, 1.0649785327742614, 0.0
0.4299999792196667, -0.034267194140393975, -0.12325787448947266, -0.05791758185683299, 0.313613780154561, 0.0, -0.3317131586570075, -0.19781349684599614, -0.04273960003355687, -0.0258252948572267, 0.2602709157067154, 0.0, -0.21038354137843074, -0.5085150293373256, 0.4288242905289382, -0.2630718724501934, 0.05402578036822445, 0.0, -0.2220547151661495, -0.10478885270474622, 0.0006223049987802121, 1.063824133609749, 0.0
0.4299999792196667, -0.036047772760093286, -0.12217707446325328, -0.057761057238855634, 0.3145359353368277, 0.0, -0.33192344988792183, -0.19732822724610088, -0.041357894423252294, -0.025820249110359184, 0.2608382803586367, 0.0, -0.20715990428736322, -0.5108854238263122, 0.45256081373462165, -0.2320769598215152, 0.07957839824762189, 0.0, -0.21967024983273334, -0.10620350943319677, 0.00016692510480315975, 1.0605580536019312, 0.0
0.4299999792196667, -0.037828351379792596, -0.12109627443703387, -0.057604532620878286, 0.3154580905190944, 0.0, -0.33213374111883615, -0.19684295764620563, -0.03997618881294771, -0.025815203363491666, 0.261405645010558, 0.0, -0.20393626719629568, -0.5132558183152989, 0.47629733694030507, -0.20108204719283695, 0.10513101612701929, 0.0, -0.21728578449931718, -0.1076181661616473, -0.00028845478917389263, 1.0572919735941138, 0.0
0.4299999792196667, -0.03960892999949191, -0.12001547441081449, -0.057448008002900924, 0.31638024570136114, 0.0, -0.3323440323497504, -0.19635768804631037, -0.03859448320264313, -0.025810157616624155, 0.26197300966247933, 0.0, -0.20071263010522813, -0.5156262128042853, 0.5000338601459885, -0.1700871345641587, 0.13068363400641672, 0.0, -0.21490131916590108, -0.1090328228900978, -0.000743834683150945, 1.0540258935862963, 0.0
0.4299999792196667, -0.04138950861919122, -0.11893467438459508, -0.05729148338492356, 0.3173024008836278, 0.0, -0.3325543235806647, -0.19587241844641515, -0.03721277759233855, -0.025805111869756637, 0.26254037431440064, 0.0, -0.1974889930141606, -0.517996607293272, 0.5237703833516719, -0.13909222193548043, 0.15623625188581414, 0.0, -0.21251685383248492, -0.11044747961854835, -0.0011992145771279976, 1.0507598135784786, 0.0
0.4299999792196667, -0.04317008723889052, -0.1178538743583757, -0.05713495876694621, 0.31822455606589456, 0.0, -0.33276461481157904, -0.19538714884651986, -0.035831071982033974, -0.025800066122889126, 0.26310773896632195, 0.0, -0.19426535592309305, -0.5203670017822586, 0.5475069065573553, -0.10809730930680218, 0.18178886976521155, 0.0, -0.21013238849906876, -0.11186213634699887, -0.00165459447110505, 1.0474937335706611, 0.0
0.4299999792196667, -0.04557867651322774, -0.11250287080094967, -0.05655230852143593, 0.3189868425793371, 0.0, -0.3352896350003168, -0.18966546737563342, -0.03362189390511997, -0.02472228377094643, 0.26188497525500876, 0.0, -0.18633383280111093, -0.509442619474883, 0.5628147949821867, -0.08514613085744108, 0.1965797497777001, 0.0, -0.1978300582752683, -0.11539967683815705, -0.009894497794040082, 1.0449112327083383, 0.0
0.4299999792196667, -0.047987265787564945, -0.10715186724352367, -0.05596965827592566, 0.31974912909277964, 0.0, -0.33781465518905457, -0.18394378590474691, -0.03141271582820596, -0.023644501419003733, 0.2606622115436955, 0.0, -0.1784023096791289, -0.4985182371675077, 0.578122683407018, -0.06219495240808, 0.21137062979018867, 0.0, -0.18552772805146786, -0.11893721732931524, -0.01813440111697512, 1.0423287318460153, 0.0
0.4299999792196667, -0.05039585506190216, -0.10180086368609764, -0.055387008030415394, 0.3205114156062222, 0.0, -0.3403396753777923, -0.17822210443386047, -0.029203537751291957, -0.022566719067061033, 0.2594394478323823, 0.0, -0.1704707865571468, -0.4875938548601322, 0.5934305718318493, -0.03924377395871889, 0.2261615098026772, 0.0, -0.17322539782766738, -0.12247475782047341, -0.026374304439910148, 1.0397462309836922, 0.0
0.4299999792196667, -0.05280444433623938, -0.09644986012867161, -0.05480435778490511, 0.3212737021196647, 0.0, -0.3428646955665301, -0.17250042296297396, -0.026994359674377952, -0.02148893671511834, 0.2582166841210691, 0.0, -0.1625392634351647, -0.4766694725527568, 0.6087384602566807, -0.016292595509357796, 0.24095238981516576, 0.0, -0.1609230676038669, -0.1260122983116316, -0.03461420776284518, 1.0371637301213694, 0.0
0.4299999792196667, -0.055213033610576584, -0.09109885657124561, -0.05422170753939484, 0.32203598863310723, 0.0, -0.34538971575526783, -0.16677874149208752, -0.02478518159746395, -0.020411154363175647, 0.2569939204097559, 0.0, -0.1546077403131826, -0.46574509024538135, 0.624046348681512, 0.00665858294000329, 0.25574326982765433, 0.0, -0.14862073738006643, -0.12954983880278978, -0.04285411108578021, 1.0345812292590464, 0.0
0.4299662978557616, -0.058101444265016025, -0.08645491102654373, -0.0529203736430129, 0.3233803459427484, 0.0, -0.3504375256019593, -0.15892947678494945, -0.023852834041431438, -0.020068456870151456, 0.2530320474423383, 0.0, -0.1430239621424282, -0.4423660733023595, 0.6279263831603036, 0.018368059025354617, 0.2599496599326178, 0.0, -0.13057416346507314, -0.13242149185294913, -0.05703255017682204, 1.0311900126345195, 0.0
0.42993261649185666, -0.06098985491945547, -0.08181096548184184, -0.05161903974663096, 0.32472470325238956, 0.0, -0.3554853354486508, -0.15108021207781142, -0.022920486485398926, -0.019725759377127266, 0.24907017447492066, 0.0, -0.1314401839716738, -0.41898705635933753, 0.6318064176390952, 0.03007753511070594, 0.2641560500375813, 0.0, -0.11252758955007981, -0.13529314490310845, -0.07121098926786387, 1.0277987960099924, 0.0
0.4298989351279517, -0.06387826557389491, -0.07716701993713997, -0.050317705850249014, 0.3260690605620307, 0.0, -0.3605331452953422, -0.14323094737067335, -0.02198813892936641, -0.01938306188410308, 0.24510830150750307, 0.0, -0.11985640580091941, -0.3956080394163156, 0.6356864521178868, 0.04178701119605727, 0.26836244014254484, 0.0, -0.09448101563508648, -0.1381647979532678, -0.0853894283589057, 1.0244075793854652, 0.0
0.42986525376404666, -0.06676667622833435, -0.0725230743924381, -0.04901637195386707, 0.3274134178716719, 0.0, -0.3655809551420336, -0.13538168266353534, -0.021055791373333896, -0.01904036439107889, 0.24114642854008547, 0.0, -0.10827262763016501, -0.37222902247329365, 0.6395664865966784, 0.05349648728140859, 0.27256883024750833, 0.0, -0.07643444172009317, -0.14103645100342713, -0.09956786744994751, 1.021016362760938, 0.0
0.4298315724001417, -0.0696550868827738, -0.06787912884773621, -0.04771503805748513, 0.32875777518131305, 0.0, -0.3706287649887251, -0.1275324179563973, -0.020123443817301388, -0.018697666898054698, 0.2371845555726679, 0.0, -0.09668884945941064, -0.34885000553027173, 0.6434465210754698, 0.06520596336675993, 0.2767752203524718, 0.0, -0.05838786780509987, -0.14390810405358648, -0.11374630654098936, 1.0176251461364112, 0.0
0.42932139520649126, -0.07301874755093864, -0.06727571965610273, -0.045651337013449214, 0.33123009340795756, 0.0, -0.37655907962773644, -0.12107365322459879, -0.021280235479152615, -0.020334148342182553, 0.23170298602829528, 0.0, -0.08345902194956895, -0.31682046660793317, 0.6368751365302255, 0.06444129447888841, 0.2702845450678274, 0.0, -0.040221755940571605, -0.14526787611118125, -0.1299805972322892, 1.0126975022087197, 0.0
0.42881121801284083, -0.07638240821910348, -0.06667231046446923, -0.043587635969413285, 0.33370241163460207, 0.0, -0.3824893942667479, -0.11461488849280027, -0.02243702714100384, -0.021970629786310408, 0.22622141648392266, 0.0, -0.07022919443972726, -0.28479092768559455, 0.6303037519849811, 0.0636766255910169, 0.263793869783183, 0.0, -0.02205564407604335, -0.14662764816877602, -0.14621488792358903, 1.007769858281028, 0.0
0.4283010408191903, -0.07974606888726833, -0.06606890127283573, -0.041523934925377363, 0.3361747298612467, 0.0, -0.3884197089057592, -0.10815612376100174, -0.02359381880285507, -0.02360711123043826, 0.22073984693955007, 0.0, -0.056999366929885574, -0.252761388763256, 0.6237323674397367, 0.0629119567031454, 0.2573031944985385, 0.0, -0.003889532211515087, -0.1479874202263708, -0.16244917861488886, 1.0028422143533364, 0.0
0.42779086362553986, -0.08310972955543315, -0.06546549208120224, -0.039460233881341435, 0.33864704808789114, 0.0, -0.3943500235447706, -0.10169735902920322, -0.024750610464706297, -0.02524359267456611, 0.21525827739517744, 0.0, -0.04376953942004389, -0.2207318498409174, 0.6171609828944922, 0.06214728781527388, 0.2508125192138941, 0.0, 0.014276579653013169, -0.14934719228396556, -0.1786834693061887, 0.9979145704256447, 0.0
0.4272806864318894, -0.086473390223598, -0.06486208288956874, -0.03739653283730552, 0.3411193663145357, 0.0, -0.40028033818378195, -0.09523859429740471, -0.025907402126557524, -0.02688007411869396, 0.20977670785080488, 0.0, -0.030539711910202213, -0.18870231091857884, 0.6105895983492479, 0.06138261892740236, 0.24432184392924966, 0.0, 0.03244269151754143, -0.15070696434156033, -0.19491775999748853, 0.992986926497953, 0.0
0.4257631575538654, -0.08911476348505168, -0.06599947696211331, -0.035310946411647136, 0.3431729660909928, 0.0, -0.4045544959329419, -0.0904356995233286, -0.02751708159656005, -0.02878835324377394, 0.20625588307602472, 0.0, -0.018693458560162295, -0.15650542110091278, 0.5951305958271204, 0.047956019227779666, 0.22677468934746337, 0.0, 0.0455890189853092, -0.15084464289427466, -0.20680382919468832, 0.9882766842725483, 0.0
0.42424562867584137, -0.09175613674650532, -0.06713687103465787, -0.03322535998598876, 0.3452265658674498, 0.0, -0.40882865368210186, -0.0856328047492525, -0.029126761066562583, -0.03069663236885392, 0.20273505830124455, 0.0, -0.0068472052101223755, -0.12430853128324669, 0.5796715933049928, 0.034529419528156954, 0.20922753476567707, 0.0, 0.05873534645307697, -0.15098232144698895, -0.21868989839188815, 0.9835664420471435, 0.0
0.4227280997978173, -0.09439751000795898, -0.06827426510720243, -0.031139773560330382, 0.34728016564390696, 0.0, -0.4131028114312618, -0.08082990997517639, -0.030736440536565105, -0.032604911493933894, 0.1992142335264645, 0.0, 0.004999048139917538, -0.09211164146558064, 0.5642125907828655, 0.021102819828534247, 0.19168038018389078, 0.0, 0.07188167392084474, -0.1511199999997033, -0.23057596758908797, 0.9788561998217389, 0.0
0.4212105709197933, -0.09703888326941264, -0.06941165917974698, -0.029054187134671998, 0.34933376542036404, 0.0, -0.41737696918042166, -0.07602701520110029, -0.032346120006567634, -0.034513190619013874, 0.19569340875168434, 0.0, 0.01684530148995746, -0.05991475164791458, 0.548753588260738, 0.007676220128911537, 0.1741332256021045, 0.0, 0.08502800138861251, -0.1512576785524176, -0.24246203678628778, 0.974145957596334, 0.0
0.4196930420417692, -0.09968025653086629, -0.07054905325229155, -0.02696860070901362, 0.35138736519682107, 0.0, -0.4216511269295816, -0.07122412042702418, -0.03395579947657016, -0.036421469744093854, 0.19217258397690423, 0.0, 0.028691554839997382, -0.027717861830248526, 0.5332945857386104, -0.005750379570711167, 0.15658607102031818, 0.0, 0.09817432885638028, -0.1513953571051319, -0.2543481059834876, 0.9694357153709294, 0.0
0.418735442713053, -0.10035738493944554, -0.07109305143618716, -0.026267086211059675, 0.351368484224973, 0.0, -0.42237138242397765, -0.06867381565341278, -0.034482971290213146, -0.03809519407099831, 0.19204272798989735, 0.0, 0.03610358210638676, -0.002134603299568938, 0.5119191020571229, -0.029290709686859387, 0.13370707101123916, 0.0, 0.10210987632455835, -0.15111006558560092, -0.2569381815747642, 0.9650677322118407, 0.0
0.41777784338433677, -0.10103451334802477, -0.07163704962008276, -0.025565571713105726, 0.3513496032531249, 0.0, -0.4230916379183737, -0.06612351087980137, -0.035010143103856126, -0.03976891839790277, 0.19191287200289048, 0.0, 0.04351560937277613, 0.02344865523111065, 0.49054361837563537, -0.052831039803007615, 0.11082807100216015, 0.0, 0.10604542379273642, -0.15082477406606992, -0.25952825716604083, 0.960699749052752, 0.0
0.41682024405562057, -0.10171164175660401, -0.07218104780397838, -0.024864057215151784, 0.3513307222812769, 0.0, -0.4238118934127697, -0.06357320610618998, -0.03553731491749911, -0.04144264272480722, 0.19178301601588355, 0.0, 0.05092763663916551, 0.049031913761790225, 0.4691681346941478, -0.07637136991915583, 0.08794907099308114, 0.0, 0.1099809712609145, -0.15053948254653896, -0.2621183327573174, 0.9563317658936634, 0.0
0.4158626447269044, -0.10238877016518323, -0.07272504598787398, -0.02416254271719783, 0.35131184130942883, 0.0, -0.42453214890716573, -0.06102290133257859, -0.03606448673114209, -0.043116367051711686, 0.19165316002887667, 0.0, 0.05833966390555489, 0.07461517229246982, 0.4477926510126602, -0.09991170003530404, 0.06507007098400211, 0.0, 0.11391651872909254, -0.15025419102700796, -0.264708408348594, 0.9519637827345747, 0.0
0.4149050453981881, -0.10306589857376246, -0.07326904417176959, -0.023461028219243882, 0.3512929603375808, 0.0, -0.42525240440156176, -0.05847259655896719, -0.03659165854478507, -0.04479009137861614, 0.1915233040418698, 0.0, 0.06575169117194427, 0.1001984308231494, 0.4264171673311727, -0.12345203015145229, 0.04219107097492308, 0.0, 0.11785206619727062, -0.14996889950747694, -0.26729848393987055, 0.947595799575486, 0.0
0.41590344703415744, -0.10127316827367909, -0.07184051312296325, -0.024601397030965547, 0.34878804983248446, 0.0, -0.42261652089873736, -0.05841288291113699, -0.03572235681919064, -0.04649272708457988, 0.19440905237106826, 0.0, 0.06509734140449866, 0.11369695665825752, 0.4055654674301842, -0.1492512976116757, 0.023886900075903564, 0.0, 0.1121404681916046, -0.14898273612022261, -0.2595110133130311, 0.9436560678549593, 0.0
0.4169018486701268, -0.0994804379735957, -0.07041198207415691, -0.025741765842687208, 0.3462831393273882, 0.0, -0.4199806373959128, -0.05835316926330681, -0.03485305509359623, -0.048195362790543636, 0.1972948007002667, 0.0, 0.06444299163705305, 0.12719548249336562, 0.38471376752919556, -0.1750505650718991, 0.005582729176884051, 0.0, 0.1064288701859386, -0.14799657273296823, -0.25172354268619157, 0.9397163361344324, 0.0
0.4179002503060962, -0.09768770767351227, -0.06898345102535058, -0.02688213465440887, 0.343778228822292, 0.0, -0.41734475389308845, -0.05829345561547664, -0.033983753368001794, -0.049897998496507376, 0.20018054902946514, 0.0, 0.06378864186960745, 0.14069400832847373, 0.36386206762820705, -0.20084983253212252, -0.01272144172213546, 0.0, 0.10071727218027261, -0.14701040934571388, -0.24393607205935214, 0.9357766044139056, 0.0
0.41889865194206555, -0.09589497737342888, -0.06755491997654425, -0.02802250346613053, 0.34127331831719565, 0.0, -0.414708870390264, -0.058233741967646455, -0.03311445164240738, -0.05160063420247112, 0.20306629735866358, 0.0, 0.06313429210216184, 0.15419253416358186, 0.3430103677272185, -0.22664909999234592, -0.031025612621154976, 0.0, 0.09500567417460662, -0.1460242459584595, -0.23614860143251262, 0.9318368726933789, 0.0
0.41989705357803486, -0.0941022470733455, -0.06612638892773792, -0.029162872277852196, 0.3387684078120993, 0.0, -0.4120729868874396, -0.05817402831981627, -0.03224514991681295, -0.05330326990843486, 0.20595204568786205, 0.0, 0.06247994233471625, 0.16769105999868997, 0.3221586678262299, -0.2524483674525693, -0.0493297835201745, 0.0, 0.08929407616894061, -0.14503808257120518, -0.22836113080567316, 0.927897140972852, 0.0
0.42139105192708354, -0.09052269336549917, -0.06298254829007156, -0.03112616418095503, 0.33516518953399105, 0.0, -0.4079115355200564, -0.05907353017558966, -0.030931721586846397, -0.05477660041754724, 0.20945290389599935, 0.0, 0.05700356130514397, 0.16901353786082812, 0.30737396278863494, -0.27101135776422314, -0.059998772845303146, 0.0, 0.07911797480589217, -0.14362904580294605, -0.21575851319340858, 0.9253138093338051, 0.0
0.42288505027613216, -0.08694313965765282, -0.0598387076524052, -0.03308945608405787, 0.3315619712558828, 0.0, -0.40375008415267327, -0.05997303203136303, -0.029618293256879834, -0.05624993092665962, 0.2129537621041367, 0.0, 0.05152718027557169, 0.17033601572296628, 0.29258925775104, -0.28957434807587695, -0.07066776217043179, 0.0, 0.06894187344284372, -0.14222000903468696, -0.203155895581144, 0.9227304776947582, 0.0
0.4243790486251808, -0.0833635859498065, -0.05669486701473884, -0.03505274798716071, 0.3279587529777745, 0.0, -0.3995886327852901, -0.06087253388713641, -0.028304864926913274, -0.057723261435771986, 0.21645462031227397, 0.0, 0.04605079924599942, 0.17165849358510446, 0.277804552713445, -0.30813733838753077, -0.08133675149556044, 0.0, 0.05876577207979529, -0.14081097226642786, -0.19055327796887941, 0.9201471460557115, 0.0
0.4258730469742294, -0.07978403224196015, -0.05355102637707247, -0.037016039890263544, 0.32435553469966627, 0.0, -0.3954271814179069, -0.061772035742909785, -0.02699143659694671, -0.059196591944884365, 0.2199554785204113, 0.0, 0.04057441821642714, 0.1729809714472426, 0.26301984767585, -0.3267003286991846, -0.09200574082068907, 0.0, 0.04858967071674685, -0.13940193549816873, -0.17795066035661478, 0.9175638144166646, 0.0
0.42736704532327807, -0.07620447853411381, -0.05040718573940611, -0.03897933179336638, 0.32075231642155794, 0.0, -0.3912657300505238, -0.06267153759868317, -0.025678008266980152, -0.060669922453996744, 0.2234563367285486, 0.0, 0.03509803718685486, 0.17430344930938074, 0.24823514263825502, -0.34526331901083834, -0.10267473014581774, 0.0, 0.038413569353698405, -0.13799289872990964, -0.16534804274435017, 0.9149804827776177, 0.0
0.42786114105320067, -0.07355348222529637, -0.047308438126425975, -0.04072374823816192, 0.31770523683762214, 0.0, -0.38846405074073537, -0.061823057651065036, -0.02485683643897043, -0.060746228597959785, 0.22546545155303085, 0.0, 0.030953467551568206, 0.1695734359942094, 0.24385547100916574, -0.3527486347469141, -0.10627579678202416, 0.0, 0.03387622328372058, -0.1373786007781388, -0.15872821833104592, 0.9141602827489356, 0.0
0.42835523678312326, -0.07090248591647891, -0.044209690513445844, -0.04246816468295745, 0.31465815725368634, 0.0, -0.385662371430947, -0.060974577703446914, -0.024035664610960704, -0.06082253474192283, 0.2274745663775131, 0.0, 0.026808897916281552, 0.1648434226790381, 0.23947579938007652, -0.3602339504829898, -0.10987686341823058, 0.0, 0.02933887721374276, -0.13676430282636795, -0.15210839391774167, 0.9133400827202532, 0.0
0.42884933251304586, -0.06825148960766146, -0.0411109429004657, -0.04421258112775299, 0.31161107766975055, 0.0, -0.3828606921211586, -0.060126097755828785, -0.023214492782950978, -0.060898840885885874, 0.2294836812019954, 0.0, 0.022664328280994905, 0.16011340936386675, 0.23509612775098726, -0.36771926621906553, -0.113477930054437, 0.0, 0.024801531143764936, -0.13615000487459714, -0.14548856950443745, 0.912519882691571, 0.0
0.4293434282429684, -0.065600493298844, -0.03801219528748556, -0.04595699757254852, 0.3085639980858148, 0.0, -0.3800590128113703, -0.059277617808210656, -0.02239332095494125, -0.06097514702984892, 0.2314927960264776, 0.0, 0.01851975864570825, 0.15538339604869542, 0.23071645612189803, -0.3752045819551412, -0.1170789966906434, 0.0, 0.02026418507378711, -0.13553570692282627, -0.1388687450911332, 0.9116996826628887, 0.0
0.429837523972891, -0.06294949699002654, -0.03491344767450543, -0.04770141401734407, 0.30551691850187895, 0.0, -0.37725733350158186, -0.05842913786059252, -0.021572149126931527, -0.06105145317381196, 0.23350191085095987, 0.0, 0.0143751890104216, 0.1506533827335241, 0.22633678449280875, -0.382689897691217, -0.12068006332684982, 0.0, 0.015726839003809286, -0.13492140897105542, -0.13224892067782892, 0.9108794826342066, 0.0
0.4298700150222462, -0.0620193586717612, -0.03317323293535115, -0.0485290320444131, 0.30423128803090893, 0.0, -0.3759899312493197, -0.05637074820253627, -0.021207714954337147, -0.06049563352582675, 0.23373181958266653, 0.0, 0.012454846518617687, 0.14698896483426047, 0.22823441641131986, -0.38373551397411126, -0.11954360509985018, 0.0, 0.01687738064160912, -0.13466663418442973, -0.1324410814284735, 0.9109584518015422, 0.0
0.4299025060716013, -0.061089220353495864, -0.03143301819619686, -0.04935665007148214, 0.30294565755993885, 0.0, -0.3747225289970574, -0.054312358544480015, -0.02084328078174277, -0.05993981387784153, 0.23396172831437323, 0.0, 0.010534504026813777, 0.14332454693499688, 0.23013204832983097, -0.38478113025700555, -0.11840714687285053, 0.0, 0.018027922279408953, -0.134411859397804, -0.13263324217911807, 0.911037420968878, 0.0
0.4299349971209564, -0.060159082035230536, -0.029692803457042574, -0.05018426809855119, 0.3016600270889689, 0.0, -0.3734551267447952, -0.052253968886423766, -0.020478846609148393, -0.05938399422985631, 0.23419163704607998, 0.0, 0.008614161535009865, 0.13966012903573324, 0.23202968024834209, -0.38582674653989985, -0.1172706886458509, 0.0, 0.01917846391720879, -0.13415708461117828, -0.13282540292976266, 0.9111163901362137, 0.0
0.4299674881703115, -0.059228943716965195, -0.027952588717888287, -0.051011886125620236, 0.3003743966179988, 0.0, -0.3721877244925329, -0.05019557922836752, -0.02011441243655402, -0.0588281745818711, 0.2344215457777867, 0.0, 0.006693819043205955, 0.13599571113646966, 0.2339273121668532, -0.38687236282279414, -0.11613423041885124, 0.0, 0.02032900555500863, -0.13390230982455253, -0.13301756368040724, 0.9111953593035494, 0.0
0.4299999792196667, -0.05829880539869985, -0.026212373978734008, -0.05183950415268928, 0.2990887661470288, 0.0, -0.3709203222402707, -0.04813718957031126, -0.019749978263959644, -0.05827235493388588, 0.2346514545094934, 0.0, 0.0047734765514020425, 0.13233129323720605, 0.23582494408536434, -0.3879179791056885, -0.1149977721918516, 0.0, 0.021479547192808462, -0.13364753503792684, -0.1332097244310518, 0.9112743284708853, 0.0
0.4299999792196667, -0.05758405467276463, -0.02532905795737777, -0.05198324912081767, 0.29916832174499314, 0.0, -0.370544688987998, -0.046387278829030446, -0.019981988023019905, -0.05824269515764333, 0.2340670554440726, 0.0, 0.003831609527362721, 0.13025905474060107, 0.23695163091201374, -0.3885095933622369, -0.11249987267436061, 0.0, 0.02481225863547939, -0.13312412056909753, -0.13553828686852656, 0.9123735507964252, 0.0
0.4299999792196667, -0.05686930394682941, -0.024445741936021535, -0.052126994088946076, 0.2992478773429576, 0.0, -0.3701690557357253, -0.04463736808774964, -0.020213997782080162, -0.058213035381400796, 0.23348265637865184, 0.0, 0.0028897425033233984, 0.1281868162439961, 0.23807831773866314, -0.3891012076187854, -0.11000197315686958, 0.0, 0.028144970078150318, -0.13260070610026825, -0.13786684930600135, 0.9134727731219654, 0.0
0.4299999792196667, -0.05615455322089418, -0.0235624259146653, -0.05227073905707448, 0.29932743294092196, 0.0, -0.3697934224834526, -0.04288745734646882, -0.02044600754114042, -0.05818337560515825, 0.23289825731323108, 0.0, 0.0019478754792840761, 0.1261145777473911, 0.23920500456531257, -0.38969282187533405, -0.10750407363937856, 0.0, 0.03147768152082125, -0.13207729163143894, -0.1401954117434761, 0.9145719954475056, 0.0
0.4299999792196667, -0.05543980249495897, -0.02267910989330906, -0.052414484025202886, 0.2994069885388864, 0.0, -0.36941778923117985, -0.041137546605188, -0.02067801730020068, -0.058153715828915716, 0.2323138582478103, 0.0, 0.0010060084552447545, 0.12404233925078613, 0.240331691391962, -0.3902844361318826, -0.10500617412188754, 0.0, 0.03481039296349217, -0.1315538771626097, -0.1425239741809509, 0.9156712177730455, 0.0
0.4299999792196667, -0.054725051769023744, -0.021795793871952827, -0.05255822899333129, 0.2994865441368508, 0.0, -0.36904215597890716, -0.039387635863907186, -0.02091002705926094, -0.05812405605267317, 0.23172945918238952, 0.0, 6.414143120543252e-05, 0.12197010075418117, 0.24145837821861144, -0.39087605038843104, -0.10250827460439653, 0.0, 0.0381431044061631, -0.13103046269378038, -0.14485253661842565, 0.9167704400985854, 0.0
0.4299999792196667, -0.05375929302605445, -0.022040824136298817, -0.05255338465745945, 0.30088715340828365, 0.0, -0.3695913587346322, -0.03827351959666232, -0.02200900852936421, -0.0587088614307438, 0.230813608129381, 0.0, -0.00022187563321478766, 0.12020181797906217, 0.24092043632722024, -0.39091506547853017, -0.09640195921828479, 0.0, 0.04163409312644624, -0.1309901344179521, -0.14833797658795084, 0.9182624068843849, 0.0
0.4299999792196667, -0.05279353428308517, -0.022285854400644803, -0.052548540321587615, 0.30228776267971663, 0.0, -0.37014056149035723, -0.03715940332941746, -0.02310798999946748, -0.05929366680881444, 0.2298977570763725, 0.0, -0.0005078926976350079, 0.11843353520394315, 0.24038249443582904, -0.39095408056862924, -0.09029564383217308, 0.0, 0.04512508184672938, -0.13094980614212381, -0.15182341655747605, 0.9197543736701841, 0.0
0.4299999792196667, -0.051827775540115875, -0.02253088466499079, -0.052543695985715774, 0.30368837195114956, 0.0, -0.37068976424608235, -0.036045287062172596, -0.024206971469570748, -0.059878472186885086, 0.228981906023364, 0.0, -0.000793909762055228, 0.11666525242882414, 0.23984455254443787, -0.3909930956587283, -0.08418932844606133, 0.0, 0.04861607056701251, -0.13090947786629556, -0.15530885652700122, 0.9212463404559833, 0.0
0.4299999792196667, -0.05086201679714658, -0.022775914929336775, -0.05253885164984395, 0.3050889812225825, 0.0, -0.3712389670018074, -0.03493117079492773, -0.02530595293967402, -0.06046327756495572, 0.22806605497035548, 0.0, -0.0010799268264754483, 0.11489696965370513, 0.23930661065304668, -0.3910321107488274, -0.07808301305994961, 0.0, 0.05210705928729565, -0.13086914959046725, -0.15879429649652643, 0.9227383072417827, 0.0
0.4299999792196667, -0.049896258054177293, -0.023020945193682765, -0.052534007313972106, 0.3064895904940154, 0.0, -0.3717881697575324, -0.03381705452768287, -0.026404934409777286, -0.061048082943026355, 0.22715020391734697, 0.0, -0.0013659438908956685, 0.11312868687858614, 0.23876866876165548, -0.39107112583892645, -0.07197669767383788, 0.0, 0.05559804800757878, -0.130828821314639, -0.16227973646605165, 0.9242302740275821, 0.0
0.4299999792196667, -0.049184625533483683, -0.02381925635008402, -0.052458096312551716, 0.3087302965476033, 0.0, -0.3726980692377916, -0.03315213120656284, -0.027708785070940604, -0.06172174442957942, 0.22640707064711585, 0.0, -0.0014151727874037608, 0.11320407707375772, 0.23874058990464941, -0.38865853976060216, -0.055365516046006334, 0.0, 0.057866892259367315, -0.1310300228708089, -0.1661393715365459, 0.9252632855426185, 0.0
0.4299999792196667, -0.048472993012790073, -0.024617567506485274, -0.052382185311131334, 0.31097100260119115, 0.0, -0.37360796871805085, -0.0324872078854428, -0.02901263573210392, -0.062395405916132504, 0.22566393737688467, 0.0, -0.0014644016839118529, 0.11327946726892932, 0.23871251104764335, -0.3862459536822778, -0.03875433441817479, 0.0, 0.06013573651115585, -0.1312312244269788, -0.1699990066070402, 0.9262962970576548, 0.0
0.4299999792196667, -0.047761360492096464, -0.025415878662886523, -0.05230627430971094, 0.3132117086547791, 0.0, -0.37451786819831007, -0.03182228456432276, -0.03031648639326724, -0.06306906740268557, 0.22492080410665352, 0.0, -0.001513630580419945, 0.11335485746410091, 0.23868443219063723, -0.38383336760395365, -0.02214315279034324, 0.0, 0.06240458076294438, -0.1314324259831487, -0.17385864167753445, 0.9273293085726914, 0.0
0.4299999792196667, -0.04704972797140286, -0.02621418981928778, -0.05223036330829055, 0.31545241470836693, 0.0, -0.3754277676785693, -0.031157361243202727, -0.031620337054430556, -0.06374272888923864, 0.22417767083642234, 0.0, -0.0015628594769280372, 0.11343024765927251, 0.23865635333363114, -0.3814207815256293, -0.005531971162511699, 0.0, 0.06467342501473292, -0.13163362753931862, -0.17771827674802873, 0.9283623200877276, 0.0
0.4299999792196667, -0.046338095450709244, -0.02701250097568903, -0.05215445230687016, 0.31769312076195483, 0.0, -0.3763376671588285, -0.030492437922082692, -0.03292418771559387, -0.06441639037579171, 0.22343453756619122, 0.0, -0.0016120883734361297, 0.11350563785444412, 0.23862827447662507, -0.379008195447305, 0.011079210465319844, 0.0, 0.06694226926652146, -0.13183482909548852, -0.18157791181852304, 0.9293953316027641, 0.0
0.4299999792196667, -0.0461841668354613, -0.0278330130692415, -0.0520578720692501, 0.31984410292935617, 0.0, -0.37680016893863144, -0.030167126351869317, -0.033641146283032865, -0.0648466014700377, 0.22296373150980722, 0.0, -0.0028717524292069503, 0.1161404287811568, 0.23978704743624316, -0.3732133043956144, 0.041253960066296017, 0.0, 0.06742955541983446, -0.1319517965241011, -0.18416664699693408, 0.9300520291871195, 0.0
0.4299999792196667, -0.04603023822021337, -0.02865352516279398, -0.051961291831630035, 0.3219950850967575, 0.0, -0.37726267071843445, -0.02984181478165595, -0.03435810485047186, -0.06527681256428369, 0.22249292545342325, 0.0, -0.004131416484977772, 0.11877521970786947, 0.24094582039586124, -0.3674184133439237, 0.0714287096672722, 0.0, 0.06791684157314747, -0.13206876395271372, -0.18675538217534512, 0.9307087267714748, 0.0
0.4299999792196667, -0.04587630960496542, -0.02947403725634645, -0.051864711594009974, 0.3241460672641589, 0.0, -0.37772517249823745, -0.029516503211442568, -0.035075063417910855, -0.06570702365852968, 0.22202211939703925, 0.0, -0.005391080540748593, 0.12141001063458218, 0.24210459335547935, -0.36162352229223316, 0.10160345926824839, 0.0, 0.06840412772646046, -0.13218573138132633, -0.1893441173537562, 0.9313654243558303, 0.0
0.4299999792196667, -0.045722380989717495, -0.030294549349898923, -0.05176813135638991, 0.32629704943156024, 0.0, -0.3781876742780404, -0.0291911916412292, -0.03579202198534985, -0.06613723475277566, 0.2215513133406553, 0.0, -0.0066507445965194156, 0.12404480156129487, 0.2432633663150974, -0.35582863124054254, 0.13177820886922456, 0.0, 0.06889141387977347, -0.13230269880993892, -0.19193285253216727, 0.9320221219401855, 0.0
0.4299999792196667, -0.04556845237446955, -0.031115061443451393, -0.05167155111876986, 0.3284480315989616, 0.0, -0.3786501760578434, -0.02886588007101583, -0.03650898055278884, -0.06656744584702165, 0.22108050728427134, 0.0, -0.007910408652290235, 0.12667959248800756, 0.24442213927471557, -0.35003374018885186, 0.16195295847020072, 0.0, 0.06937870003308648, -0.13241966623855153, -0.19452158771057831, 0.932678819524541, 0.0
0.4299999792196667, -0.04609374411944228, -0.03169224357241517, -0.05226923493232511, 0.3290126246680308, 0.0, -0.3778495760766611, -0.029296467807314396, -0.036065913014206814, -0.06719550921060297, 0.22130307865180265, 0.0, -0.010816389431589747, 0.12953964258929965, 0.24615930038581052, -0.34020559220333707, 0.20507100697211378, 0.0, 0.06721986423311699, -0.13229195805372215, -0.1943032958903729, 0.9340791111460501, 0.0
0.4299999792196667, -0.046619035864415015, -0.032269425701378945, -0.052866918745880356, 0.32957721773709986, 0.0, -0.37704897609547877, -0.029727055543612962, -0.03562284547562479, -0.06782357257418428, 0.221525650019334, 0.0, -0.013722370210889259, 0.13239969269059174, 0.2478964614969055, -0.3303774442178223, 0.24818905547402687, 0.0, 0.06506102843314751, -0.13216424986889277, -0.19408500407016743, 0.935479402767559, 0.0
0.4299999792196667, -0.04714432760938775, -0.032846607830342725, -0.053464602559435616, 0.330141810806169, 0.0, -0.37624837611429646, -0.03015764327991153, -0.03517977793704276, -0.0684516359377656, 0.22174822138686529, 0.0, -0.01662835099018877, 0.13525974279188382, 0.2496336226080005, -0.32054929623230755, 0.2913071039759399, 0.0, 0.06290219263317803, -0.1320365416840634, -0.19386671224996202, 0.9368796943890682, 0.0
0.4299999792196667, -0.04766961935436048, -0.0334237899593065, -0.054062286372990875, 0.3307064038752381, 0.0, -0.37544777613311414, -0.030588231016210103, -0.03473671039846073, -0.06907969930134691, 0.2219707927543966, 0.0, -0.019534331769488284, 0.13811979289317589, 0.2513707837190955, -0.3107211482467927, 0.334425152477853, 0.0, 0.060743356833208556, -0.13190883349923402, -0.19364842042975658, 0.9382799860105773, 0.0
0.4299999792196667, -0.048194911099333215, -0.03400097208827028, -0.05465997018654613, 0.3312709969443073, 0.0, -0.3746471761519318, -0.03101881875250867, -0.0342936428598787, -0.06970776266492823, 0.22219336412192794, 0.0, -0.022440312548787793, 0.14097984299446797, 0.2531079448301905, -0.3008930002612779, 0.377543200979766, 0.0, 0.05858452103323908, -0.13178112531440464, -0.19343012860955114, 0.9396802776320864, 0.0
0.4299999792196667, -0.04800349769867434, -0.03316054369355745, -0.05520657379794912, 0.33079697599144114, 0.0, -0.3734287932170411, -0.03131927962670045, -0.03323197548198552, -0.06996650283961449, 0.22266920370787466, 0.0, -0.026002978450791834, 0.14191142993601247, 0.25411808904136723, -0.2885340934444448, 0.42675512590621184, 0.0, 0.054871244735960986, -0.1316172745023591, -0.19149958152667668, 0.9423910567037724, 0.0
0.4299999792196667, -0.04781208429801548, -0.03232011529884462, -0.055753177409352095, 0.33032295503857506, 0.0, -0.3722104102821504, -0.031619740500892224, -0.03217030810409234, -0.07022524301430075, 0.2231450432938214, 0.0, -0.029565644352795874, 0.14284301687755696, 0.255128233252544, -0.27617518662761165, 0.47596705083265767, 0.0, 0.0511579684386829, -0.1314534236903136, -0.1895690344438022, 0.9451018357754584, 0.0
0.4299999792196667, -0.0476206708973566, -0.03147968690413179, -0.056299781020755085, 0.32984893408570887, 0.0, -0.3709920273472598, -0.031920201375084, -0.031108640726199156, -0.070483983188987, 0.22362088287976814, 0.0, -0.03312831025479992, 0.14377460381910143, 0.25613837746372076, -0.26381627981077854, 0.5251789757591034, 0.0, 0.047444692141404815, -0.13128957287826806, -0.18763848736092775, 0.9478126148471443, 0.0
0.4299999792196667, -0.04742925749669773, -0.030639258509418957, -0.05684638463215806, 0.32937491313284273, 0.0, -0.369773644412369, -0.03222066224927577, -0.030046973348305975, -0.07074272336367327, 0.22409672246571485, 0.0, -0.03669097615680396, 0.14470619076064592, 0.25714852167489755, -0.25145737299394544, 0.5743909006855493, 0.0, 0.04373141584412673, -0.13112572206622253, -0.1857079402780533, 0.9505233939188305, 0.0
0.4299999792196667, -0.04723784409603886, -0.029798830114706132, -0.05739298824356105, 0.32890089217997664, 0.0, -0.3685552614774783, -0.032521123123467555, -0.02898530597041279, -0.07100146353835951, 0.22457256205166157, 0.0, -0.040253642058808, 0.1456377777021904, 0.2581586658860743, -0.23909846617711233, 0.6236028256119951, 0.0, 0.04001813954684864, -0.13096187125417702, -0.1837773931951788, 0.9532341729905164, 0.0
0.4299999792196667, -0.04662091698028282, -0.02914169270737924, -0.057896405078886846, 0.3286448349254165, 0.0, -0.36815968260251375, -0.032129504749641664, -0.028516783502822128, -0.07067940246934505, 0.22433902652576923, 0.0, -0.04222344997414023, 0.14418118524967052, 0.2582327167155779, -0.2247848883364837, 0.666394745380539, 0.0, 0.03734941557975283, -0.1315432823159184, -0.18329951506466577, 0.9564048602827369, 0.0
0.4299999792196667, -0.04600398986452677, -0.028484555300052353, -0.05839982191421262, 0.32838877767085645, 0.0, -0.3677641037275493, -0.031737886375815774, -0.028048261035231465, -0.07035734140033059, 0.2241054909998769, 0.0, -0.04419325788947247, 0.14272459279715063, 0.25830676754508153, -0.21047131049585505, 0.7091866651490829, 0.0, 0.034680691612657015, -0.13212469337765972, -0.18282163693415268, 0.9595755475749574, 0.0
0.4299999792196667, -0.04538706274877073, -0.027827417892725463, -0.058903238749538414, 0.32813272041629626, 0.0, -0.3673685248525848, -0.031346268001989884, -0.0275797385676408, -0.07003528033131613, 0.22387195547398453, 0.0, -0.0461630658048047, 0.14126800034463072, 0.25838081837458515, -0.19615773265522637, 0.7519785849176268, 0.0, 0.032011967645561204, -0.1327061044394011, -0.1823437588036396, 0.9627462348671779, 0.0
0.4299999792196667, -0.0447701356330147, -0.027170280485398577, -0.059406655584864194, 0.3278766631617362, 0.0, -0.36697294597762026, -0.030954649628163997, -0.02711121610005013, -0.06971321926230167, 0.22363841994809214, 0.0, -0.04813287372013693, 0.13981140789211083, 0.2584548692040887, -0.18184415481459779, 0.7947705046861707, 0.0, 0.029343243678465396, -0.13328751550114246, -0.18186588067312656, 0.9659169221593986, 0.0
0.4299999792196667, -0.04415320851725865, -0.026513143078071684, -0.05991007242018999, 0.3276206059071761, 0.0, -0.36657736710265576, -0.03056303125433811, -0.02664269363245947, -0.06939115819328721, 0.22340488442219983, 0.0, -0.05010268163546916, 0.13835481543959094, 0.2585289200335924, -0.16753057697396911, 0.8375624244547146, 0.0, 0.026674519711369585, -0.13386892656288382, -0.1813880025426135, 0.9690876094516191, 0.0
0.4299999792196667, -0.04354877760988103, -0.02601343785993319, -0.06036334175731578, 0.3279034085871938, 0.0, -0.36662109458173525, -0.030354834069460355, -0.02679755948951573, -0.06935800461694804, 0.2227102678145156, 0.0, -0.05147406222698479, 0.13531246325446708, 0.2575551065961251, -0.15306959211537552, 0.8702503748747341, 0.0, 0.025585319415460342, -0.13458035243659397, -0.1828756478931849, 0.9716929322392411, 0.0
0.4299999792196667, -0.042944346702503425, -0.025513732641794688, -0.06081661109444156, 0.3281862112672114, 0.0, -0.3666648220608147, -0.030146636884582603, -0.026952425346571992, -0.06932485104060884, 0.2220156512068314, 0.0, -0.05284544281850043, 0.13227011106934325, 0.2565812931586579, -0.13860860725678195, 0.9029383252947535, 0.0, 0.024496119119551102, -0.13529177831030414, -0.18436329324375628, 0.9742982550268631, 0.0
0.4299999792196667, -0.042339915795125804, -0.025014027423656198, -0.06126988043156735, 0.3284690139472291, 0.0, -0.3667085495398941, -0.029938439699704857, -0.027107291203628245, -0.06929169746426966, 0.22132103459914718, 0.0, -0.05421682341001605, 0.1292277588842194, 0.25560747972119063, -0.12414762239818834, 0.9356262757147729, 0.0, 0.023406918823641855, -0.13600320418401432, -0.18585093859432764, 0.9769035778144852, 0.0
0.4299999792196667, -0.0417354848877482, -0.024514322205517698, -0.06172314976869313, 0.32875181662724673, 0.0, -0.36675227701897356, -0.02973024251482711, -0.027262157060684508, -0.06925854388793048, 0.22062641799146296, 0.0, -0.05558820400153168, 0.12618540669909556, 0.2546336662837234, -0.10968663753959478, 0.9683142261347923, 0.0, 0.02231771852773261, -0.1367146300577245, -0.18733858394489905, 0.9795089006021073, 0.0
0.4299999792196667, -0.041131053980370584, -0.024014616987379202, -0.06217641910581892, 0.3290346193072644, 0.0, -0.36679600449805305, -0.02952204532994936, -0.027417022917740768, -0.06922539031159129, 0.21993180138377874, 0.0, -0.05695958459304731, 0.12314305451397173, 0.25365985284625614, -0.09522565268100117, 1.0010021765548118, 0.0, 0.021228518231823368, -0.13742605593143467, -0.18882622929547044, 0.9821142233897292, 0.0
0.4299999792196667, -0.0405401734602396, -0.02344295463670778, -0.06233875706646881, 0.329809657196222, 0.0, -0.36681992947143943, -0.029461282390172875, -0.0275765020290759, -0.06938400897560519, 0.21937203938607913, 0.0, -0.05822158121155026, 0.1190439019761068, 0.25126562065034586, -0.08192432287142963, 1.024216382056568, 0.0, 0.020887743044437326, -0.13788498327692958, -0.19151645886054347, 0.9836759684390232, 0.0
0.4299999792196667, -0.03994929294010862, -0.02287129228603636, -0.06250109502711872, 0.3305846950851796, 0.0, -0.3668438544448257, -0.029400519450396394, -0.02773598114041103, -0.06954262763961909, 0.2188122773883795, 0.0, -0.0594835778300532, 0.11494474943824187, 0.24887138845443554, -0.06862299306185811, 1.0474305875583239, 0.0, 0.020546967857051287, -0.1383439106224245, -0.1942066884256165, 0.9852377134883173, 0.0
0.4299999792196667, -0.039358412419977645, -0.022299629935364943, -0.06266343298776861, 0.33135973297413723, 0.0, -0.3668677794182121, -0.02933975651061991, -0.027895460251746166, -0.06970124630363299, 0.21825251539067989, 0.0, -0.06074557444855613, 0.11084559690037697, 0.24647715625852523, -0.05532166325228656, 1.07064479306008, 0.0, 0.02020619266966524, -0.1388028379679194, -0.19689691799068954, 0.9867994585376113, 0.0
0.4299999792196667, -0.03876753189984666, -0.021727967584693524, -0.06282577094841851, 0.33213477086309484, 0.0, -0.3668917043915984, -0.02927899357084343, -0.028054939363081295, -0.06985986496764689, 0.21769275339298022, 0.0, -0.062007571067059085, 0.10674644436251206, 0.24408292406261495, -0.04202033344271503, 1.0938589985618363, 0.0, 0.0198654174822792, -0.13926176531341428, -0.19958714755576257, 0.9883612035869054, 0.0
0.4299999792196667, -0.03817665137971569, -0.021156305234022104, -0.0629881089090684, 0.33290980875205245, 0.0, -0.3669156293649848, -0.02921823063106695, -0.028214418474416424, -0.07001848363166079, 0.21713299139528064, 0.0, -0.06326956768556202, 0.10264729182464714, 0.24168869186670458, -0.0287190036331435, 1.1170732040635922, 0.0, 0.01952464229489316, -0.13972069265890918, -0.2022773771208356, 0.9899229486361993, 0.0
0.4299999792196667, -0.037919639779120606, -0.020716808988155505, -0.06277998432988754, 0.3335475450794142, 0.0, -0.36672959122935617, -0.02903014382796238, -0.027967548982104684, -0.07018977966922947, 0.21692539495273142, 0.0, -0.06396165077330405, 0.0988794973756562, 0.23879271939874797, -0.018086672854557888, 1.1316795504142676, 0.0, 0.019567561686528952, -0.13953392986257518, -0.20527288222537493, 0.9903819283415719, 0.0
0.4299999792196667, -0.03766262817852553, -0.02027731274228891, -0.06257185975070667, 0.33418528140677584, 0.0, -0.36654355309372766, -0.028842057024857808, -0.027720679489792947, -0.07036107570679816, 0.21671779851018222, 0.0, -0.06465373386104606, 0.09511170292666526, 0.23589674693079135, -0.007454342075972278, 1.1462858967649427, 0.0, 0.019610481078164745, -0.13934716706624117, -0.2082683873299143, 0.9908409080469442, 0.0
0.4299999792196667, -0.03740561657793045, -0.019837816496422307, -0.062363735171525804, 0.3348230177341376, 0.0, -0.366357514958099, -0.028653970221753238, -0.027473809997481204, -0.07053237174436684, 0.216510202067633, 0.0, -0.06534581694878809, 0.09134390847767435, 0.2330007744628347, 0.0031779887026133313, 1.1608922431156177, 0.0, 0.019653400469800537, -0.13916040426990714, -0.2112638924344537, 0.9912998877523168, 0.0
0.4299999792196667, -0.037148604977335374, -0.019398320250555712, -0.06215561059234494, 0.3354607540614993, 0.0, -0.3661714768224704, -0.028465883418648665, -0.027226940505169463, -0.07070366778193553, 0.21630260562508377, 0.0, -0.06603790003653011, 0.08757611402868341, 0.2301048019948781, 0.013810319481198942, 1.1754985894662928, 0.0, 0.019696319861436325, -0.13897364147357313, -0.21425939753899306, 0.9917588674576893, 0.0
0.4299999792196667, -0.03689159337674029, -0.018958824004689116, -0.06194748601316407, 0.33609849038886097, 0.0, -0.3659854386868418, -0.028277796615544096, -0.026980071012857727, -0.07087496381950421, 0.21609500918253458, 0.0, -0.06672998312427213, 0.08380831957969247, 0.22720882952692145, 0.02444265025978455, 1.1901049358169682, 0.0, 0.019739239253072118, -0.13878687867723913, -0.21725490264353245, 0.9922178471630616, 0.0
0.4299999792196667, -0.03721044932311639, -0.018370051842294545, -0.061465417347116975, 0.3359506644918756, 0.0, -0.3656985240111065, -0.02783906238042892, -0.026431521708404616, -0.07105218908960777, 0.21616927294220692, 0.0, -0.0671512968790573, 0.08123509234981707, 0.2253616917289998, 0.03117105125678952, 1.1975853820844307, 0.0, 0.02035147457473295, -0.13889688398746552, -0.22089439584481416, 0.991976276141293, 0.0
0.4299999792196667, -0.03752930526949248, -0.017781279679899974, -0.06098334868106988, 0.3358028385948902, 0.0, -0.3654116093353712, -0.027400328145313742, -0.02588297240395151, -0.07122941435971133, 0.2162435367018793, 0.0, -0.06757261063384247, 0.07866186511994169, 0.2235145539310781, 0.03789945225379449, 1.2050658283518936, 0.0, 0.020963709896393783, -0.13900688929769192, -0.2245338890460959, 0.9917347051195247, 0.0
0.4299999792196667, -0.037848161215868585, -0.017192507517505402, -0.060501280015022786, 0.3356550126979048, 0.0, -0.36512469465963576, -0.026961593910198565, -0.025334423099498397, -0.07140663962981489, 0.21631780046155163, 0.0, -0.06799392438862764, 0.0760886378900663, 0.22166741613315646, 0.04462785325079947, 1.212546274619356, 0.0, 0.02157594521805461, -0.13911689460791835, -0.2281733822473776, 0.9914931340977562, 0.0
0.4299999792196667, -0.03816701716224468, -0.016603735355110835, -0.0600192113489757, 0.3355071868009194, 0.0, -0.3648377799839005, -0.026522859675083384, -0.02478587379504529, -0.07158386489991844, 0.21639206422122398, 0.0, -0.06841523814341281, 0.07351541066019092, 0.2198202783352348, 0.051356254247804434, 1.2200267208868187, 0.0, 0.02218818053971544, -0.13922689991814474, -0.23181287544865933, 0.9912515630759876, 0.0
0.4299999792196667, -0.038485873108620776, -0.016014963192716263, -0.0595371426829286, 0.3353593609039339, 0.0, -0.3645508653081651, -0.02608412543996821, -0.02423732449059218, -0.07176109017002201, 0.21646632798089635, 0.0, -0.06883655189819798, 0.07094218343031553, 0.21797314053731315, 0.0580846552448094, 1.2275071671542814, 0.0, 0.022800415861376273, -0.1393369052283711, -0.23545236864994107, 0.9910099920542191, 0.0
0.4299999792196667, -0.03926072494548012, -0.015280275012230152, -0.05936756998346334, 0.3338215513000018, 0.0, -0.3642632629727045, -0.02533655833530529, -0.023573736695415768, -0.07185728713333832, 0.21751841594465704, 0.0, -0.06884403377563544, 0.07013158026905832, 0.21738476212119784, 0.062200116837336644, 1.2307089213071873, 0.0, 0.02350929669597119, -0.1399487108499701, -0.239830638779641, 0.9904958180565815, 0.0
0.4299999792196667, -0.04003557678233947, -0.014545586831744036, -0.05919799728399808, 0.33228374169606956, 0.0, -0.3639756606372438, -0.02458899123064237, -0.022910148900239364, -0.07195348409665465, 0.2185705039084177, 0.0, -0.06885151565307288, 0.06932097710780111, 0.21679638370508247, 0.0663155784298639, 1.2339106754600935, 0.0, 0.024218177530566102, -0.14056051647156909, -0.24420890890934085, 0.989981644058944, 0.0
0.4299999792196667, -0.04081042861919882, -0.013810898651257925, -0.05902842458453281, 0.3307459320921373, 0.0, -0.36368805830178325, -0.02384142412597945, -0.022246561105062953, -0.07204968105997098, 0.2196225918721784, 0.0, -0.06885899753051034, 0.06851037394654393, 0.21620800528896716, 0.07043104002239116, 1.2371124296129996, 0.0, 0.024927058365161014, -0.1411723220931681, -0.2485871790390408, 0.9894674700613065, 0.0
0.4299999792196667, -0.04158528045605816, -0.01307621047077181, -0.05885885188506755, 0.32920812248820513, 0.0, -0.3634004559663226, -0.02309385702131653, -0.021582973309886545, -0.0721458780232873, 0.2206746798359391, 0.0, -0.06886647940794778, 0.06769977078528672, 0.21561962687285186, 0.0745465016149184, 1.2403141837659055, 0.0, 0.025635939199755934, -0.1417841277147671, -0.2529654491687407, 0.9889532960636689, 0.0
0.4299999792196667, -0.042360132292917504, -0.012341522290285697, -0.05868927918560229, 0.32767031288427295, 0.0, -0.363112853630862, -0.022346289916653612, -0.020919385514710134, -0.07224207498660361, 0.22172676779969977, 0.0, -0.06887396128538523, 0.06688916762402952, 0.21503124845673655, 0.07866196320744566, 1.2435159379188117, 0.0, 0.026344820034350847, -0.14239593333636608, -0.2573437192984406, 0.9884391220660315, 0.0
0.4299999792196667, -0.04260683248829181, -0.011390691208782373, -0.05856375440766715, 0.3253439949402162, 0.0, -0.36303647453213617, -0.02116371206230172, -0.02040473992910872, -0.07205318149231878, 0.22398469327168785, 0.0, -0.06898724537114442, 0.06722641550099727, 0.21507307003627282, 0.08144870773482472, 1.2447196740506195, 0.0, 0.027143783245760646, -0.14334505734623462, -0.2619811289341596, 0.9878844913363325, 0.0
0.4299999792196667, -0.0428535326836661, -0.01043986012727905, -0.05843822962973201, 0.3230176769961596, 0.0, -0.3629600954334104, -0.01998113420794983, -0.019890094343507296, -0.07186428799803393, 0.2262426187436759, 0.0, -0.06910052945690362, 0.06756366337796504, 0.2151148916158091, 0.0842354522622038, 1.2459234101824275, 0.0, 0.02794274645717044, -0.14429418135610317, -0.2666185385698786, 0.9873298606066339, 0.0
0.4299999792196667, -0.0431002328790404, -0.009489029045775726, -0.05831270485179689, 0.3206913590521028, 0.0, -0.3628837163346846, -0.018798556353597937, -0.01937544875790588, -0.07167539450374909, 0.22850054421566396, 0.0, -0.06921381354266282, 0.0679009112549328, 0.2151567131953454, 0.08702219678958285, 1.2471271463142357, 0.0, 0.02874170966858024, -0.14524330536597166, -0.2712559482055976, 0.9867752298769351, 0.0
0.4299999792196667, -0.0433469330744147, -0.008538197964272402, -0.05818718007386175, 0.3183650411080461, 0.0, -0.3628073372359588, -0.01761597849924604, -0.018860803172304458, -0.07148650100946424, 0.230758469687652, 0.0, -0.06932709762842201, 0.06823815913190057, 0.2151985347748817, 0.08980894131696192, 1.2483308824460435, 0.0, 0.02954067287999004, -0.1461924293758402, -0.27589335784131663, 0.9862205991472364, 0.0
0.4299999792196667, -0.04359363326978899, -0.007587366882769082, -0.05806165529592661, 0.3160387231639894, 0.0, -0.362730958137233, -0.01643340064489415, -0.018346157586703042, -0.0712976075151794, 0.23301639515964007, 0.0, -0.0694403817141812, 0.06857540700886833, 0.215240356354418, 0.092595685844341, 1.2495346185778513, 0.0, 0.030339636091399842, -0.14714155338570875, -0.28053076747703565, 0.9856659684175375, 0.0
0.4299999792196667, -0.043596311302993254, -0.006676490297381432, -0.05804141296726199, 0.3133053804757336, 0.0, -0.36270374845419445, -0.015188150006778487, -0.01792598213565602, -0.0710700322886826, 0.23399532939313264, 0.0, -0.06923115234158383, 0.06948545519117981, 0.2150235515547352, 0.09435253880725454, 1.2499796984810612, 0.0, 0.030547074756184674, -0.1478041781082039, -0.2847164893929971, 0.9848490845144342, 0.0
0.4299999792196667, -0.04359898933619751, -0.005765613711993785, -0.05802117063859736, 0.31057203778747783, 0.0, -0.36267653877115585, -0.013942899368662824, -0.017505806684609, -0.07084245706218581, 0.2349742636266252, 0.0, -0.06902192296898645, 0.0703955033734913, 0.2148067467550525, 0.0961093917701681, 1.2504247783842706, 0.0, 0.030754513420969503, -0.14846680283069905, -0.28890221130895843, 0.9840322006113307, 0.0
0.4299999792196667, -0.04360166736940177, -0.004854737126606137, -0.058000928309932726, 0.30783869509922196, 0.0, -0.3626493290881173, -0.012697648730547165, -0.01708563123356198, -0.07061488183568902, 0.23595319786011784, 0.0, -0.06881269359638907, 0.07130555155580276, 0.21458994195536973, 0.09786624473308164, 1.2508698582874802, 0.0, 0.030961952085754342, -0.14912942755319425, -0.2930879332249198, 0.9832153167082274, 0.0
0.4299999792196667, -0.04360434540260603, -0.003943860541218488, -0.0579806859812681, 0.3051053524109662, 0.0, -0.3626221194050787, -0.011452398092431504, -0.01666545578251496, -0.07038730660919224, 0.23693213209361044, 0.0, -0.06860346422379168, 0.07221559973811424, 0.21437313715568707, 0.0996230976959952, 1.2513149381906898, 0.0, 0.03116939075053917, -0.1497920522756894, -0.29727365514088117, 0.9823984328051238, 0.0
0.4299999792196667, -0.04360702343581029, -0.0030329839558308393, -0.057960443652603465, 0.3023720097227104, 0.0, -0.36259490972204017, -0.010207147454315842, -0.01624528033146794, -0.07015973138269545, 0.23791106632710302, 0.0, -0.06839423485119431, 0.07312564792042574, 0.2141563323560043, 0.10137995065890873, 1.2517600180938995, 0.0, 0.031376829415324006, -0.15045467699818454, -0.30145937705684256, 0.9815815489020205, 0.0
0.4299999792196667, -0.043747797504485944, -0.0023230680816482977, -0.057873188360110954, 0.300352276315059, 0.0, -0.3626446830216485, -0.008850720459858862, -0.015771492554589858, -0.0696136108784294, 0.2379631644052751, 0.0, -0.0680663929026314, 0.07401142345976387, 0.21367800043988572, 0.10232210277654726, 1.2519945694014165, 0.0, 0.031209805594698357, -0.15057599483449066, -0.30428593778044744, 0.9807547864353507, 0.0
0.4299999792196667, -0.04388857157316161, -0.001613152207465756, -0.057785933067618464, 0.29833254290740757, 0.0, -0.3626944563212569, -0.007494293465401884, -0.01529770477771178, -0.06906749037416336, 0.2380152624834471, 0.0, -0.06773855095406849, 0.07489719899910202, 0.21319966852376712, 0.10326425489418577, 1.2522291207089338, 0.0, 0.0310427817740727, -0.1506973126707968, -0.30711249850405226, 0.9799280239686811, 0.0
0.4299999792196667, -0.04402934564183726, -0.0009032363332832146, -0.05769867777512595, 0.29631280949975625, 0.0, -0.3627442296208652, -0.006137866470944906, -0.014823917000833697, -0.06852136986989735, 0.23806736056161912, 0.0, -0.06741070900550555, 0.07578297453844017, 0.21272133660764858, 0.10420640701182428, 1.2524636720164504, 0.0, 0.030875757953447047, -0.1508186305071029, -0.309939059227657, 0.9791012615020114, 0.0
0.4299999792196667, -0.04417011971051292, -0.00019332045910067273, -0.05761142248263345, 0.29429307609210487, 0.0, -0.36279400292047365, -0.004781439476487926, -0.014350129223955614, -0.0679752493656313, 0.23811945863979112, 0.0, -0.06708286705694265, 0.07666875007777832, 0.21224300469152999, 0.1051485591294628, 1.2526982233239676, 0.0, 0.030708734132821394, -0.15093994834340904, -0.31276561995126184, 0.9782744990353417, 0.0
0.4299999792196667, -0.044310893779188586, 0.0005165954150818688, -0.05752416719014094, 0.29227334268445354, 0.0, -0.36284377622008196, -0.003425012482030948, -0.013876341447077532, -0.06742912886136526, 0.23817155671796317, 0.0, -0.06675502510837975, 0.07755452561711647, 0.21176467277541144, 0.10609071124710132, 1.2529327746314844, 0.0, 0.030541710312195748, -0.15106126617971516, -0.31559218067486666, 0.9774477365686719, 0.0
0.4299999792196667, -0.04446775803823837, 0.0007295380210414267, -0.05720443823007299, 0.2918129736969965, 0.0, -0.3628129921027353, -0.002265996816927074, -0.013373050973589588, -0.06674412552720103, 0.2392308528915346, 0.0, -0.06646509031490674, 0.07810559238448266, 0.2112949453325052, 0.10648485371609144, 1.253001575510598, 0.0, 0.030409123932107044, -0.15106168854939414, -0.3169634858681586, 0.9769733002274437, 0.0
0.4299999792196667, -0.04462462229728817, 0.0009424806270009846, -0.05688470927000506, 0.2913526047095394, 0.0, -0.3627822079853887, -0.0011069811518232002, -0.012869760500101645, -0.0660591221930368, 0.24029014906510604, 0.0, -0.06617515552143374, 0.07865665915184884, 0.21082521788959896, 0.10687899618508155, 1.2530703763897115, 0.0, 0.03027653755201834, -0.15106211091907312, -0.3183347910614505, 0.9764988638862158, 0.0
