isaac-sim2real/sage/motion_files/h1_2/amass/0-Subject_66_F_20_poses_action_sequence.txt
/h1_2/pelvis/left_hip_yaw_joint, /h1_2/left_hip_yaw_link/left_hip_pitch_joint, /h1_2/left_hip_pitch_link/left_hip_roll_joint, /h1_2/left_hip_roll_link/left_knee_joint, /h1_2/left_knee_link/left_ankle_pitch_joint, /h1_2/left_ankle_pitch_link/left_ankle_roll_joint, /h1_2/pelvis/right_hip_yaw_joint, /h1_2/right_hip_yaw_link/right_hip_pitch_joint, /h1_2/right_hip_pitch_link/right_hip_roll_joint, /h1_2/right_hip_roll_link/right_knee_joint, /h1_2/right_knee_link/right_ankle_pitch_joint, /h1_2/right_ankle_pitch_link/right_ankle_roll_joint, /h1_2/pelvis/torso_joint, /h1_2/torso_link/left_shoulder_pitch_joint, /h1_2/left_shoulder_pitch_link/left_shoulder_roll_joint, /h1_2/left_shoulder_roll_link/left_shoulder_yaw_joint, /h1_2/left_shoulder_yaw_link/left_elbow_joint, /h1_2/left_elbow_link/left_wrist_roll_joint, /h1_2/torso_link/right_shoulder_pitch_joint, /h1_2/right_shoulder_pitch_link/right_shoulder_roll_joint, /h1_2/right_shoulder_roll_link/right_shoulder_yaw_joint, /h1_2/right_shoulder_yaw_link/right_elbow_joint, /h1_2/right_elbow_link/right_wrist_roll_joint
0.4292234647821619, -0.13153637255740971, 0.03237360440443049, 0.07902410331927119, 0.213780161542322, 0.0, -0.42922613513591745, -0.08218897866508261, -0.015238282948932527, 0.01857291425378065, 0.2900342772403625, 0.0, -0.03279452196947545, -0.10233994632468796, 0.06715650494154525, 0.2327552240903716, 1.278613549245329, 0.0, -0.09102337631708463, -0.06424110870434317, -0.43073361091744994, 1.2745774753500922, 0.0
0.4266291620034369, -0.13632688247511368, 0.03164602481036141, 0.0892550816737267, 0.20903167915300602, 0.0, -0.4266370613636315, -0.08799912424350152, -0.014654604215800636, 0.028446833847994846, 0.2847365781326875, 0.0, -0.030954708271226865, -0.1024756893072618, 0.0656544155951502, 0.2299870411395875, 1.2761433847549812, 0.0, -0.09158277423910229, -0.06344485110233981, -0.4293905381701383, 1.272998455031862, 0.0
0.42403485922471196, -0.14111739239281765, 0.030918445216292327, 0.09948606002818221, 0.2042831967636901, 0.0, -0.4240479875913455, -0.09380926982192044, -0.014070925482668745, 0.038320753442209046, 0.2794388790250125, 0.0, -0.029114894572978268, -0.10261143228983567, 0.06415232624875516, 0.22721885818880339, 1.2736732202646337, 0.0, -0.09214217216111993, -0.06264859350033647, -0.4280474654228265, 1.2714194347136316, 0.0
0.42144055644598705, -0.1459079023105216, 0.030190865622223242, 0.10971703838263769, 0.19953471437437417, 0.0, -0.42145891381905953, -0.09961941540033933, -0.013487246749536854, 0.04819467303642325, 0.2741411799173375, 0.0, -0.027275080874729678, -0.10274717527240952, 0.06265023690236013, 0.22445067523801931, 1.2712030557742864, 0.0, -0.09270157008313759, -0.0618523358983331, -0.42670439267551485, 1.2698404143954012, 0.0
0.4188462536672621, -0.15069841222822555, 0.029463286028154165, 0.1199480167370932, 0.19478623198505823, 0.0, -0.4188698400467736, -0.10542956097875823, -0.012903568016404967, 0.05806859263063744, 0.26884348080966247, 0.0, -0.025435267176481084, -0.10288291825498339, 0.0611481475559651, 0.2216824922872352, 1.2687328912839388, 0.0, -0.09326096800515526, -0.06105607829632974, -0.4253613199282032, 1.2682613940771708, 0.0
0.4162519508885372, -0.1554889221459295, 0.02873570643408508, 0.1301789950915487, 0.19003774959574227, 0.0, -0.4162807662744876, -0.11123970655717716, -0.012319889283273076, 0.06794251222485163, 0.2635457817019875, 0.0, -0.02359545347823249, -0.10301866123755724, 0.05964605820957006, 0.2189143093364511, 1.266262726793591, 0.0, -0.0938203659271729, -0.06025982069432638, -0.42401824718089154, 1.2666823737589405, 0.0
0.40521825861010946, -0.16396817845640646, 0.028477462980103944, 0.15122785436615951, 0.18224921431805907, 0.0, -0.4052257146566739, -0.12206584183749687, -0.011772834469351864, 0.08828928767510652, 0.256517054570209, 0.0, -0.017583551328941537, -0.10151076832233345, 0.05861768577968547, 0.21448981939749986, 1.2609315487802044, 0.0, -0.09505529912122858, -0.05833973476592252, -0.42088900796774736, 1.2631578942647068, 0.0
0.39418456633168153, -0.17244743476688343, 0.02821921952612281, 0.17227671364077035, 0.1744606790403759, 0.0, -0.3941706630388601, -0.13289197711781658, -0.011225779655430654, 0.1086360631253614, 0.2494883274384305, 0.0, -0.011571649179650588, -0.10000287540710971, 0.057589313349800886, 0.21006532945854864, 1.2556003707668175, 0.0, -0.09629023231528425, -0.056419648837518654, -0.41775976875460324, 1.259633414770473, 0.0
0.38315087405325376, -0.1809266910773604, 0.027960976072141673, 0.19332557291538122, 0.16667214376269268, 0.0, -0.38311561142104644, -0.1437181123981363, -0.010678724841509443, 0.12898283857561627, 0.242459600306652, 0.0, -0.005559747030359634, -0.09849498249188593, 0.0565609409199163, 0.2056408395195974, 1.2502691927534308, 0.0, -0.0975251655093399, -0.05449956290911478, -0.414630529541459, 1.2561089352762391, 0.0
0.37211718177482583, -0.18940594738783736, 0.027702732618160534, 0.21437443218999203, 0.1588836084850095, 0.0, -0.3720605598032327, -0.154544247678456, -0.010131670027588231, 0.14932961402587117, 0.2354308731748735, 0.0, 0.0004521551189313128, -0.09698708957666216, 0.055532568490031714, 0.2012163495806462, 1.2449380147400442, 0.0, -0.09876009870339557, -0.052579476980710915, -0.41150129032831484, 1.2525844557820054, 0.0
0.36108348949639807, -0.19788520369831433, 0.027444489164179398, 0.23542329146460286, 0.1510950732073263, 0.0, -0.36100550818541893, -0.16537038295877574, -0.009584615213667021, 0.16967638947612607, 0.22840214604309503, 0.0, 0.006464057268222263, -0.09547919666143839, 0.05450419606014713, 0.196791859641695, 1.2396068367266575, 0.0, -0.09999503189745124, -0.05065939105230705, -0.40837205111517066, 1.2490599762877717, 0.0
0.33992650009330916, -0.20858399521855245, 0.030076231349754703, 0.2643091573008833, 0.14229620277944616, 0.0, -0.3396955930332703, -0.17955655874532583, -0.010882042365051298, 0.1980617926213726, 0.2222745498574137, 0.0, 0.014754972306589715, -0.0914739997350644, 0.062303997787217805, 0.19571215707850922, 1.2293114187218233, 0.0, -0.10057327239407342, -0.05553932570676374, -0.40796359171032637, 1.2413623936080684, 0.0
0.31876951069022025, -0.21928278673879062, 0.03270797353533001, 0.29319502313716367, 0.13349733235156605, 0.0, -0.3183856778811217, -0.19374273453187588, -0.012179469516435575, 0.2264471957666192, 0.21614695367173242, 0.0, 0.023045887344957168, -0.08746880280869038, 0.07010379951428847, 0.19463245451532352, 1.219016000716989, 0.0, -0.10115151289069561, -0.060419260361220424, -0.4075551323054821, 1.233664810928365, 0.0
0.29761252128713134, -0.22998157825902876, 0.03533971572090531, 0.3220808889734441, 0.12469846192368592, 0.0, -0.29707576272897307, -0.20792891031842595, -0.013476896667819852, 0.2548325989118657, 0.21001935748605113, 0.0, 0.031336802383324626, -0.08346360588231638, 0.07790360124135916, 0.19355275195213778, 1.2087205827121545, 0.0, -0.1017297533873178, -0.06529919501567712, -0.40714667290063794, 1.225967228248662, 0.0
0.2764555318840425, -0.24068036977926693, 0.03797145790648061, 0.3509667548097245, 0.11589959149580581, 0.0, -0.27576584757682443, -0.22211508610497602, -0.014774323819204125, 0.2832180020571123, 0.2038917613003698, 0.0, 0.03962771742169207, -0.07945840895594238, 0.08570340296842982, 0.19247304938895202, 1.1984251647073205, 0.0, -0.10230799388393999, -0.0701791296701338, -0.4067382134957937, 1.2182696455689586, 0.0
0.2552985424809536, -0.2513791612995051, 0.04060320009205592, 0.37985262064600495, 0.10710072106792567, 0.0, -0.2544559324246758, -0.2363012618915261, -0.016071750970588404, 0.31160340520235885, 0.19776416511468853, 0.0, 0.04791863246005952, -0.07545321202956837, 0.09350320469550048, 0.19139334682576628, 1.1881297467024863, 0.0, -0.10288623438056217, -0.07505906432459049, -0.40632975409094946, 1.2105720628892553, 0.0
0.23216987905649628, -0.2608597897963383, 0.0481053722180474, 0.404463065114747, 0.10149323893345813, 0.0, -0.231235395915591, -0.24743887805493464, -0.020597359003214865, 0.3376717092326577, 0.19484064611514768, 0.0, 0.052248648424731994, -0.07319114209873853, 0.11674692720556631, 0.20266152408919955, 1.1693111180152929, 0.0, -0.10237646210329818, -0.09520923052900332, -0.4181414827339898, 1.1938490510349316, 0.0
0.2090412156320389, -0.27034041829317146, 0.05560754434403889, 0.429073509583489, 0.0958857567989906, 0.0, -0.20801485940650621, -0.2585764942183433, -0.025122967035841326, 0.3637400132629566, 0.19191712711560677, 0.0, 0.05657866438940445, -0.07092907216790868, 0.13999064971563213, 0.2139297013526328, 1.1504924893280994, 0.0, -0.10186668982603418, -0.11535939673341612, -0.4299532113770302, 1.1771260391806078, 0.0
0.18591255220758157, -0.27982104679000463, 0.06310971647003036, 0.45368395405223105, 0.09027827466452308, 0.0, -0.18479432289742148, -0.2697141103817518, -0.02964857506846779, 0.3898083172932555, 0.18899360811606594, 0.0, 0.06090868035407692, -0.06866700223707885, 0.16323437222569798, 0.2251978786160661, 1.1316738606409058, 0.0, -0.10135691754877017, -0.13550956293782893, -0.4417649400200706, 1.1604030273262835, 0.0
0.1627838887831242, -0.28930167528683787, 0.07061188859602184, 0.47829439852097305, 0.08467079253005555, 0.0, -0.16157378638833667, -0.28085172654516044, -0.03417418310109424, 0.4158766213235544, 0.1860700891165251, 0.0, 0.06523869631874939, -0.066404932306249, 0.18647809473576382, 0.23646605587949937, 1.1128552319537126, 0.0, -0.10084714527150618, -0.15565972914224174, -0.45357666866311097, 1.14368001547196, 0.0
0.13965522535866684, -0.29878230378367104, 0.07811406072201334, 0.5029048429897152, 0.07906331039558802, 0.0, -0.1383532498792519, -0.29198934270856897, -0.038699791133720705, 0.4419449253538532, 0.18314657011698424, 0.0, 0.06956871228342185, -0.06414286237541915, 0.2097218172458296, 0.24773423314293264, 1.0940366032665192, 0.0, -0.10033737299424215, -0.1758098953466546, -0.46538839730615134, 1.1269570036176362, 0.0
0.1267548217638221, -0.2982058180410788, 0.08380815551874278, 0.5148820323365031, 0.08487855408075198, 0.0, -0.12587182339238973, -0.2919283574138458, -0.04084309769213765, 0.45668871638312303, 0.1915160085655965, 0.0, 0.0673642685866368, -0.07085598825081066, 0.2494949876148561, 0.27132395670523085, 1.0644681950103199, 0.0, -0.10003512595009391, -0.21305068372815839, -0.488007651481829, 1.0986265155119743, 0.0
0.11385441816897733, -0.29762933229848665, 0.08950225031547224, 0.5268592216832909, 0.09069379776591598, 0.0, -0.11339039690552759, -0.2918673721191226, -0.042986404250554576, 0.47143250741239273, 0.19988544701420868, 0.0, 0.06515982488985175, -0.0775691141262022, 0.2892681579838826, 0.294913680267529, 1.0348997867541205, 0.0, -0.09973287890594563, -0.25029147210966224, -0.5106269056575069, 1.0702960274063125, 0.0
0.10095401457413258, -0.29705284655589437, 0.09519634511220168, 0.5388364110300788, 0.09650904145107995, 0.0, -0.10090897041866541, -0.2918063868243994, -0.04512971080897151, 0.4861762984416624, 0.2082548854628209, 0.0, 0.06295538119306672, -0.08428224000159369, 0.32904132835290906, 0.3185034038298272, 1.0053313784979212, 0.0, -0.09943063186179736, -0.28753226049116604, -0.5332461598331846, 1.0419655393006506, 0.0
0.08805361097928782, -0.29647636081330214, 0.10089043990893115, 0.5508136003768668, 0.10232428513624395, 0.0, -0.08842754393180326, -0.2917454015296762, -0.04727301736738845, 0.5009200894709321, 0.21662432391143313, 0.0, 0.060750937496281666, -0.09099536587698523, 0.3688144987219355, 0.34209312739212544, 0.9757629702417218, 0.0, -0.0991283848176491, -0.32477304887266983, -0.5558654140088625, 1.013635051194989, 0.0
0.07515320738444306, -0.2958998750707099, 0.1065845347056606, 0.5627907897236548, 0.10813952882140793, 0.0, -0.07594611744494109, -0.29168441623495306, -0.04941632392580538, 0.5156638805002018, 0.22499376236004534, 0.0, 0.05854649379949662, -0.09770849175237674, 0.408587669090962, 0.3656828509544236, 0.9461945619855225, 0.0, -0.09882613777350083, -0.36201383725417363, -0.5784846681845401, 0.9853045630893271, 0.0
0.07394348477330075, -0.28381966591949376, 0.11064409724197082, 0.5611363537284457, 0.12430785549176034, 0.0, -0.07604350193028046, -0.28024224011707144, -0.052000393839125865, 0.5176596505372234, 0.24279973356193918, 0.0, 0.05668383862826133, -0.1204318855357308, 0.45917028136414456, 0.3910453508165329, 0.9064203339469692, 0.0, -0.10914737059423546, -0.4109899507453825, -0.5981361051589322, 0.9463003882793879, 0.0
0.07273376216215843, -0.2717394567682776, 0.11470365977828105, 0.5594819177332367, 0.14047618216211274, 0.0, -0.07614088641561985, -0.2688000639991898, -0.05458446375244634, 0.5196554205742449, 0.26060570476383293, 0.0, 0.05482118345702603, -0.14315527931908484, 0.5097528936373272, 0.41640785067864233, 0.8666461059084161, 0.0, -0.11946860341497008, -0.4599660642365914, -0.6177875421333242, 0.9072962134694484, 0.0
0.07152403955101613, -0.2596592476170615, 0.11876322231459127, 0.5578274817380279, 0.15664450883246517, 0.0, -0.07623827090095922, -0.25735788788130826, -0.057168533665766824, 0.5216511906112664, 0.27841167596572675, 0.0, 0.05295852828579074, -0.16587867310243892, 0.5603355059105096, 0.4417703505407517, 0.8268718778698628, 0.0, -0.1297898362357047, -0.5089421777278003, -0.6374389791077163, 0.8682920386595092, 0.0
0.07031431693987382, -0.2475790384658453, 0.12282278485090149, 0.5561730457428189, 0.17281283550281754, 0.0, -0.0763356553862986, -0.24591571176342666, -0.05975260357908731, 0.523646960648288, 0.29621764716762056, 0.0, 0.05109587311455544, -0.18860206688579298, 0.6109181181836922, 0.4671328504028611, 0.7870976498313097, 0.0, -0.14011106905643933, -0.5579182912190092, -0.6570904160821082, 0.82928786384957, 0.0
0.06910459432873152, -0.23549882931462915, 0.1268823473872117, 0.5545186097476099, 0.18898116217316996, 0.0, -0.07643303987163799, -0.23447353564554507, -0.06233667349240779, 0.5256427306853094, 0.31402361836951437, 0.0, 0.049233217943320154, -0.21132546066914706, 0.6615007304568749, 0.4924953502649705, 0.7473234217927566, 0.0, -0.15043230187717396, -0.606894404710218, -0.6767418530565003, 0.7902836890396308, 0.0
0.06903211045583034, -0.22019347859853022, 0.13702879804972973, 0.5460010225161007, 0.202892033214169, 0.0, -0.07958650216040475, -0.22215959200090185, -0.07276029884623747, 0.5212650295329456, 0.3269489683044237, 0.0, 0.04999628426987249, -0.24465089957977443, 0.705837940310525, 0.5075751590631512, 0.7073068896941489, 0.0, -0.17362365752836295, -0.6517332221908914, -0.6845399492478259, 0.7491299771949108, 0.0
0.06895962658292917, -0.20488812788243133, 0.14717524871224774, 0.5374834352845913, 0.21680290425516793, 0.0, -0.0827399644491715, -0.2098456483562586, -0.08318392420006714, 0.5168873283805819, 0.33987431823933306, 0.0, 0.05075935059642482, -0.2779763384904018, 0.750175150164175, 0.5226549678613318, 0.6672903575955415, 0.0, -0.19681501317955194, -0.6965720396715647, -0.6923380454391516, 0.7079762653501909, 0.0
0.068887142710028, -0.1895827771663324, 0.15732169937476578, 0.5289658480530821, 0.23071377529616693, 0.0, -0.08589342673793825, -0.1975317047116154, -0.09360754955389682, 0.5125096272282181, 0.3527996681742424, 0.0, 0.05152241692297714, -0.31130177740102916, 0.7945123600178252, 0.5377347766595125, 0.6272738254969339, 0.0, -0.2200063688307409, -0.741410857152238, -0.7001361416304772, 0.6668225535054709, 0.0
0.06881465883712681, -0.17427742645023347, 0.16746815003728377, 0.5204482608215729, 0.24462464633716594, 0.0, -0.089046889026705, -0.18521776106697216, -0.10403117490772651, 0.5081319260758543, 0.36572501810915176, 0.0, 0.05228548324952948, -0.34462721631165655, 0.8388495698714754, 0.5528145854576932, 0.5872572933983263, 0.0, -0.24319772448192992, -0.7862496746329113, -0.7079342378218029, 0.625668841660751, 0.0
0.06874217496422563, -0.15897207573413458, 0.17761460069980178, 0.5119306735900636, 0.2585355173781649, 0.0, -0.09220035131547176, -0.1729038174223289, -0.11445480026155619, 0.5037542249234906, 0.3786503680440611, 0.0, 0.053048549576081815, -0.3779526552222839, 0.8831867797251255, 0.5678943942558738, 0.5472407612997188, 0.0, -0.2663890801331189, -0.8310884921135846, -0.7157323340131285, 0.584515129816031, 0.0
0.06065271664916473, -0.14811316421765996, 0.19439084858696995, 0.5106745042768672, 0.2610461595445247, 0.0, -0.08792951318254912, -0.17081803028380657, -0.13137708333789722, 0.503723898082408, 0.37934435284255613, 0.0, 0.05463380874825629, -0.40232667040923376, 0.9140997023705988, 0.570175127690527, 0.5205270973438855, 0.0, -0.291202181762627, -0.864133100566249, -0.7106565744637956, 0.5554947828702259, 0.0
0.05256325833410383, -0.13725425270118535, 0.2111670964741381, 0.5094183349636708, 0.2635568017108846, 0.0, -0.08365867504962647, -0.1687322431452842, -0.14829936641423824, 0.5036935712413253, 0.3800383376410511, 0.0, 0.05621906792043075, -0.4267006855961836, 0.9450126250160719, 0.5724558611251801, 0.49381343338805217, 0.0, -0.31601528339213514, -0.8971777090189136, -0.7055808149144628, 0.5264744359244209, 0.0
0.04447380001904293, -0.12639534118471074, 0.22794334436130623, 0.5081621656504745, 0.2660674438772444, 0.0, -0.07938783691670384, -0.16664645600676184, -0.16522164949057927, 0.5036632444002427, 0.3807323224395461, 0.0, 0.057804327092605225, -0.4510747007831335, 0.975925547661545, 0.5747365945598333, 0.46709976943221887, 0.0, -0.3408283850216432, -0.930222317471578, -0.7005050553651297, 0.49745408897861565, 0.0
0.03638434170398203, -0.11553642966823613, 0.24471959224847445, 0.5069059963372781, 0.2685780860436042, 0.0, -0.0751169987837812, -0.16456066886823947, -0.1821439325669203, 0.5036329175591601, 0.3814263072380411, 0.0, 0.0593895862647797, -0.47544871597008337, 1.0068384703070183, 0.5770173279944865, 0.4403861054763855, 0.0, -0.36564148665115137, -0.9632669259242426, -0.6954292958157968, 0.4684337420328106, 0.0
0.02829488338892112, -0.10467751815176152, 0.2614958401356426, 0.5056498270240817, 0.27108872820996405, 0.0, -0.07084616065085855, -0.16247488172971714, -0.19906621564326135, 0.5036025907180774, 0.3821202920365361, 0.0, 0.060974845436954174, -0.4998227311570333, 1.0377513929524913, 0.5792980614291395, 0.4136724415205522, 0.0, -0.3904545882806595, -0.9963115343769069, -0.690353536266464, 0.4394133950870055, 0.0
0.017193469542989108, -0.09987687136176199, 0.27165845952835105, 0.5113220214293571, 0.2668804671120424, 0.0, -0.06331971692909129, -0.16886457051851192, -0.20901864154349367, 0.5100777692242934, 0.3762858762586048, 0.0, 0.06394887496317944, -0.5089986670543702, 1.0545689492923958, 0.5743041368777742, 0.40316858931512783, 0.0, -0.4047157538838507, -1.0153263869412437, -0.677805756899297, 0.426150606685174, 0.0
0.006092055697057091, -0.09507622457176244, 0.28182107892105956, 0.5169942158346326, 0.2626722060141208, 0.0, -0.055793273207324016, -0.1752542593073067, -0.21897106744372594, 0.5165529477305093, 0.37045146048067346, 0.0, 0.06692290448940472, -0.5181746029517074, 1.0713865056323002, 0.5693102123264088, 0.3926647371097034, 0.0, -0.41897691948704197, -1.0343412395055802, -0.6652579775321301, 0.4128878182833426, 0.0
-0.005009358148874922, -0.09027557778176289, 0.291983698313768, 0.522666410239908, 0.2584639449161991, 0.0, -0.04826682948555675, -0.18164394809610146, -0.22892349334395826, 0.5230281262367253, 0.3646170447027422, 0.0, 0.06989693401562999, -0.5273505388490444, 1.0882040619722047, 0.5643162877750434, 0.382160884904279, 0.0, -0.4332380850902332, -1.0533560920699168, -0.6527101981649632, 0.39962502988151116, 0.0
-0.01611077199480694, -0.08547493099176336, 0.3021463177064765, 0.5283386046451833, 0.2542556838182775, 0.0, -0.04074038576378948, -0.18803363688489627, -0.23887591924419055, 0.5295033047429413, 0.35878262892481094, 0.0, 0.07287096354185527, -0.5365264747463815, 1.1050216183121089, 0.5593223632236781, 0.37165703269885464, 0.0, -0.4474992506934245, -1.0723709446342535, -0.6401624187977962, 0.3863622414796798, 0.0
-0.027212185840738954, -0.08067428420176381, 0.312308937099185, 0.5340107990504588, 0.25004742272035585, 0.0, -0.033213942042022215, -0.19442332567369103, -0.24882834514442287, 0.5359784832491573, 0.35294821314687963, 0.0, 0.07584499306808054, -0.5457024106437185, 1.1218391746520133, 0.5543284386723126, 0.36115318049343015, 0.0, -0.46176041629661574, -1.09138579719859, -0.6276146394306293, 0.3730994530778483, 0.0
-0.02985386732733852, -0.080065117168928, 0.31096559208051, 0.5318174786860626, 0.2564905290562372, 0.0, -0.033572260580917605, -0.20012403875894402, -0.24715752050753764, 0.5360129779364936, 0.35829809061787227, 0.0, 0.07791649643200457, -0.5403532522483777, 1.124567508245316, 0.5518702192153657, 0.3660396276694578, 0.0, -0.46233193483215673, -1.0957055569104461, -0.6190957781087661, 0.3749261809954971, 0.0
-0.032495548813938076, -0.07945595013609218, 0.309622247061835, 0.5296241583216663, 0.2629336353921185, 0.0, -0.03393057911981299, -0.20582475184419707, -0.24548669587065244, 0.53604747262383, 0.3636479680888649, 0.0, 0.07998799979592862, -0.5350040938530368, 1.1272958418386185, 0.5494119997584188, 0.3709260748454853, 0.0, -0.46290345336769784, -1.1000253166223022, -0.610576916786903, 0.376752908913146, 0.0
-0.035137230300537635, -0.07884678310325634, 0.30827890204316, 0.5274308379572701, 0.2693767417279998, 0.0, -0.03428889765870838, -0.21152546492945007, -0.24381587123376727, 0.5360819673111665, 0.36899784555985754, 0.0, 0.08205950315985266, -0.529654935457696, 1.130024175431921, 0.5469537803014718, 0.375812522021513, 0.0, -0.4634749719032389, -1.1043450763341585, -0.6020580554650397, 0.3785796368307948, 0.0
-0.0377789117871372, -0.07823761607042051, 0.306935557024485, 0.525237517592874, 0.27581984806388116, 0.0, -0.03464721619760377, -0.2172261780147031, -0.24214504659688205, 0.5361164619985029, 0.3743477230308501, 0.0, 0.0841310065237767, -0.5243057770623553, 1.1327525090252235, 0.5444955608445249, 0.38069896919754054, 0.0, -0.46404649043878, -1.1086648360460143, -0.5935391941431765, 0.38040636474844364, 0.0
-0.04042059327373677, -0.07762844903758469, 0.30559221200581, 0.5230441972284776, 0.28226295439976246, 0.0, -0.03500553473649916, -0.2229268910999561, -0.24047422195999685, 0.5361509566858393, 0.37969760050184276, 0.0, 0.08620250988770074, -0.5189566186670144, 1.135480842618526, 0.542037341387578, 0.38558541637356814, 0.0, -0.464618008974321, -1.1129845957578703, -0.5850203328213132, 0.3822330926660925, 0.0
-0.033016299805609065, -0.08477338752134382, 0.2919182345041842, 0.5118011876128582, 0.29902070179685947, 0.0, -0.04217657950614377, -0.22490082706803516, -0.22616197406025826, 0.5277543137901763, 0.3955681237363225, 0.0, 0.08782406283260458, -0.49922449861196116, 1.1240348686641923, 0.5400292493260375, 0.4057721772454733, 0.0, -0.45145558747645476, -1.1025882279091008, -0.5797566990499787, 0.39909694211907676, 0.0
-0.025612006337481372, -0.09191832600510295, 0.2782442570025584, 0.5005581779972387, 0.31577844919395653, 0.0, -0.049347624275788385, -0.2268747630361142, -0.2118497261605196, 0.5193576708945132, 0.41143864697080224, 0.0, 0.08944561577750844, -0.479492378556908, 1.1125888947098581, 0.5380211572644968, 0.4259589381173786, 0.0, -0.43829316597858853, -1.092191860060331, -0.5744930652786441, 0.415960791572061, 0.0
-0.018207712869353684, -0.09906326448886209, 0.2645702795009326, 0.4893151683816191, 0.3325361965910535, 0.0, -0.056518669045433, -0.22884869900419325, -0.197537478260781, 0.5109610279988501, 0.4273091702052819, 0.0, 0.09106716872241226, -0.4597602585018547, 1.1011429207555243, 0.5360130652029563, 0.4461456989892838, 0.0, -0.42513074448072224, -1.0817954922115616, -0.5692294315073094, 0.4328246410250453, 0.0
-0.010803419401225986, -0.10620820297262122, 0.2508963019993068, 0.4780721587659996, 0.34929394398815056, 0.0, -0.06368971381507761, -0.23082263497227232, -0.18322523036104235, 0.502564385103187, 0.44317969343976166, 0.0, 0.0926887216673161, -0.44002813844680144, 1.0896969468011903, 0.5340049731414157, 0.46633245986118904, 0.0, -0.4119683229828559, -1.071399124362792, -0.5639657977359749, 0.44968849047802956, 0.0
-0.003399125933098293, -0.11335314145638035, 0.23722232449768102, 0.4668291491503801, 0.36605169138524757, 0.0, -0.07086075858472222, -0.23279657094035136, -0.16891298246130373, 0.49416774220752396, 0.45905021667424134, 0.0, 0.09431027461221995, -0.42029601839174824, 1.0782509728468563, 0.5319968810798751, 0.4865192207330943, 0.0, -0.3988059014849897, -1.0610027565140223, -0.5587021639646405, 0.4665523399310138, 0.0
0.006397382968082445, -0.126190018557111, 0.21490671572394823, 0.4599331717615083, 0.37694981695935603, 0.0, -0.07273114800800481, -0.23497305585878286, -0.1456366083315916, 0.48910413014978493, 0.46875019466080675, 0.0, 0.08960933394453079, -0.38834622530826257, 1.0535772985899732, 0.5199237998533242, 0.5165675491550316, 0.0, -0.3730513971822239, -1.0377757228422644, -0.544718774493221, 0.4934531345985874, 0.0
0.016193891869263184, -0.1390268956578417, 0.19259110695021542, 0.4530371943726365, 0.38784794253346444, 0.0, -0.07460153743128739, -0.23714954077721437, -0.12236023420187946, 0.4840405180920459, 0.478450172647372, 0.0, 0.08490839327684165, -0.3563964322247768, 1.0289036243330898, 0.5078507186267731, 0.5466158775769687, 0.0, -0.34729689287945814, -1.0145486891705058, -0.5307353850218016, 0.5203539292661611, 0.0
0.02599040077044392, -0.15186377275857235, 0.17027549817648263, 0.4461412169837647, 0.39874606810757285, 0.0, -0.07647192685456997, -0.23932602569564587, -0.09908386007216732, 0.47897690603430687, 0.4881501506339374, 0.0, 0.08020745260915246, -0.3244466391412911, 1.0042299500762064, 0.4957776374002221, 0.576664205998906, 0.0, -0.32154238857669226, -0.9913216554987476, -0.5167519955503823, 0.5472547239337346, 0.0
0.035786909671624664, -0.16470064985930302, 0.14795988940274982, 0.4392452395948929, 0.40964419368168126, 0.0, -0.07834231627785254, -0.2415025106140774, -0.07580748594245518, 0.47391329397656795, 0.4978501286205027, 0.0, 0.07550651194146331, -0.29249684605780546, 0.9795562758193233, 0.4837045561736711, 0.6067125344208432, 0.0, -0.29578788427392644, -0.9680946218269894, -0.5027686060789629, 0.5741555186013083, 0.0
0.045583418572805394, -0.17753752696003372, 0.12564428062901703, 0.4323492622060211, 0.4205423192557897, 0.0, -0.08021270570113513, -0.24367899553250885, -0.05253111181274305, 0.4688496819188289, 0.5075501066070681, 0.0, 0.07080557127377415, -0.2605470529743197, 0.95488260156244, 0.47163147494712004, 0.6367608628427804, 0.0, -0.27003337997116067, -0.9448675881552311, -0.48878521660754354, 0.601056313268882, 0.0
0.048961048158171504, -0.18868498328976505, 0.10820901386958834, 0.4369494684034046, 0.41979233033225677, 0.0, -0.07568913446774575, -0.24621777240641082, -0.034327814661303496, 0.47431867811127015, 0.5054649687310275, 0.0, 0.06873361377517875, -0.22698940324270223, 0.9250836073867842, 0.45088625060247867, 0.6604701379681817, 0.0, -0.23987207987740033, -0.9182019067911936, -0.46685235155745614, 0.6228183559637598, 0.0
0.05233867774353761, -0.19983243961949637, 0.09077374711015966, 0.4415496746007881, 0.4190423414087237, 0.0, -0.07116556323435635, -0.24875654928031282, -0.016124517509863948, 0.47978767430371144, 0.5033798308549868, 0.0, 0.06666165627658335, -0.19343175351108474, 0.8952846132111284, 0.4301410262578373, 0.684179413093583, 0.0, -0.20971077978364, -0.8915362254271562, -0.4449194865073687, 0.6445803986586375, 0.0
0.055716307328903716, -0.2109798959492277, 0.07333848035073096, 0.4461498807981715, 0.41829235248519075, 0.0, -0.06664199200096697, -0.2512953261542148, 0.0020787796415756054, 0.48525667049615256, 0.5012946929789462, 0.0, 0.06458969877798795, -0.1598741037794673, 0.8654856190354726, 0.4093958019131959, 0.7078886882189843, 0.0, -0.1795494796898797, -0.8648705440631187, -0.42298662145728116, 0.6663424413535153, 0.0
0.05909393691426982, -0.222127352278959, 0.055903213591302243, 0.450750086995555, 0.4175423635616577, 0.0, -0.062118420767577606, -0.25383410302811676, 0.020282076793015157, 0.49072566668859385, 0.49920955510290554, 0.0, 0.06251774127939254, -0.12631645404784983, 0.8356866248598166, 0.3886505775685546, 0.7315979633443856, 0.0, -0.1493881795961194, -0.8382048626990812, -0.4010537564071938, 0.688104484048393, 0.0
0.06247156649963592, -0.23327480860869038, 0.03846794683187354, 0.4553502931929385, 0.41679237463812474, 0.0, -0.05759484953418821, -0.25637287990201874, 0.0384853739444547, 0.4961946628810351, 0.497124417226865, 0.0, 0.060445783780797124, -0.0927588043162324, 0.805887630684161, 0.36790535322391316, 0.7553072384697869, 0.0, -0.11922687950235908, -0.8115391813350438, -0.3791208913571063, 0.7098665267432709, 0.0
0.06214344529839269, -0.24361288595110184, 0.031604859474623874, 0.46687250312899964, 0.40999477447787086, 0.0, -0.05627618940525587, -0.26524232202007153, 0.046059550675934764, 0.5076693370295888, 0.48835906305474264, 0.0, 0.061487814110210266, -0.0705233668926241, 0.7865075749551613, 0.35427644710489087, 0.7664723016810122, 0.0, -0.09818952069088183, -0.7958282859139514, -0.365642931783772, 0.719871755834693, 0.0
0.06181532409714946, -0.2539509632935133, 0.0247417721173742, 0.47839471306506065, 0.4031971743176169, 0.0, -0.05495752927632354, -0.2741117641381244, 0.053633727407414816, 0.5191440111781426, 0.47959370888262026, 0.0, 0.06252984443962341, -0.04828792946901581, 0.767127519226162, 0.3406475409858686, 0.7776373648922378, 0.0, -0.07715216187940459, -0.7801173904928591, -0.3521649722104377, 0.729876984926115, 0.0
0.06148720289590622, -0.2642890406359248, 0.017878684760124525, 0.4899169230011217, 0.3963995741573631, 0.0, -0.053638869147391195, -0.2829812062561772, 0.061207904138894875, 0.5306186853266962, 0.47082835471049783, 0.0, 0.06357187476903656, -0.026052492045407518, 0.7477474634971627, 0.3270186348668463, 0.7888024281034633, 0.0, -0.056114803067927335, -0.7644064950717667, -0.3386870126371034, 0.7398822140175372, 0.0
0.06115908169466299, -0.2746271179783362, 0.011015597402874857, 0.5014391329371827, 0.38960197399710916, 0.0, -0.05232020901845886, -0.29185064837422997, 0.06878208087037495, 0.5420933594752501, 0.46206300053837546, 0.0, 0.0646139050984497, -0.0038170546217992283, 0.7283674077681632, 0.313389728747824, 0.7999674913146887, 0.0, -0.03507744425645009, -0.7486955996506744, -0.325209053063769, 0.7498874431089593, 0.0
0.06083096049341975, -0.28496519532074777, 0.004152510045625184, 0.5129613428732438, 0.3828043738368553, 0.0, -0.05100154888952652, -0.3007200904922828, 0.076356257601855, 0.5535680336238038, 0.4532976463662531, 0.0, 0.06565593542786284, 0.01841838280180907, 0.7089873520391637, 0.29976082262880166, 0.811132554525914, 0.0, -0.014040085444972835, -0.7329847042295822, -0.3117310934904347, 0.7598926722003815, 0.0
0.05861923109420519, -0.2898914499663548, 0.0041651662308828516, 0.5154523570668357, 0.38494786505110706, 0.0, -0.048363258577663576, -0.3052983160130667, 0.07692357931867669, 0.5558168903649985, 0.4529715350861765, 0.0, 0.06557387493335598, 0.025901776581312496, 0.7049149997300949, 0.3005030308745293, 0.811106123259722, 0.0, -0.005498312697326498, -0.7325297667067574, -0.31354804756427246, 0.7591998497911684, 0.0
0.05640750169499061, -0.2948177046119619, 0.004177822416140518, 0.5179433712604276, 0.3870913562653589, 0.0, -0.045724968265800636, -0.3098765415338506, 0.07749090103549842, 0.5580657471061932, 0.4526454238060998, 0.0, 0.06549181443884912, 0.033385170360815924, 0.7008426474210261, 0.3012452391202569, 0.8110796919935298, 0.0, 0.0030434600503198407, -0.7320748291839324, -0.3153650016381101, 0.7585070273819552, 0.0
0.05419577229577605, -0.2997439592575689, 0.004190478601398185, 0.5204343854540195, 0.3892348474796106, 0.0, -0.04308667795393771, -0.31445476705463443, 0.07805822275232012, 0.5603146038473878, 0.4523193125260231, 0.0, 0.06540975394434223, 0.04086856414031934, 0.6967702951119571, 0.3019874473659845, 0.8110532607273375, 0.0, 0.011585232797966177, -0.7316198916611076, -0.31718195571194774, 0.757814204972742, 0.0
0.051984042896561486, -0.304670213903176, 0.004203134786655852, 0.5229253996476113, 0.3913783386938624, 0.0, -0.04044838764207478, -0.3190329925754184, 0.07862554446914184, 0.5625634605885825, 0.4519932012459465, 0.0, 0.06532769344983537, 0.04835195791982277, 0.6926979428028883, 0.3027296556117121, 0.8110268294611453, 0.0, 0.020127005545612517, -0.7311649541382829, -0.31899890978578543, 0.7571213825635288, 0.0
0.04977231349734691, -0.3095964685487831, 0.004215790971913519, 0.5254164138412033, 0.3935218299081143, 0.0, -0.03781009733021183, -0.3236112180962023, 0.07919286618596354, 0.5648123173297772, 0.4516670899658699, 0.0, 0.06524563295532851, 0.055835351699326186, 0.6886255904938194, 0.3034718638574397, 0.8110003981949532, 0.0, 0.028668778293258857, -0.7307100166154579, -0.32081586385962313, 0.7564285601543157, 0.0
0.049502245437683515, -0.30401590043857885, 0.011563903827309256, 0.5189114984151918, 0.4046297091517274, 0.0, -0.03437212089156293, -0.3179434393739344, 0.07082830244195214, 0.5581296017222066, 0.46013502956147695, 0.0, 0.06346590884883097, 0.04878389479563313, 0.6998143378229944, 0.3190807238398019, 0.8006715257190166, 0.0, 0.02587529784216464, -0.7454983659005311, -0.338478368997003, 0.7459158905455102, 0.0
0.04923217737802012, -0.29843533232837466, 0.018912016682704993, 0.5124065829891804, 0.4157375883953405, 0.0, -0.030934144452914012, -0.3122756606516665, 0.062463738697940724, 0.551446886114636, 0.468602969157084, 0.0, 0.06168618474233345, 0.04173243789194006, 0.7110030851521696, 0.3346895838221641, 0.7903426532430801, 0.0, 0.023081817391070424, -0.7602867151856043, -0.3561408741343828, 0.7354032209367048, 0.0
0.04896210931835672, -0.29285476421817036, 0.026260129538100734, 0.505901667563169, 0.42684546763895354, 0.0, -0.0274961680142651, -0.30660788192939853, 0.054099174953929324, 0.5447641705070654, 0.47707090875269104, 0.0, 0.05990646063583591, 0.034680980988247, 0.7221918324813444, 0.35029844380452635, 0.7800137807671438, 0.0, 0.020288336939976205, -0.7750750644706774, -0.37380337927176266, 0.7248905513278993, 0.0
0.048692041258693315, -0.2872741961079662, 0.033608242393496475, 0.49939675213715745, 0.4379533468825667, 0.0, -0.024058191575616193, -0.30094010320713066, 0.04573461120991791, 0.5380814548994948, 0.4855388483482981, 0.0, 0.058126736529338384, 0.027629524084553936, 0.7333805798105195, 0.3659073037868886, 0.7696849082912073, 0.0, 0.017494856488881994, -0.7898634137557505, -0.39146588440914254, 0.7143778817190938, 0.0
0.04842197319902993, -0.28169362799776193, 0.04095635524889221, 0.492891836711146, 0.4490612261261798, 0.0, -0.020620215136967282, -0.2952723244848628, 0.037370047465906504, 0.5313987392919242, 0.4940067879439051, 0.0, 0.05634701242284085, 0.02057806718086087, 0.7445693271396945, 0.3815161637692508, 0.7593560358152709, 0.0, 0.014701376037787773, -0.8046517630408236, -0.40912838954652236, 0.7038652121102883, 0.0
0.04895056815414499, -0.2673723846710585, 0.05857039294201003, 0.49328391794628956, 0.45459259689542875, 0.0, -0.01697251166253808, -0.28255981047091716, 0.01814034836130787, 0.5318254234248178, 0.4976190330649047, 0.0, 0.05283880218976244, -0.0013377334360639827, 0.768459477716797, 0.4060740424115813, 0.7385201171813789, 0.0, -0.0007400178575163445, -0.8318556515862986, -0.436918747117911, 0.6825465039893681, 0.0
0.04947916310926004, -0.25305114134435513, 0.07618443063512786, 0.493675999181433, 0.46012396766467784, 0.0, -0.013324808188108876, -0.2698472964569715, -0.0010893507432907686, 0.5322521075577112, 0.5012312781859042, 0.0, 0.04933059195668402, -0.02325353405298884, 0.7923496282938994, 0.43063192105391174, 0.7176841985474868, 0.0, -0.016181411752820462, -0.8590595401317738, -0.4647091046892996, 0.6612277958684479, 0.0
0.050007758064375095, -0.2387298980176517, 0.09379846832824569, 0.4940680804165766, 0.46565533843392687, 0.0, -0.00967710471367967, -0.2571347824430258, -0.020319049847889407, 0.5326787916906047, 0.5048435233069039, 0.0, 0.04582238172360561, -0.045169334669913686, 0.816239778871002, 0.45518979969624224, 0.6968482799135949, 0.0, -0.031622805648124586, -0.8862634286772487, -0.49249946226068825, 0.6399090877475276, 0.0
0.05053635301949015, -0.22440865469094828, 0.11141250602136349, 0.4944601616517201, 0.47118670920317585, 0.0, -0.006029401239250466, -0.2444222684290802, -0.03954874895248804, 0.5331054758234983, 0.5084557684279034, 0.0, 0.04231417149052719, -0.06708513528683853, 0.8401299294481045, 0.4797476783385726, 0.6760123612797029, 0.0, -0.04706419954342869, -0.9134673172227237, -0.5202898198320768, 0.6185903796266075, 0.0
0.051064947974605215, -0.21008741136424489, 0.12902654371448133, 0.49485224288686364, 0.4767180799724249, 0.0, -0.0023816977648212613, -0.23170975441513447, -0.05877844805708667, 0.5335321599563919, 0.512068013548903, 0.0, 0.03880596125744878, -0.0890009359037634, 0.8640200800252068, 0.5043055569809032, 0.6551764426458108, 0.0, -0.0625055934387328, -0.9406712057681986, -0.5480801774034655, 0.5972716715056874, 0.0
0.043250820235968324, -0.19515644075401575, 0.1502002519755409, 0.5041296626988871, 0.47158474550172713, 0.0, 0.007662457509627865, -0.21751457272964414, -0.08079481314924805, 0.5431450006347222, 0.5066227084557283, 0.0, 0.03583276634767181, -0.11968608959119278, 0.8895976219044545, 0.5216605420853986, 0.6295101228488312, 0.0, -0.08911362762477446, -0.9686270519686029, -0.5686952630177611, 0.56947547755328, 0.0
0.035436692497331425, -0.18022547014378662, 0.17137396023660048, 0.5134070825109106, 0.46645141103102944, 0.0, 0.01770661278407699, -0.20331939104415378, -0.10281117824140941, 0.5527578413130524, 0.5011774033625537, 0.0, 0.032859571437894836, -0.1503712432786222, 0.915175163783702, 0.5390155271898941, 0.6038438030518516, 0.0, -0.11572166181081614, -0.9965828981690071, -0.5893103486320568, 0.5416792836008728, 0.0
0.027622564758694533, -0.16529449953355752, 0.1925476684976601, 0.5226845023229342, 0.46131807656033175, 0.0, 0.027750768058526113, -0.18912420935866345, -0.12482754333357077, 0.5623706819913827, 0.49573209826937903, 0.0, 0.029886376528117865, -0.1810563969660516, 0.9407527056629497, 0.5563705122943895, 0.5781774832548722, 0.0, -0.1423296959968578, -1.0245387443694112, -0.6099254342463525, 0.5138830896484656, 0.0
0.019808437020057638, -0.15036352892332838, 0.21372137675871966, 0.5319619221349576, 0.45618474208963405, 0.0, 0.03779492333297524, -0.17492902767317306, -0.1468439084257321, 0.5719835226697131, 0.49028679317620444, 0.0, 0.026913181618340894, -0.21174155065348102, 0.9663302475421973, 0.5737254973988849, 0.5525111634578926, 0.0, -0.16893773018289945, -1.0524945905698155, -0.6305405198606482, 0.48608689569605823, 0.0
0.011994309281420746, -0.13543255831309928, 0.23489508501977927, 0.5412393419469811, 0.4510514076189364, 0.0, 0.047839078607424375, -0.16073384598768273, -0.1688602735178935, 0.5815963633480433, 0.4848414880830297, 0.0, 0.023939986708563923, -0.2424267043409104, 0.9919077894214449, 0.5910804825033804, 0.526844843660913, 0.0, -0.1955457643689411, -1.0804504367702197, -0.6511556054749437, 0.458290701743651, 0.0
0.001823520351549526, -0.1273705142336653, 0.24710863034453076, 0.5491753191492144, 0.4417707310225287, 0.0, 0.0559601574016095, -0.15470508221248824, -0.18090593213123718, 0.5897441467269815, 0.47503073055818185, 0.0, 0.02006776083284576, -0.2638274987872104, 1.0071802336998266, 0.5985013676647897, 0.5113420229025849, 0.0, -0.21581686653161972, -1.0970613635799804, -0.6595146819037869, 0.4398651037507142, 0.0
-0.008347268578321694, -0.1193084701542313, 0.2593221756692823, 0.5571112963514474, 0.43249005442612093, 0.0, 0.06408123619579464, -0.14867631843729376, -0.19295159074458085, 0.5978919301059197, 0.4652199730333339, 0.0, 0.016195534957127597, -0.28522829323351034, 1.0224526779782086, 0.6059222528261986, 0.495839202144257, 0.0, -0.23608796869429835, -1.1136722903897411, -0.66787375833263, 0.42143950575777733, 0.0
-0.01851805750819292, -0.11124642607479733, 0.2715357209940338, 0.5650472735536806, 0.42320937782971324, 0.0, 0.07220231498997977, -0.1426475546620993, -0.20499724935792452, 0.6060397134848577, 0.45540921550848595, 0.0, 0.012323309081409434, -0.30662908767981034, 1.0377251222565902, 0.6133431379876078, 0.4803363813859289, 0.0, -0.25635907085697696, -1.1302832171995019, -0.6762328347614732, 0.40301390776484053, 0.0
-0.02868884643806414, -0.10318438199536335, 0.2837492663187853, 0.5729832507559138, 0.4139287012333055, 0.0, 0.0803233937841649, -0.13661879088690485, -0.21704290797126818, 0.614187496863796, 0.445598457983638, 0.0, 0.008451083205691273, -0.32802988212611034, 1.0529975665349722, 0.6207640231490168, 0.46483356062760084, 0.0, -0.27663017301965553, -1.1468941440092626, -0.6845919111903164, 0.3845883097719037, 0.0
-0.03885963536793536, -0.09512233791592936, 0.29596281164353677, 0.580919227958147, 0.40464802463689775, 0.0, 0.08844447257835004, -0.13059002711171036, -0.22908856658461185, 0.6223352802427342, 0.43578770045879006, 0.0, 0.004578857329973108, -0.3494306765724103, 1.068270010813354, 0.628184908310426, 0.44933073986927274, 0.0, -0.29690127518233417, -1.1635050708190233, -0.6929509876191595, 0.3661627117789669, 0.0
-0.04156686618525207, -0.09382396130543201, 0.29635806588726044, 0.5778884776746929, 0.4060977370015063, 0.0, 0.08640084910389736, -0.13318176984148847, -0.22816317207125342, 0.6192299520403425, 0.4361537588347864, 0.0, 0.0033282757930967397, -0.3555282705482498, 1.0697768408230632, 0.6318958483099674, 0.44904701914606854, 0.0, -0.30430060203682263, -1.1651019772714282, -0.69353517724507, 0.36272349860001, 0.0
-0.044274097002568784, -0.09252558469493466, 0.2967533201309841, 0.5748577273912387, 0.4075474493661148, 0.0, 0.08435722562944468, -0.13577351257126655, -0.22723777755789504, 0.6161246238379506, 0.43651981721078265, 0.0, 0.002077694256220372, -0.36162586452408924, 1.0712836708327724, 0.6356067883095088, 0.44876329842286433, 0.0, -0.3116999288913111, -1.1666988837238328, -0.6941193668709805, 0.3592842854210532, 0.0
-0.0469813278198855, -0.0912272080844373, 0.29714857437470776, 0.5718269771077846, 0.4089971617307234, 0.0, 0.08231360215499202, -0.13836525530104465, -0.2263123830445366, 0.6130192956355587, 0.43688587558677894, 0.0, 0.0008271127193440041, -0.3677234584999289, 1.0727905008424818, 0.63931772830905, 0.4484795776996601, 0.0, -0.31909925574579956, -1.1682957901762376, -0.6947035564968912, 0.3558450722420964, 0.0
-0.0496885586372022, -0.08992883147393993, 0.2975438286184314, 0.5687962268243305, 0.4104468740953319, 0.0, 0.08026997868053933, -0.14095699803082276, -0.22538698853117817, 0.6099139674331668, 0.4372519339627752, 0.0, -0.00042346881753236356, -0.3738210524757683, 1.0742973308521913, 0.6430286683085914, 0.4481958569764559, 0.0, -0.326498582600288, -1.1698926966286423, -0.6952877461228016, 0.3524058590631395, 0.0
-0.05239578945451893, -0.08863045486344256, 0.29793908286215504, 0.5657654765408763, 0.41189658645994043, 0.0, 0.07822635520608665, -0.14354874076060084, -0.2244615940178198, 0.6068086392307751, 0.43761799233877147, 0.0, -0.0016740503544087314, -0.37991864645160783, 1.0758041608619004, 0.6467396083081328, 0.4479121362532517, 0.0, -0.3338979094547765, -1.171489603081047, -0.6958719357487122, 0.3489666458841825, 0.0
-0.04640747682633207, -0.0944224682162625, 0.2861121768359393, 0.5534148914539168, 0.4237078962239603, 0.0, 0.06699891671992173, -0.15102363688104217, -0.21059699165529114, 0.5944130421024064, 0.44779335612567805, 0.0, 0.003285571216585282, -0.3706847900577141, 1.063404629761398, 0.6506015262692887, 0.46299976412648136, 0.0, -0.3283520629247115, -1.1579706806301684, -0.6927680107910389, 0.36056398875388346, 0.0
-0.04041916419814523, -0.10021448156908244, 0.2742852708097236, 0.5410643063669571, 0.4355192059879803, 0.0, 0.0557714782337568, -0.15849853300148348, -0.19673238929276254, 0.5820174449740381, 0.4579687199125846, 0.0, 0.008245192787579295, -0.3614509336638205, 1.0510050986608954, 0.6544634442304447, 0.47808739199971106, 0.0, -0.3228062163946464, -1.14445175817929, -0.6896640858333657, 0.3721613316235844, 0.0
-0.034430851569958384, -0.1060064949219024, 0.26245836478350787, 0.5287137212799975, 0.44733051575200017, 0.0, 0.04454403974759188, -0.1659734291219248, -0.18286778693023392, 0.5696218478456695, 0.4681440836994912, 0.0, 0.013204814358573307, -0.3522170772699267, 1.0386055675603931, 0.6583253621916003, 0.4931750198729406, 0.0, -0.31726036986458134, -1.1309328357284112, -0.6865601608756924, 0.38375867449328527, 0.0
-0.028442538941771543, -0.11179850827472233, 0.2506314587572922, 0.5163631361930379, 0.45914182551602006, 0.0, 0.033316601261426965, -0.17344832524236609, -0.1690031845677053, 0.5572262507173009, 0.47831944748639765, 0.0, 0.018164435929567322, -0.342983220876033, 1.0262060364598904, 0.6621872801527563, 0.5082626477461704, 0.0, -0.31171452333451627, -1.1174139132775327, -0.6834562359180192, 0.3953560173629861, 0.0
-0.022454226313584697, -0.11759052162754227, 0.23880455273107648, 0.5040125511060783, 0.47095313528003996, 0.0, 0.022089162775262048, -0.18092322136280742, -0.15513858220517668, 0.5448306535889322, 0.4884948112733042, 0.0, 0.023124057500561335, -0.3337493644821393, 1.0138065053593879, 0.6660491981139122, 0.5233502756194, 0.0, -0.3061686768044512, -1.103894990826654, -0.6803523109603459, 0.406953360232687, 0.0
-0.014928500271205849, -0.12959925047017715, 0.21857178951794473, 0.4954401430827639, 0.4776202476440977, 0.0, 0.011895701669341572, -0.19065118046794077, -0.13267665375360294, 0.5369042023937566, 0.4934973053912969, 0.0, 0.026033369519990964, -0.30959059027986235, 0.987950381006254, 0.6631204378906276, 0.5499621764078664, 0.0, -0.28732148754937814, -1.0771470904922136, -0.6676707905032572, 0.4308656974352409, 0.0
-0.007402774228827005, -0.14160797931281202, 0.19833902630481298, 0.4868677350594496, 0.4842873600081555, 0.0, 0.001702240563421096, -0.20037913957307407, -0.11021472530202919, 0.5289777511985808, 0.49849979950928963, 0.0, 0.028942681539420582, -0.2854318160775854, 0.96209425665312, 0.660191677667343, 0.576574077196333, 0.0, -0.2684742982943051, -1.0503991901577732, -0.6549892700461685, 0.4547780346377947, 0.0
0.00012295181355184007, -0.15361670815544687, 0.17810626309168123, 0.4782953270361351, 0.49095447237221335, 0.0, -0.008491220542499381, -0.21010709867820737, -0.08775279685045544, 0.5210513000034049, 0.5035022936272823, 0.0, 0.03185199355885021, -0.26127304187530853, 0.9362381322999861, 0.6572629174440585, 0.6031859779847996, 0.0, -0.24962710903923208, -1.0236512898233325, -0.6423077495890795, 0.4786903718403485, 0.0
0.007648677855930685, -0.16562543699808174, 0.15787349987854948, 0.4697229190128207, 0.4976215847362711, 0.0, -0.018684681648419858, -0.21983505778334067, -0.0652908683988817, 0.5131248488082292, 0.508504787745275, 0.0, 0.03476130557827983, -0.2371142676730316, 0.9103820079468521, 0.6543341572207738, 0.629797878773266, 0.0, -0.23077991978415902, -0.9969033894888922, -0.6296262291319908, 0.5026027090429024, 0.0
0.015174403898309534, -0.17763416584071665, 0.13764073666541773, 0.4611505109895063, 0.5042886971003289, 0.0, -0.028878142754340343, -0.22956301688847397, -0.04282893994730795, 0.5051983976130534, 0.5135072818632677, 0.0, 0.037670617597709455, -0.21295549347075465, 0.8845258835937183, 0.6514053969974892, 0.6564097795617325, 0.0, -0.21193273052908598, -0.9701554891544518, -0.6169447086749021, 0.5265150462454562, 0.0
0.016043226705557207, -0.1880933411079485, 0.12281951550014665, 0.4643408192731778, 0.5002726560942463, 0.0, -0.03063830835217417, -0.23795095757248663, -0.02628567780731777, 0.5096088062355995, 0.5095747478805761, 0.0, 0.03871836772014724, -0.18217477777079083, 0.8525179623194948, 0.6383064915217616, 0.6806731024768624, 0.0, -0.1855033527831345, -0.9394806678161942, -0.5952617293951398, 0.5515849975090048, 0.0
0.016912049512804884, -0.19855251637518034, 0.1079982943348756, 0.46753112755684917, 0.4962566150881639, 0.0, -0.03239847395000801, -0.24633889825649927, -0.00974241566732758, 0.5140192148581456, 0.5056422138978844, 0.0, 0.03976611784258501, -0.15139406207082695, 0.8205100410452715, 0.6252075860460339, 0.7049364253919923, 0.0, -0.159073975037183, -0.9088058464779367, -0.5735787501153773, 0.5766549487725533, 0.0
0.017780872320052557, -0.20901169164241218, 0.09317707316960452, 0.4707214358405207, 0.4922405740820814, 0.0, -0.03415863954784184, -0.25472683894051185, 0.006800846472662608, 0.5184296234806918, 0.5017096799151929, 0.0, 0.040813867965022795, -0.1206133463708631, 0.7885021197710481, 0.6121086805703062, 0.7291997483071223, 0.0, -0.13264459729123157, -0.8781310251396791, -0.5518957708356149, 0.6017249000361021, 0.0
0.018649695127300234, -0.219470866909644, 0.07835585200433347, 0.4739117441241922, 0.4882245330759989, 0.0, -0.03591880514567567, -0.26311477962452445, 0.023344108612652795, 0.5228400321032378, 0.49777714593250133, 0.0, 0.04186161808746058, -0.08983263067089925, 0.7564941984968246, 0.5990097750945784, 0.7534630712222521, 0.0, -0.1062152195452801, -0.8474562038014214, -0.5302127915558525, 0.6267948512996506, 0.0
0.019518517934547907, -0.22993004217687588, 0.0635346308390624, 0.47710205240786363, 0.4842084920699164, 0.0, -0.0376789707435095, -0.2715027203085371, 0.039887370752642974, 0.527250440725784, 0.4938446119498097, 0.0, 0.04290936820989836, -0.0590519149709354, 0.7244862772226013, 0.5859108696188507, 0.7777263941373821, 0.0, -0.07978584179932863, -0.816781382463164, -0.5085298122760901, 0.6518648025631992, 0.0
0.019493614180517056, -0.23768448419295066, 0.05782316059149765, 0.48707299276080107, 0.47479526469813677, 0.0, -0.03650735634938694, -0.2801845255693665, 0.04578284512912603, 0.5396377929187661, 0.48505097297182953, 0.0, 0.04200453821298448, -0.038752647033853956, 0.7028273730145408, 0.571700877069328, 0.7902846664240119, 0.0, -0.06102649409284382, -0.7970718120620464, -0.4927255940998936, 0.667132052741727, 0.0
0.019468710426486194, -0.24543892620902538, 0.05211169034393289, 0.49704393311373857, 0.4653820373263571, 0.0, -0.03533574195526438, -0.2888663308301959, 0.05167831950560909, 0.5520251451117482, 0.47625733399384934, 0.0, 0.04109970821607061, -0.018453379096772513, 0.6811684688064804, 0.5574908845198052, 0.8028429387106418, 0.0, -0.04226714638635901, -0.7773622416609288, -0.47692137592369716, 0.682399302920255, 0.0
0.01944380667245534, -0.2531933682251001, 0.046400220096368135, 0.507014873466676, 0.4559688099545773, 0.0, -0.03416412756114181, -0.2975481360910253, 0.057573793882092154, 0.5644124973047303, 0.4674636950158691, 0.0, 0.040194878219156745, 0.0018458888403089335, 0.65950956459842, 0.5432808919702825, 0.8154012109972718, 0.0, -0.023507798679874205, -0.7576526712598114, -0.46111715774750067, 0.6976665530987828, 0.0
0.01941890291842448, -0.26094781024117486, 0.04068874984880338, 0.5169858138196135, 0.4465555825827977, 0.0, -0.03299251316701924, -0.3062299413518547, 0.06346926825857521, 0.5767998494977125, 0.4586700560378889, 0.0, 0.03929004822224288, 0.022145156777390377, 0.6378506603903596, 0.5290708994207597, 0.8279594832839016, 0.0, -0.004748450973389401, -0.7379431008586941, -0.44531293957130424, 0.7129338032773107, 0.0
0.019393999164393626, -0.2687022522572496, 0.034977279601238614, 0.526956754172551, 0.43714235521101796, 0.0, -0.03182089877289668, -0.3149117466126841, 0.06936474263505828, 0.5891872016906945, 0.4498764170599087, 0.0, 0.038385218225329004, 0.04244442471447182, 0.6161917561822992, 0.5148609068712369, 0.8405177555705315, 0.0, 0.014010896733095411, -0.7182335304575764, -0.42950872139510776, 0.7282010534558386, 0.0
0.025055290497831843, -0.267706681545327, 0.033027132121798405, 0.5278041464309792, 0.436605931756076, 0.0, -0.03433554646988984, -0.3148101789221936, 0.06903134181282776, 0.592983921132313, 0.44984713043506036, 0.0, 0.039930614775519624, 0.048015460883499214, 0.6100409820241515, 0.5109269382279001, 0.8408546564760441, 0.0, 0.02078735135679676, -0.7138220920907716, -0.4280008546598228, 0.7321329975172429, 0.0
0.030716581831270063, -0.2667111108334044, 0.031076984642358182, 0.5286515386894075, 0.4360695083011341, 0.0, -0.03685019416688299, -0.314708611231703, 0.06869794099059724, 0.5967806405739312, 0.4498178438102118, 0.0, 0.04147601132571025, 0.0535864970525266, 0.6038902078660036, 0.5069929695845635, 0.8411915573815564, 0.0, 0.02756380598049812, -0.7094106537239668, -0.4264929879245378, 0.7360649415786473, 0.0
0.03637787316470828, -0.2657155401214818, 0.029126837162917966, 0.5294989309478357, 0.43553308484619213, 0.0, -0.03936484186387614, -0.31460704354121244, 0.06836454016836672, 0.6005773600155497, 0.4497885571853634, 0.0, 0.04302140787590087, 0.05915753322155399, 0.5977394337078559, 0.5030590009412267, 0.8415284582870689, 0.0, 0.034340260604199466, -0.7049992153571621, -0.4249851211892528, 0.7399968856400518, 0.0
0.0420391644981465, -0.26471996940955916, 0.027176689683477747, 0.5303463232062641, 0.4349966613912502, 0.0, -0.041879489560869294, -0.3145054758507219, 0.06803113934613621, 0.6043740794571679, 0.4497592705605149, 0.0, 0.044566804426091504, 0.06472856939058139, 0.5915886595497081, 0.49912503229789, 0.8418653591925814, 0.0, 0.04111671522790082, -0.7005877769903572, -0.42347725445396783, 0.7439288297014561, 0.0
0.047700455831584714, -0.2637243986976366, 0.025226542204037524, 0.5311937154646924, 0.4344602379363082, 0.0, -0.044394137257862454, -0.31440390816023134, 0.0676977385239057, 0.6081707988987864, 0.4497299839356665, 0.0, 0.046112200976282124, 0.07029960555960876, 0.5854378853915604, 0.4951910636545533, 0.842202260098094, 0.0, 0.04789316985160218, -0.6961763386235524, -0.4219693877186828, 0.7478607737628605, 0.0
0.05755478794466964, -0.25420271656613797, 0.031972431051081635, 0.5226486043908791, 0.4426782149671032, 0.0, -0.05306732163938456, -0.3075374407983522, 0.0590048696209479, 0.6012141957530174, 0.45845670000880817, 0.0, 0.05169806965142466, 0.06287986707951823, 0.5945329846192621, 0.5047663623006731, 0.8309726197045446, 0.0, 0.043459207661734535, -0.7068873474485545, -0.43583032838044083, 0.7410040662821585, 0.0
0.06740912005775455, -0.24468103443463937, 0.038718319898125735, 0.514103493317066, 0.45089619199789804, 0.0, -0.061740506020906666, -0.3006709734364732, 0.0503120007179901, 0.5942575926072483, 0.46718341608194996, 0.0, 0.057283938326567196, 0.05546012859942769, 0.6036280838469636, 0.5143416609467931, 0.8197429793109955, 0.0, 0.03902524547186689, -0.7175983562735567, -0.4496912690421987, 0.7341473588014568, 0.0
0.07726345217083946, -0.23515935230314075, 0.04546420874516983, 0.5055583822432527, 0.45911416902869295, 0.0, -0.07041369040242877, -0.2938045060745941, 0.041619131815032295, 0.5873009894614792, 0.4759101321550916, 0.0, 0.06286980700170973, 0.04804039011933715, 0.6127231830746653, 0.523916959592913, 0.8085133389174461, 0.0, 0.03459128328199926, -0.7283093650985588, -0.46355220970395666, 0.7272906513207547, 0.0
0.08711778428392439, -0.2256376701716421, 0.052210097592213935, 0.4970132711694395, 0.4673321460594878, 0.0, -0.07908687478395088, -0.28693803871271506, 0.03292626291207449, 0.5803443863157102, 0.4846368482282334, 0.0, 0.06845567567685228, 0.04062065163924662, 0.621818282302367, 0.5334922582390328, 0.7972836985238969, 0.0, 0.030157321092131612, -0.7390203739235608, -0.4774131503657146, 0.7204339438400529, 0.0
0.0969721163970093, -0.21611598804014354, 0.05895598643925804, 0.4884681600956263, 0.4755501230902828, 0.0, -0.087760059165473, -0.2800715713508359, 0.02423339400911669, 0.5733877831699411, 0.49336356430137507, 0.0, 0.07404154435199481, 0.033200913159156076, 0.6309133815300687, 0.5430675568851526, 0.7860540581303478, 0.0, 0.025723358902263974, -0.749731382748563, -0.49127409102747255, 0.7135772363593508, 0.0
0.09914740541583734, -0.20497043411929686, 0.07639065908860937, 0.4852637286076477, 0.47817440364423996, 0.0, -0.09260473014052484, -0.2792559405941354, 0.005010938369979682, 0.5679565244865865, 0.4971886104367534, 0.0, 0.07940379969804258, 0.012988950430983737, 0.6540531871364708, 0.5611110988141694, 0.763718765533311, 0.0, 0.008204492966059851, -0.7735376946897167, -0.5146525948436944, 0.695021649734384, 0.0
0.10132269443466535, -0.19382488019845023, 0.09382533173796068, 0.4820592971196691, 0.4807986841981971, 0.0, -0.09744940111557666, -0.2784403098374349, -0.014211517269157328, 0.5625252658032318, 0.5010136565721316, 0.0, 0.08476605504409035, -0.007223012297188601, 0.6771929927428728, 0.5791546407431861, 0.7413834729362742, 0.0, -0.009314372970144274, -0.7973440066308703, -0.5380310986599162, 0.6764660631094171, 0.0
0.10349798345349338, -0.18267932627760355, 0.11126000438731201, 0.47885486563169044, 0.4834229647521543, 0.0, -0.10229407209062852, -0.27762467908073446, -0.033433972908294335, 0.5570940071198773, 0.5048387027075099, 0.0, 0.09012831039013813, -0.027434975025360943, 0.700332798349275, 0.597198182672203, 0.7190481803392373, 0.0, -0.0268332389063484, -0.821150318572024, -0.5614096024761379, 0.6579104764844503, 0.0
0.1056732724723214, -0.17153377235675693, 0.12869467703666332, 0.4756504341437119, 0.48604724530611143, 0.0, -0.10713874306568037, -0.2768090483240339, -0.05265642854743135, 0.5516627484365226, 0.508663748842888, 0.0, 0.09549056573618589, -0.04764693775353328, 0.7234726039556771, 0.6152417246012197, 0.6967128877422006, 0.0, -0.044352104842552524, -0.8449566305131777, -0.5847881062923598, 0.6393548898594836, 0.0
0.10784856149114945, -0.16038821843591025, 0.14612934968601465, 0.4724460026557333, 0.4886715258600687, 0.0, -0.11198341404073223, -0.2759934175673335, -0.07187888418656835, 0.546231489753168, 0.5124887949782663, 0.0, 0.10085282108223365, -0.0678589004817056, 0.7466124095620791, 0.6332852665302364, 0.6743775951451638, 0.0, -0.06187097077875664, -0.8687629424543314, -0.6081666101085818, 0.6207993032345167, 0.0
0.09853691367809925, -0.1491949342978776, 0.16505150432311935, 0.4798479789200263, 0.48101372272467685, 0.0, -0.10906099634394938, -0.2795860940567597, -0.09317490756506865, 0.5503731490868335, 0.5072194993588383, 0.0, 0.10721462160397667, -0.09462986848380378, 0.7752836033910228, 0.6453521832538694, 0.6478682394315689, 0.0, -0.09062123674946186, -0.8955736013380151, -0.6244145642844636, 0.5955053564147671, 0.0
0.08922526586504903, -0.13800165015984497, 0.18397365896022405, 0.48724995518431924, 0.473355919589285, 0.0, -0.10613857864716653, -0.2831787705461859, -0.11447093094356896, 0.5545148084204992, 0.5019502037394102, 0.0, 0.11357642212571968, -0.12140083648590198, 0.8039547972199663, 0.6574190999775024, 0.6213588837179741, 0.0, -0.11937150272016708, -0.9223842602216987, -0.6406625184603457, 0.5702114095950176, 0.0
0.07991361805199883, -0.12680836602181234, 0.20289581359732878, 0.49465193144861225, 0.4656981164538932, 0.0, -0.10321616095038368, -0.28677144703561214, -0.13576695432206926, 0.5586564677541647, 0.4966809081199822, 0.0, 0.1199382226474627, -0.14817180448800019, 0.8326259910489101, 0.6694860167011354, 0.5948495280043792, 0.0, -0.14812176869087235, -0.9491949191053823, -0.6569104726362276, 0.544917462775268, 0.0
0.07060197023894862, -0.1156150818837797, 0.2218179682344335, 0.5020539077129053, 0.45804031331850137, 0.0, -0.10029374325360083, -0.2903641235250384, -0.15706297770056957, 0.5627981270878302, 0.4914116125005541, 0.0, 0.12630002316920572, -0.1749427724900984, 0.8612971848778537, 0.6815529334247683, 0.5683401722907844, 0.0, -0.17687203466157755, -0.9760055779890661, -0.6731584268121098, 0.5196235159555184, 0.0
0.0612903224258984, -0.10442179774574706, 0.2407401228715382, 0.5094558839771983, 0.4503825101831096, 0.0, -0.09737132555681798, -0.2939568000144646, -0.1783590010790699, 0.5669397864214958, 0.4861423168811261, 0.0, 0.13266182369094875, -0.2017137404921966, 0.8899683787067972, 0.6936198501484012, 0.5418308165771895, 0.0, -0.20562230063228273, -1.0028162368727496, -0.6894063809879917, 0.49432956913576886, 0.0
0.04995896550018, -0.09731118430332104, 0.25090610376838607, 0.5222270096380844, 0.4382557216848162, 0.0, -0.08959657000264512, -0.30175514753320254, -0.190219494221411, 0.5786190410836511, 0.4761218126680905, 0.0, 0.13643285677289968, -0.21900209939782644, 0.9093519844354951, 0.6972563413833694, 0.5260306336022237, 0.0, -0.22778801703919577, -1.0191697520524508, -0.6939838001666612, 0.4786840188418713, 0.0
0.038627608574461604, -0.09020057086089503, 0.26107208466523385, 0.5349981352989706, 0.42612893318652284, 0.0, -0.08182181444847227, -0.30955349505194046, -0.20207998736375204, 0.5902982957458067, 0.4661013084550549, 0.0, 0.1402038898548506, -0.23629045830345624, 0.9287355901641933, 0.7008928326183378, 0.5102304506272578, 0.0, -0.2499537334461088, -1.035523267232152, -0.6985612193453306, 0.4630384685479736, 0.0
0.027296251648743195, -0.08308995741846902, 0.2712380655620817, 0.5477692609598566, 0.41400214468822943, 0.0, -0.07404705889429941, -0.31735184257067833, -0.21394048050609316, 0.6019775504079621, 0.4560808042420193, 0.0, 0.14397492293680153, -0.2535788172090861, 0.9481191958928913, 0.7045293238533061, 0.4944302676522919, 0.0, -0.2721194498530218, -1.051876782411853, -0.7031386385240002, 0.4473929182540759, 0.0
0.01596489472302479, -0.07597934397604302, 0.2814040464589296, 0.5605403866207428, 0.40187535618993603, 0.0, -0.06627230334012654, -0.3251501900894163, -0.22580097364843424, 0.6136568050701177, 0.44606030002898367, 0.0, 0.14774595601875248, -0.27086717611471595, 0.9675028016215892, 0.7081658150882745, 0.47863008467732615, 0.0, -0.2942851662599348, -1.068230297591554, -0.7077160577026695, 0.4317473679601783, 0.0
0.004633537797306389, -0.068868730533617, 0.29157002735577736, 0.5733115122816289, 0.3897485676916426, 0.0, -0.058497547785953695, -0.3329485376081542, -0.23766146679077535, 0.6253360597322731, 0.43603979581594815, 0.0, 0.1515169891007034, -0.28815553502034574, 0.9868864073502872, 0.7118023063232428, 0.46282990170236027, 0.0, -0.31645088266684784, -1.0845838127712553, -0.7122934768813391, 0.4161018176662807, 0.0
0.0011712515052644903, -0.06779626899243194, 0.2910079824674161, 0.5773162330821829, 0.3879575701544406, 0.0, -0.05651868021554021, -0.33728663723979024, -0.2372192317742465, 0.6294939471373238, 0.4359540093925541, 0.0, 0.15047832620954907, -0.2908764509643273, 0.9919718080984081, 0.7110745040251611, 0.46232765528483094, 0.0, -0.3253053882571621, -1.0861897076693077, -0.7089747472713058, 0.41560956500404816, 0.0
-0.0022910347867774092, -0.06672380745124687, 0.2904459375790549, 0.581320953882737, 0.3861665726172387, 0.0, -0.05453981264512672, -0.3416247368714262, -0.23677699675771768, 0.6336518345423744, 0.4358682229691601, 0.0, 0.14943966331839473, -0.2935973669083089, 0.997057208846529, 0.7103467017270795, 0.46182540886730145, 0.0, -0.33415989384747635, -1.0877956025673603, -0.7056560176612726, 0.4151173123418157, 0.0
-0.005753321078819307, -0.0656513459100618, 0.28988389269069365, 0.5853256746832912, 0.3843755750800366, 0.0, -0.05256094507471324, -0.3459628365030622, -0.23633476174118886, 0.6378097219474248, 0.43578243654576604, 0.0, 0.14840100042724036, -0.2963182828522905, 1.00214260959465, 0.7096188994289978, 0.4613231624497721, 0.0, -0.3430143994377906, -1.089401497465413, -0.7023372880512394, 0.41462505967958324, 0.0
-0.009215607370861207, -0.06457888436887674, 0.28932184780233244, 0.5893303954838452, 0.3825845775428347, 0.0, -0.05058207750429975, -0.3503009361346982, -0.23589252672466002, 0.6419676093524753, 0.43569665012237196, 0.0, 0.14736233753608605, -0.2990391987962721, 1.0072280103427707, 0.7088910971309161, 0.46082091603224273, 0.0, -0.35186890502810486, -1.0910073923634653, -0.6990185584412062, 0.41413280701735067, 0.0
-0.012677893662903107, -0.06350642282769167, 0.2887598029139712, 0.5933351162843993, 0.3807935800056327, 0.0, -0.04860320993388627, -0.3546390357663342, -0.2354502917081312, 0.646125496757526, 0.435610863698978, 0.0, 0.1463236746449317, -0.30176011474025366, 1.0123134110908918, 0.7081632948328346, 0.4603186696147133, 0.0, -0.36072341061841917, -1.0926132872615177, -0.695699828831173, 0.41364055435511826, 0.0
-0.0067004090573956334, -0.07024132901588467, 0.2766071940147238, 0.5858963414981572, 0.3890595012309798, 0.0, -0.05334395772208906, -0.34979601238209623, -0.2224900805667425, 0.6401561530657816, 0.44539637678152505, 0.0, 0.14172583860467242, -0.2900427804844782, 1.0029424032337177, 0.7023012295488933, 0.47503845538545114, 0.0, -0.3560896417395198, -1.0794031589338775, -0.687363644140799, 0.42817951005271543, 0.0
-0.0007229244518881609, -0.07697623520407769, 0.2644545851154764, 0.5784575667119153, 0.39732542245632707, 0.0, -0.058084705510291865, -0.3449529889978583, -0.20952986942535382, 0.6341868093740372, 0.45518188986407215, 0.0, 0.1371280025644131, -0.2783254462287027, 0.9935713953765438, 0.6964391642649518, 0.489758241156189, 0.0, -0.3514558728606204, -1.0661930306062373, -0.6790274594504251, 0.4427184657503126, 0.0
0.005254560153619313, -0.08371114139227068, 0.2523019762162291, 0.5710187919256732, 0.40559134368167415, 0.0, -0.06282545329849465, -0.3401099656136203, -0.19656965828396508, 0.6282174656822926, 0.46496740294661926, 0.0, 0.13253016652415378, -0.26660811197292716, 0.98420038751937, 0.6905770989810104, 0.5044780269269267, 0.0, -0.34682210398172103, -1.0529829022785968, -0.6706912747600511, 0.45725742144790976, 0.0
0.011232044759126782, -0.09044604758046368, 0.24014936731698167, 0.5635800171394311, 0.4138572649070214, 0.0, -0.06756620108669745, -0.3352669422293823, -0.18360944714257638, 0.6222481219905481, 0.47475291602916636, 0.0, 0.12793233048389452, -0.2548907777171517, 0.9748293796621961, 0.6847150336970689, 0.5191978126976645, 0.0, -0.34218833510282165, -1.0397727739509566, -0.6623550900696771, 0.47179637714550693, 0.0
0.017209529364634255, -0.09718095376865668, 0.22799675841773429, 0.5561412423531891, 0.4221231861323686, 0.0, -0.07230694887490025, -0.3304239188451444, -0.1706492360011877, 0.6162787782988036, 0.4845384291117134, 0.0, 0.1233344944436352, -0.2431734434613762, 0.965458371805022, 0.6788529684131276, 0.5339175984684024, 0.0, -0.3375545662239223, -1.0265626456233163, -0.6540189053793032, 0.4863353328431041, 0.0
0.027709735926317085, -0.1076172948932847, 0.20626239315413464, 0.5474512724421189, 0.42577802775909235, 0.0, -0.07555691949372187, -0.3221689862127677, -0.14983569248830625, 0.6105634882236382, 0.48945869029666916, 0.0, 0.11403493233752335, -0.21908109998108868, 0.9430539397349968, 0.663119006720641, 0.5585186949536708, 0.0, -0.3187645469738276, -1.000515491492893, -0.6355550497691625, 0.5117247456822793, 0.0
0.03820994248799992, -0.1180536360179127, 0.18452802789053505, 0.5387613025310486, 0.42943286938581604, 0.0, -0.0788068901125435, -0.31391405358039115, -0.1290221489754248, 0.6048481981484723, 0.49437895148162486, 0.0, 0.10473537023141151, -0.19498875650080116, 0.9206495076649714, 0.6473850450281543, 0.583119791438939, 0.0, -0.2999745277237329, -0.9744683373624698, -0.617091194159022, 0.5371141585214544, 0.0
0.04871014904968275, -0.1284899771425407, 0.1627936626269354, 0.5300713326199783, 0.4330877110125399, 0.0, -0.08205686073136514, -0.30565912094801445, -0.10820860546254336, 0.5991329080733067, 0.49929921266658056, 0.0, 0.09543580812529966, -0.17089641302051362, 0.8982450755949463, 0.6316510833356676, 0.6077208879242074, 0.0, -0.2811845084736382, -0.9484211832320467, -0.5986273385488815, 0.5625035713606296, 0.0
0.05921035561136559, -0.13892631826716872, 0.14105929736333575, 0.5213813627089081, 0.4367425526392636, 0.0, -0.08530683135018677, -0.29740418831563786, -0.08739506194966193, 0.593417617998141, 0.5042194738515363, 0.0, 0.0861362460191878, -0.14680406954022612, 0.8758406435249209, 0.615917121643181, 0.6323219844094757, 0.0, -0.2623944892235434, -0.9223740291016236, -0.580163482938741, 0.5878929841998047, 0.0
0.06971056217304843, -0.14936265939179671, 0.11932493209973612, 0.5126913927978378, 0.44039739426598745, 0.0, -0.0885568019690084, -0.2891492556832612, -0.06658151843678048, 0.5877023279229754, 0.509139735036492, 0.0, 0.07683668391307596, -0.1227117260599386, 0.8534362114548957, 0.6001831599506943, 0.656923080894744, 0.0, -0.24360446997344873, -0.8963268749712003, -0.5616996273286003, 0.6132823970389798, 0.0
0.07311591491731906, -0.1549604259764501, 0.09901646907002344, 0.514448433209113, 0.43424166337276393, 0.0, -0.08403365554875895, -0.28526390493156806, -0.05303338397736957, 0.5899733398736948, 0.5037531742352809, 0.0, 0.06839749198464438, -0.0963283995244327, 0.826728390861398, 0.5774337984605974, 0.675567071936983, 0.0, -0.21597712510699882, -0.8668559887322854, -0.5353402512482879, 0.6359480281035416, 0.0
0.0765212676615897, -0.16055819256110349, 0.07870800604031081, 0.5162054736203884, 0.42808593247954047, 0.0, -0.07951050912850949, -0.2813785541798749, -0.03948524951795867, 0.5922443518244143, 0.4983666134340699, 0.0, 0.0599583000562128, -0.0699450729889268, 0.8000205702679003, 0.5546844369705005, 0.6942110629792217, 0.0, -0.1883497802405489, -0.8373851024933704, -0.5089808751679754, 0.6586136591681033, 0.0
0.07992662040586032, -0.16615595914575687, 0.05839954301059816, 0.5179625140316635, 0.4219302015863171, 0.0, -0.07498736270826006, -0.27749320342818173, -0.02593711505854776, 0.5945153637751339, 0.4929800526328588, 0.0, 0.0515191081277812, -0.0435617464534209, 0.7733127496744028, 0.5319350754804034, 0.7128550540214608, 0.0, -0.16072243537409903, -0.8079142162544557, -0.482621499087663, 0.6812792902326651, 0.0
0.08333197315013097, -0.17175372573041026, 0.038091079980885505, 0.5197195544429387, 0.41577447069309365, 0.0, -0.07046421628801061, -0.27360785267648857, -0.012388980599136852, 0.5967863757258534, 0.48759349183164785, 0.0, 0.04307991619934963, -0.017178419917915005, 0.746604929080905, 0.5091857139903065, 0.7314990450636997, 0.0, -0.13309509050764912, -0.7784433300155407, -0.4562621230073505, 0.7039449212972269, 0.0
0.0867373258944016, -0.17735149231506364, 0.017782616951172853, 0.5214765948542139, 0.4096187397998702, 0.0, -0.06594106986776116, -0.2697225019247954, 0.0011591538602740464, 0.5990573876765728, 0.48220693103043677, 0.0, 0.03464072427091805, 0.00920490661759089, 0.7198971084874074, 0.4864363525002096, 0.7501430361059384, 0.0, -0.1054677456411992, -0.7489724437766258, -0.429902746927038, 0.7266105523617886, 0.0
0.08331936000469266, -0.1818596079597949, 0.007994544866876499, 0.5306959335993895, 0.3982100635316514, 0.0, -0.05753727112216492, -0.27246194628411613, 0.0052391698263125905, 0.607629980704788, 0.471399541633481, 0.0, 0.03409828082632012, 0.025475493176015194, 0.7038491131932679, 0.47274751875599086, 0.7570522605438329, 0.0, -0.08533835258988973, -0.7302623536249554, -0.4126046630468161, 0.7384855003209948, 0.0
0.0799013941149837, -0.18636772360452616, -0.0017935272174198563, 0.5399152723445652, 0.38680138726343255, 0.0, -0.049133472376568676, -0.27520139064343696, 0.009319185792351135, 0.6162025737330031, 0.46059215223652533, 0.0, 0.03355583738172219, 0.0417460797344395, 0.6878011178991283, 0.459058685011772, 0.7639614849817273, 0.0, -0.06520895953858025, -0.711552263473285, -0.3953065791665941, 0.7503604482802009, 0.0
0.07648342822527476, -0.19087583924925747, -0.01158159930171621, 0.5491346110897408, 0.3753927109952138, 0.0, -0.040729673630972435, -0.27794083500275774, 0.013399201758389677, 0.6247751667612182, 0.4497847628395696, 0.0, 0.033013393937124255, 0.05801666629286381, 0.6717531226049889, 0.4453698512675533, 0.7708707094196217, 0.0, -0.04507956648727076, -0.6928421733216147, -0.3780084952863722, 0.762235396239407, 0.0
0.07306546233556581, -0.19538395489398874, -0.021369671386012565, 0.5583539498349164, 0.363984034726995, 0.0, -0.03232587488537619, -0.2806802793620785, 0.017479217724428224, 0.6333477597894334, 0.43897737344261384, 0.0, 0.03247095049252632, 0.07428725285128812, 0.6557051273108493, 0.4316810175233345, 0.7777799338575163, 0.0, -0.024950173435961266, -0.6741320831699442, -0.36071041140615023, 0.774110344198613, 0.0
0.06964749644585687, -0.19989207053872002, -0.031157743470308915, 0.567573288580092, 0.35257535845877613, 0.0, -0.023922076139779955, -0.28341972372139923, 0.021559233690466768, 0.6419203528176485, 0.4281699840456581, 0.0, 0.03192850704792839, 0.09055783940971243, 0.6396571320167098, 0.41799218377911573, 0.7846891582954106, 0.0, -0.00482078038465177, -0.6554219930182739, -0.34341232752592826, 0.7859852921578192, 0.0
0.07414553735201393, -0.198000887611795, -0.030580244389552976, 0.5680283866732081, 0.35004910606758644, 0.0, -0.024563348155140365, -0.28023268618474606, 0.023842738358906202, 0.6417371037181646, 0.42627489856252565, 0.0, 0.030157246042973783, 0.09430655985344003, 0.6387988244691396, 0.4190917167732626, 0.7808729295634136, 0.0, 0.0022273822798913262, -0.6518031680059942, -0.3418808813924489, 0.7868545289571653, 0.0
0.07864357825817099, -0.19610970468487002, -0.03000274530879704, 0.5684834847663242, 0.3475228536763968, 0.0, -0.02520462017050078, -0.27704564864809283, 0.02612624302734564, 0.6415538546186806, 0.42437981307939315, 0.0, 0.028385985038019167, 0.09805528029716762, 0.6379405169215694, 0.42019124976740957, 0.7770567008314163, 0.0, 0.009275544944434423, -0.6481843429937146, -0.3403494352589695, 0.7877237657565116, 0.0
0.08314161916432805, -0.19421852175794502, -0.0294252462280411, 0.56893858285944, 0.3449966012852071, 0.0, -0.025845892185861183, -0.2738586111114396, 0.028409747695785068, 0.6413706055191969, 0.4224847275962607, 0.0, 0.026614724033064554, 0.10180400074089518, 0.6370822093739991, 0.42129078276155646, 0.773240472099419, 0.0, 0.016323707608977518, -0.644565517981435, -0.33881798912549, 0.7885930025558577, 0.0
0.08763966007048513, -0.19232733883102004, -0.02884774714728516, 0.5693936809525562, 0.34247034889401745, 0.0, -0.0264871642012216, -0.2706715735747864, 0.030693252364224502, 0.6411873564197129, 0.4205896421131282, 0.0, 0.024843463028109945, 0.10555272118462278, 0.6362239018264287, 0.4223903157557033, 0.7694242433674218, 0.0, 0.023371870273520612, -0.6409466929691553, -0.33728654299201055, 0.7894622393552042, 0.0
0.09213770097664219, -0.19043615590409502, -0.028270248066529217, 0.5698487790456722, 0.33994409650282775, 0.0, -0.027128436216582008, -0.26748453603813316, 0.03297675703266394, 0.6410041073202289, 0.41869455662999583, 0.0, 0.023072202023155335, 0.10930144162835036, 0.6353655942788586, 0.42348984874985024, 0.7656080146354246, 0.0, 0.03042003293806371, -0.6373278679568758, -0.3357550968585311, 0.7903314761545503, 0.0
0.10492969239780177, -0.18293453181148867, -0.018562881752174333, 0.5600516874488674, 0.3460160376293214, 0.0, -0.036218250936374485, -0.25802665267211194, 0.02832644382871908, 0.6309426157950395, 0.42552314336578956, 0.0, 0.019219955664423038, 0.10091620864813929, 0.6496320133230984, 0.4395362662663459, 0.7511253597688383, 0.0, 0.024423847408873798, -0.6487997425973094, -0.3503438363277122, 0.7802929426903417, 0.0
0.11772168381896135, -0.1754329077188823, -0.00885551543781945, 0.5502545958520625, 0.35208797875581516, 0.0, -0.04530806565616696, -0.24856876930609073, 0.02367613062477423, 0.6208811242698501, 0.4323517301015834, 0.0, 0.015367709305690739, 0.09253097566792821, 0.6638984323673381, 0.45558268378284167, 0.7366427049022519, 0.0, 0.018427661879683886, -0.6602716172377427, -0.3649325757968933, 0.7702544092261331, 0.0
0.13051367524012092, -0.167931283626276, 0.0008518508765354339, 0.5404575042552578, 0.3581599198823089, 0.0, -0.05439788037595945, -0.23911088594006955, 0.01902581742082937, 0.6108196327446608, 0.4391803168373772, 0.0, 0.01151546294695844, 0.08414574268771714, 0.6781648514115778, 0.4716291012993373, 0.7221600500356656, 0.0, 0.012431476350493973, -0.6717434918781764, -0.3795213152660744, 0.7602158757619242, 0.0
0.1433056666612805, -0.1604296595336696, 0.010559217190890318, 0.530660412658453, 0.36423186100880256, 0.0, -0.06348769509575192, -0.22965300257404833, 0.014375504216884511, 0.6007581412194714, 0.44600890357317097, 0.0, 0.007663216588226139, 0.07576050970750606, 0.6924312704558175, 0.48767551881583304, 0.7076773951690792, 0.0, 0.006435290821304063, -0.6832153665186099, -0.3941100547352554, 0.7501773422977155, 0.0
0.15609765808244008, -0.15292803544106326, 0.0202665835052452, 0.5208633210616481, 0.3703038021352963, 0.0, -0.0725775098155444, -0.22019511920802712, 0.009725191012939652, 0.5906966496942818, 0.4528374903089648, 0.0, 0.0038109702294938435, 0.06737527672729499, 0.7066976895000573, 0.5037219363323288, 0.693194740302493, 0.0, 0.000439105292114151, -0.6946872411590435, -0.4086987942044365, 0.7401388088335069, 0.0
0.16188241575249362, -0.14945683037691734, 0.038611511682023134, 0.5137337767309574, 0.3699095252759538, 0.0, -0.07534713021950044, -0.21603778158169093, -0.005318160649693685, 0.5838534929498924, 0.45379289401348194, 0.0, 0.004957453941876207, 0.0455257431204757, 0.7322509852653363, 0.5289269307014212, 0.6690746216524893, 0.0, -0.02057376347817813, -0.7173904596343762, -0.4335311642688866, 0.719018181620054, 0.0
0.1676671734225472, -0.1459856253127714, 0.05695643985880107, 0.5066042324002668, 0.3695152484166112, 0.0, -0.07811675062345651, -0.2118804439553547, -0.020361512312327024, 0.5770103362055029, 0.4547482977179992, 0.0, 0.006103937654258571, 0.02367620951365642, 0.7578042810306151, 0.5541319250705136, 0.6449545030024855, 0.0, -0.04158663224847041, -0.7400936781097088, -0.45836353433333665, 0.6978975544066013, 0.0
0.17345193109260076, -0.14251442024862548, 0.07530136803557899, 0.49947468806957607, 0.36912097155726875, 0.0, -0.08088637102741256, -0.20772310632901853, -0.03540486397496036, 0.5701671794611135, 0.45570370142251637, 0.0, 0.007250421366640935, 0.0018266759068371373, 0.783357576795894, 0.579336919439606, 0.6208343843524818, 0.0, -0.06259950101876269, -0.7627968965850416, -0.4831959043977868, 0.6767769271931485, 0.0
0.1792366887626543, -0.13904321518447954, 0.09364629621235696, 0.49234514373888544, 0.3687266946979262, 0.0, -0.08365599143136862, -0.2035657687026823, -0.05044821563759369, 0.5633240227167241, 0.4566591051270336, 0.0, 0.008396905079023298, -0.020022857699982147, 0.8089108725611731, 0.6045419138086984, 0.596714265702478, 0.0, -0.08361236978905497, -0.7855001150603742, -0.508028274462237, 0.6556562999796957, 0.0
0.18502144643270782, -0.1355720101203336, 0.11199122438913489, 0.4852155994081947, 0.36833241783858367, 0.0, -0.08642561183532467, -0.1994084310763461, -0.06549156730022704, 0.5564808659723346, 0.45761450883155086, 0.0, 0.009543388791405661, -0.04187239130680143, 0.8344641683264519, 0.6297469081777908, 0.5725941470524742, 0.0, -0.10462523855934727, -0.8082033335357071, -0.5328606445266871, 0.6345356727662428, 0.0
0.1807724947286052, -0.13207786968448723, 0.12877532625793703, 0.4876659264862641, 0.35615300417268414, 0.0, -0.07983174884557799, -0.20158998617625465, -0.08293242120765722, 0.5582901824853655, 0.4474042000623608, 0.0, 0.01224808573971433, -0.07244201362252677, 0.857916803257323, 0.6474130819972584, 0.5478869031327581, 0.0, -0.13749036223865854, -0.8288326366020895, -0.5506398563404893, 0.6095993369289099, 0.0
0.1765235430245026, -0.12858372924864084, 0.14555942812673917, 0.4901162535643335, 0.3439735905067846, 0.0, -0.07323788585583128, -0.20377154127616318, -0.10037327511508741, 0.5600994989983965, 0.4371938912931708, 0.0, 0.014952782688022997, -0.10301163593825212, 0.881369438188194, 0.6650792558167259, 0.523179659213042, 0.0, -0.17035548591796984, -0.8494619396684719, -0.5684190681542916, 0.584663001091577, 0.0
0.17227459132039993, -0.12508958881279444, 0.1623435299955413, 0.49256658064240294, 0.33179417684088514, 0.0, -0.0666440228660846, -0.20595309637607176, -0.11781412902251759, 0.5619088155114275, 0.42698358252398094, 0.0, 0.017657479636331665, -0.13358125825397743, 0.904822073119065, 0.6827454296361934, 0.4984724152933258, 0.0, -0.20322060959728108, -0.8700912427348543, -0.5861982799680938, 0.5597266652542441, 0.0
0.1680256396162973, -0.12159544837694805, 0.1791276318643434, 0.4950169077204723, 0.3196147631749856, 0.0, -0.06005015987633791, -0.2081346514759803, -0.13525498292994775, 0.5637181320244584, 0.41677327375479095, 0.0, 0.02036217658464033, -0.16415088056970278, 0.9282747080499361, 0.7004116034556609, 0.47376517137360963, 0.0, -0.2360857332765924, -0.8907205458012367, -0.6039774917818959, 0.5347903294169111, 0.0
0.16377668791219466, -0.11810130794110167, 0.19591173373314552, 0.49746723479854177, 0.30743534950908613, 0.0, -0.053456296886591224, -0.21031620657588881, -0.15269583683737795, 0.5655274485374893, 0.4065629649856009, 0.0, 0.023066873532949, -0.1947205028854281, 0.9517273429808071, 0.7180777772751286, 0.44905792745389345, 0.0, -0.26895085695590365, -0.9113498488676192, -0.6217567035956981, 0.5098539935795782, 0.0
0.15888727158204358, -0.11559596983033865, 0.20369572591878585, 0.504905810617249, 0.28930110980016016, 0.0, -0.047648131558741626, -0.2158647461489897, -0.16237645214122165, 0.573186885301061, 0.39056819176167173, 0.0, 0.028898275127262094, -0.21692556250433956, 0.9630235676853199, 0.7258987617142648, 0.4360637138080174, 0.0, -0.2945168971153806, -0.9198965167751251, -0.6290561068598514, 0.4952925999291174, 0.0
0.1539978552518925, -0.11309063171957565, 0.21147971810442606, 0.5123443864359564, 0.2711668700912343, 0.0, -0.041839966230892034, -0.22141328572209057, -0.17205706744506538, 0.5808463220646326, 0.37457341853774256, 0.0, 0.03472967672157519, -0.2391306221232511, 0.9743197923898328, 0.733719746153401, 0.4230695001621414, 0.0, -0.3200829372748576, -0.9284431846826311, -0.6363555101240047, 0.4807312062786565, 0.0
0.14910843892174144, -0.11058529360881263, 0.21926371029006633, 0.5197829622546636, 0.25303263038230844, 0.0, -0.03603180090304244, -0.22696182529519146, -0.1817376827489091, 0.5885057588282044, 0.3585786453138134, 0.0, 0.040561078315888295, -0.26133568174216254, 0.9856160170943455, 0.7415407305925373, 0.41007528651626535, 0.0, -0.3456489774343345, -0.936989852590137, -0.643654913388158, 0.46616981262819573, 0.0
0.14421902259159036, -0.1080799554980496, 0.22704770247570655, 0.527221538073371, 0.23489839067338253, 0.0, -0.030223635575192843, -0.23251036486829232, -0.1914182980527528, 0.5961651955917762, 0.3425838720898842, 0.0, 0.04639247991020139, -0.283540741361074, 0.9969122417988583, 0.7493617150316736, 0.39708107287038935, 0.0, -0.3712150175938115, -0.9455365204976431, -0.6509543166523112, 0.45160841897773485, 0.0
0.13932960626143928, -0.10557461738728659, 0.23483169466134682, 0.5346601138920783, 0.21676415096445664, 0.0, -0.024415470247343245, -0.2380589044413932, -0.20109891335659652, 0.6038246323553478, 0.326589098865955, 0.0, 0.05222388150451449, -0.3057458009799855, 1.008208466503371, 0.75718269947081, 0.3840868592245132, 0.0, -0.3967810577532885, -0.9540831884051489, -0.6582537199164645, 0.437047025327274, 0.0
0.14415424295107335, -0.10391415302484125, 0.2329892832150396, 0.533371614099818, 0.2084988545669817, 0.0, -0.028818438880353972, -0.24093178794867523, -0.2005074561796807, 0.6033888725103439, 0.32014392955089777, 0.0, 0.05344125005404394, -0.3137184929283636, 1.005095532156099, 0.7643613434040178, 0.38628453244006394, 0.0, -0.4078613573040616, -0.9482636882110054, -0.6646073327496206, 0.43746669672723304, 0.0
0.1489788796407074, -0.10225368866239588, 0.2311468717687323, 0.5320831143075577, 0.2002335581695067, 0.0, -0.0332214075133647, -0.2438046714559572, -0.19991599900276483, 0.60295311266534, 0.3136987602358406, 0.0, 0.054658618603573385, -0.3216911848767418, 1.0019825978088273, 0.7715399873372255, 0.3884822056556147, 0.0, -0.41894165685483464, -0.9424441880168615, -0.6709609455827766, 0.43788636812719217, 0.0
0.15380351633034145, -0.10059322429995053, 0.22930446032242507, 0.5307946145152973, 0.19196826177203172, 0.0, -0.03762437614637542, -0.2466775549632392, -0.19932454182584902, 0.6025173528203359, 0.3072535909207834, 0.0, 0.05587598715310283, -0.3296638768251199, 0.998869663461555, 0.7787186312704334, 0.39067987887116534, 0.0, -0.43002195640560775, -0.9366246878227178, -0.6773145584159328, 0.43830603952715114, 0.0
0.1586281530199755, -0.09893275993750517, 0.22746204887611782, 0.529506114723037, 0.18370296537455677, 0.0, -0.04202734477938615, -0.2495504384705212, -0.19873308464893316, 0.602081592975332, 0.30080842160572624, 0.0, 0.05709335570263227, -0.33763656877349807, 0.995756729114283, 0.785897275203641, 0.3928775520867161, 0.0, -0.4411022559563808, -0.930805187628574, -0.6836681712490887, 0.43872571092711027, 0.0
0.16345278970960955, -0.0972722955750598, 0.22561963742981056, 0.5282176149307767, 0.17543766897708177, 0.0, -0.046430313412396874, -0.2524233219778032, -0.19814162747201733, 0.6016458331303282, 0.29436325229066906, 0.0, 0.058310724252161716, -0.3456092607218762, 0.9926437947670109, 0.7930759191368489, 0.3950752253022668, 0.0, -0.4521825555071539, -0.9249856874344303, -0.6900217840822449, 0.43914538232706923, 0.0
0.17792531468521733, -0.09644040184038924, 0.21341120242910885, 0.5151357299059144, 0.17671553273288043, 0.0, -0.059751182881076184, -0.24799803616871305, -0.1867163531226121, 0.5914722809951851, 0.29720137058458057, 0.0, 0.05479227731395451, -0.33936925486039093, 0.9750278375607817, 0.8045700292719529, 0.41272957975203983, 0.0, -0.44864319882637615, -0.9047188438751266, -0.7029552114009324, 0.45481480872513413, 0.0
0.19239783966082508, -0.09560850810571865, 0.20120276742840718, 0.5020538448810522, 0.1779933964886791, 0.0, -0.0730720523497555, -0.24357275035962295, -0.17529107877320677, 0.5812987288600422, 0.30003948887849213, 0.0, 0.0512738303757473, -0.33312924899890567, 0.9574118803545526, 0.8160641394070568, 0.4303839342018129, 0.0, -0.4451038421455983, -0.8844520003158228, -0.7158886387196202, 0.47048423512319915, 0.0
0.20687036463643282, -0.09477661437104808, 0.18899433242770552, 0.48897195985618996, 0.1792712602444778, 0.0, -0.08639292181843482, -0.23914746455053282, -0.16386580442380153, 0.5711251767248992, 0.30287760717240364, 0.0, 0.04775538343754008, -0.3268892431374204, 0.9397959231483234, 0.8275582495421607, 0.44803828865158596, 0.0, -0.4415644854648205, -0.8641851567565191, -0.7288220660383077, 0.48615366152126405, 0.0
0.2213428896120406, -0.09394472063637749, 0.17678589742700385, 0.4758900748313277, 0.18054912400027645, 0.0, -0.09971379128711412, -0.23472217874144272, -0.1524405300743962, 0.5609516245897562, 0.30571572546631515, 0.0, 0.04423693649933287, -0.3206492372759352, 0.9221799659420943, 0.8390523596772647, 0.46569264310135894, 0.0, -0.4380251287840427, -0.8439183131972153, -0.7417554933569954, 0.5018230879193291, 0.0
0.2358154145876484, -0.0931128269017069, 0.16457746242630217, 0.4628081898064655, 0.18182698775607511, 0.0, -0.11303466075579344, -0.23029689293235256, -0.14101525572499096, 0.5507780724546132, 0.3085538437602267, 0.0, 0.04071848956112566, -0.31440923141444993, 0.9045640087358651, 0.8505464698123686, 0.483346997551132, 0.0, -0.43448577210326483, -0.8236514696379116, -0.7546889206756829, 0.517492514317394, 0.0
0.24906605549788594, -0.09633703087571549, 0.147334816137243, 0.4461667616226969, 0.17602373657726747, 0.0, -0.1236666899414843, -0.22688974843307186, -0.12458244046352791, 0.5383441862931144, 0.3044292851625722, 0.0, 0.037570709715337554, -0.29675478271689726, 0.8722811352725994, 0.8599714641939653, 0.517865365514839, 0.0, -0.41554131564897817, -0.7888425427509911, -0.7695600788524461, 0.5497846275537196, 0.0
0.2623166964081235, -0.09956123484972411, 0.13009216984818386, 0.4295253334389283, 0.17022048539845974, 0.0, -0.13429871912717517, -0.2234826039337911, -0.10814962520206489, 0.5259103001316157, 0.3003047265649177, 0.0, 0.03442292986954944, -0.27910033401934464, 0.839998261809334, 0.8693964585755618, 0.552383733478546, 0.0, -0.3965968591946915, -0.7540336158640705, -0.7844312370292094, 0.5820767407900452, 0.0
0.2755673373183611, -0.10278543882373269, 0.11284952355912474, 0.4128839052551597, 0.1644172342196521, 0.0, -0.14493074831286604, -0.2200754594345104, -0.09171680994060184, 0.5134764139701169, 0.2961801679672632, 0.0, 0.03127515002376132, -0.261445885321792, 0.8077153883460685, 0.8788214529571584, 0.5869021014422529, 0.0, -0.3776524027404048, -0.71922468897715, -0.7993023952059727, 0.6143688540263708, 0.0
0.28881797822859867, -0.10600964279774128, 0.09560687727006557, 0.39624247707139104, 0.1586139830408444, 0.0, -0.1555627774985569, -0.21666831493522964, -0.07528399467913881, 0.501042527808618, 0.2920556093696087, 0.0, 0.028127370177973208, -0.24379143662423933, 0.7754325148828028, 0.8882464473387551, 0.62142046940596, 0.0, -0.3587079462861181, -0.6844157620902296, -0.814173553382736, 0.6466609672626963, 0.0
0.3020686191388362, -0.10923384677174987, 0.07836423098100644, 0.3796010488876225, 0.15281073186203672, 0.0, -0.16619480668424777, -0.21326117043594894, -0.05885117941767578, 0.48860864164711926, 0.2879310507719542, 0.0, 0.024979590332185095, -0.22613698792668668, 0.7431496414195373, 0.8976714417203518, 0.6559388373696668, 0.0, -0.33976348983183136, -0.649606835203309, -0.8290447115594992, 0.6789530804990219, 0.0
0.3068639531465927, -0.11573584959230558, 0.0689788660454056, 0.36887917713335594, 0.13897294124747722, 0.0, -0.1704752580906904, -0.2169003250433558, -0.050709225089373394, 0.47304784454169846, 0.27624774694593407, 0.0, 0.024367251687032545, -0.20665336331267636, 0.7000201994082673, 0.9026575506873267, 0.7035619122835352, 0.0, -0.3101178158496463, -0.6058749683661037, -0.8423632597402733, 0.7237984499457073, 0.0
0.3116592871543492, -0.12223785241286132, 0.05959350110980475, 0.35815730537908935, 0.12513515063291775, 0.0, -0.174755709497133, -0.22053947965076262, -0.042567270761071, 0.4574870474362777, 0.2645644431199139, 0.0, 0.023754913041879995, -0.187169738698666, 0.6568907573969972, 0.9076436596543016, 0.7511849871974035, 0.0, -0.2804721418674611, -0.562143101528898, -0.8556818079210475, 0.7686438193923926, 0.0
0.3164546211621056, -0.12873985523341705, 0.050208136174203916, 0.34743543362482293, 0.11129736001835829, 0.0, -0.17903616090357563, -0.22417863425816947, -0.03442531643276861, 0.4419262503308569, 0.25288113929389383, 0.0, 0.02314257439672745, -0.16768611408465567, 0.613761315385727, 0.9126297686212765, 0.7988080621112719, 0.0, -0.250826467885276, -0.5184112346916927, -0.8690003561018217, 0.813489188839078, 0.0
0.3212499551698621, -0.13524185805397276, 0.040822771238603076, 0.3367135618705564, 0.0974595694037988, 0.0, -0.18331661231001825, -0.2278177888655763, -0.02628336210446622, 0.42636545322543606, 0.2411978354678737, 0.0, 0.0225302357515749, -0.14820248947064532, 0.570631873374457, 0.9176158775882515, 0.8464311370251401, 0.0, -0.22118079390309092, -0.4746793678544873, -0.8823189042825959, 0.8583345582857633, 0.0
0.32604528917761855, -0.1417438608745285, 0.03143740630300223, 0.3259916901162898, 0.08362177878923932, 0.0, -0.1875970637164609, -0.23145694347298315, -0.018141407776163833, 0.4108046561200152, 0.22951453164185362, 0.0, 0.02191789710642235, -0.128718864856635, 0.5275024313631869, 0.9226019865552265, 0.8940542119390085, 0.0, -0.1915351199209058, -0.4309475010172818, -0.89563745246337, 0.9031799277324486, 0.0
0.330548301479617, -0.1411300306709972, 0.029563858531905234, 0.3182694005556953, 0.07665376223735974, 0.0, -0.19871858096284908, -0.22970548811531433, -0.018112772508192213, 0.3957781287332394, 0.22552714545143035, 0.0, 0.02514715066702281, -0.1114808213498792, 0.48716773272325775, 0.9329132346963763, 0.9374791800805432, 0.0, -0.16673211292672538, -0.39517961693548703, -0.9163662986383108, 0.9423521253894773, 0.0
0.33505131378161546, -0.1405162004674659, 0.027690310760808245, 0.31054711099510085, 0.06968574568548018, 0.0, -0.2098400982092373, -0.22795403275764548, -0.01808413724022059, 0.38075160134646363, 0.22153975926100705, 0.0, 0.028376404227623272, -0.0942427778431234, 0.44683303408332875, 0.943224482837526, 0.9809041482220779, 0.0, -0.14192910593254496, -0.3594117328536923, -0.9370951448132514, 0.981524323046506, 0.0
0.3395543260836139, -0.13990237026393457, 0.02581676298971125, 0.30282482143450634, 0.0627177291336006, 0.0, -0.22096161545562545, -0.22620257739997662, -0.01805550197224897, 0.3657250739596878, 0.21755237307058384, 0.0, 0.03160565778822373, -0.07700473433636765, 0.4064983354433996, 0.9535357309786759, 1.0243291163636126, 0.0, -0.11712609893836452, -0.32364384877189756, -0.957823990988192, 1.0206965207035348, 0.0
0.3440573383856123, -0.13928854006040325, 0.023943215218614262, 0.29510253187391183, 0.05574971258172104, 0.0, -0.23208313270201364, -0.22445112204230783, -0.018026866704277347, 0.35069854657291205, 0.21356498688016054, 0.0, 0.03483491134882419, -0.059766690829611856, 0.3661636368034704, 0.9638469791198256, 1.0677540845051476, 0.0, -0.09232309194418412, -0.28787596469010274, -0.9785528371631327, 1.0598687183605635, 0.0
0.34856035068761076, -0.13867470985687197, 0.02206966744751727, 0.2873802423133173, 0.04878169602984147, 0.0, -0.24320464994840185, -0.22269966668463897, -0.01799823143630573, 0.3356720191861362, 0.20957760068973733, 0.0, 0.03806416490942465, -0.042528647322856064, 0.32582893816354136, 0.9741582272609756, 1.1111790526466823, 0.0, -0.0675200849500037, -0.25210808060830797, -0.9992816833380734, 1.0990409160175922, 0.0
0.35842633042999184, -0.12975363531449155, 0.019919284277115198, 0.27662348840862044, 0.051869454700785196, 0.0, -0.26155644145793033, -0.21309179146803064, -0.017690804045498033, 0.31726371042476964, 0.21472922272033743, 0.0, 0.03842840325607695, -0.026954587111383505, 0.29884632595129274, 0.9890402902549053, 1.1414914074965443, 0.0, -0.0508436988685152, -0.2314784633826602, -1.0245392051363338, 1.1245253201466365, 0.0
0.3682923101723728, -0.12083256077211114, 0.01776890110671313, 0.26586673450392356, 0.054957213371728916, 0.0, -0.2799082329674588, -0.20348391625142226, -0.017383376654690332, 0.2988554016634031, 0.2198808447509375, 0.0, 0.03879264160272926, -0.011380526899910951, 0.2718637137390441, 1.003922353248835, 1.1718037623464062, 0.0, -0.03416731278702669, -0.21084884615701244, -1.0497967269345942, 1.1500097242756806, 0.0
0.37815828991475386, -0.11191148622973073, 0.01561851793631106, 0.2551099805992267, 0.05804497204267266, 0.0, -0.2982600244769873, -0.19387604103481396, -0.017075949263882638, 0.2804470929020365, 0.22503246678153757, 0.0, 0.03915687994938156, 0.004193533311561606, 0.24488110152679549, 1.018804416242765, 1.202116117196268, 0.0, -0.017490926705538187, -0.19021922893136467, -1.0750542487328547, 1.1754941284047251, 0.0
0.38802426965713493, -0.1029904116873503, 0.013468134765908987, 0.24435322669452977, 0.06113273071361638, 0.0, -0.3166118159865158, -0.1842681658182056, -0.01676852187307494, 0.26203878414067, 0.23018408881213767, 0.0, 0.03952111829603386, 0.019767593523034165, 0.21789848931454686, 1.0336864792366947, 1.2324284720461298, 0.0, -0.0008145406240496909, -0.1695896117057169, -1.100311770531115, 1.2009785325337692, 0.0
0.3978902493995159, -0.0940693371449699, 0.011317751595506917, 0.23359647278983292, 0.06422048938456011, 0.0, -0.33496360749604426, -0.17466029060159724, -0.016461094482267243, 0.2436304753793034, 0.23533571084273777, 0.0, 0.03988535664268616, 0.03534165373450672, 0.19091587710229824, 1.0485685422306243, 1.2627408268959919, 0.0, 0.0158618454574388, -0.1489599944800691, -1.1255692923293756, 1.2264629366628135, 0.0
0.4033086380249663, -0.08753592642639284, 0.009696987469611803, 0.21810337351543846, 0.0709683720957417, 0.0, -0.34832785537795263, -0.16601906250054743, -0.015992490891772945, 0.22266290306927494, 0.24104443847991594, 0.0, 0.04094337558431098, 0.0408739481319959, 0.17979621234837806, 1.053623689441491, 1.2788467950465656, 0.0, 0.02121557487009058, -0.144058188406624, -1.1417122091002139, 1.2377744853581587, 0.0
0.40872702665041677, -0.08100251570781578, 0.008076223343716691, 0.20261027424104402, 0.07771625480692328, 0.0, -0.36169210325986106, -0.15737783439949762, -0.015523887301278646, 0.20169533075924653, 0.24675316611709408, 0.0, 0.042001394525935785, 0.04640624252948506, 0.16867654759445797, 1.058678836652358, 1.2949527631971394, 0.0, 0.026569304282742363, -0.13915638233317887, -1.1578551258710523, 1.249086034053504, 0.0
0.4141454152758672, -0.07446910498923873, 0.006455459217821579, 0.18711717496664956, 0.08446413751810485, 0.0, -0.3750563511417694, -0.14873660629844787, -0.01505528371078435, 0.18072775844921807, 0.2524618937542723, 0.0, 0.0430594134675606, 0.051938536926974234, 0.15755688284053787, 1.063733983863225, 1.3110587313477131, 0.0, 0.031923033695394135, -0.13425457625973375, -1.173998042641891, 1.2603975827488492, 0.0
0.41956380390131753, -0.06793569427066165, 0.0048346950919264655, 0.17162407569225513, 0.09121202022928641, 0.0, -0.3884205990236777, -0.14009537819739806, -0.014586680120290052, 0.15976018613918963, 0.25817062139145047, 0.0, 0.04411743240918541, 0.0574708313244634, 0.14643721808661772, 1.0687891310740918, 1.3271646994982869, 0.0, 0.037276763108045924, -0.12935277018628857, -1.1901409594127295, 1.2717091314441944, 0.0
0.42498219252676794, -0.06140228355208459, 0.003213930966031352, 0.15613097641786067, 0.09795990294046801, 0.0, -0.4017848469055861, -0.13145415009634825, -0.014118076529795756, 0.1387926138291612, 0.26387934902862864, 0.0, 0.04517545135081022, 0.06300312572195256, 0.1353175533326976, 1.0738442782849587, 1.3432706676488606, 0.0, 0.0426304925206977, -0.12445096411284347, -1.206283876183568, 1.2830206801395398, 0.0
0.4259373134879464, -0.06015583188309747, 0.002310407243342845, 0.14184175499600943, 0.10656353839475909, 0.0, -0.40659250991917867, -0.12650297913033973, -0.012822581283360512, 0.12264949983611725, 0.27174141502769833, 0.0, 0.04371878559446174, 0.05430017614630111, 0.14062135166797662, 1.0634515860995937, 1.3458870558239402, 0.0, 0.034297248661244104, -0.13300986154241817, -1.2081682558170688, 1.282628015964426, 0.0
0.4268924344491248, -0.058909380214110324, 0.0014068835206543387, 0.12755253357415824, 0.11516717384905016, 0.0, -0.41140017293277126, -0.1215518081643312, -0.011527086036925267, 0.1065063858430733, 0.2796034810267681, 0.0, 0.04226211983811327, 0.04559722657064962, 0.14592515000325565, 1.0530588939142287, 1.3485034439990198, 0.0, 0.025964004801790515, -0.1415687589719929, -1.2100526354505694, 1.2822353517893126, 0.0
0.4278475554103031, -0.057662928545123206, 0.0005033597979658323, 0.11326331215230699, 0.12377080930334126, 0.0, -0.4162078359463638, -0.11660063719832264, -0.010231590790490023, 0.09036327185002935, 0.2874655470258378, 0.0, 0.04080545408176478, 0.03689427699499816, 0.15122894833853467, 1.042666201728864, 1.3511198321740996, 0.0, 0.017630760942336926, -0.1501276564015676, -1.21193701508407, 1.2818426876141988, 0.0
0.4288026763714815, -0.056416476876136074, -0.00040016392472267434, 0.09897409073045578, 0.13237444475763235, 0.0, -0.4210154989599564, -0.11164946623231413, -0.008936095544054777, 0.07422015785698541, 0.2953276130249075, 0.0, 0.0393487883254163, 0.02819132741934669, 0.1565327466738137, 1.032273509543499, 1.3537362203491792, 0.0, 0.009297517082883337, -0.15868655383114233, -1.2138213947175707, 1.281450023439085, 0.0
0.4297577973326599, -0.05517002520714894, -0.0013036876474111804, 0.08468486930860457, 0.14097808021192343, 0.0, -0.4258231619735489, -0.10669829526630559, -0.007640600297619534, 0.05807704386394145, 0.3031896790239772, 0.0, 0.037892122569067814, 0.01948837784369522, 0.16183654500909272, 1.0218808173581342, 1.356352608524259, 0.0, 0.0009642732234297479, -0.16724545126071705, -1.2157057743510713, 1.2810573592639716, 0.0
0.42980623371006127, -0.05770842194833984, -0.0024233706423052795, 0.07473933187386404, 0.14908124599386366, 0.0, -0.426617880195152, -0.10621080141881159, -0.004661349549123749, 0.04848976632503344, 0.31117399486517366, 0.0, 0.030348334595970958, 0.001042271184849918, 0.17865393030673035, 1.0019996112783756, 1.3500565217432485, 0.0, -0.01650156292897841, -0.17861969043746476, -1.208011350717314, 1.2770272683574104, 0.0
