isaac-sim2real/sage/motion_files/h1_2/amass/0-Subject_8_F_16_poses_action_sequence.txt
/h1_2/pelvis/left_hip_yaw_joint, /h1_2/left_hip_yaw_link/left_hip_pitch_joint, /h1_2/left_hip_pitch_link/left_hip_roll_joint, /h1_2/left_hip_roll_link/left_knee_joint, /h1_2/left_knee_link/left_ankle_pitch_joint, /h1_2/left_ankle_pitch_link/left_ankle_roll_joint, /h1_2/pelvis/right_hip_yaw_joint, /h1_2/right_hip_yaw_link/right_hip_pitch_joint, /h1_2/right_hip_pitch_link/right_hip_roll_joint, /h1_2/right_hip_roll_link/right_knee_joint, /h1_2/right_knee_link/right_ankle_pitch_joint, /h1_2/right_ankle_pitch_link/right_ankle_roll_joint, /h1_2/pelvis/torso_joint, /h1_2/torso_link/left_shoulder_pitch_joint, /h1_2/left_shoulder_pitch_link/left_shoulder_roll_joint, /h1_2/left_shoulder_roll_link/left_shoulder_yaw_joint, /h1_2/left_shoulder_yaw_link/left_elbow_joint, /h1_2/left_elbow_link/left_wrist_roll_joint, /h1_2/torso_link/right_shoulder_pitch_joint, /h1_2/right_shoulder_pitch_link/right_shoulder_roll_joint, /h1_2/right_shoulder_roll_link/right_shoulder_yaw_joint, /h1_2/right_shoulder_yaw_link/right_elbow_joint, /h1_2/right_elbow_link/right_wrist_roll_joint
0.38873330966575753, -0.23625879803082508, -0.08154662594184936, 0.11545813768865015, 0.31462987593848707, 0.0, 0.011708597137540024, -0.3896277909074046, 0.11348031312699766, 0.297900039846788, 0.41518771892384115, 0.0, 0.14494001252053562, -0.1829305419888186, 0.135616533469552, -0.1039478710406605, 1.0334015961242087, 0.0, 0.08248205260774823, -0.04311238316316108, 0.04006003617554277, 0.49028382611647603, 0.0
0.38199390227342367, -0.24088794876852365, -0.082750815510197, 0.12317283506699848, 0.3128713310533966, 0.0, 0.013866907593404653, -0.39771711971903506, 0.11098568261119564, 0.3102553128881184, 0.4218412002664409, 0.0, 0.14622775483990058, -0.17716436509398178, 0.13606940940946438, -0.1062049961046536, 1.0257199308472835, 0.0, 0.08620413304390509, -0.052165651735614355, 0.040588374567257786, 0.47522377095476936, 0.0
0.3752544948810898, -0.2455170995062222, -0.08395500507854464, 0.13088753244534682, 0.3111127861683062, 0.0, 0.016025218049269284, -0.4058064485306655, 0.10849105209539361, 0.3226105859294489, 0.42849468160904053, 0.0, 0.14751549715926554, -0.17139818819914499, 0.13652228534937677, -0.1084621211686467, 1.0180382655703584, 0.0, 0.08992621348006193, -0.06121892030806762, 0.041116712958972804, 0.46016371579306276, 0.0
0.36851508748875583, -0.2501462502439208, -0.08515919464689227, 0.13860222982369516, 0.3093542412832158, 0.0, 0.018183528505133908, -0.4138957773422959, 0.10599642157959156, 0.3349658589707793, 0.4351481629516404, 0.0, 0.14880323947863047, -0.16563201130430819, 0.13697516128928913, -0.11071924623263979, 1.0103566002934334, 0.0, 0.09364829391621879, -0.07027218888052089, 0.04164505135068781, 0.4451036606313562, 0.0
0.36177568009642197, -0.2547754009816194, -0.08636338421523991, 0.14631692720204345, 0.3075956963981254, 0.0, 0.02034183896099854, -0.4219851061539263, 0.10350179106378954, 0.34732113201210973, 0.44180164429424, 0.0, 0.15009098179799543, -0.15986583440947136, 0.13742803722920152, -0.11297637129663289, 1.0026749350165083, 0.0, 0.09737037435237562, -0.07932545745297416, 0.042173389742402825, 0.43004360546964954, 0.0
0.3550362727040881, -0.2594045517193179, -0.08756757378358755, 0.1540316245803918, 0.3058371515130349, 0.0, 0.022500149416863166, -0.43007443496555664, 0.1010071605479875, 0.35967640505344023, 0.44845512563683976, 0.0, 0.1513787241173604, -0.15409965751463453, 0.1378809131691139, -0.11523349636062598, 0.9949932697395831, 0.0, 0.10109245478853247, -0.08837872602542743, 0.04270172813411784, 0.41498355030794287, 0.0
0.3494721944646567, -0.2650358111723171, -0.08500171498474822, 0.16555067547050675, 0.2997268515402409, 0.0, 0.020425180282830278, -0.44424202997689005, 0.09423454303064667, 0.37813069625927975, 0.4576428774132127, 0.0, 0.14537902216860676, -0.14172384892932513, 0.14887870960988184, -0.11837357511562259, 0.9788964715488994, 0.0, 0.11166790912651994, -0.11098785380078512, 0.03169696772491471, 0.38626121833191573, 0.0
0.3439081162252253, -0.2706670706253162, -0.0824358561859089, 0.17706972636062168, 0.29361655156744687, 0.0, 0.018350211148797382, -0.4584096249882234, 0.08746192551330582, 0.3965849874651194, 0.46683062918958584, 0.0, 0.13937932021985308, -0.1293480403440157, 0.15987650605064976, -0.1215136538706192, 0.9627996733582156, 0.0, 0.1222433634645074, -0.13359698157614283, 0.020692207315711586, 0.35753888635588876, 0.0
0.33834403798579393, -0.27629833007831545, -0.07986999738706958, 0.1885887772507366, 0.2875062515946528, 0.0, 0.01627524201476449, -0.4725772199995567, 0.08068930799596499, 0.41503927867095897, 0.4760183809659588, 0.0, 0.13337961827109943, -0.11697223175870626, 0.17087430249141766, -0.12465373262561583, 0.9467028751675318, 0.0, 0.13281881780249488, -0.1562061093515005, 0.009687446906508457, 0.3288165543798617, 0.0
0.33277995974636254, -0.28192958953131453, -0.07730413858823026, 0.20010782814085154, 0.28139595162185876, 0.0, 0.014200272880731599, -0.48674481501089006, 0.07391669047862413, 0.4334935698767986, 0.4852061327423319, 0.0, 0.12737991632234577, -0.10459642317339686, 0.18187209893218556, -0.12779381138061244, 0.930606076976848, 0.0, 0.14339427214048234, -0.1788152371268582, -0.0013173135026946711, 0.30009422240383465, 0.0
0.32721588150693115, -0.2875608489843137, -0.07473827978939093, 0.21162687903096647, 0.2752856516490647, 0.0, 0.012125303746698705, -0.5009124100222234, 0.06714407296128329, 0.4519478610826382, 0.49439388451870486, 0.0, 0.12138021437359213, -0.09222061458808742, 0.1928698953729535, -0.13093389013560902, 0.9145092787861643, 0.0, 0.15396972647846982, -0.2014243649022159, -0.012322073911897798, 0.27137189042780757, 0.0
0.3301861316971942, -0.2910590438200125, -0.0612693800107642, 0.22334647872411106, 0.2648568625641101, 0.0, -0.00017207927152381038, -0.5082260028131954, 0.051081046891625605, 0.4696652777689443, 0.49861727063992434, 0.0, 0.11262842140975775, -0.08278523828996824, 0.219923291158346, -0.12335443901912946, 0.8868377292676175, 0.0, 0.1721869478666818, -0.23368298177953722, -0.038553682012400725, 0.2354993330166513, 0.0
0.33315638188745716, -0.29455723865571126, -0.04780048023213749, 0.23506607841725569, 0.25442807347915547, 0.0, -0.012469462289746326, -0.5155395956041674, 0.03501802082196792, 0.4873826944552505, 0.5028406567611438, 0.0, 0.10387662844592337, -0.07334986199184904, 0.24697668694373853, -0.11577498790264988, 0.8591661797490706, 0.0, 0.19040416925489376, -0.2659415986568586, -0.06478529011290365, 0.19962677560549497, 0.0
0.3361266320777202, -0.29805543349140995, -0.03433158045351077, 0.24678567811040028, 0.24399928439420085, 0.0, -0.024766845307968844, -0.5228531883951394, 0.01895499475231023, 0.5051001111415565, 0.5070640428823632, 0.0, 0.095124835482089, -0.06391448569372984, 0.27403008272913104, -0.10819553678617029, 0.8314946302305237, 0.0, 0.2086213906431057, -0.2982002155341799, -0.09101689821340658, 0.1637542181943386, 0.0
0.33909688226798324, -0.30155362832710875, -0.020862680674884046, 0.2585052778035448, 0.23357049530924623, 0.0, -0.037064228326191356, -0.5301667811861114, 0.0028919686826525503, 0.5228175278278626, 0.5112874290035826, 0.0, 0.0863730425182546, -0.05447910939561066, 0.3010834785145236, -0.10061608566969069, 0.8038230807119768, 0.0, 0.22683861203131764, -0.33045883241150126, -0.11724850631390951, 0.1278816607831823, 0.0
0.3420671324582462, -0.30505182316280754, -0.007393780896257327, 0.27022487749668944, 0.2231417062242916, 0.0, -0.04936161134441387, -0.5374803739770834, -0.013171057387005128, 0.5405349445141687, 0.515510815124802, 0.0, 0.07762124955442021, -0.04504373309749147, 0.32813687429991606, -0.09303663455321111, 0.77615153119343, 0.0, 0.24505583341952963, -0.3627174492888226, -0.14348011441441244, 0.09200910337202599, 0.0
0.34723016196083734, -0.30941489845603964, 0.01492172574080765, 0.28754463138490416, 0.21847927031242825, 0.0, -0.0680004152681158, -0.5340421067665811, -0.03448778560642184, 0.5557857222752163, 0.5167823014475139, 0.0, 0.07869515064317233, -0.04823592354422828, 0.3676745578649464, -0.07011156483319646, 0.7354265385355114, 0.0, 0.25667101006352744, -0.38838877818075535, -0.17865016388620458, 0.06469556416722862, 0.0
0.35239319146342846, -0.31377797374927163, 0.037237232377872624, 0.3048643852731188, 0.21381683440056487, 0.0, -0.08663921919181773, -0.5306038395560788, -0.05580451382583856, 0.5710365000362638, 0.5180537877702258, 0.0, 0.07976905173192443, -0.05142811399096509, 0.4072122414299768, -0.04718649511318178, 0.6947015458775928, 0.0, 0.2682861867075252, -0.41406010707268814, -0.21382021335799675, 0.037382024962431246, 0.0
0.3575562209660196, -0.3181410490425037, 0.059552739014937614, 0.3221841391613336, 0.20915439848870146, 0.0, -0.10527802311551968, -0.5271655723455765, -0.07712124204525526, 0.5862872777973114, 0.5193252740929377, 0.0, 0.08084295282067655, -0.05462030443770189, 0.44674992499500726, -0.02426142539316712, 0.6539765532196742, 0.0, 0.27990136335152294, -0.43973143596462094, -0.2489902628297889, 0.010068485757633876, 0.0
0.3627192504686107, -0.32250412433573566, 0.08186824565200258, 0.3395038930495483, 0.20449196257683816, 0.0, -0.1239168270392216, -0.5237273051350743, -0.098437970264672, 0.6015380555583589, 0.5205967604156495, 0.0, 0.08191685390942866, -0.05781249488443871, 0.48628760856003755, -0.0013363556731524609, 0.6132515605617556, 0.0, 0.29151653999552074, -0.46540276485655374, -0.284160312301581, -0.017245053447163494, 0.0
0.3678822799712018, -0.3268671996289677, 0.10418375228906754, 0.356823646937763, 0.19982952666497478, 0.0, -0.14255563096292356, -0.5202890379245719, -0.1197546984840887, 0.6167888333194065, 0.5218682467383614, 0.0, 0.08299075499818076, -0.06100468533117552, 0.525825292125068, 0.021588714046862207, 0.572526567903837, 0.0, 0.3031317166395185, -0.4910740937484865, -0.31933036177337315, -0.04455859265196086, 0.0
0.36596983893398755, -0.3326235084322138, 0.12407415171612808, 0.3766577186557422, 0.2054470556127485, 0.0, -0.15644280741399746, -0.508463688732049, -0.13392552305266994, 0.6293951754642949, 0.5221710439102899, 0.0, 0.09199877276818344, -0.07863563840633783, 0.5642575469737382, 0.05823363934228644, 0.5247091331244665, 0.0, 0.30045729626681, -0.5030545678049266, -0.3466512502105848, -0.05784710965042767, 0.0
0.3640573978967732, -0.33837981723545985, 0.14396455114318865, 0.3964917903737214, 0.21106458456052224, 0.0, -0.1703299838650714, -0.49663833953952613, -0.14809634762125115, 0.6420015176091832, 0.5224738410822184, 0.0, 0.10100679053818609, -0.09626659148150013, 0.6026898018224085, 0.09487856463771067, 0.47689169834509626, 0.0, 0.2977828758941016, -0.5150350418613668, -0.3739721386477965, -0.07113562664889446, 0.0
0.362144956859559, -0.34413612603870586, 0.1638549505702492, 0.41632586209170064, 0.21668211350829591, 0.0, -0.1842171603161453, -0.48481299034700315, -0.16226717218983236, 0.6546078597540715, 0.5227766382541469, 0.0, 0.11001480830818874, -0.11389754455666243, 0.6411220566710787, 0.13152348993313492, 0.42907426356572587, 0.0, 0.2951084555213931, -0.527015515917807, -0.4012930270850082, -0.08442414364736125, 0.0
0.36023251582234467, -0.3498924348419519, 0.18374534999730976, 0.4361599338096799, 0.22229964245606965, 0.0, -0.1981043367672192, -0.47298764115448017, -0.17643799675841357, 0.6672142018989599, 0.5230794354260754, 0.0, 0.1190228260781914, -0.13152849763182473, 0.6795543115197489, 0.16816841522855913, 0.3812568287863554, 0.0, 0.2924340351486846, -0.5389959899742471, -0.42861391552221983, -0.09771266064582805, 0.0
0.3583200747851304, -0.355648743645198, 0.2036357494243703, 0.4559940055276591, 0.22791717140384335, 0.0, -0.21199151321829315, -0.4611622919619573, -0.1906088213269948, 0.6798205440438483, 0.5233822325980039, 0.0, 0.12803084384819408, -0.14915945070698702, 0.7179865663684192, 0.20481334052398337, 0.333439394006985, 0.0, 0.2897596147759761, -0.5509764640306875, -0.4559348039594315, -0.11100117764429486, 0.0
0.35177076865492374, -0.3603581725471713, 0.21680802156053477, 0.46967106179008544, 0.237189903261496, 0.0, -0.21477846543985318, -0.4523867101604182, -0.19320663221751624, 0.6925053387386139, 0.5230276305632177, 0.0, 0.13032265069881938, -0.1744343350406463, 0.745940115715528, 0.24673517526316457, 0.29477157555983163, 0.0, 0.27928035076905383, -0.5486805078342983, -0.4692818568575492, -0.11094797302737705, 0.0
0.3452214625247171, -0.3650676014491446, 0.2299802936966993, 0.4833481180525118, 0.24646263511914868, 0.0, -0.2175654176614132, -0.4436111283588791, -0.19580444310803768, 0.7051901334333793, 0.5226730285284314, 0.0, 0.1326144575494447, -0.19970921937430555, 0.7738936650626365, 0.2886570100023457, 0.2561037571126782, 0.0, 0.26880108676213155, -0.5463845516379093, -0.4826289097556669, -0.11089476841045925, 0.0
0.33867215639451037, -0.36977703035111786, 0.2431525658328638, 0.4970251743149381, 0.25573536697680127, 0.0, -0.22035236988297335, -0.4348355465573401, -0.19840225399855912, 0.7178749281281447, 0.5223184264936453, 0.0, 0.13490626440007006, -0.22498410370796482, 0.801847214409745, 0.3305788447415269, 0.21743593866552477, 0.0, 0.2583218227552092, -0.5440885954415204, -0.49597596265378474, -0.11084156379354146, 0.0
0.3321228502643037, -0.37448645925309115, 0.25632483796902833, 0.5107022305773644, 0.2650080988344539, 0.0, -0.22313932210453338, -0.426059964755801, -0.20100006488908057, 0.7305597228229103, 0.5219638244588591, 0.0, 0.13719807125069536, -0.2502589880416241, 0.8298007637568536, 0.3725006794807081, 0.17876812021837138, 0.0, 0.24784255874828692, -0.5417926392451313, -0.5093230155519024, -0.11078835917662365, 0.0
0.32557354413409706, -0.37919588815506455, 0.26949711010519284, 0.5243792868397907, 0.27428083069210657, 0.0, -0.2259262743260934, -0.4172843829542619, -0.20359787577960198, 0.7432445175176757, 0.5216092224240729, 0.0, 0.13948987810132069, -0.2755338723752834, 0.8577543131039622, 0.4144225142198893, 0.14010030177121793, 0.0, 0.2373632947413646, -0.5394966830487423, -0.5226700684500202, -0.11073515455970587, 0.0
0.3186024791901459, -0.3831548254786803, 0.27535688900781413, 0.5284863467663647, 0.27564695225752006, 0.0, -0.2189512405034233, -0.41831811005429165, -0.19971592492929172, 0.7550178209919043, 0.5199081756658602, 0.0, 0.1332726163234499, -0.29172928865002185, 0.8718375633338636, 0.447471716379145, 0.11634388495365441, 0.0, 0.23506702438571025, -0.5269456434065327, -0.5221961975954696, -0.09673009857095226, 0.0
0.31163141424619484, -0.387113762802296, 0.2812166679104354, 0.5325934066929388, 0.2770130738229336, 0.0, -0.21197620668075318, -0.41935183715432134, -0.19583397407898143, 0.7667911244661326, 0.5182071289076475, 0.0, 0.12705535454557906, -0.30792470492476026, 0.8859208135637652, 0.48052091853840073, 0.0925874681360909, 0.0, 0.23277075403005587, -0.5143946037643231, -0.5217223267409192, -0.08272504258219865, 0.0
0.30466034930224367, -0.3910727001259117, 0.2870764468130567, 0.5367004666195128, 0.27837919538834716, 0.0, -0.20500117285808303, -0.42038556425435114, -0.1919520232286712, 0.7785644279403611, 0.5165060821494348, 0.0, 0.12083809276770827, -0.32412012119949873, 0.9000040637936665, 0.5135701206976565, 0.06883105131852739, 0.0, 0.2304744836744015, -0.5018435641221134, -0.5212484558863687, -0.06871998659344504, 0.0
0.2976892843582926, -0.39503163744952746, 0.2929362257156779, 0.5408075265460867, 0.27974531695376065, 0.0, -0.19802613903541288, -0.4214192913543808, -0.1880700723783609, 0.7903377314145896, 0.514805035391222, 0.0, 0.11462083098983745, -0.34031553747423726, 0.9140873140235682, 0.5466193228569122, 0.04507463450096388, 0.0, 0.22817821331874708, -0.4892925244799038, -0.5207745850318183, -0.05471493060469143, 0.0
0.2907182194143415, -0.3989905747731432, 0.2987960046182992, 0.5449145864726607, 0.2811114385191742, 0.0, -0.1910511052127427, -0.4224530184544105, -0.18418812152805064, 0.802111034888818, 0.5131039886330093, 0.0, 0.10840356921196663, -0.3565109537489757, 0.9281705642534696, 0.579668525016168, 0.021318217683400364, 0.0, 0.22588194296309275, -0.47674148483769413, -0.5203007141772678, -0.04070987461593782, 0.0
0.283556470268293, -0.4063041186948961, 0.29856369431354174, 0.5424352555130817, 0.27476120464344994, 0.0, -0.181200704279265, -0.4294117858084521, -0.18197105770451028, 0.816299689042906, 0.5091179079488666, 0.0, 0.10259952565367857, -0.35763157032048665, 0.9277471962461548, 0.5993680039235504, 0.01178175854725682, 0.0, 0.23427378620331285, -0.4669347485514428, -0.5122960966662121, -0.017097808395753148, 0.0
0.27639472112224456, -0.41361766261664906, 0.2983313840087843, 0.5399559245535026, 0.26841097076772574, 0.0, -0.1713503033457873, -0.43637055316249357, -0.17975399388096988, 0.8304883431969939, 0.5051318272647238, 0.0, 0.09679548209539046, -0.35875218689199767, 0.9273238282388399, 0.6190674828309328, 0.002245299411113276, 0.0, 0.24266562944353293, -0.4571280122651915, -0.5042914791551566, 0.006514257824431518, 0.0
0.26923297197619606, -0.42093120653840205, 0.29809907370402683, 0.5374765935939235, 0.26206073689200154, 0.0, -0.16149990241230955, -0.4433293205165352, -0.17753693005742954, 0.8446769973510816, 0.501145746580581, 0.0, 0.0909914385371024, -0.35987280346350864, 0.9269004602315254, 0.6387669617383153, -0.007291159725030268, 0.0, 0.251057472683753, -0.4473212759789401, -0.4962868616441009, 0.030126324044616196, 0.0
0.26207122283014755, -0.42824475046015503, 0.29786676339926943, 0.5349972626343446, 0.25571050301627735, 0.0, -0.15164950147883183, -0.4502880878705767, -0.17531986623388918, 0.8588656515051696, 0.4971596658964383, 0.0, 0.0851873949788143, -0.36099342003501966, 0.9264770922242106, 0.6584664406456976, -0.016827618861173812, 0.0, 0.2594493159239731, -0.4375145396926888, -0.48828224413304533, 0.05373839026480086, 0.0
0.25490947368409905, -0.4355582943819079, 0.2976344530945119, 0.5325179316747656, 0.24936026914055315, 0.0, -0.14179910054535408, -0.4572468552246182, -0.1731028024103488, 0.8730543056592575, 0.4931735852122955, 0.0, 0.07938335142052622, -0.36211403660653063, 0.9260537242168957, 0.67816591955308, -0.026364077997317357, 0.0, 0.26784115916419315, -0.4277078034064375, -0.4802776266219897, 0.07735045648498554, 0.0
0.2530352204509184, -0.44539952884615425, 0.2980560443566482, 0.5292109271866472, 0.24184576451806705, 0.0, -0.13215205350807985, -0.4651827346884133, -0.1709572935954817, 0.8870704828860048, 0.4866833096080498, 0.0, 0.07149236601388265, -0.348042891980321, 0.91127179774347, 0.684652006367121, -0.021607842820557475, 0.0, 0.276812123594176, -0.42957726047483363, -0.48093108138459484, 0.09626055194415653, 0.0
0.25116096721773773, -0.4552407633104004, 0.29847763561878443, 0.5259039226985288, 0.234331259895581, 0.0, -0.12250500647080559, -0.47311861415220835, -0.16881178478061462, 0.9010866601127521, 0.4801930340038041, 0.0, 0.06360138060723908, -0.3339717473541114, 0.8964898712700441, 0.6911380931811619, -0.0168516076437976, 0.0, 0.28578308802415886, -0.4314467175432298, -0.4815845361472001, 0.11517064740332751, 0.0
0.24928671398455712, -0.4650819977746467, 0.29889922688092063, 0.5225969182104105, 0.22681675527309492, 0.0, -0.11285795943353133, -0.48105449361600344, -0.16666627596574748, 0.9151028373394995, 0.4737027583995584, 0.0, 0.055710395200595515, -0.3199006027279018, 0.8817079447966183, 0.6976241799952029, -0.012095372467037723, 0.0, 0.29475405245414166, -0.4333161746116259, -0.4822379909098053, 0.13408074286249846, 0.0
0.2474124607513765, -0.47492323223889293, 0.2993208181430569, 0.5192899137222923, 0.21930225065060888, 0.0, -0.10321091239625707, -0.4889903730797985, -0.1645207671508804, 0.9291190145662468, 0.4672124827953127, 0.0, 0.047819409793951946, -0.3058294581016921, 0.8669260183231924, 0.7041102668092437, -0.007339137290277845, 0.0, 0.3037250168841244, -0.43518563168002206, -0.4828914456724105, 0.1529908383216695, 0.0
0.24553820751819583, -0.4847644667031392, 0.29974240940519314, 0.515982909234174, 0.21178774602812278, 0.0, -0.09356386535898281, -0.49692625254359357, -0.16237525833601327, 0.9431351917929942, 0.4607222071910669, 0.0, 0.03992842438730838, -0.2917583134754825, 0.8521440918497667, 0.7105963536232847, -0.0025829021135179713, 0.0, 0.3126959813141073, -0.4370550887484183, -0.4835449004350157, 0.17190093378084045, 0.0
0.2486095349614296, -0.4956422138129014, 0.3036962433860761, 0.5132209850340875, 0.20850914153759292, 0.0, -0.08409238936874708, -0.504238187271776, -0.15547210589858654, 0.9516992780864351, 0.45243423198529154, 0.0, 0.029525187830174153, -0.26495192715780774, 0.8285726418847369, 0.704302584639521, 0.017080847774774456, 0.0, 0.3146369829192012, -0.4511612097728378, -0.4988283577409775, 0.17894791356593634, 0.0
0.2516808624046633, -0.5065199609226635, 0.30765007736695893, 0.510459060834001, 0.2052305370470631, 0.0, -0.07462091337851132, -0.5115501219999588, -0.14856895346115978, 0.960263364379876, 0.4441462567795161, 0.0, 0.019121951273039936, -0.23814554084013295, 0.8050011919197071, 0.6980088156557573, 0.03674459766306688, 0.0, 0.3165779845242951, -0.4652673307972575, -0.5141118150469394, 0.18599489335103214, 0.0
0.25475218984789705, -0.5173977080324257, 0.3116039113478419, 0.5076971366339146, 0.2019519325565332, 0.0, -0.06514943738827558, -0.5188620567281413, -0.14166580102373302, 0.9688274506733167, 0.43585828157374074, 0.0, 0.008718714715905714, -0.21133915452245822, 0.7814297419546773, 0.6917150466719937, 0.0564083475513593, 0.0, 0.318518986129389, -0.47937345182167707, -0.5293952723529013, 0.19304187313612803, 0.0
0.25782351729113084, -0.5282754551421878, 0.31555774532872477, 0.5049352124338281, 0.19867332806600338, 0.0, -0.05567796139803985, -0.526173991456324, -0.13476264858630627, 0.9773915369667577, 0.42757030636796534, 0.0, -0.0016845218412285079, -0.18453276820478343, 0.7578582919896473, 0.6854212776882301, 0.07607209743965174, 0.0, 0.3204599877344829, -0.49347957284609667, -0.5446787296588632, 0.20008885292122386, 0.0
0.2608948447343646, -0.5391532022519498, 0.3195115793096077, 0.5021732882337416, 0.19539472357547352, 0.0, -0.04620648540780411, -0.5334859261845065, -0.12785949614887954, 0.9859556232601986, 0.41928233116219, 0.0, -0.012087758398362729, -0.1577263818871087, 0.7342868420246175, 0.6791275087044664, 0.09573584732794416, 0.0, 0.32240098933957684, -0.5075856938705162, -0.559962186964825, 0.20713583270631972, 0.0
0.26532761975127506, -0.5492710644213202, 0.32753655783171703, 0.5024396080243035, 0.2030447844303035, 0.0, -0.04110824008358606, -0.5375559676776458, -0.11756523006135161, 0.9876277324594133, 0.40835362741958653, 0.0, -0.022132651353673503, -0.12856326337820562, 0.7175299009696351, 0.6667177988437663, 0.1247938759322998, 0.0, 0.3129660954504629, -0.5282620021443134, -0.5844037568658026, 0.20124755955833037, 0.0
0.2697603947681854, -0.5593889265906906, 0.33556153635382646, 0.5027059278148653, 0.21069484528513346, 0.0, -0.036009994759368016, -0.541626009170785, -0.1072709639738237, 0.9892998416586279, 0.39742492367698323, 0.0, -0.03217754430898428, -0.09940014486930254, 0.7007729599146524, 0.654308088983066, 0.15385190453665545, 0.0, 0.303531201561349, -0.5489383104181105, -0.6088453267667803, 0.19535928641034106, 0.0
0.2741931697850959, -0.5695067887600609, 0.3435865148759359, 0.502972247605427, 0.21834490613996343, 0.0, -0.030911749435149974, -0.5456960506639241, -0.0969766978862958, 0.9909719508578425, 0.3864962199343798, 0.0, -0.04222243726429505, -0.07023702636039948, 0.6840160188596697, 0.641898379122366, 0.1829099331410111, 0.0, 0.29409630767223505, -0.5696146186919075, -0.6332868966677577, 0.18947101326235172, 0.0
0.2786259448020063, -0.5796246509294313, 0.3516114933980452, 0.5032385673959889, 0.2259949669947934, 0.0, -0.025813504110931928, -0.5497660921570634, -0.08668243179876788, 0.9926440600570572, 0.3755675161917765, 0.0, -0.05226733021960583, -0.041073907851496415, 0.6672590778046872, 0.6294886692616657, 0.21196796174536672, 0.0, 0.2846614137831211, -0.5902909269657048, -0.6577284665687354, 0.1835827401143624, 0.0
0.2830587198189168, -0.5897425130988017, 0.3596364719201546, 0.5035048871865507, 0.23364502784962338, 0.0, -0.020715258786713885, -0.5538361336502026, -0.07638816571123996, 0.9943161692562719, 0.36463881244917307, 0.0, -0.062312223174916595, -0.011910789342593363, 0.6505021367497045, 0.6170789594009656, 0.24102599034972236, 0.0, 0.27522651989400715, -0.6109672352395019, -0.682170036469713, 0.17769446696637303, 0.0
0.28550364684828045, -0.5960821004660886, 0.36965002274145026, 0.5093437744980256, 0.25321222127168014, 0.0, -0.024816647091350605, -0.5511830621449044, -0.06726261223342024, 0.9902857921157135, 0.3500754186513895, 0.0, -0.06316018929760293, 0.007198371948248447, 0.6478911346606965, 0.6136810476934279, 0.2633251825565109, 0.0, 0.25824362851406135, -0.6229070640683217, -0.6994563638120935, 0.16446850745521963, 0.0
0.2879485738776442, -0.6024216878333757, 0.3796635735627459, 0.5151826618095006, 0.27277941469373695, 0.0, -0.028918035395987324, -0.5485299906396064, -0.058137058755600525, 0.9862554149751552, 0.3355120248536059, 0.0, -0.06400815542028929, 0.026307533239090252, 0.6452801325716885, 0.6102831359858901, 0.28562437476329944, 0.0, 0.2412607371341156, -0.6348468928971414, -0.7167426911544741, 0.1512425479440662, 0.0
0.29039350090700794, -0.6087612752006628, 0.3896771243840415, 0.5210215491209754, 0.2923466081157937, 0.0, -0.033019423700624044, -0.5458769191343084, -0.04901150527778081, 0.9822250378345968, 0.3209486310558223, 0.0, -0.06485612154297563, 0.04541669452993206, 0.6426691304826805, 0.6068852242783526, 0.307923566970088, 0.0, 0.2242778457541698, -0.6467867217259611, -0.7340290184968545, 0.13801658843291278, 0.0
0.2928384279363717, -0.6151008625679498, 0.39969067520533713, 0.5268604364324503, 0.3119138015378505, 0.0, -0.03712081200526077, -0.5432238476290102, -0.03988595179996109, 0.9781946606940384, 0.3063852372580387, 0.0, -0.06570408766566196, 0.06452585582077387, 0.6400581283936725, 0.6034873125708148, 0.33022275917687655, 0.0, 0.20729495437422404, -0.6587265505547808, -0.751315345839235, 0.12479062892175939, 0.0
0.29528335496573543, -0.6214404499352368, 0.40970422602663287, 0.5326993237439253, 0.3314809949599073, 0.0, -0.04122220030989748, -0.5405707761237122, -0.03076039832214138, 0.9741642835534802, 0.2918218434602551, 0.0, -0.06655205378834832, 0.08363501711161568, 0.6374471263046645, 0.6000894008632771, 0.3525219513836651, 0.0, 0.19031206299427825, -0.6706663793836006, -0.7686016731816154, 0.11156466941060597, 0.0
0.29534013750761984, -0.622907266526515, 0.41735307911362046, 0.5388562763676251, 0.35372094720122466, 0.0, -0.050759051097925174, -0.5319158419520466, -0.02235348569972007, 0.9640688034864373, 0.2748435562588761, 0.0, -0.05961857695329986, 0.08898240993188519, 0.6495659456295934, 0.6108044728147779, 0.36166441884726586, 0.0, 0.18006158372702438, -0.668252718182457, -0.7726286539114494, 0.1051034476042865, 0.0
0.2953969200495042, -0.624374083117793, 0.425001932200608, 0.545013228991325, 0.37596089944254196, 0.0, -0.06029590188595287, -0.5232609077803808, -0.013946573077298763, 0.9539733234193946, 0.257865269057497, 0.0, -0.05268510011825141, 0.09432980275215468, 0.661684764954522, 0.6215195447662787, 0.37080688631086667, 0.0, 0.1698111044597705, -0.6658390569813136, -0.7766556346412835, 0.09864222579796703, 0.0
0.2954537025913886, -0.625840899709071, 0.4326507852875956, 0.5511701816150247, 0.3982008516838593, 0.0, -0.06983275267398055, -0.5146059736087151, -0.005539660454877452, 0.9438778433523518, 0.24088698185611807, 0.0, -0.04575162328320295, 0.09967719557242416, 0.6738035842794509, 0.6322346167177795, 0.3799493537744674, 0.0, 0.1595606251925166, -0.6634253957801701, -0.7806826153711174, 0.09218100399164755, 0.0
0.295510485133273, -0.6273077163003491, 0.4402996383745832, 0.5573271342387246, 0.4204408039251767, 0.0, -0.07936960346200823, -0.5059510394370493, 0.002867252167543855, 0.9337823632853091, 0.223908694654739, 0.0, -0.0388181464481545, 0.10502458839269366, 0.6859224036043797, 0.6429496886692803, 0.38909182123806824, 0.0, 0.1493101459252627, -0.6610117345790265, -0.7847095961009515, 0.08571978218532808, 0.0
0.2955672676751574, -0.6287745328916272, 0.44794849146157084, 0.5634840868624245, 0.442680756166494, 0.0, -0.08890645425003593, -0.49729610526538365, 0.01127416478996516, 0.9236868832182662, 0.20693040745335997, 0.0, -0.03188466961310605, 0.11037198121296314, 0.6980412229293084, 0.6536647606207809, 0.39823428870166905, 0.0, 0.13905966665800884, -0.658598073377883, -0.7887365768307855, 0.07925856037900861, 0.0
0.29141510495005335, -0.6264713091442329, 0.44968060508046903, 0.5629000124282446, 0.4555608741485087, 0.0, -0.09497530055869999, -0.4860924248991286, 0.019466466770826175, 0.9112681081174311, 0.19210347731610564, 0.0, -0.026266851987874054, 0.10181330404394003, 0.7189376102404651, 0.6734570666097599, 0.39349827145387084, 0.0, 0.14068204095485867, -0.6452129688114133, -0.7792971346136408, 0.08621949892263964, 0.0
0.2872629422249493, -0.6241680853968385, 0.45141271869936717, 0.5623159379940647, 0.4684409921305234, 0.0, -0.10104414686736407, -0.47488874453287355, 0.02765876875168719, 0.8988493330165963, 0.1772765471788513, 0.0, -0.020649034362642062, 0.0932546268749169, 0.7398339975516216, 0.6932493725987389, 0.38876225420607263, 0.0, 0.14230441525170853, -0.6318278642449436, -0.7698576923964963, 0.09318043746627067, 0.0
0.2831107794998453, -0.6218648616494442, 0.4531448323182655, 0.5617318635598848, 0.48132111011253803, 0.0, -0.10711299317602815, -0.4636850641666184, 0.035851070732548194, 0.8864305579157611, 0.16244961704159694, 0.0, -0.01503121673741007, 0.0846959497058938, 0.7607303848627782, 0.7130416785877179, 0.3840262369582744, 0.0, 0.14392678954855834, -0.618442759678474, -0.7604182501793515, 0.10014137600990171, 0.0
0.2789586167747412, -0.6195616379020499, 0.4548769459371637, 0.5611477891257048, 0.49420122809455275, 0.0, -0.11318183948469222, -0.4524813838003634, 0.044043372713409204, 0.8740117828149262, 0.14762268690434263, 0.0, -0.009413399112178079, 0.07613727253687066, 0.7816267721739347, 0.732833984576697, 0.3792902197104763, 0.0, 0.14554916384540817, -0.6050576551120043, -0.750978807962207, 0.10710231455353275, 0.0
0.27480645404963716, -0.6172584141546555, 0.4566090595560619, 0.560563714691525, 0.5070813460765674, 0.0, -0.11925068579335628, -0.4412777034341083, 0.052235674694270214, 0.861593007714091, 0.13279575676708827, 0.0, -0.0037955814869460843, 0.06757859536784755, 0.8025231594850915, 0.752626290565676, 0.37455420246267807, 0.0, 0.14717153814225803, -0.5916725505455345, -0.7415393657450623, 0.11406325309716377, 0.0
0.26658743331194956, -0.6092300322405049, 0.45057262191721226, 0.5590007583837301, 0.5101970066281311, 0.0, -0.11702757614928701, -0.43630679977557674, 0.05531367627656359, 0.8560131447169046, 0.12141862941949437, 0.0, -0.003285259012088685, 0.05126945448624669, 0.8170100345578091, 0.7673236139489406, 0.35840581233930535, 0.0, 0.15583392137917124, -0.5794018387064631, -0.7243458759562539, 0.13128064342474902, 0.0
0.25836841257426196, -0.601201650326354, 0.44453618427836267, 0.5574378020759351, 0.5133126671796947, 0.0, -0.11480446650521774, -0.4313358961170451, 0.058391677858856975, 0.8504332817197182, 0.11004150207190046, 0.0, -0.002774936537231287, 0.034960313604645826, 0.8314969096305268, 0.7820209373322051, 0.34225742221593264, 0.0, 0.16449630461608444, -0.5671311268673918, -0.7071523861674455, 0.14849803375233425, 0.0
0.25014939183657436, -0.5931732684122033, 0.438499746639513, 0.5558748457681402, 0.5164283277312584, 0.0, -0.11258135686114847, -0.4263649924585135, 0.06146967944115035, 0.8448534187225318, 0.09866437472430653, 0.0, -0.002264614062373889, 0.01865117272304497, 0.8459837847032444, 0.7967182607154699, 0.3261090320925599, 0.0, 0.17315868785299768, -0.5548604150283205, -0.689958896378637, 0.1657154240799195, 0.0
0.2419303710988868, -0.5851448864980524, 0.4324633090006634, 0.5543118894603453, 0.5195439882828221, 0.0, -0.1103582472170792, -0.4213940887999819, 0.06454768102344374, 0.8392735557253455, 0.08728724737671262, 0.0, -0.0017542915875164902, 0.002342031841444108, 0.860470659775962, 0.8114155840987345, 0.30996064196918716, 0.0, 0.18182107108991086, -0.5425897031892492, -0.6727654065898286, 0.1829328144075047, 0.0
0.23371135036119917, -0.5771165045839017, 0.42642687136181373, 0.5527489331525502, 0.5226596488343858, 0.0, -0.10813513757300992, -0.4164231851414504, 0.06762568260573712, 0.833693692728159, 0.0759101200291187, 0.0, -0.001243969112659092, -0.01396710904015675, 0.8749575348486798, 0.8261129074819992, 0.29381225184581444, 0.0, 0.19048345432682406, -0.5303189913501778, -0.6555719168010202, 0.20015020473508996, 0.0
0.2284741618186908, -0.5683530981992245, 0.41800767532155636, 0.5518803491063443, 0.5228473066355601, 0.0, -0.10010631304336085, -0.4185510102803362, 0.06292440788202912, 0.8365161693813141, 0.07001469836157906, 0.0, -0.003428774609046792, -0.020056445514239234, 0.8758100269591823, 0.8291889769848105, 0.27813359963732354, 0.0, 0.195178958992025, -0.5298596102190775, -0.6467405822018554, 0.21507684692877416, 0.0
0.22323697327618244, -0.5595896918145474, 0.4095884792812991, 0.5510117650601383, 0.5230349644367346, 0.0, -0.0920774885137118, -0.42067883541922213, 0.05822313315832113, 0.8393386460344693, 0.06411927669403941, 0.0, -0.005613580105434492, -0.026145781988321716, 0.8766625190696848, 0.832265046487622, 0.2624549474288325, 0.0, 0.19987446365722586, -0.529400229087977, -0.6379092476026906, 0.23000348912245833, 0.0
0.21799978473367407, -0.5508262854298703, 0.40116928324104173, 0.5501431810139323, 0.523222622237909, 0.0, -0.08404866398406272, -0.4228066605581081, 0.05352185843461314, 0.8421611226876246, 0.05822385502649976, 0.0, -0.00779838560182219, -0.0322351184624042, 0.8775150111801876, 0.8353411159904334, 0.24677629522034153, 0.0, 0.20456996832242677, -0.5289408479568766, -0.6290779130035258, 0.2449301313161425, 0.0
0.21276259619116572, -0.5420628790451931, 0.3927500872007844, 0.5492745969677263, 0.5234102800390835, 0.0, -0.07601983945441362, -0.42493448569699405, 0.04882058371090515, 0.8449835993407796, 0.0523284333589601, 0.0, -0.009983191098209889, -0.03832445493648668, 0.8783675032906902, 0.8384171854932448, 0.23109764301185057, 0.0, 0.20926547298762768, -0.5284814668257761, -0.620246578404361, 0.25985677350982667, 0.0
0.20752540764865735, -0.533299472660516, 0.38433089116052704, 0.5484060129215202, 0.523597937840258, 0.0, -0.06799101492476456, -0.42706231083587987, 0.04411930898719716, 0.8478060759939348, 0.04643301169142045, 0.0, -0.012167996594597589, -0.044413791410569156, 0.8792199954011928, 0.8414932549960562, 0.21541899080335958, 0.0, 0.21396097765282857, -0.5280220856946758, -0.6114152438051962, 0.27478341570351084, 0.0
0.2044257587476515, -0.5294657731827064, 0.3775902794910093, 0.547777450044707, 0.523597937840258, 0.0, -0.056291485994419126, -0.43403211216145254, 0.03395453746389463, 0.8532207505587368, 0.0447620439375366, 0.0, -0.014171625325642043, -0.03411303933047498, 0.865605132201332, 0.8318142453951244, 0.2120489066254157, 0.0, 0.20856167594807798, -0.5418007375728606, -0.6169093727388661, 0.27920716213220076, 0.0
0.20132610984664565, -0.5256320737048967, 0.37084966782149154, 0.5471488871678938, 0.523597937840258, 0.0, -0.0445919570640737, -0.44100191348702517, 0.02378976594059209, 0.858635425123539, 0.04309107618365273, 0.0, -0.0161752540566865, -0.023812287250380808, 0.8519902690014712, 0.8221352357941925, 0.20867882244747185, 0.0, 0.2031623742433274, -0.5555793894510456, -0.6224035016725362, 0.28363090856089057, 0.0
0.19822646094563975, -0.5217983742270871, 0.36410905615197375, 0.5465203242910806, 0.523597937840258, 0.0, -0.03289242813372826, -0.4479717148125978, 0.013624994417289557, 0.8640500996883413, 0.04142010842976888, 0.0, -0.018178882787730954, -0.013511535170286628, 0.8383754058016106, 0.8124562261932606, 0.20530873826952795, 0.0, 0.19776307253857675, -0.5693580413292305, -0.6278976306062062, 0.28805465498958044, 0.0
0.1951268120446339, -0.5179646747492774, 0.357368444482456, 0.5458917614142673, 0.523597937840258, 0.0, -0.021192899203382822, -0.45494151613817047, 0.0034602228939870196, 0.8694647742531435, 0.03974914067588502, 0.0, -0.020182511518775408, -0.003210783090192452, 0.8247605426017499, 0.8027772165923287, 0.20193865409158407, 0.0, 0.19236377083382616, -0.5831366932074153, -0.6333917595398761, 0.29247840141827036, 0.0
0.192027163143628, -0.5141309752714679, 0.3506278328129382, 0.5452631985374541, 0.523597937840258, 0.0, -0.009493370273037384, -0.46191131746374314, -0.006704548629315515, 0.8748794488179457, 0.038078172922001156, 0.0, -0.022186140249819863, 0.007089968989901721, 0.8111456794018891, 0.793098206991397, 0.19856856991364016, 0.0, 0.18696446912907558, -0.5969153450856002, -0.6388858884735461, 0.2969021478469602, 0.0
0.1886690484336943, -0.5148505465967971, 0.3454126179657125, 0.5474731937775238, 0.523597937840258, 0.0, 0.003870521736236516, -0.4699786690894324, -0.01681354962244714, 0.8776099605821546, 0.038347548435017365, 0.0, -0.025894065716677187, 0.028034864935090706, 0.789143465439303, 0.77422844015712, 0.2107655799890583, 0.0, 0.1694763747438475, -0.6187066045921564, -0.6539613758364988, 0.28839660338728973, 0.0
0.18531093372376065, -0.5155701179221263, 0.3401974031184867, 0.5496831890175936, 0.523597937840258, 0.0, 0.017234413745510418, -0.47804602071512176, -0.02692255061557877, 0.8803404723463637, 0.038616923948033566, 0.0, -0.029601991183534508, 0.04897976088027969, 0.7671412514767166, 0.7553586733228431, 0.22296259006447638, 0.0, 0.15198828035861944, -0.6404978640987126, -0.6690368631994515, 0.2798910589276192, 0.0
0.1819528190138269, -0.5162896892474554, 0.33498218827126097, 0.5518931842576633, 0.523597937840258, 0.0, 0.030598305754784314, -0.486113372340811, -0.0370315516087104, 0.8830709841105728, 0.03888629946104978, 0.0, -0.033309916650391826, 0.06992465682546868, 0.7451390375141306, 0.7364889064885664, 0.23515960013989456, 0.0, 0.1345001859733914, -0.6622891236052687, -0.6841123505624043, 0.2713855144679487, 0.0
0.1785947043038932, -0.5170092605727846, 0.3297669734240352, 0.5541031794977331, 0.523597937840258, 0.0, 0.043962197764058214, -0.4941807239665003, -0.04714055260184203, 0.885801495874782, 0.03915567497406598, 0.0, -0.03701784211724915, 0.09086955277065766, 0.7231368235515444, 0.7176191396542895, 0.24735661021531266, 0.0, 0.11701209158816332, -0.684080383111825, -0.6991878379253571, 0.2628799700082782, 0.0
0.1752365895939595, -0.5177288318981139, 0.32455175857680946, 0.556313174737803, 0.523597937840258, 0.0, 0.05732608977333211, -0.5022480755921896, -0.05724955359497365, 0.8885320076389909, 0.03942505048708219, 0.0, -0.040725767584106475, 0.11181444871584664, 0.7011346095889581, 0.6987493728200126, 0.2595536202907308, 0.0, 0.09952399720293525, -0.705871642618381, -0.7142633252883098, 0.2543744255486077, 0.0
0.16950365074939766, -0.5212477752079604, 0.32125497124613234, 0.562773018781211, 0.523597937840258, 0.0, 0.06945009621679782, -0.5070357336418958, -0.06325052509622521, 0.8888599480241237, 0.0399127391133207, 0.0, -0.042423927218670554, 0.13109831585911016, 0.687530347518974, 0.683366819209781, 0.2818905569879229, 0.0, 0.07497500054116818, -0.7200190057730252, -0.7250209274230233, 0.23609243324652496, 0.0
0.16377071190483583, -0.5247667185178069, 0.3179581839154552, 0.5692328628246189, 0.523597937840258, 0.0, 0.0815741026602635, -0.5118233916916021, -0.06925149659747677, 0.8891878884092563, 0.04040042773955922, 0.0, -0.04412208685323464, 0.15038218300237371, 0.6739260854489898, 0.6679842655995494, 0.3042274936851151, 0.0, 0.05042600387940111, -0.7341663689276694, -0.7357785295577366, 0.2178104409444422, 0.0
0.158037773060274, -0.5282856618276534, 0.31466139658477804, 0.5756927068680269, 0.523597937840258, 0.0, 0.09369810910372921, -0.5166110497413082, -0.07525246809872833, 0.8895158287943891, 0.040888116365797735, 0.0, -0.04582024648779871, 0.16966605014563726, 0.6603218233790058, 0.6526017119893177, 0.3265644303823073, 0.0, 0.025877007217634047, -0.7483137320823136, -0.7465361316924499, 0.19952844864235952, 0.0
0.15230483421571217, -0.5318046051374999, 0.3113646092541009, 0.5821525509114348, 0.523597937840258, 0.0, 0.10582211554719491, -0.5213987077910144, -0.0812534395999799, 0.8898437691795219, 0.04137580499203625, 0.0, -0.04751840612236279, 0.18894991728890076, 0.6467175613090217, 0.637219158379086, 0.3489013670794995, 0.0, 0.001328010555866971, -0.7624610952369578, -0.7572937338271633, 0.1812464563402768, 0.0
0.1465718953711503, -0.5353235484473463, 0.3080678219234238, 0.5886123949548427, 0.523597937840258, 0.0, 0.1179461219906606, -0.5261863658407205, -0.08725441110123146, 0.8901717095646545, 0.041863493618274766, 0.0, -0.04921656575692687, 0.2082337844321643, 0.6331132992390375, 0.6218366047688545, 0.37123830377669165, 0.0, -0.023220986105900097, -0.7766084583916021, -0.7680513359618767, 0.16296446403819403, 0.0
0.14172467796071983, -0.5350176620426418, 0.3066873502609004, 0.6001561457445319, 0.5235444539706597, 0.0, 0.12389070644163627, -0.5274846534394261, -0.09295026204825425, 0.8904319311748098, 0.04152376842096672, 0.0, -0.046998070065268176, 0.22862119533619582, 0.6342272730874154, 0.6188146474541718, 0.3889234283811773, 0.0, -0.039566765986356375, -0.7766966079908032, -0.7682365503020985, 0.14811219381459587, 0.0
0.13687746055028932, -0.5347117756379373, 0.305306878598377, 0.6116998965342211, 0.5234909701010617, 0.0, 0.12983529089261195, -0.5287829410381316, -0.09864611299527706, 0.8906921527849652, 0.04118404322365868, 0.0, -0.04477957437360947, 0.24900860624022733, 0.6353412469357933, 0.6157926901394893, 0.40660855298566306, 0.0, -0.05591254586681266, -0.7767847575900046, -0.7684217646423199, 0.13325992359099767, 0.0
0.1320302431398588, -0.5344058892332328, 0.3039264069358536, 0.6232436473239101, 0.5234374862314635, 0.0, 0.13577987534358765, -0.5300812286368372, -0.10434196394229987, 0.8909523743951205, 0.04084431802635064, 0.0, -0.042561078681950776, 0.26939601714425887, 0.6364552207841713, 0.6127707328248067, 0.4242936775901488, 0.0, -0.07225832574726893, -0.7768729071892057, -0.7686069789825416, 0.11840765336739947, 0.0
0.1271830257294283, -0.5341000028285283, 0.3025459352733302, 0.6347873981135994, 0.5233840023618654, 0.0, 0.14172445979456333, -0.5313795162355426, -0.1100378148893227, 0.8912125960052759, 0.0405045928290426, 0.0, -0.04034258299029208, 0.2897834280482904, 0.6375691946325491, 0.6097487755101242, 0.4419788021946345, 0.0, -0.0886041056277252, -0.7769610567884069, -0.768792193322763, 0.10355538314380128, 0.0
0.1223358083189978, -0.5337941164238237, 0.30116546361080676, 0.6463311489032885, 0.5233305184922673, 0.0, 0.14766904424553898, -0.5326778038342481, -0.1157336658363455, 0.8914728176154313, 0.040164867631734553, 0.0, -0.03812408729863337, 0.3101708389523219, 0.638683168480927, 0.6067268181954415, 0.4596639267991201, 0.0, -0.10494988550818148, -0.7770492063876081, -0.7689774076629848, 0.0887031129202031, 0.0
0.1205652025106444, -0.5266590777966478, 0.29905844628726314, 0.6569060848784882, 0.5222934997012683, 0.0, 0.1443356154725455, -0.5319178700246373, -0.12340113251073977, 0.887902900219451, 0.0404118722125304, 0.0, -0.03227164764514308, 0.3353982677836194, 0.6535892367333886, 0.617822773349605, 0.46568174526550954, 0.0, -0.10733344850637433, -0.7626736972838017, -0.7577462139264013, 0.08637535333418424, 0.0
0.11879459670229099, -0.5195240391694719, 0.2969514289637195, 0.6674810208536878, 0.5212564809102693, 0.0, 0.141002186699552, -0.5311579362150265, -0.13106859918513403, 0.8843329828234707, 0.04065887679332624, 0.0, -0.02641920799165278, 0.36062569661491695, 0.6684953049858504, 0.6289187285037685, 0.47169956373189886, 0.0, -0.10971701150456721, -0.7482981881799954, -0.7465150201898179, 0.0840475937481654, 0.0
0.11702399089393756, -0.5123890005422959, 0.2948444116401759, 0.6780559568288874, 0.5202194621192704, 0.0, 0.1376687579265585, -0.5303980024054156, -0.13873606585952827, 0.8807630654274905, 0.040905881374122086, 0.0, -0.02056676833816248, 0.3858531254462145, 0.683401373238312, 0.6400146836579319, 0.47771738219828824, 0.0, -0.11210057450276009, -0.7339226790761889, -0.7352838264532342, 0.08171983416214652, 0.0
0.11525338508558415, -0.5052539619151198, 0.2927373943166322, 0.6886308928040871, 0.5191824433282715, 0.0, 0.13433532915356497, -0.5296380685958048, -0.14640353253392252, 0.8771931480315104, 0.04115288595491793, 0.0, -0.014714328684672182, 0.41108055427751206, 0.6983074414907736, 0.6511106388120954, 0.48373520066467757, 0.0, -0.11448413750095296, -0.7195471699723825, -0.7240526327166508, 0.07939207457612768, 0.0
0.11348277927723074, -0.4981189232879439, 0.2906303769930886, 0.6992058287792867, 0.5181454245372725, 0.0, 0.1310019003805715, -0.5288781347861939, -0.1540709992083168, 0.8736232306355302, 0.041399890535713774, 0.0, -0.008861889031181885, 0.4363079831088096, 0.7132135097432352, 0.6622065939662589, 0.4897530191310669, 0.0, -0.11686770049914581, -0.7051716608685761, -0.7128214389800672, 0.07706431499010884, 0.0
0.11517413492023884, -0.4847637615901214, 0.2835320391494236, 0.7017807444406805, 0.5120288693044392, 0.0, 0.12038077950270559, -0.5272414348268437, -0.16291307805435684, 0.8632524144070097, 0.04536771856653918, 0.0, -0.0026629795998353075, 0.45534605553351476, 0.7336974268829266, 0.6814516065897145, 0.48345971091422574, 0.0, -0.10694749721662969, -0.6816256089348214, -0.6938402747609527, 0.08976600098137512, 0.0
0.11686549056324694, -0.4714085998922989, 0.27643370130575856, 0.7043556601020742, 0.5059123140716062, 0.0, 0.10975965862483972, -0.5256047348674936, -0.1717551569003969, 0.8528815981784893, 0.04933554659736458, 0.0, 0.0035359298315112693, 0.4743841279582199, 0.7541813440226178, 0.7006966192131701, 0.47716640269738464, 0.0, -0.09702729393411356, -0.6580795570010666, -0.6748591105418379, 0.10246768697264143, 0.0
0.11855684620625503, -0.4580534381944764, 0.2693353634620935, 0.7069305757634681, 0.4997957588387729, 0.0, 0.09913853774697379, -0.5239680349081433, -0.18059723574643693, 0.842510781949969, 0.053303374628189994, 0.0, 0.009734839262857845, 0.49342220038292506, 0.774665261162309, 0.7199416318366257, 0.47087309448054343, 0.0, -0.08710709065159743, -0.6345335050673118, -0.6558779463227233, 0.11516937296390771, 0.0
0.12024820184926314, -0.4446982764966539, 0.2622370256184285, 0.7095054914248617, 0.49367920360593975, 0.0, 0.0885174168691079, -0.5223313349487931, -0.189439314592477, 0.8321399657214485, 0.05727120265901539, 0.0, 0.015933748694204424, 0.5124602728076303, 0.7951491783020005, 0.7391866444600814, 0.46457978626370233, 0.0, -0.07718688736908129, -0.610987453133557, -0.6368967821036086, 0.127871058955174, 0.0
0.12193955749227126, -0.4313431147988314, 0.25513868777476345, 0.7120804070862555, 0.4875626483731066, 0.0, 0.077896295991242, -0.5206946349894429, -0.19828139343851703, 0.8217691494929282, 0.061239030689840795, 0.0, 0.022132658125551, 0.5314983452323354, 0.8156330954416917, 0.758431657083537, 0.45828647804686123, 0.0, -0.06726668408656515, -0.5874414011998021, -0.617915617884494, 0.1405727449464403, 0.0
0.13125506038857326, -0.4164452530845126, 0.24407961491835314, 0.7053936353335033, 0.47138167295259914, 0.0, 0.06787410195042463, -0.5186660911597275, -0.20525207790069117, 0.8072595502333496, 0.07142700622592225, 0.0, 0.021108999725256292, 0.5377472976515664, 0.8265981962805161, 0.7696727677809303, 0.44420032707974294, 0.0, -0.0542361179201771, -0.5700846149155187, -0.6039564221671658, 0.16277951149736022, 0.0
0.1405705632848753, -0.40154739137019385, 0.2330205420619428, 0.6987068635807511, 0.45520069753209164, 0.0, 0.05785190790960725, -0.516637547330012, -0.21222276236286536, 0.792749950973771, 0.08161498176200373, 0.0, 0.02008534132496159, 0.5439962500707973, 0.8375632971193406, 0.7809138784783237, 0.43011417611262465, 0.0, -0.041205551753789045, -0.5527278286312352, -0.5899972264498375, 0.18498627804828013, 0.0
0.14988606618117728, -0.386649529655875, 0.22196146920553247, 0.6920200918279987, 0.4390197221115842, 0.0, 0.04782971386878987, -0.5146090035002966, -0.21919344682503952, 0.7782403517141921, 0.09180295729808517, 0.0, 0.019061682924666885, 0.5502452024900283, 0.8485283979581653, 0.7921549891757171, 0.4160280251455063, 0.0, -0.028174985587400996, -0.5353710423469517, -0.5760380307325095, 0.2071930445992001, 0.0
0.15920156907747932, -0.37175166794155623, 0.21090239634912217, 0.6853333200752465, 0.42283874669107674, 0.0, 0.037807519827972494, -0.5125804596705811, -0.2261641312872137, 0.7637307524546137, 0.10199093283416663, 0.0, 0.018038024524372177, 0.5564941549092592, 0.8594934987969896, 0.8033960998731106, 0.40194187417838806, 0.0, -0.01514441942101295, -0.518014256062668, -0.5620788350151812, 0.22939981115012004, 0.0
0.16851707197378135, -0.3568538062272374, 0.19984332349271178, 0.6786465483224943, 0.40665777127056923, 0.0, 0.02778532578715511, -0.5105519158408656, -0.23313481574938785, 0.7492211531950351, 0.11217890837024809, 0.0, 0.017014366124077474, 0.5627431073284902, 0.870458599635814, 0.8146372105705038, 0.38785572321126977, 0.0, -0.0021138532546249047, -0.5006574697783845, -0.548119639297853, 0.25160657770103995, 0.0
0.18625340628384982, -0.3443416560114207, 0.1897624029622892, 0.6675750277778587, 0.3837421566972443, 0.0, 0.01579527929789944, -0.5084404967969485, -0.2410570188131643, 0.7343853309543076, 0.12784208648959086, 0.0, 0.010441057632585427, 0.5554004792400821, 0.8668238118421957, 0.81182819389654, 0.3740263764996315, 0.0, 0.000798708812218028, -0.4967377884003047, -0.5467252783051422, 0.2668782749785019, 0.0
0.2039897405939183, -0.33182950579560405, 0.17968148243186655, 0.6565035072332233, 0.3608265421239194, 0.0, 0.0038052328086437626, -0.5063290777530314, -0.24897922187694077, 0.7195495087135803, 0.14350526460893367, 0.0, 0.003867749141093382, 0.5480578511516738, 0.8631890240485772, 0.8090191772225763, 0.3601970297879931, 0.0, 0.0037112708790609608, -0.49281810702222484, -0.5453309173124314, 0.28214997225596383, 0.0
0.22172607490398674, -0.3193173555797873, 0.1696005619014439, 0.6454319866885877, 0.3379109275505945, 0.0, -0.008184813680611911, -0.5042176587091142, -0.2569014249407172, 0.7047136864728528, 0.15916844272827643, 0.0, -0.0027055593503986643, 0.5407152230632657, 0.859554236254959, 0.8062101605486125, 0.34636768307635485, 0.0, 0.006623832945903892, -0.4888984256441449, -0.5439365563197207, 0.2974216695334258, 0.0
0.2394624092140552, -0.3068052053639706, 0.1595196413710213, 0.6343604661439521, 0.3149953129772696, 0.0, -0.020174860169867588, -0.5021062396651971, -0.2648236280044936, 0.6898778642321254, 0.17483162084761925, 0.0, -0.00927886784189071, 0.5333725949748576, 0.8559194484613406, 0.8034011438746488, 0.33253833636471647, 0.0, 0.009536395012746826, -0.484978744266065, -0.5425421953270099, 0.31269336681088783, 0.0
0.2571987435241237, -0.29429305514815385, 0.14943872084059864, 0.6232889455993166, 0.2920796984039447, 0.0, -0.03216490665912327, -0.49999482062127987, -0.27274583106827005, 0.6750420419913981, 0.19049479896696206, 0.0, -0.015852176333382755, 0.5260299668864494, 0.8522846606677221, 0.800592127200685, 0.31870898965307815, 0.0, 0.012448957079589758, -0.48105906288798506, -0.541147834334299, 0.32796506408834974, 0.0
0.2767331823521083, -0.28416658152425417, 0.13781415432522512, 0.614558864531377, 0.27120110996049995, 0.0, -0.04645611077500475, -0.49971939719333974, -0.28197040231054316, 0.6583548442933251, 0.2093376947120752, 0.0, -0.017978012495053073, 0.5077024808320841, 0.8340214725430005, 0.7834993149844485, 0.3150661384383156, 0.0, 0.0012298968719661107, -0.4906476679243222, -0.5531084570158271, 0.3296671824787232, 0.0
0.29626762118009287, -0.2740401079003545, 0.12618958780985162, 0.6058287834634374, 0.25032252151705514, 0.0, -0.060747314890886236, -0.4994439737653995, -0.29119497355281626, 0.6416676465952522, 0.22818059045718833, 0.0, -0.020103848656723395, 0.48937499477771895, 0.8157582844182788, 0.7664065027682121, 0.311423287223553, 0.0, -0.009989163335657535, -0.5002362729606593, -0.565069079697355, 0.33136930086909666, 0.0
0.3158020600080775, -0.2639136342764548, 0.11456502129447813, 0.5970987023954978, 0.22944393307361044, 0.0, -0.07503851900676771, -0.4991685503374592, -0.3004195447950894, 0.6249804488971792, 0.2470234862023015, 0.0, -0.022229684818393717, 0.47104750872335377, 0.7974950962935571, 0.7493136905519757, 0.3077804360087904, 0.0, -0.021208223543281186, -0.5098248779969964, -0.5770297023788831, 0.3330714192594701, 0.0
0.3353364988360621, -0.25378716065255513, 0.10294045477910463, 0.5883686213275581, 0.20856534463016566, 0.0, -0.08932972312264921, -0.49889312690951904, -0.3096441160373625, 0.6082932511991064, 0.26586638194741463, 0.0, -0.024355520980064042, 0.4527200226689886, 0.7792319081688353, 0.7322208783357395, 0.30413758479402786, 0.0, -0.03242728375090483, -0.5194134830333335, -0.5889903250604112, 0.3347735376498436, 0.0
0.35487093766404665, -0.24366068702865545, 0.0913158882637311, 0.5796385402596187, 0.1876867561867209, 0.0, -0.10362092723853068, -0.4986177034815788, -0.3188686872796356, 0.5916060535010335, 0.28470927769252774, 0.0, -0.02648135714173436, 0.43439253661462335, 0.7609687200441135, 0.7151280661195031, 0.3004947335792653, 0.0, -0.043646343958528476, -0.5290020880696705, -0.6009509477419391, 0.336475656040217, 0.0
0.36668196468472775, -0.23618896042613574, 0.07755281589258121, 0.5730084463289956, 0.17463547725562162, 0.0, -0.11566325646179326, -0.5005134870964121, -0.32360373761502814, 0.5738595666107061, 0.30679343835415357, 0.0, -0.020123387198820453, 0.4142257562719949, 0.7305799686422334, 0.6839959510639304, 0.3109933986661528, 0.0, -0.06563243352228719, -0.5451606011027048, -0.6200489303385482, 0.3260806809641905, 0.0
0.37849299170540884, -0.22871723382361608, 0.06378974352143131, 0.5663783523983726, 0.1615841983245224, 0.0, -0.12770558568505583, -0.5024092707112453, -0.3283387879504207, 0.5561130797203788, 0.32887759901577945, 0.0, -0.013765417255906543, 0.39405897592936656, 0.7001912172403532, 0.6528638360083577, 0.32149206375304024, 0.0, -0.08761852308604592, -0.5613191141357391, -0.6391469129351575, 0.3156857058881641, 0.0
0.3903040187260899, -0.22124550722109637, 0.05002667115028141, 0.5597482584677497, 0.1485329193934231, 0.0, -0.1397479149083184, -0.5043050543260786, -0.3330738382858134, 0.5383665928300515, 0.3509617596774053, 0.0, -0.007407447312992631, 0.37389219558673814, 0.6698024658384729, 0.6217317209527852, 0.33199072883992775, 0.0, -0.10960461264980464, -0.5774776271687735, -0.6582448955317665, 0.30529073081213753, 0.0
0.4021150457467709, -0.2137737806185767, 0.0362635987791315, 0.5531181645371267, 0.13548164046232386, 0.0, -0.15179024413158093, -0.5062008379409119, -0.3378088886212059, 0.5206201059397242, 0.3730459203390311, 0.0, -0.0010494773700787212, 0.3537254152441097, 0.6394137144365927, 0.5905996058972125, 0.34248939392681516, 0.0, -0.13159070221356337, -0.5936361402018077, -0.6773428781283758, 0.2948957557361111, 0.0
0.413926072767452, -0.20630205401605697, 0.0225005264079816, 0.5464880706065037, 0.12243036153122461, 0.0, -0.16383257335484352, -0.5080966215557451, -0.3425439389565985, 0.5028736190493969, 0.39513008100065694, 0.0, 0.005308492572835187, 0.33355863490148135, 0.6090249630347124, 0.5594674908416398, 0.3529880590137027, 0.0, -0.15357679177732209, -0.6097946532348419, -0.6964408607249848, 0.28450078066008455, 0.0
0.4162629569348003, -0.20533402809038934, 0.012817078085696045, 0.5407202635741455, 0.118301304521956, 0.0, -0.16707941634364556, -0.5109375882269959, -0.3375386662744366, 0.4907830391517654, 0.4110647730104155, 0.0, 0.011056126670819797, 0.32009177213153117, 0.5766273760610303, 0.5190008173849919, 0.3780611588512218, 0.0, -0.1744289245199651, -0.6169306762277161, -0.7082628065254664, 0.27149964503839513, 0.0
0.4185998411021486, -0.20436600216472173, 0.0031336297634104913, 0.5349524565417874, 0.11417224751268742, 0.0, -0.17032625933244763, -0.5137785548982466, -0.3325333935922748, 0.47869245925413395, 0.42699946502017405, 0.0, 0.016803760768804406, 0.3066249093615811, 0.5442297890873482, 0.478534143928344, 0.40313425868874103, 0.0, -0.19528105726260817, -0.6240666992205902, -0.7200847523259478, 0.25849850941670566, 0.0
0.4209367252694968, -0.2033979762390541, -0.006549818558875065, 0.5291846495094291, 0.11004319050341885, 0.0, -0.1735731023212497, -0.5166195215694974, -0.3275281209101129, 0.4666018793565024, 0.44293415702993255, 0.0, 0.022551394866789018, 0.2931580465916309, 0.5118322021136661, 0.4380674704716961, 0.4282073585262603, 0.0, -0.2161331900052512, -0.6312027222134642, -0.7319066981264295, 0.24549737379501618, 0.0
0.4232736094368451, -0.20242995031338645, -0.016233266881160616, 0.523416842477071, 0.10591413349415024, 0.0, -0.17681994531005174, -0.5194604882407481, -0.32252284822795113, 0.4545112994588709, 0.4588688490396911, 0.0, 0.028299028964773626, 0.2796911838216808, 0.479434615139984, 0.3976007970150482, 0.4532804583637795, 0.0, -0.23698532274789422, -0.6383387452063383, -0.743728643926911, 0.23249623817332668, 0.0
0.4256104936041934, -0.20146192438771884, -0.025916715203446166, 0.5176490354447127, 0.10178507648488166, 0.0, -0.1800667882988538, -0.522301454911999, -0.31751757554578924, 0.4424207195612394, 0.47480354104944966, 0.0, 0.034046663062758234, 0.26622432105173066, 0.4470370281663018, 0.3571341235584003, 0.4783535582012987, 0.0, -0.25783745549053727, -0.6454747681992125, -0.7555505897273924, 0.21949510255163723, 0.0
0.4219514038460702, -0.20848596356512644, -0.028560933700646426, 0.5110285512969513, 0.10596793501367222, 0.0, -0.1700429539976054, -0.5203969690855152, -0.30041092635924305, 0.4412073317586679, 0.48144089205910245, 0.0, 0.03001196291617559, 0.2589609553459725, 0.42484202862519876, 0.32066328019509677, 0.5155757169383667, 0.0, -0.2669076069819109, -0.638008937318906, -0.7561356240926609, 0.21903277530475943, 0.0
0.41829231408794715, -0.21551000274253412, -0.031205152197846687, 0.5044080671491897, 0.11015079354246278, 0.0, -0.160019119696357, -0.5184924832590316, -0.2833042771726968, 0.43999394395609637, 0.48807824306875525, 0.0, 0.02597726276959295, 0.25169758964021444, 0.4026470290840959, 0.2841924368317932, 0.5527978756754347, 0.0, -0.27597775847328454, -0.6305431064385996, -0.7567206584579295, 0.21857044805788167, 0.0
0.414633224329824, -0.22253404191994172, -0.03384937069504695, 0.4977875830014282, 0.11433365207125336, 0.0, -0.1499952853951086, -0.5165879974325478, -0.26619762798615065, 0.43878055615352485, 0.49471559407840804, 0.0, 0.021942562623010312, 0.24443422393445635, 0.38045202954299284, 0.2477215934684897, 0.5900200344125027, 0.0, -0.28504790996465823, -0.6230772755582932, -0.7573056928231979, 0.21810812081100386, 0.0
0.41097413457170096, -0.22955808109734935, -0.03649358919224721, 0.4911670988536667, 0.11851651060004392, 0.0, -0.13997145109386022, -0.5146835116060642, -0.24909097879960443, 0.43756716835095333, 0.5013529450880608, 0.0, 0.017907862476427668, 0.23717085822869824, 0.35825703000188985, 0.2112507501051862, 0.6272421931495706, 0.0, -0.29411806145603187, -0.6156114446779867, -0.7578907271884663, 0.21764579356412608, 0.0
0.40731504481357783, -0.236582120274757, -0.03913780768944746, 0.48454661470590527, 0.12269936912883447, 0.0, -0.12994761679261183, -0.5127790257795805, -0.23198432961305823, 0.43635378054838186, 0.5079902960977135, 0.0, 0.013873162329845024, 0.22990749252294013, 0.33606203046078686, 0.17477990674188265, 0.6644643518866387, 0.0, -0.30318821294740556, -0.6081456137976803, -0.758475761553735, 0.21718346631724827, 0.0
0.39946905329691895, -0.24613664252146114, -0.03947402826561751, 0.47296362891463123, 0.13318540326792525, 0.0, -0.1107977193774021, -0.5071262917954648, -0.20556316189590815, 0.44140192200763123, 0.5097892942242067, 0.0, 0.002092507354274238, 0.22106606293938183, 0.32850289427866886, 0.15121338314319951, 0.7039295868344188, 0.0, -0.2979185996780537, -0.5858421944034433, -0.7479098524214267, 0.23381067006761316, 0.0
0.39162306178026013, -0.2556911647681653, -0.03981024884178755, 0.46138064312335725, 0.14367143740701607, 0.0, -0.09164782196219243, -0.5014735578113491, -0.17914199417875806, 0.4464500634668806, 0.5115882923506998, 0.0, -0.009688147621296548, 0.2122246333558235, 0.32094375809655074, 0.1276468595445164, 0.743394821782199, 0.0, -0.29264898640870174, -0.5635387750092066, -0.7373439432891182, 0.250437873817978, 0.0
0.3837770702636012, -0.2652456870148694, -0.04014646941795758, 0.4497976573320833, 0.15415747154610684, 0.0, -0.07249792454698273, -0.4958208238272334, -0.15272082646160798, 0.4514982049261299, 0.513387290477193, 0.0, -0.021468802596867332, 0.2033832037722652, 0.31338462191443267, 0.1040803359458333, 0.7828600567299789, 0.0, -0.2873793731393498, -0.5412353556149696, -0.7267780341568099, 0.26706507756834286, 0.0
0.3759310787469424, -0.2748002092615735, -0.04048268999412762, 0.4382146715408093, 0.16464350568519762, 0.0, -0.05334802713177302, -0.49016808984311777, -0.1262996587444579, 0.45654634638537933, 0.5151862886036862, 0.0, -0.03324945757243812, 0.1945417741887069, 0.30582548573231455, 0.08051381234715015, 0.8223252916777591, 0.0, -0.2821097598699979, -0.5189319362207326, -0.7162121250245016, 0.2836922813187078, 0.0
0.36808508723028355, -0.2843547315082776, -0.04081891057029766, 0.4266316857495353, 0.17512953982428842, 0.0, -0.034198129716563316, -0.484515355859002, -0.09987849102730782, 0.4615944878446286, 0.5169852867301793, 0.0, -0.045030112548008906, 0.1857003446051486, 0.2982663495501965, 0.056947288748467016, 0.8617905266255393, 0.0, -0.276840146600646, -0.4966285168264959, -0.7056462158921933, 0.3003194850690726, 0.0
0.3630168360873927, -0.2884792412367131, -0.04111806593820894, 0.40984410369420465, 0.18656304689177536, 0.0, -0.020274421080784207, -0.4802722684611861, -0.07420390988884688, 0.4599839468801073, 0.5139845491285425, 0.0, -0.05325486006003815, 0.16725119862994386, 0.300774488914409, 0.0480208900792034, 0.8920066335484707, 0.0, -0.26003719168526385, -0.46368787065605566, -0.6845993707275393, 0.33295743529668087, 0.0
0.35794858494450194, -0.2926037509651485, -0.04141722130612023, 0.39305652163887406, 0.1979965539592623, 0.0, -0.006350712445005098, -0.4760291810633702, -0.04852932875038596, 0.458373405915586, 0.5109838115269056, 0.0, -0.06147960757206739, 0.14880205265473914, 0.30328262827862146, 0.03909449140993977, 0.9222227404714022, 0.0, -0.24323423676988165, -0.4307472244856155, -0.6635525255628854, 0.36559538552428916, 0.0
0.35288033380161105, -0.296728260693584, -0.04171637667403151, 0.3762689395835434, 0.20943006102674924, 0.0, 0.007572996190774006, -0.47178609366555424, -0.02285474761192502, 0.45676286495106466, 0.5079830739252689, 0.0, -0.06970435508409664, 0.13035290667953442, 0.30579076764283397, 0.03016809274067615, 0.9524388473943336, 0.0, -0.22643128185449946, -0.3978065783151753, -0.6425056803982312, 0.3982333357518974, 0.0
0.34781208265872027, -0.3008527704220194, -0.0420155320419428, 0.35948135752821286, 0.22086356809423616, 0.0, 0.021496704826553116, -0.4675430062677383, 0.0028198335265359215, 0.45515232398654343, 0.504982336323632, 0.0, -0.07792910259612587, 0.11190376070432971, 0.30829890700704643, 0.021241694071412524, 0.9826549543172649, 0.0, -0.20962832693911734, -0.3648659321447352, -0.6214588352335773, 0.4308712859795058, 0.0
0.34274383151582943, -0.3049772801504549, -0.042314687409854085, 0.3426937754728822, 0.23229707516172313, 0.0, 0.03542041346233222, -0.4632999188699224, 0.028494414664996866, 0.453541783022022, 0.5019815987219951, 0.0, -0.08615385010815513, 0.09345461472912499, 0.31080704637125883, 0.012315295402148901, 1.0128710612401965, 0.0, -0.19282537202373512, -0.331925285974295, -0.6004119900689232, 0.46350923620711404, 0.0
0.3434899492990815, -0.3024798082386306, -0.043009709981122315, 0.32491606115157823, 0.24076381048014628, 0.0, 0.03629876018224218, -0.4545417798889277, 0.04380823406769231, 0.44308704089109036, 0.4940030878458908, 0.0, -0.08506069803775351, 0.07036952659103632, 0.30866766715272476, 0.014251675549916465, 1.0313968690574657, 0.0, -0.1737176354800683, -0.30197906978557487, -0.5749000202096731, 0.506602371879284, 0.0
0.3442360670823336, -0.2999823363268063, -0.043704732552390546, 0.30713834683027424, 0.24923054579856943, 0.0, 0.03717710690215214, -0.44578364090793304, 0.05912205347038776, 0.43263229876015846, 0.48602457696978657, 0.0, -0.08396754596735191, 0.04728443845294765, 0.3065282879341906, 0.016188055697684025, 1.0499226768747352, 0.0, -0.15460989893640148, -0.27203285359685486, -0.5493880503504228, 0.5496955075514542, 0.0
0.34498218486558563, -0.29748486441498206, -0.04439975512365877, 0.2893606325089702, 0.2576972811169926, 0.0, 0.03805545362206209, -0.43702550192693845, 0.07443587287308319, 0.42217755662922674, 0.47804606609368233, 0.0, -0.0828743938969503, 0.024199350314858984, 0.3043889087156566, 0.01812443584545159, 1.0684484846920044, 0.0, -0.13550216239273466, -0.24208663740813485, -0.5238760804911726, 0.5927886432236243, 0.0
0.3457283026488377, -0.2949873925031578, -0.045094777694926994, 0.2715829181876662, 0.26616401643541576, 0.0, 0.03893380034197205, -0.4282673629459438, 0.08974969227577863, 0.41172281449829495, 0.47006755521757804, 0.0, -0.0817812418265487, 0.0011142621767703245, 0.30224952949712247, 0.020060815993219152, 1.0869742925092738, 0.0, -0.11639442584906783, -0.2121404212194148, -0.4983641106319225, 0.6358817788957943, 0.0
0.34647442043208976, -0.2924899205913335, -0.04578980026619523, 0.25380520386636224, 0.2746307517538389, 0.0, 0.039812147061882006, -0.41950922396494916, 0.10506351167847407, 0.40126807236736317, 0.4620890443414737, 0.0, -0.08068808975614708, -0.02197082596131833, 0.3001101502785884, 0.021997196140986715, 1.1055001003265432, 0.0, -0.09728668930540102, -0.18219420503069475, -0.47285214077267235, 0.6789749145679644, 0.0
0.3529102906328923, -0.2854749675980118, -0.0458466630932252, 0.23990910703748142, 0.2778758319600964, 0.0, 0.02842672730594602, -0.404856092318345, 0.11006996978826387, 0.38519338400764364, 0.4538174333427651, 0.0, -0.07386386285282477, -0.03793514563326118, 0.28878432828062023, 0.0242517786093255, 1.1153965221017375, 0.0, -0.0851161279494676, -0.16299499124307484, -0.4519904087191433, 0.7187085462481163, 0.0
0.35934616083369486, -0.27846001460469, -0.04590352592025518, 0.2260130102086005, 0.28112091216635393, 0.0, 0.017041307550010033, -0.3902029606717408, 0.11507642789805368, 0.3691186956479241, 0.4455458223440563, 0.0, -0.06703963594950245, -0.05389946530520402, 0.2774585062826521, 0.026506361077664284, 1.1252929438769317, 0.0, -0.07294556659353421, -0.14379577745545497, -0.43112867666561433, 0.7584421779282682, 0.0
0.36578203103449736, -0.2714450616113682, -0.04596038874728515, 0.2121169133797197, 0.2843659923726115, 0.0, 0.005655887794074045, -0.3755498290251367, 0.12008288600784349, 0.3530440072882046, 0.43727421134534766, 0.0, -0.06021540904618014, -0.06986378497714688, 0.26613268428468395, 0.028760943546003073, 1.1351893656521261, 0.0, -0.06077500523760083, -0.12459656366783503, -0.41026694461208535, 0.7981758096084198, 0.0
0.3722179012353, -0.26443010861804644, -0.04601725157431513, 0.1982208165508388, 0.2876110725788691, 0.0, -0.0057295319618619455, -0.36089669737853264, 0.1250893441176333, 0.3369693189284851, 0.42900260034663895, 0.0, -0.05339118214285782, -0.08582810464908971, 0.2548068622867158, 0.031015526014341863, 1.1450857874273206, 0.0, -0.04860444388166744, -0.10539734988021515, -0.3894052125585563, 0.8379094412885716, 0.0
0.3786537714361025, -0.2574151556247247, -0.046074114401345095, 0.18432471972195796, 0.2908561527851266, 0.0, -0.017114951717797932, -0.34624356573192844, 0.13009580222742312, 0.3208946305687656, 0.4207309893479303, 0.0, -0.0465669552395355, -0.10179242432103257, 0.24348104028874767, 0.033270108482680645, 1.1549822092025146, 0.0, -0.03643388252573403, -0.08619813609259523, -0.36854348050502733, 0.8776430729687235, 0.0
0.3851926300254068, -0.25050602892526835, -0.04587292087368976, 0.17476159614363415, 0.2910701301514211, 0.0, -0.032308386686271215, -0.33333506520561784, 0.13160852097802866, 0.3046996366637061, 0.41506745526640326, 0.0, -0.037644006129762646, -0.10784688318254075, 0.22989823529658754, 0.030071991456309424, 1.161819166537401, 0.0, -0.034826397632732965, -0.07567031842214585, -0.3517088269197704, 0.906131279497571, 0.0
0.39173148861471097, -0.24359690222581204, -0.04567172734603441, 0.16519847256531034, 0.29128410751771566, 0.0, -0.047501821654744494, -0.32042656467930725, 0.1331212397286342, 0.2885046427586466, 0.40940392118487623, 0.0, -0.028721057019989782, -0.11390134204404892, 0.21631543030442743, 0.0268738744299382, 1.1686561238722872, 0.0, -0.03321891273973189, -0.06514250075169646, -0.3348741733345135, 0.9346194860264185, 0.0
0.3982703472040152, -0.2366877755263557, -0.04547053381837906, 0.15563534898698653, 0.29149808488401013, 0.0, -0.06269525662321777, -0.3075180641529966, 0.13463395847923973, 0.27230964885358716, 0.40374038710334914, 0.0, -0.01979810791021692, -0.1199558009055571, 0.2027326253122673, 0.02367575740356698, 1.1754930812071738, 0.0, -0.03161142784673083, -0.05461468308124707, -0.31803951974925665, 0.9631076925552661, 0.0
0.40480920579331947, -0.22977864882689938, -0.04526934029072371, 0.14607222540866271, 0.29171206225030466, 0.0, -0.07788869159169105, -0.29460956362668606, 0.13614667722984525, 0.2561146549485277, 0.39807685302182205, 0.0, -0.010875158800444061, -0.12601025976706526, 0.18914982032010716, 0.02047764037719576, 1.18233003854206, 0.0, -0.030003942953729754, -0.04408686541079768, -0.3012048661639998, 0.9915958990841135, 0.0
0.4113480643826237, -0.22286952212744307, -0.04506814676306836, 0.1365091018303389, 0.29192603961659913, 0.0, -0.09308212656016433, -0.2817010631003754, 0.1376593959804508, 0.23991966104346824, 0.3924133189402951, 0.0, -0.001952209690671205, -0.13206471862857344, 0.17556701532794705, 0.017279523350824538, 1.1891669958769464, 0.0, -0.028396458060728685, -0.033559047740348305, -0.28437021257874284, 1.020084105612961, 0.0
0.41440583236289874, -0.21760298412823317, -0.04472560844407195, 0.13093202996369227, 0.29307291641203564, 0.0, -0.10445160622404186, -0.2744751870669501, 0.13790673357006794, 0.22968810114530594, 0.39062388870876136, 0.0, 0.0027990417542601374, -0.13044983772833413, 0.16699631074598262, 0.01191698191040578, 1.196311291730475, 0.0, -0.03441719960454929, -0.03133777139012533, -0.2705883423134173, 1.0364801230506069, 0.0
0.4174636003431737, -0.21233644612902328, -0.04438307012507556, 0.12535495809704564, 0.29421979320747216, 0.0, -0.1158210858879194, -0.26724931103352484, 0.13815407115968506, 0.21945654124714364, 0.3888344584772277, 0.0, 0.00755029319919148, -0.12883495682809482, 0.15842560616401816, 0.0065544404699870214, 1.2034555875840036, 0.0, -0.040437941148369884, -0.029116495039902348, -0.2568064720480917, 1.0528761404882525, 0.0
0.4205213683234488, -0.20706990812981335, -0.04404053180607914, 0.11977788623039899, 0.29536667000290867, 0.0, -0.12719056555179692, -0.2600234350000996, 0.13840140874930218, 0.2092249813489814, 0.3870450282456939, 0.0, 0.012301544644122824, -0.12722007592785547, 0.14985490158205372, 0.0011918990295682632, 1.210599883437532, 0.0, -0.04645868269219049, -0.026895218689679368, -0.24302460178276608, 1.0692721579258981, 0.0
0.42357913630372374, -0.20180337013060345, -0.04369799348708274, 0.11420081436375236, 0.2965135467983452, 0.0, -0.13856004521567447, -0.25279755896667433, 0.1386487463389193, 0.19899342145081916, 0.3852555980141602, 0.0, 0.017052796089054165, -0.12560519502761616, 0.14128419700008923, -0.004170642410850493, 1.2177441792910608, 0.0, -0.05247942423601109, -0.02467394233945639, -0.2292427315174405, 1.085668175363544, 0.0
0.4266369042839987, -0.19653683213139356, -0.04335545516808634, 0.10862374249710573, 0.29766042359378164, 0.0, -0.14992952487955197, -0.24557168293324905, 0.13889608392853642, 0.18876186155265687, 0.38346616778262643, 0.0, 0.02180404753398551, -0.12399031412737685, 0.13271349241812477, -0.00953318385126925, 1.2248884751445894, 0.0, -0.058500165779831685, -0.02245266598923341, -0.21546086125211492, 1.1020641928011894, 0.0
0.4272732618012514, -0.19340219985086074, -0.043280457322930586, 0.10623987057563526, 0.29852231604763546, 0.0, -0.15590983622031598, -0.24266919340586549, 0.1386135992475085, 0.18403554484484128, 0.38334419021186317, 0.0, 0.022055459769274338, -0.12041620026174311, 0.12892449431311723, -0.014132530299463222, 1.2303173566895027, 0.0, -0.0654161963036772, -0.02419532349120879, -0.20725784867432664, 1.1086427471590012, 0.0
0.427909619318504, -0.1902675675703279, -0.043205459477774835, 0.10385599865416477, 0.2993842085014894, 0.0, -0.16189014756107997, -0.23976670387848192, 0.13833111456648056, 0.17930922813702566, 0.3832222126410997, 0.0, 0.02230687200456317, -0.11684208639610941, 0.12513549620810965, -0.01873187674765719, 1.235746238234416, 0.0, -0.07233222682752272, -0.025937980993184166, -0.19905483609653832, 1.1152213015168126, 0.0
0.4285459768357567, -0.18713293528979508, -0.04313046163261909, 0.10147212673269432, 0.3002461009553432, 0.0, -0.16787045890184396, -0.23686421435109833, 0.1380486298854526, 0.1745829114292101, 0.3831002350703364, 0.0, 0.022558284239852, -0.11326797253047569, 0.12134649810310208, -0.023331223195851163, 1.2411751197793295, 0.0, -0.07924825735136823, -0.02768063849515954, -0.19085182351875002, 1.1217998558746243, 0.0
0.4291823343530093, -0.18399830300926223, -0.04305546378746334, 0.09908825481122384, 0.30110799340919703, 0.0, -0.17385077024260795, -0.23396172482371477, 0.13776614520442468, 0.16985659472139444, 0.3829782574995729, 0.0, 0.02280969647514083, -0.10969385866484196, 0.11755749999809455, -0.02793056964404513, 1.2466040013242425, 0.0, -0.08616428787521375, -0.02942329599713492, -0.18264881094096172, 1.128378410232436, 0.0
0.429818691870262, -0.1808636707287294, -0.042980465942307595, 0.09670438288975336, 0.30196988586305096, 0.0, -0.17983108158337197, -0.23105923529633116, 0.13748366052339675, 0.16513027801357885, 0.38285627992880966, 0.0, 0.02306110871042966, -0.10611974479920824, 0.11376850189308697, -0.0325299160922391, 1.252032882869156, 0.0, -0.09308031839905928, -0.031165953499110294, -0.17444579836317342, 1.1349569645902475, 0.0
