isaac-sim2real/sage/motion_files/h1_2/amass/0-Subject_82_F_6_poses_action_sequence.txt
left_hip_yaw_joint, left_hip_pitch_joint, left_hip_roll_joint, left_knee_joint, left_ankle_pitch_joint, left_ankle_roll_joint, right_hip_yaw_joint, right_hip_pitch_joint, right_hip_roll_joint, right_knee_joint, right_ankle_pitch_joint, right_ankle_roll_joint, torso_joint, left_shoulder_pitch_joint, left_shoulder_roll_joint, left_shoulder_yaw_joint, left_elbow_joint, left_wrist_roll_joint, right_shoulder_pitch_joint, right_shoulder_roll_joint, right_shoulder_yaw_joint, right_elbow_joint, right_wrist_roll_joint
0.4297014057445279, -0.17028404330850042, 0.05474299549906349, 0.08601735663400292, 0.3496020853582486, 0.0, -0.4098328916990898, -0.09972376758911854, -0.05122703146625017, -0.03851603763408299, 0.3721730323108897, 0.0, -0.08196668829556085, -0.08235396289394437, 0.18649975776243954, 0.2660773643287127, 1.2674221490156912, 0.0, -0.08881782119463191, -0.09741207375886428, -0.35275175888627514, 1.2947978128661473, 0.0
0.4286066479712145, -0.1763410828138406, 0.05632219069928483, 0.09600301395225905, 0.34972023367663313, 0.0, -0.4057320137287264, -0.1036359423060856, -0.04909550622935005, -0.03170649767641621, 0.37384054431285463, 0.0, -0.07821575582153929, -0.08110456231665307, 0.18540253907488083, 0.2627622405689142, 1.2573881813328056, 0.0, -0.08574758353498312, -0.09676913530313405, -0.3436158713139544, 1.2848546023043652, 0.0
0.42751189019790103, -0.18239812231918076, 0.057901385899506184, 0.10598867127051517, 0.34983838199501766, 0.0, -0.40163113575836296, -0.10754811702305264, -0.04696398099244992, -0.024896957718749425, 0.37550805631481954, 0.0, -0.07446482334751772, -0.07985516173936177, 0.18430532038732206, 0.2594471168091156, 1.24735421364992, 0.0, -0.08267734587533429, -0.09612619684740385, -0.3344799837416336, 1.2749113917425836, 0.0
0.4264171324245877, -0.1884551618245209, 0.05948058109972753, 0.1159743285887713, 0.3499565303134022, 0.0, -0.3975302577879996, -0.11146029174001972, -0.0448324557555498, -0.01808741776108264, 0.3771755683167844, 0.0, -0.07071389087349615, -0.07860576116207049, 0.1832081016997633, 0.256131993049317, 1.2373202459670347, 0.0, -0.0796071082156855, -0.09548325839167363, -0.3253440961693128, 1.264968181180802, 0.0
0.4253223746512742, -0.19451220132986108, 0.06105977629994887, 0.12595998590702742, 0.35007467863178665, 0.0, -0.3934293798176361, -0.11537246645698676, -0.042700930518649684, -0.011277877803415855, 0.37884308031874936, 0.0, -0.06696295839947458, -0.07735636058477918, 0.18211088301220452, 0.2528168692895184, 1.2272862782841492, 0.0, -0.07653687055603668, -0.09484031993594343, -0.31620820859699206, 1.2550249706190202, 0.0
0.42422761687796073, -0.20056924083520128, 0.06263897150017021, 0.13594564322528355, 0.3501928269501712, 0.0, -0.3893285018472727, -0.11928464117395382, -0.04056940528174956, -0.00446833784574907, 0.3805105923207142, 0.0, -0.06321202592545302, -0.07610696000748787, 0.18101366432464575, 0.2495017455297198, 1.2172523106012636, 0.0, -0.07346663289638787, -0.0941973814802132, -0.3070723210246713, 1.2450817600572384, 0.0
0.41833722839091797, -0.21357743456838582, 0.06654258293369529, 0.15443320180292958, 0.3509922505794376, 0.0, -0.3795597962854223, -0.12724956466183132, -0.03513928361058945, 0.007053924799255385, 0.3821635901646196, 0.0, -0.05659708703779095, -0.07503346662764902, 0.17975023444176108, 0.2409308105642941, 1.1978196750832184, 0.0, -0.06961777907374903, -0.09329922527329312, -0.2892411856656223, 1.2254418492372268, 0.0
0.4124468399038752, -0.22658562830157034, 0.07044619436722037, 0.17292076038057555, 0.3517916742087041, 0.0, -0.3697910907235719, -0.13521448814970885, -0.029709161939429327, 0.01857618744425984, 0.3838165880085249, 0.0, -0.049982148150128886, -0.07395997324781019, 0.1784868045588764, 0.23235987559886837, 1.1783870395651734, 0.0, -0.06576892525111017, -0.09240106906637303, -0.2714100503065732, 1.2058019384172145, 0.0
0.40655645141683255, -0.23959382203475488, 0.07434980580074545, 0.19140831895822158, 0.3525910978379706, 0.0, -0.3600223851617216, -0.14317941163758635, -0.024279040268269218, 0.030098450089264296, 0.38546958585243024, 0.0, -0.04336720926246681, -0.07288647986797135, 0.17722337467599175, 0.22378894063344262, 1.1589544040471285, 0.0, -0.06192007142847129, -0.09150291285945293, -0.25357891494752416, 1.1861620275972027, 0.0
0.40066606292978973, -0.2526020157679394, 0.07825341723427051, 0.20989587753586764, 0.3533905214672371, 0.0, -0.3502536795998712, -0.15114433512546385, -0.0188489185971091, 0.04162071273426875, 0.3871225836963356, 0.0, -0.03675227037480474, -0.0718129864881325, 0.17595994479310706, 0.2152180056680169, 1.1395217685290835, 0.0, -0.05807121760583244, -0.09060475665253283, -0.23574777958847512, 1.1665221167771909, 0.0
0.394775674442747, -0.26561020950112396, 0.0821570286677956, 0.22838343611351364, 0.35418994509650353, 0.0, -0.3404849740380208, -0.15910925861334133, -0.013418796925948986, 0.0531429753792732, 0.3887755815402409, 0.0, -0.03013733148714267, -0.07073949310829365, 0.17469651491022237, 0.2066470707025912, 1.1200891330110383, 0.0, -0.05422236378319358, -0.08970660044561275, -0.21791664422942605, 1.146882205957179, 0.0
0.37951552426361623, -0.28353249293502913, 0.08537693773558087, 0.2521354194457113, 0.3541684600934115, 0.0, -0.3269656361987802, -0.17073269066470104, -0.0071800462005420194, 0.06597437703307452, 0.38424867219012415, 0.0, -0.018467065968766648, -0.06599956876643195, 0.17332903722398008, 0.19452786391456847, 1.095455706046706, 0.0, -0.05114250272711513, -0.08929258042177166, -0.19676251472284953, 1.1175058711851618, 0.0
0.36425537408448544, -0.3014547763689343, 0.08859684680336617, 0.27588740277790885, 0.35414697509031945, 0.0, -0.3134462983595396, -0.18235612271606078, -0.0009412954751350522, 0.07880577868687583, 0.37972176284000736, 0.0, -0.006796800450390624, -0.061259644424570256, 0.17196155953773776, 0.18240865712654578, 1.0708222790823738, 0.0, -0.048062641671036674, -0.08887856039793057, -0.17560838521627295, 1.0881295364131442, 0.0
0.34899522390535465, -0.31937705980283954, 0.09181675587115144, 0.2996393861101065, 0.35412549008722743, 0.0, -0.299926960520299, -0.19397955476742043, 0.005297455250271916, 0.09163718034067715, 0.3751948534898906, 0.0, 0.004873465067985405, -0.056519720082708544, 0.1705940818514954, 0.17028945033852305, 1.0461888521180416, 0.0, -0.04498278061495822, -0.08846454037408949, -0.15445425570969637, 1.058753201641127, 0.0
0.3337350737262239, -0.3372993432367447, 0.09503666493893673, 0.32339136944230407, 0.35410400508413536, 0.0, -0.28640762268105846, -0.20560298681878014, 0.011536205975678882, 0.10446858199447845, 0.3706679441397739, 0.0, 0.016543730586361424, -0.05177979574084685, 0.1692266041652531, 0.15817024355050033, 1.0215554251537093, 0.0, -0.041902919558879766, -0.0880505203502484, -0.13330012620311982, 1.0293768668691097, 0.0
0.31847492354709317, -0.3552216266706499, 0.098256574006722, 0.34714335277450165, 0.3540825200810433, 0.0, -0.2728882848418178, -0.21722641887013985, 0.01777495670108585, 0.11729998364827977, 0.3661410347896571, 0.0, 0.028213996104737443, -0.047039871398985134, 0.16785912647901077, 0.14605103676247763, 0.9969219981893769, 0.0, -0.038823058502801315, -0.08763650032640731, -0.11214599669654324, 1.0000005320970924, 0.0
0.2972988472233045, -0.36692070478244954, 0.09373419204068494, 0.37271222036736684, 0.35472060547425543, 0.0, -0.26276919396065407, -0.22488339471946625, 0.018751345546397336, 0.13539998697859854, 0.35619072771913673, 0.0, 0.045573020250187876, -0.034361235482457744, 0.16248582494412714, 0.1396384653109258, 0.9758560730853401, 0.0, -0.035345074928906484, -0.08991926672057314, -0.10016400455271968, 0.9631390281966563, 0.0
0.27612277089951576, -0.3786197828942492, 0.08921181007464786, 0.39828108796023204, 0.3553586908674676, 0.0, -0.2526501030794903, -0.23254037056879262, 0.019727734391708822, 0.1534999903089173, 0.3462404206486164, 0.0, 0.0629320443956383, -0.02168259956593035, 0.15711252340924348, 0.13322589385937397, 0.9547901479813033, 0.0, -0.031867091355011666, -0.09220203311473898, -0.08818201240889609, 0.9262775242962205, 0.0
0.2549466945757271, -0.39031886100604885, 0.08468942810861078, 0.42384995555309724, 0.3559967762606796, 0.0, -0.24253101219832657, -0.240197346418119, 0.02070412323702031, 0.1715999936392361, 0.336290113578096, 0.0, 0.08029106854108871, -0.009003963649402955, 0.15173922187435987, 0.12681332240782214, 0.9337242228772665, 0.0, -0.028389107781116835, -0.09448479950890483, -0.07620002026507253, 0.8894160203957845, 0.0
0.23377061825193837, -0.4020179391178485, 0.08016704614257372, 0.44941882314596243, 0.35663486165389174, 0.0, -0.23241192131716282, -0.24785432226744536, 0.021680512082331797, 0.18969999696955486, 0.3263398065075756, 0.0, 0.09765009268653914, 0.003674672267124438, 0.1463659203394762, 0.12040075095627033, 0.9126582977732298, 0.0, -0.024911124207222007, -0.09676756590307067, -0.06421802812124895, 0.8525545164953486, 0.0
0.21259454192814972, -0.41371701722964815, 0.07564466417653663, 0.47498769073882763, 0.3572729470471039, 0.0, -0.22229283043599907, -0.2555112981167717, 0.022656900927643282, 0.2078000002998736, 0.31638949943705524, 0.0, 0.11500911683198958, 0.01635330818365183, 0.14099261880459255, 0.11398817950471848, 0.8915923726691929, 0.0, -0.021433140633327186, -0.0990503322972365, -0.05223603597742538, 0.8156930125949128, 0.0
0.19857143225361346, -0.41453090265709663, 0.06622013091092839, 0.4977711838877766, 0.35167785081620606, 0.0, -0.21111890444283204, -0.25856778153471727, 0.020439746346981813, 0.234887845394042, 0.3032184420500501, 0.0, 0.12471466590952728, 0.027203269163030026, 0.1352669160951095, 0.11366248012234532, 0.86883961825903, 0.0, -0.009476933285740875, -0.10459649647722542, -0.050069225768103534, 0.7805783947801639, 0.0
0.18454832257907722, -0.4153447880845451, 0.05679559764532014, 0.5205546770367254, 0.34608275458530824, 0.0, -0.19994497844966494, -0.2616242649526628, 0.018222591766320347, 0.2619756904882104, 0.2900473846630449, 0.0, 0.134420214987065, 0.03805323014240823, 0.12954121338562644, 0.11333678073997216, 0.8460868638488672, 0.0, 0.0024792740618454333, -0.11014266065721434, -0.04790241555878169, 0.7454637769654151, 0.0
0.17052521290454095, -0.41615867351199365, 0.047371064379711884, 0.5433381701856743, 0.34048765835441036, 0.0, -0.1887710524564979, -0.26468074837060834, 0.01600543718565888, 0.28906353558237874, 0.27687632727603984, 0.0, 0.1441257640646027, 0.04890319112178643, 0.12381551067614335, 0.11301108135759899, 0.8233341094387044, 0.0, 0.014435481409431744, -0.11568882483720326, -0.04573560534945985, 0.7103491591506663, 0.0
0.1565021032300047, -0.41697255893944213, 0.037946531114103635, 0.5661216633346234, 0.33489256212351254, 0.0, -0.1775971264633308, -0.2677372317885539, 0.01378828260499741, 0.31615138067654713, 0.2637052698890347, 0.0, 0.15383131314214044, 0.05975315210116463, 0.11808980796666028, 0.11268538197522583, 0.8005813550285417, 0.0, 0.02639168875701805, -0.12123498901719218, -0.043568795140138006, 0.6752345413359174, 0.0
0.1424789935554685, -0.4177864443668906, 0.028521997848495385, 0.5889051564835722, 0.3292974658926147, 0.0, -0.16642320047016373, -0.2707937152064994, 0.011571128024335943, 0.34323922577071553, 0.25053421250202956, 0.0, 0.16353686221967814, 0.07060311308054282, 0.11236410525717722, 0.11235968259285264, 0.7778286006183788, 0.0, 0.038347896104604366, -0.1267811531971811, -0.04140198493081616, 0.6401199235211686, 0.0
0.1422228629970798, -0.4127645177530062, 0.023585670803055306, 0.602907269847207, 0.31703712479995877, 0.0, -0.1501450835141488, -0.27676502064832315, 0.0052352205092438125, 0.37468351390695837, 0.23380996146393684, 0.0, 0.159734679897501, 0.06907533772354618, 0.10595772763007485, 0.10665122338731345, 0.7439329591504664, 0.0, 0.059326755109839605, -0.12720283870709695, -0.03514379710184826, 0.6165664364848004, 0.0
0.14196673243869112, -0.4077425911391218, 0.018649343757615223, 0.6169093832108417, 0.3047767837073027, 0.0, -0.13386696655813382, -0.28273632609014687, -0.0011006870058483176, 0.40612780204320115, 0.2170857104258441, 0.0, 0.15593249757532388, 0.06754756236654955, 0.09955135000297251, 0.10094276418177424, 0.710037317682554, 0.0, 0.08030561411507485, -0.12762452421701279, -0.02888560927288037, 0.5930129494484321, 0.0
0.14171060188030246, -0.4027206645252375, 0.01371301671217514, 0.6309114965744765, 0.29251644261464677, 0.0, -0.11758884960211885, -0.2887076315319706, -0.007436594520940449, 0.4375720901794441, 0.20036145938775138, 0.0, 0.15213031525314677, 0.06601978700955291, 0.09314497237587015, 0.09523430497623502, 0.6761416762146415, 0.0, 0.10128447312031008, -0.12804620972692862, -0.02262742144391247, 0.5694594624120638, 0.0
0.14145447132191377, -0.39769873791135313, 0.008776689666735059, 0.6449136099381113, 0.2802561015219908, 0.0, -0.1013107326461039, -0.29467893697379427, -0.013772502036032577, 0.4690163783156868, 0.18363720834965863, 0.0, 0.1483281329309696, 0.06449201165255626, 0.0867385947487678, 0.08952584577069579, 0.6422460347467291, 0.0, 0.12226333212554533, -0.1284678952368445, -0.016369233614944575, 0.5459059753756955, 0.0
0.14119834076352514, -0.39267681129746873, 0.0038403626212949794, 0.6589157233017461, 0.2679957604293348, 0.0, -0.08503261569008894, -0.300650242415618, -0.02010840955112471, 0.5004606664519297, 0.16691295731156588, 0.0, 0.1445259506087925, 0.06296423629555964, 0.08033221712166544, 0.08381738656515658, 0.6083503932788167, 0.0, 0.14324219113078057, -0.12888958074676032, -0.010111045785976679, 0.5223524883393272, 0.0
0.1523128417863203, -0.39034376336381627, -0.0003943928190180297, 0.6622818525636048, 0.2620066910263843, 0.0, -0.06439988165546295, -0.3060095690991809, -0.02114599452693302, 0.5274586410522544, 0.1567379272316123, 0.0, 0.13209453932417303, 0.05122903046165565, 0.08088023654415764, 0.07690628240765776, 0.5665216055327178, 0.0, 0.16632864202194916, -0.13021909228578402, 0.0017800553699895594, 0.5108381847447777, 0.0
0.16342734280911547, -0.3880107154301639, -0.004629148259331038, 0.6656479818254637, 0.2560176216234338, 0.0, -0.04376714762083696, -0.3113688957827438, -0.022183579502741333, 0.5544566156525791, 0.14656289715165874, 0.0, 0.11966312803955358, 0.03949382462775166, 0.08142825596664985, 0.06999517825015891, 0.5246928177866189, 0.0, 0.18941509291311778, -0.1315486038248077, 0.013671156525955798, 0.49932388115022824, 0.0
0.17454184383191063, -0.38567766749651156, -0.008863903699644047, 0.6690141110873226, 0.2500285522204833, 0.0, -0.02313441358621097, -0.3167282224663068, -0.023221164478549643, 0.5814545902529037, 0.13638786707170517, 0.0, 0.1072317167549341, 0.027758618793847677, 0.08197627538914205, 0.06308407409266006, 0.48286403004052014, 0.0, 0.21250154380428643, -0.13287811536383137, 0.025562257681922038, 0.48780957755567866, 0.0
0.18565634485470583, -0.38334461956285915, -0.013098659139957055, 0.6723802403491815, 0.2440394828175328, 0.0, -0.002501679551584983, -0.32208754914986965, -0.024258749454357964, 0.6084525648532285, 0.12621283699175162, 0.0, 0.09480030547031465, 0.016023412959943698, 0.08252429481163426, 0.05617296993516123, 0.44103524229442126, 0.0, 0.23558799469545505, -0.13420762690285507, 0.03745335883788828, 0.47629527396112925, 0.0
0.19677084587750096, -0.38101157162920674, -0.017333414580270063, 0.6757463696110404, 0.23805041341458227, 0.0, 0.018131054483041004, -0.3274468758334326, -0.025296334430166274, 0.6354505394535531, 0.11603780691179803, 0.0, 0.08236889418569518, 0.0042882071260397165, 0.08307231423412646, 0.04926186577766239, 0.3992064545483224, 0.0, 0.25867444558662367, -0.13553713844187876, 0.04934445999385452, 0.4647809703665798, 0.0
0.20725215890096516, -0.37906483138153224, -0.017953832703595945, 0.6747676064198144, 0.24220973198961948, 0.0, 0.03584110832336464, -0.33525278062783165, -0.016167107034271114, 0.6500142858078456, 0.11865493301208543, 0.0, 0.0752339365417965, -0.0030936816901064677, 0.08573817551218316, 0.043780531503672955, 0.365542753375366, 0.0, 0.2722050512715151, -0.1428453852893519, 0.05526871729316392, 0.45570198052787403, 0.0
0.21773347192442927, -0.3771180911338578, -0.018574250826921823, 0.6737888432285886, 0.24636905056465666, 0.0, 0.053551162163688285, -0.34305868542223067, -0.0070378796383759505, 0.6645780321621382, 0.12127205911237282, 0.0, 0.06809897889789783, -0.010475570506252651, 0.08840403679023984, 0.03829919722968351, 0.3318790522024096, 0.0, 0.28573565695640657, -0.15015363213682506, 0.06119297459247332, 0.4466229906891682, 0.0
0.2282147849478934, -0.3751713508861833, -0.019194668950247705, 0.6728100800373626, 0.25052836913969395, 0.0, 0.07126121600401193, -0.3508645902166298, 0.002091347757519211, 0.6791417785164306, 0.12388918521266024, 0.0, 0.060964021253999155, -0.017857459322398836, 0.09106989806829653, 0.03281786295569407, 0.2982153510294532, 0.0, 0.2992662626412981, -0.1574618789842982, 0.06711723189178272, 0.43754400085046247, 0.0
0.2386960979713576, -0.37322461063850887, -0.019815087073573587, 0.6718313168461367, 0.2546876877147311, 0.0, 0.08897126984433555, -0.3586704950110288, 0.011220575153414375, 0.6937055248707231, 0.12650631131294762, 0.0, 0.05382906361010048, -0.02523934813854502, 0.09373575934635323, 0.02733652868170464, 0.2645516498564968, 0.0, 0.3127968683261895, -0.1647701258317713, 0.07304148919109213, 0.42846501101175666, 0.0
0.2491774109948217, -0.3712778703908343, -0.02043550519689947, 0.6708525536549108, 0.2588470062897683, 0.0, 0.10668132368465919, -0.36647639980542784, 0.02034980254930954, 0.7082692712250157, 0.12912343741323504, 0.0, 0.04669410596620179, -0.0326212369546912, 0.0964016206244099, 0.021855194407715203, 0.23088794868354046, 0.0, 0.32632747401108103, -0.17207837267924445, 0.07896574649040151, 0.41938602117305096, 0.0
0.24864405233804626, -0.3659929017147234, -0.012238841079732365, 0.6808623869248998, 0.2648471410801765, 0.0, 0.1124359318390821, -0.3679081736759844, 0.03150981268328461, 0.7110083909530955, 0.13953663372665234, 0.0, 0.051505874692326745, -0.027513083850095186, 0.0915294013724446, 0.010704751819633714, 0.21143237081247798, 0.0, 0.3259065110674755, -0.1729310602666233, 0.08120294687565384, 0.40008616681383913, 0.0
0.24811069368127084, -0.36070793303861237, -0.00404217696256526, 0.6908722201948887, 0.27084727587058466, 0.0, 0.11819053999350498, -0.369339947546541, 0.04266982281725968, 0.7137475106811755, 0.14994983004006965, 0.0, 0.05631764341845169, -0.022404930745499176, 0.08665718212047926, -0.0004456907684477742, 0.19197679294141545, 0.0, 0.32548554812387, -0.17378374785400214, 0.08344014726090616, 0.3807863124546273, 0.0
0.24757733502449536, -0.3554229643625014, 0.004154487154601845, 0.7008820534648774, 0.2768474106609928, 0.0, 0.1239451481479279, -0.3707717214170975, 0.05382983295123475, 0.7164866304092554, 0.16036302635348698, 0.0, 0.06112941214457664, -0.017296777640903167, 0.08178496286851396, -0.011596133356529262, 0.17252121507035298, 0.0, 0.32506458518026443, -0.174636435441381, 0.0856773476461585, 0.3614864580954156, 0.0
0.2470439763677199, -0.35013799568639054, 0.012351151271768949, 0.7108918867348664, 0.28284754545140095, 0.0, 0.12969975630235078, -0.372203495287654, 0.06498984308520983, 0.7192257501373354, 0.1707762226669043, 0.0, 0.06594118087070158, -0.012188624536307155, 0.07691274361654862, -0.022746575944610752, 0.1530656371992905, 0.0, 0.32464362223665894, -0.1754891230287598, 0.08791454803141081, 0.34218660373620374, 0.0
0.24651061771094443, -0.34485302701027953, 0.020547815388936054, 0.7209017200048553, 0.28884768024180907, 0.0, 0.13545436445677367, -0.3736352691582106, 0.07614985321918491, 0.7219648698654153, 0.18118941898032162, 0.0, 0.07075294959682653, -0.007080471431711144, 0.0720405243645833, -0.03389701853269224, 0.133610059328228, 0.0, 0.32422265929305344, -0.17634181061613866, 0.09015174841666315, 0.3228867493769919, 0.0
0.2349671566459111, -0.3350338046385595, 0.031491320919859726, 0.7409079335469588, 0.2852966961775545, 0.0, 0.12772674500970943, -0.36815123520893417, 0.0788151633222638, 0.7219985896265637, 0.18399622606745233, 0.0, 0.08479815025277113, 0.008327606327287256, 0.06445910591297087, -0.04803679020322199, 0.12849350270762974, 0.0, 0.3116885214193201, -0.17127925797325558, 0.08888952036750138, 0.2955670477636716, 0.0
0.22342369558087782, -0.32521458226683936, 0.042434826450783406, 0.7609141470890621, 0.2817457121132999, 0.0, 0.11999912556264519, -0.3626672012596577, 0.08148047342534272, 0.7220323093877122, 0.1868030331545831, 0.0, 0.0988433509087157, 0.023735684086285656, 0.056877687461358434, -0.06217656187375173, 0.12337694608703145, 0.0, 0.2991543835455867, -0.16621670533037256, 0.08762729231833963, 0.2682473461503513, 0.0
0.21188023451584448, -0.3153953598951193, 0.05337833198170708, 0.7809203606311657, 0.2781947280490453, 0.0, 0.11227150611558095, -0.35718316731038136, 0.08414578352842163, 0.7220660291488608, 0.18960984024171385, 0.0, 0.11288855156466027, 0.03914376184528405, 0.04929626900974601, -0.07631633354428148, 0.11826038946643319, 0.0, 0.2866202456718534, -0.16115415268748948, 0.08636506426917788, 0.24092764453703097, 0.0
0.20033677345081113, -0.3055761375233992, 0.06432183751263075, 0.8009265741732691, 0.27464374398479074, 0.0, 0.1045438866685167, -0.35169913336110487, 0.08681109363150054, 0.7220997489100094, 0.19241664732884461, 0.0, 0.12693375222060485, 0.05455183960428245, 0.04171485055813357, -0.0904561052148112, 0.11314383284583494, 0.0, 0.27408610779812004, -0.15609160004460643, 0.08510283622001613, 0.2136079429237107, 0.0
0.18879331238577782, -0.29575691515167907, 0.07526534304355444, 0.8209327877153726, 0.2710927599205361, 0.0, 0.09681626722145248, -0.34621509941182843, 0.08947640373457945, 0.7221334686711578, 0.19522345441597533, 0.0, 0.14097895287654943, 0.06995991736328086, 0.03413343210652114, -0.10459587688534096, 0.10802727622523667, 0.0, 0.2615519699243867, -0.15102904740172335, 0.08384060817085437, 0.18628824131039035, 0.0
0.17338204810935087, -0.29297340821006246, 0.0778474686600882, 0.8340625366496415, 0.2584815762323028, 0.0, 0.08422159364981124, -0.344382618888965, 0.08452237985337561, 0.723267384651569, 0.19042470305354342, 0.0, 0.15261744013803685, 0.08385915403948606, 0.031147252994306877, -0.11587970521430857, 0.11154746220951056, 0.0, 0.2463368300413356, -0.15091746152132637, 0.0785855565325177, 0.16757150494492834, 0.0
0.15797078383292393, -0.29018990126844585, 0.08042959427662197, 0.8471922855839102, 0.2458703925440694, 0.0, 0.07162692007817004, -0.3425501383661016, 0.07956835597217174, 0.7244013006319803, 0.1856259516911116, 0.0, 0.16425592739952427, 0.09775839071569126, 0.02816107388209262, -0.1271635335432762, 0.11506764819378446, 0.0, 0.23112169015828452, -0.15080587564092934, 0.07333050489418101, 0.14885476857946636, 0.0
0.142559519556497, -0.2874063943268292, 0.08301171989315571, 0.8603220345181791, 0.23325920885583604, 0.0, 0.059032246506528815, -0.34071765784323815, 0.0746143320909679, 0.7255352166123915, 0.1808272003286797, 0.0, 0.17589441466101166, 0.11165762739189644, 0.025174894769878362, -0.1384473618722438, 0.11858783417805835, 0.0, 0.21590655027523348, -0.15069428976053234, 0.06807545325584435, 0.13013803221400438, 0.0
0.12714825528007007, -0.2846228873852126, 0.08559384550968949, 0.8734517834524482, 0.22064802516760262, 0.0, 0.046437572934887615, -0.33888517732037476, 0.06966030820976406, 0.7266691325928025, 0.17602844896624784, 0.0, 0.18753290192249908, 0.12555686406810165, 0.0221887156576641, -0.1497311902012114, 0.12210802016233227, 0.0, 0.20069141039218236, -0.15058270388013534, 0.06282040161750768, 0.11142129584854239, 0.0
0.11173699100364315, -0.28183938044359597, 0.08817597112622325, 0.886581532386717, 0.20803684147936924, 0.0, 0.0338428993632464, -0.3370526967975114, 0.06470628432856021, 0.7278030485732138, 0.17122969760381596, 0.0, 0.1991713891839865, 0.13945610074430684, 0.019202536545449848, -0.161015018530179, 0.12562820614660616, 0.0, 0.18547627050913132, -0.1504711179997383, 0.057565349979171, 0.09270455948308041, 0.0
0.10656986695862683, -0.28738335947136134, 0.08060875267340503, 0.8855259223485259, 0.20152060584782935, 0.0, 0.031281923297522454, -0.33496020410400285, 0.060305888310866924, 0.7280610396525851, 0.17269793489310517, 0.0, 0.1988198135501233, 0.14155821718331088, 0.02416707917698962, -0.16056190836708098, 0.12176496522587726, 0.0, 0.1807341672982314, -0.15115551744998137, 0.05952964963538395, 0.08835089151451661, 0.0
0.10140274291361052, -0.2929273384991268, 0.07304153422058682, 0.8844703123103347, 0.19500437021628947, 0.0, 0.028720947231798515, -0.3328677114104943, 0.05590549229317364, 0.7283190307319564, 0.17416617218239439, 0.0, 0.19846823791626006, 0.1436603336223149, 0.029131621808529382, -0.16010879820398297, 0.11790172430514836, 0.0, 0.1759920640873315, -0.1518399169002244, 0.061493949291596885, 0.08399722354595282, 0.0
0.09623561886859423, -0.29847131752689227, 0.06547431576776862, 0.8834147022721436, 0.1884881345847496, 0.0, 0.026159971166074575, -0.3307752187169858, 0.051505096275480354, 0.7285770218113276, 0.17563440947168357, 0.0, 0.19811666228239683, 0.14576245006131888, 0.034096164440069146, -0.15965568804088498, 0.11403848338441946, 0.0, 0.1712499608764316, -0.15252431635046743, 0.06345824894780983, 0.07964355557738902, 0.0
0.09106849482357793, -0.30401529655465764, 0.05790709731495041, 0.8823590922339523, 0.1819718989532097, 0.0, 0.02359899510035063, -0.32868272602347726, 0.04710470025778707, 0.7288350128906989, 0.1771026467609728, 0.0, 0.1977650866485336, 0.14786456650032292, 0.03906070707160892, -0.159202577877787, 0.11017524246369058, 0.0, 0.16650785766553172, -0.15320871580071047, 0.06542254860402276, 0.07528988760882524, 0.0
0.08590137077856164, -0.3095592755824231, 0.050339878862132204, 0.8813034821957612, 0.1754556633216698, 0.0, 0.021038019034626692, -0.3265902333299688, 0.042704304240093784, 0.7290930039700702, 0.17857088405026197, 0.0, 0.19741351101467033, 0.14996668293932694, 0.04402524970314868, -0.15874946771468895, 0.10631200154296169, 0.0, 0.16176575445463182, -0.1538931152509535, 0.0673868482602357, 0.07093621964026145, 0.0
0.09543228779619839, -0.31084942296549734, 0.03931685717768521, 0.8681727349331602, 0.17603842875891074, 0.0, 0.03272044879975741, -0.3272385987124751, 0.039593225526882464, 0.73337929524819, 0.18632421952759096, 0.0, 0.18391737209184728, 0.13818621419038732, 0.05394878691360197, -0.14418127077080387, 0.09033265528429087, 0.0, 0.17134085413321698, -0.1493871603238362, 0.07544297741883467, 0.08086001934823424, 0.0
0.10496320481383516, -0.3121395703485715, 0.028293835493238217, 0.855041987670559, 0.17662119419615163, 0.0, 0.044402878564888136, -0.32788696409498147, 0.03648214681367113, 0.7376655865263099, 0.19407755500491994, 0.0, 0.1704212331690242, 0.12640574544144773, 0.06387232412405527, -0.12961307382691878, 0.07435330902562004, 0.0, 0.18091595381180214, -0.14488120539671892, 0.08349910657743365, 0.09078381905620704, 0.0
0.11449412183147192, -0.3134297177316457, 0.01727081380879123, 0.841911240407958, 0.17720395963339255, 0.0, 0.05608530833001886, -0.3285353294774878, 0.033371068100459804, 0.7419518778044295, 0.20183089048224892, 0.0, 0.15692509424620105, 0.11462527669250813, 0.07379586133450858, -0.11504487688303366, 0.058373962766949235, 0.0, 0.19049105349038728, -0.1403752504696016, 0.09155523573603261, 0.10070761876417984, 0.0
0.12402503884910868, -0.3147198651147199, 0.006247792124344241, 0.8287804931453567, 0.17778672507063342, 0.0, 0.06776773809514958, -0.3291836948599942, 0.03025998938724848, 0.7462381690825494, 0.2095842259595779, 0.0, 0.14342895532337796, 0.10284480794356854, 0.08371939854496185, -0.1004766799391486, 0.04239461650827841, 0.0, 0.20006615316897244, -0.1358692955424843, 0.09961136489463158, 0.11063141847215263, 0.0
0.13355595586674543, -0.31601001249779415, -0.004775229560102746, 0.8156497458827557, 0.17836949050787435, 0.0, 0.07945016786028031, -0.32983206024250056, 0.02714891067403715, 0.7505244603606692, 0.21733756143690688, 0.0, 0.12993281640055487, 0.09106433919462893, 0.09364293575541514, -0.0859084829952635, 0.0264152702496076, 0.0, 0.20964125284755755, -0.131363340615367, 0.10766749405323055, 0.12055521818012542, 0.0
0.1514555479259796, -0.31042211749539006, -0.008086030139344138, 0.8017243816276483, 0.17165214058662717, 0.0, 0.09850917620749483, -0.32905303253087287, 0.022444419587770416, 0.7650121452661597, 0.21728870618048504, 0.0, 0.11098394600858989, 0.07198493227687511, 0.1085699968281198, -0.06413170169298435, 0.0059408061622109615, 0.0, 0.22754552448358217, -0.13163847885650745, 0.10827123730088288, 0.13894162236124774, 0.0
0.16935513998521376, -0.3048342224929859, -0.01139683071858553, 0.7877990173725407, 0.16493479066538, 0.0, 0.1175681845547094, -0.32827400481924524, 0.017739928501503688, 0.7794998301716504, 0.21723985092406323, 0.0, 0.09203507561662491, 0.05290552535912131, 0.12349705790082448, -0.0423549203907052, -0.014533657925185673, 0.0, 0.24544979611960677, -0.1319136170976479, 0.1088749805485352, 0.15732802654237008, 0.0
0.18725473204444798, -0.29924632749058183, -0.014707631297826922, 0.7738736531174332, 0.15821744074413277, 0.0, 0.13662719290192393, -0.3274949771076176, 0.01303543741523695, 0.7939875150771409, 0.2171909956676414, 0.0, 0.0730862052246599, 0.03382611844136751, 0.1384241189735291, -0.020578139088426053, -0.035008122012582306, 0.0, 0.26335406775563136, -0.13218875533878832, 0.10947872379618753, 0.1757144307234924, 0.0
0.20515432410368212, -0.2936584324881777, -0.018018431877068312, 0.7599482888623256, 0.1515000908228856, 0.0, 0.15568620124913848, -0.3267159493959899, 0.008330946328970214, 0.8084751999826316, 0.2171421404112196, 0.0, 0.05413733483269492, 0.014746711523613697, 0.1533511800462338, 0.0011986422138531008, -0.05548258609997894, 0.0, 0.281258339391656, -0.13246389357992877, 0.11008246704383985, 0.19410083490461474, 0.0
0.22305391616291628, -0.2880705374857736, -0.021329232456309702, 0.7460229246072181, 0.1447827409016384, 0.0, 0.174745209596353, -0.3259369216843623, 0.0036264552427034795, 0.8229628848881221, 0.21709328515479775, 0.0, 0.035188464440729934, -0.004332695394140126, 0.16827824111893847, 0.02297542351613225, -0.0759570501873756, 0.0, 0.2991626110276806, -0.13273903182106922, 0.11068621029149218, 0.21248723908573705, 0.0
0.2340876677825387, -0.28437656906787867, -0.019688639260810246, 0.7396492090717375, 0.13119947653881914, 0.0, 0.1861072820828851, -0.32090548651671297, -0.0032796575523873347, 0.839461042484253, 0.20936840028960554, 0.0, 0.024220528838134393, -0.015100924629229361, 0.17599263131933843, 0.03601787387374323, -0.08695565052679698, 0.0, 0.3093504190121538, -0.1334326120522436, 0.10205945585686332, 0.22295538185466565, 0.0
0.24512141940216103, -0.2806826006499836, -0.018048046065310793, 0.733275493536257, 0.1176162121759999, 0.0, 0.1974693545694171, -0.31587405134906377, -0.010185770347478149, 0.855959200080384, 0.20164351542441333, 0.0, 0.01325259323553885, -0.025869153864318598, 0.1837070215197384, 0.0490603242313542, -0.09795425086621835, 0.0, 0.31953822699662715, -0.134126192283418, 0.09343270142223446, 0.23342352462359425, 0.0
0.2561551710217834, -0.2769886322320887, -0.016407452869811334, 0.7269017780007764, 0.10403294781318068, 0.0, 0.2088314270559492, -0.31084261618141446, -0.017091883142568962, 0.8724573576765149, 0.19391863055922112, 0.0, 0.0022846576329433065, -0.03663738309940784, 0.19142141172013838, 0.062102774588965175, -0.10895285120563973, 0.0, 0.32972603498110037, -0.13481977251459237, 0.08480594698760562, 0.24389166739252285, 0.0
0.26718892264140587, -0.2732946638141937, -0.014766859674311877, 0.7205280624652959, 0.09044968345036145, 0.0, 0.22019349954248127, -0.30581118101376525, -0.023997995937659777, 0.8889555152726457, 0.18619374569402888, 0.0, -0.008683277969652237, -0.04740561233449707, 0.19913580192053834, 0.07514522494657615, -0.11995145154506112, 0.0, 0.3399138429655737, -0.13551335274576676, 0.07617919255297677, 0.2543598101614515, 0.0
0.27822267426102826, -0.2696006953962987, -0.013126266478812421, 0.7141543469298153, 0.0768664190875422, 0.0, 0.23155557202901333, -0.30077974584611594, -0.030904108732750592, 0.9054536728687766, 0.17846886082883667, 0.0, -0.019651213572247785, -0.05817384156958631, 0.20685019212093828, 0.08818767530418713, -0.1309500518844825, 0.0, 0.35010165095004697, -0.13620693297694111, 0.06755243811834792, 0.2648279529303801, 0.0
0.27761513212972605, -0.2694099727969578, -0.013170891057127413, 0.7069708509812871, 0.07180783462524647, 0.0, 0.22893880686281523, -0.30180381778472365, -0.030434777479584552, 0.9109890264793787, 0.17778310351243556, 0.0, -0.01783592768410917, -0.054870647833356816, 0.20106393695838654, 0.08675679888193195, -0.12775845310436212, 0.0, 0.3463975735851244, -0.12954217750550523, 0.06374911853963018, 0.26110535936742313, 0.0
0.2770075899984238, -0.26921925019761683, -0.013215515635442404, 0.6997873550327587, 0.06674925016295075, 0.0, 0.22632204169661713, -0.3028278897233313, -0.029965446226418516, 0.9165243800899808, 0.17709734619603448, 0.0, -0.016020641795970552, -0.05156745409712731, 0.1952776817958348, 0.0853259224596768, -0.12456685432424174, 0.0, 0.3426934962202019, -0.12287742203406934, 0.05994579896091246, 0.25738276580446623, 0.0
0.27640004786712163, -0.2690285275982759, -0.013260140213757396, 0.6926038590842303, 0.06169066570065502, 0.0, 0.22370527653041908, -0.30385196166193895, -0.02949611497325248, 0.9220597337005829, 0.1764115888796334, 0.0, -0.014205355907831936, -0.04826426036089781, 0.18949142663328303, 0.08389504603742161, -0.12137525554412135, 0.0, 0.3389894188552794, -0.11621266656263343, 0.056142479382194736, 0.2536601722415093, 0.0
0.27579250573581937, -0.268837804998935, -0.013304764792072385, 0.6854203631357019, 0.056632081238359284, 0.0, 0.22108851136422097, -0.30487603360054666, -0.02902678372008644, 0.927595087311185, 0.1757258315632323, 0.0, -0.01239007001969332, -0.04496106662466832, 0.1837051714707313, 0.08246416961516645, -0.11818365676400096, 0.0, 0.3352853414903569, -0.10954791109119755, 0.05233915980347701, 0.24993757867855232, 0.0
0.27518496360451716, -0.26864708239959406, -0.013349389370387378, 0.6782368671871736, 0.051573496776063564, 0.0, 0.2184717461980229, -0.3059001055391543, -0.0285574524669204, 0.9331304409217871, 0.1750400742468312, 0.0, -0.010574784131554703, -0.041657872888438814, 0.17791891630817955, 0.08103329319291129, -0.1149920579838806, 0.0, 0.33158126412543437, -0.10288315561976165, 0.04853584022475929, 0.24621498511559536, 0.0
0.26681940153217365, -0.26423399644197537, -0.011019991059827242, 0.6747871541074367, 0.05484126172474097, 0.0, 0.20496123972479738, -0.31236551369221766, -0.020465982694803157, 0.9251879850573704, 0.18170781318409043, 0.0, 0.0029508550444172937, -0.025118149578039973, 0.16378227645645957, 0.07039996408599353, -0.09760314158433125, 0.0, 0.3151602116849981, -0.09650197042414843, 0.052215159745176425, 0.22887387363332404, 0.0
0.2584538394598301, -0.2598209104843567, -0.008690592749267105, 0.6713374410276999, 0.05810902667341839, 0.0, 0.1914507332515719, -0.31883092184528095, -0.012374512922685913, 0.9172455291929538, 0.1883755521213497, 0.0, 0.01647649422038929, -0.008578426267641133, 0.14964563660473956, 0.05976663497907579, -0.08021422518478193, 0.0, 0.2987391592445618, -0.0901207852285352, 0.05589447926559356, 0.21153276215105268, 0.0
0.25008827738748657, -0.25540782452673805, -0.006361194438706971, 0.667887727947963, 0.061376791622095805, 0.0, 0.17794022677834637, -0.32529632999834424, -0.004283043150568673, 0.9093030733285373, 0.19504329105860896, 0.0, 0.030002133396361284, 0.007961297042757704, 0.1355089967530196, 0.04913330587215803, -0.06282530878523257, 0.0, 0.2823181068041255, -0.08373960003292201, 0.05957379878601069, 0.19419165066878133, 0.0
0.24172271531514303, -0.25099473856911936, -0.004031796128146834, 0.6644380148682262, 0.06464455657077323, 0.0, 0.16442972030512087, -0.33176173815140764, 0.003808426621548569, 0.9013606174641207, 0.20171102999586818, 0.0, 0.043527772572333284, 0.024501020353156544, 0.12137235690129966, 0.038499976765240286, -0.045436392385683234, 0.0, 0.26589705436368916, -0.07735841483730878, 0.06325311830642782, 0.17685053918651, 0.0
0.23335715324279943, -0.24658165261150064, -0.0017023978175866982, 0.6609883017884892, 0.06791232151945065, 0.0, 0.15091921383189535, -0.33822714630447087, 0.011899896393665814, 0.8934181615997041, 0.20837876893312746, 0.0, 0.057053411748305284, 0.04104074366355539, 0.10723571704957968, 0.027866647658322537, -0.028047475986133916, 0.0, 0.24947600192325292, -0.07097722964169556, 0.06693243782684496, 0.1595094277042386, 0.0
0.21951416503772753, -0.23765424810898908, 0.001736667182916682, 0.6699541035345448, 0.06366400127547138, 0.0, 0.13744624939088024, -0.3432117542882891, 0.01818519061708717, 0.8803997402371029, 0.20777378894516718, 0.0, 0.07661565297314245, 0.06367609535999015, 0.09775933319348734, 0.023383970292158836, -0.0023767394589492715, 0.0, 0.22864582542259992, -0.07176349104494104, 0.06912365157883404, 0.13577521601261652, 0.0
0.2056711768326556, -0.22872684360647755, 0.005175732183420062, 0.6789199052806002, 0.05941568103149211, 0.0, 0.12397328494986512, -0.3481963622721074, 0.024470484840508528, 0.8673813188745017, 0.2071688089572069, 0.0, 0.09617789419797962, 0.08631144705642492, 0.088282949337395, 0.01890129292599514, 0.023293997068235373, 0.0, 0.207815648921947, -0.07254975244818654, 0.07131486533082311, 0.11204100432099441, 0.0
0.1918281886275837, -0.219799439103966, 0.008614797183923441, 0.6878857070266555, 0.055167360787512845, 0.0, 0.11050032050885004, -0.35318097025592565, 0.030755779063929886, 0.8543628975119004, 0.20656382896924658, 0.0, 0.11574013542281679, 0.10894679875285969, 0.07880656548130263, 0.014418615559831436, 0.04896473359542001, 0.0, 0.18698547242129407, -0.07333601385143201, 0.07350607908281219, 0.08830679262937231, 0.0
0.17798520042251173, -0.21087203460145443, 0.012053862184426821, 0.696851508772711, 0.05091904054353359, 0.0, 0.09702735606783491, -0.3581655782397438, 0.03704107328735124, 0.8413444761492992, 0.2059588489812863, 0.0, 0.135302376647654, 0.13158215044929444, 0.06933018162521029, 0.009935938193667736, 0.07463547012260467, 0.0, 0.1661552959206411, -0.0741222752546775, 0.07569729283480128, 0.06457258093775023, 0.0
0.16414221221743983, -0.2019446300989429, 0.015492927184930203, 0.7058173105187665, 0.046670720299554325, 0.0, 0.08355439162681982, -0.3631501862235621, 0.043326367510772595, 0.828326054786698, 0.20535386899332603, 0.0, 0.15486461787249114, 0.15421750214572919, 0.059853797769117936, 0.005453260827504035, 0.10030620664978931, 0.0, 0.14532511941998816, -0.07490853665792298, 0.07788850658679035, 0.040838369246128145, 0.0
0.15130435563793293, -0.19098739720438643, 0.022344222958127054, 0.7227187718171313, 0.033893638178996974, 0.0, 0.07681155396437406, -0.36312044232244967, 0.04590572084632249, 0.8222789880927037, 0.19737459017235087, 0.0, 0.16975112796535496, 0.16883996137605878, 0.05377500971596866, 0.009236483184231141, 0.11781695785216921, 0.0, 0.1343212478371599, -0.07621927194485371, 0.07913483957338835, 0.02603100424978866, 0.0
0.13846649905842606, -0.18003016430983, 0.029195518731323918, 0.739620233115496, 0.021116556058439637, 0.0, 0.07006871630192829, -0.3630906984213371, 0.048485074181872374, 0.8162319213987096, 0.18939531135137572, 0.0, 0.18463763805821876, 0.18346242060638837, 0.04769622166281939, 0.013019705540958246, 0.1353277090545491, 0.0, 0.12331737625433166, -0.07753000723178445, 0.08038117255998634, 0.011223639253449182, 0.0
0.12562864247891914, -0.1690729314152735, 0.036046814504520776, 0.7565216944138607, 0.008339473937882293, 0.0, 0.06332587863948252, -0.3630609545202246, 0.05106442751742227, 0.8101848547047151, 0.18141603253040053, 0.0, 0.19952414815108258, 0.198084879836718, 0.0416174336096701, 0.016802927897685355, 0.15283846025692902, 0.0, 0.11231350467150339, -0.07884074251871519, 0.08162750554658434, -0.0035837257428902943, 0.0
0.11279078589941224, -0.15811569852071702, 0.04289811027771763, 0.7734231557122254, -0.004437608182675054, 0.0, 0.05658304097703675, -0.36303121061911214, 0.05364378085297216, 0.8041377880107209, 0.1734367537094254, 0.0, 0.2144106582439464, 0.2127073390670476, 0.03553864555652082, 0.020586150254412464, 0.17034921145930892, 0.0, 0.10130963308867513, -0.08015147780564594, 0.08287383853318232, -0.018391090739229777, 0.0
0.09995292931990538, -0.14715846562616056, 0.049749406050914484, 0.7903246170105901, -0.017214690303232402, 0.0, 0.049840203314590985, -0.3630014667179997, 0.056223134188522046, 0.7980907213167266, 0.16545747488845022, 0.0, 0.22929716833681021, 0.22732979829737718, 0.029459857503371545, 0.02436937261113957, 0.18785996266168883, 0.0, 0.09030576150584688, -0.08146221309257666, 0.08412017151978032, -0.03319845573556927, 0.0
0.09777020659472725, -0.1455374352328348, 0.05022909373879601, 0.7986710572556488, -0.024690438842480386, 0.0, 0.05165910133614953, -0.3637354544629504, 0.05760465549205762, 0.7951082608030168, 0.16429442238150627, 0.0, 0.23207638874978392, 0.22857825325527975, 0.02383538033003247, 0.029181359154355165, 0.19112103357455312, 0.0, 0.09383596917068573, -0.08207268563169298, 0.08489633968396151, -0.03375297790578855, 0.0
0.09558748386954911, -0.14391640483950896, 0.05070878142667753, 0.8070174975007076, -0.03216618738172838, 0.0, 0.05347799935770808, -0.36446944220790106, 0.05898617679559318, 0.7921258002893067, 0.16313136987456225, 0.0, 0.23485560916275766, 0.2298267082131823, 0.018210903156693402, 0.033993345697570766, 0.19438210448741747, 0.0, 0.09736617683552458, -0.0826831581708093, 0.08567250784814272, -0.03430750007600783, 0.0
0.09340476114437099, -0.14229537444618318, 0.05118846911455906, 0.8153639377457662, -0.03964193592097636, 0.0, 0.05529689737926662, -0.36520342995285177, 0.06036769809912876, 0.7891433397755969, 0.1619683173676183, 0.0, 0.2376348295757314, 0.2310751631710849, 0.01258642598335433, 0.03880533224078636, 0.19764317540028178, 0.0, 0.10089638450036342, -0.0832936307099256, 0.08644867601232392, -0.03486202224622712, 0.0
0.09122203841919288, -0.1406743440528574, 0.05166815680244057, 0.8237103779908248, -0.04711768446022436, 0.0, 0.05711579540082516, -0.3659374176978025, 0.06174921940266432, 0.7861608792618868, 0.16080526486067429, 0.0, 0.2404140499887051, 0.23232361812898744, 0.006961948810015259, 0.043617318784001956, 0.20090424631314607, 0.0, 0.1044265921652023, -0.08390410324904192, 0.08722484417650513, -0.0354165444164464, 0.0
0.08903931569401476, -0.13905331365953158, 0.0521478444903221, 0.8320568182358836, -0.05459343299947234, 0.0, 0.05893469342238371, -0.36667140544275323, 0.0631307407061999, 0.7831784187481768, 0.15964221235373033, 0.0, 0.24319327040167882, 0.23357207308689001, 0.0013374716366761842, 0.04842930532721755, 0.2041653172260104, 0.0, 0.10795679983004115, -0.08451457578815824, 0.08800101234068632, -0.035971066586665684, 0.0
0.1002025428188671, -0.14880468810190967, 0.04370426742214488, 0.8260233336941283, -0.05026910296843703, 0.0, 0.06289038722611755, -0.3643122194582229, 0.059544935927104616, 0.7826126248925823, 0.1680512889749846, 0.0, 0.23231184064719498, 0.22104712088100995, 0.0022602381030601185, 0.05613072842940691, 0.19325527105311086, 0.0, 0.12412825622480823, -0.08607329094587082, 0.09359733728337757, -0.022279707351019275, 0.0
0.11136576994371947, -0.15855606254428772, 0.03526069035396766, 0.819989849152373, -0.045944772937401714, 0.0, 0.06684608102985139, -0.3619530334736927, 0.055959131148009336, 0.7820468310369877, 0.17646036559623887, 0.0, 0.22143041089271115, 0.20852216867512985, 0.003183004569444053, 0.06383215153159627, 0.18234522488021127, 0.0, 0.1402997126195753, -0.08763200610358342, 0.09919366222606879, -0.008588348115372865, 0.0
0.12252899706857182, -0.16830743698666578, 0.026817113285790443, 0.8139563646106178, -0.041620442906366385, 0.0, 0.07080177483358523, -0.3595938474891624, 0.05237332636891406, 0.7814810371813934, 0.18486944221749319, 0.0, 0.2105489811382273, 0.19599721646924972, 0.0041057710358279875, 0.07153357463378562, 0.17143517870731173, 0.0, 0.15647116901434238, -0.08919072126129601, 0.10478998716876003, 0.005103011120273545, 0.0
0.13369222419342416, -0.17805881142904387, 0.01837353621761323, 0.8079228800688625, -0.03729611287533107, 0.0, 0.07475746863731908, -0.3572346615046322, 0.048787521589818764, 0.7809152433257988, 0.1932785188387474, 0.0, 0.19966755138374345, 0.18347226426336966, 0.005028537502211922, 0.07923499773597498, 0.1605251325344122, 0.0, 0.1726426254091095, -0.09074943641900861, 0.11038631211145127, 0.018794370355919954, 0.0
0.1448554513182765, -0.18781018587142195, 0.009929959149436009, 0.8018893955271073, -0.032971782844295756, 0.0, 0.0787131624410529, -0.35487547552010185, 0.045201716810723484, 0.7803494494702042, 0.20168759546000167, 0.0, 0.18878612162925962, 0.17094731205748953, 0.005951303968595857, 0.08693642083816436, 0.14961508636151266, 0.0, 0.18881408180387657, -0.0923081515767212, 0.11598263705414248, 0.03248572959156636, 0.0
0.16287504034863887, -0.1988201242187301, 0.0010333612790184874, 0.7880055177483197, -0.022033507716074454, 0.0, 0.08918353364637045, -0.3531122077740555, 0.039573136787192, 0.789287036223572, 0.2099572132927046, 0.0, 0.16757140371583176, 0.14961676990610911, 0.01657253061341443, 0.08978128482963484, 0.13073679324477397, 0.0, 0.20829701771096407, -0.0981540931599668, 0.11952130921678766, 0.054473362375449697, 0.0
0.18089462937900125, -0.20983006256603834, -0.007863236591399033, 0.774121639969532, -0.011095232587853152, 0.0, 0.09965390485168799, -0.3513489400280092, 0.03394455676366051, 0.7982246229769395, 0.2182268311254075, 0.0, 0.1463566858024039, 0.12828622775472875, 0.027193757258232996, 0.09262614882110533, 0.11185850012803528, 0.0, 0.22777995361805156, -0.10400003474321241, 0.12305998137943285, 0.07646099515933302, 0.0
0.19891421840936366, -0.2208400009133465, -0.016759834461816555, 0.7602377621907445, -0.00015695745963185053, 0.0, 0.11012427605700553, -0.3495856722819629, 0.02831597674012902, 0.8071622097303074, 0.22649644895811044, 0.0, 0.12514196788897608, 0.10695568560334832, 0.03781498390305157, 0.09547101281257579, 0.09298020701129656, 0.0, 0.24726288952513906, -0.10984597632645803, 0.12659865354207803, 0.09844862794321635, 0.0
0.21693380743972604, -0.2318499392606547, -0.025656432332234077, 0.7463538844119567, 0.01078131766858945, 0.0, 0.12059464726232307, -0.34782240453591656, 0.022687396716597533, 0.8160997964836749, 0.23476606679081335, 0.0, 0.10392724997554821, 0.08562514345196794, 0.04843621054787014, 0.09831587680404627, 0.07410191389455788, 0.0, 0.2667458254322265, -0.11569191790970364, 0.13013732570472317, 0.12043626072709969, 0.0
0.23495339647008842, -0.2428598776079629, -0.03455303020265159, 0.7324700066331692, 0.021719592796810752, 0.0, 0.13106501846764063, -0.3460591367898702, 0.017058816693066043, 0.8250373832370427, 0.24303568462351627, 0.0, 0.08271253206212036, 0.06429460130058755, 0.059057437192688716, 0.10116074079551676, 0.05522362077781919, 0.0, 0.286228761339314, -0.12153785949294925, 0.13367599786736836, 0.142423893510983, 0.0
0.24559141213511365, -0.24836869174195914, -0.036138924325607946, 0.7263094691031856, 0.024719488102550584, 0.0, 0.1449977605785622, -0.3394660508207065, 0.011065149255107737, 0.8424647401643014, 0.24195898751730244, 0.0, 0.06333091928998863, 0.04948054879596637, 0.07267760863693648, 0.10241686054136237, 0.044656616730657926, 0.0, 0.2957954764561726, -0.12297125756690772, 0.12898038324642458, 0.15625454223824334, 0.0
0.2562294278001388, -0.25387750587595537, -0.03772481844856428, 0.7201489315732021, 0.027719383408290416, 0.0, 0.15893050268948378, -0.33287296485154283, 0.005071481817149432, 0.85989209709156, 0.2408822904110886, 0.0, 0.04394930651785689, 0.03466649629134519, 0.08629778008118423, 0.103672980287208, 0.034089612683496674, 0.0, 0.3053621915730312, -0.12440465564086614, 0.12428476862548082, 0.17008519096550367, 0.0
0.26686744346516406, -0.2593863200099516, -0.03931071257152064, 0.7139883940432188, 0.030719278714030244, 0.0, 0.17286324480040538, -0.32627987888237914, -0.00092218562080887, 0.8773194540188187, 0.23980559330487483, 0.0, 0.024567693745725157, 0.019852443786724003, 0.09991795152543201, 0.10492910003305364, 0.02352260863633542, 0.0, 0.31492890668988976, -0.1258380537148246, 0.11958915400453704, 0.183915839692764, 0.0
0.2775054591301892, -0.26489513414394783, -0.040896606694476985, 0.7078278565132353, 0.03371917401977008, 0.0, 0.18679598691132696, -0.3196867929132155, -0.0069158530587671765, 0.8947468109460773, 0.238728896198661, 0.0, 0.005186080973593424, 0.005038391282102829, 0.11353812296967977, 0.10618521977889928, 0.01295560458917416, 0.0, 0.32449562180674835, -0.12727145178878305, 0.11489353938359326, 0.1977464884200243, 0.0
0.28814347479521446, -0.27040394827794406, -0.042482500817433336, 0.7016673189832519, 0.03671906932550991, 0.0, 0.2007287290222485, -0.3130937069440517, -0.012909520496725477, 0.912174167873336, 0.23765219909244722, 0.0, -0.014195531798538311, -0.009775661222518347, 0.12715829441392754, 0.10744133952474488, 0.0023886005420128992, 0.0, 0.3340623369236069, -0.1287048498627415, 0.11019792476264947, 0.21157713714728463, 0.0
0.28723840638632475, -0.27634897604254977, -0.042684231906498296, 0.7006713224109917, 0.03231927499262296, 0.0, 0.2053378503614512, -0.30307180995827304, -0.013526514842564308, 0.9226348092171395, 0.229718368645194, 0.0, -0.022224385440279305, -0.011014936830659561, 0.13098882227942046, 0.1026925035317225, 0.006037633957332124, 0.0, 0.3294325089981585, -0.12210038329965725, 0.10616245824199227, 0.21114876353567513, 0.0
0.28633333797743504, -0.2822940038071554, -0.042885962995563257, 0.6996753258387317, 0.027919480659736002, 0.0, 0.2099469717006539, -0.29304991297249433, -0.014143509188403135, 0.9330954505609431, 0.22178453819794078, 0.0, -0.030253239082020298, -0.012254212438800776, 0.13481935014491336, 0.0979436675387001, 0.009686667372651347, 0.0, 0.3248026810727102, -0.11549591673657299, 0.1021269917213351, 0.21072038992406567, 0.0
0.2854282695685454, -0.2882390315717612, -0.04308769408462822, 0.6986793292664715, 0.023519686326849046, 0.0, 0.2145560930398566, -0.2830280159867157, -0.014760503534241964, 0.9435560919047465, 0.21385070775068754, 0.0, -0.03828209272376129, -0.013493488046941988, 0.1386498780104063, 0.09319483154567773, 0.01333570078797057, 0.0, 0.32017285314726185, -0.10889145017348874, 0.0980915252006779, 0.21029201631245617, 0.0
0.2845232011596557, -0.2941840593363668, -0.04328942517369318, 0.6976833326942115, 0.019119891993962093, 0.0, 0.21916521437905928, -0.273006119000937, -0.015377497880080793, 0.95401673324855, 0.20591687730343433, 0.0, -0.04631094636550229, -0.014732763655083202, 0.14248040587589922, 0.08844599555265534, 0.016984734203289793, 0.0, 0.3155430252218135, -0.10228698361040447, 0.09405605868002073, 0.2098636427008467, 0.0
0.28361813275076597, -0.30012908710097247, -0.04349115626275814, 0.6966873361219513, 0.01472009766107514, 0.0, 0.22377433571826194, -0.2629842220151583, -0.015994492225919622, 0.9644773745923536, 0.19798304685618112, 0.0, -0.054339800007243276, -0.015972039263224415, 0.14631093374139212, 0.08369715955963294, 0.02063376761860902, 0.0, 0.3109131972963652, -0.09568251704732023, 0.09002059215936353, 0.20943526908923718, 0.0
0.2771729878703183, -0.29922938034354496, -0.04274776712725865, 0.6921172577981157, 0.016761230655404982, 0.0, 0.2144718878847649, -0.2587784602287255, -0.011778463156189547, 0.9607330045563196, 0.19712193980049067, 0.0, -0.049840819415816945, -0.0029475286563025024, 0.13969168319234593, 0.07140154396653076, 0.03850929542718253, 0.0, 0.29231774735128274, -0.09304073991667763, 0.09070673344820006, 0.1947496010147174, 0.0
0.2707278429898707, -0.2983296735861174, -0.04200437799175915, 0.6875471794742801, 0.01880236364973482, 0.0, 0.20516944005126778, -0.2545726984422927, -0.007562434086459471, 0.9569886345202856, 0.1962608327448002, 0.0, -0.04534183882439061, 0.010076981950619412, 0.13307243264329974, 0.05910592837342857, 0.05638482323575606, 0.0, 0.27372229740620035, -0.09039896278603507, 0.09139287473703658, 0.18006393294019757, 0.0
0.264282698109423, -0.2974299668286898, -0.04126098885625965, 0.6829771011504446, 0.02084349664406466, 0.0, 0.19586699221777068, -0.25036693665585996, -0.003346405016729394, 0.9532442644842514, 0.19539972568910974, 0.0, -0.04084285823296427, 0.023101492557541327, 0.12645318209425355, 0.04681031278032639, 0.07426035104432957, 0.0, 0.2551268474611179, -0.0877571856553925, 0.09207901602587311, 0.16537826486567772, 0.0
0.2578375532289754, -0.29653026007126226, -0.04051759972076016, 0.6784070228266091, 0.022884629638394497, 0.0, 0.18656454438427364, -0.24616117486942718, 0.000869624053000681, 0.9494998944482175, 0.1945386186334193, 0.0, -0.03634387764153794, 0.03612600316446324, 0.11983393154520733, 0.03451469718722419, 0.09213587885290307, 0.0, 0.2365313975160355, -0.08511540852474994, 0.09276515731470965, 0.1506925967911579, 0.0
0.2513924083485277, -0.2956305533138347, -0.039774210585260664, 0.6738369445027735, 0.024925762632724342, 0.0, 0.17726209655077652, -0.24195541308299437, 0.005085653122730756, 0.9457555244121834, 0.19367751157772883, 0.0, -0.0318448970501116, 0.04915051377138516, 0.11321468099616114, 0.022219081594122007, 0.1100114066614766, 0.0, 0.21793594757095314, -0.08247363139410738, 0.09345129860354616, 0.13600692871663808, 0.0
0.2447477862972111, -0.2866052148963352, -0.034636116252626935, 0.6711710483181318, 0.03141996871844555, 0.0, 0.15929577985610688, -0.24507378936687413, 0.014596128634728651, 0.9285566764625713, 0.19997666664756417, 0.0, -0.015857096765609972, 0.07173715821531866, 0.10938583562806714, 0.012846445344755956, 0.13768630965564824, 0.0, 0.191619058040622, -0.08855716499749282, 0.08964417106546646, 0.11324745374165754, 0.0
0.23810316424589453, -0.27757987647883575, -0.029498021919993202, 0.66850515213349, 0.03791417480416676, 0.0, 0.14132946316143727, -0.24819216565075386, 0.024106604146726544, 0.9113578285129593, 0.2062758217173995, 0.0, 0.00013070351889165414, 0.09432380265925217, 0.10555699025997314, 0.003473809095389907, 0.1653612126498199, 0.0, 0.16530216851029078, -0.09464069860087829, 0.08583704352738672, 0.09048797876667698, 0.0
0.23145854219457795, -0.26855453806133633, -0.024359927587359477, 0.6658392559488482, 0.04440838088988797, 0.0, 0.12336314646676766, -0.2513105419346337, 0.03361707965872444, 0.8941589805633471, 0.21257497678723483, 0.0, 0.01611850380339328, 0.11691044710318568, 0.10172814489187917, -0.005898827153976145, 0.1930361156439915, 0.0, 0.1389852789799596, -0.1007242322042637, 0.08202991598930699, 0.06772850379169644, 0.0
0.2248139201432614, -0.25952919964383686, -0.019221833254725745, 0.6631733597642065, 0.05090258697560918, 0.0, 0.10539682977209805, -0.25442891821851343, 0.04312755517072233, 0.8769601326137351, 0.21887413185707016, 0.0, 0.03210630408789491, 0.13949709154711917, 0.09789929952378516, -0.01527146340334219, 0.22071101863816317, 0.0, 0.11266838944962841, -0.10680776580764917, 0.07822278845122727, 0.044969028816715904, 0.0
0.21816929809194477, -0.2505038612263374, -0.01408373892209202, 0.6605074635795649, 0.0573967930613304, 0.0, 0.08743051307742844, -0.2575472945023932, 0.052638030682720216, 0.859761284664123, 0.2251732869269055, 0.0, 0.04809410437239653, 0.16208373599105266, 0.09407045415569117, -0.02464409965270824, 0.2483859216323348, 0.0, 0.08635149991929723, -0.11289129941103461, 0.07441566091314755, 0.022209553841735365, 0.0
0.20549776440883596, -0.23679989198684537, -0.009600260938493843, 0.6684751953022089, 0.05468889378291017, 0.0, 0.07489632842887115, -0.2614890577861693, 0.059119474920950855, 0.8376086128480393, 0.22432048763845455, 0.0, 0.07013960180230049, 0.18022268110764195, 0.09908780451627683, -0.023251738807320236, 0.2722208848984892, 0.0, 0.06868524504673923, -0.11923200727970143, 0.06626405945193768, 0.007894778007108149, 0.0
0.19282623072572708, -0.22309592274735326, -0.005116782954895667, 0.6764429270248528, 0.051980994504489945, 0.0, 0.06236214378031384, -0.2654308210699454, 0.06560091915918148, 0.815455941031956, 0.22346768835000358, 0.0, 0.09218509923220443, 0.19836162622423117, 0.10410515487686249, -0.021859377961932235, 0.29605584816464364, 0.0, 0.05101899017418121, -0.12557271514836826, 0.058112457990727825, -0.006419997827519067, 0.0
0.18015469704261827, -0.20939195350786122, -0.000633304971297492, 0.6844106587474967, 0.049273095226069714, 0.0, 0.049827959131756555, -0.2693725843537216, 0.07208236339741213, 0.7933032692158721, 0.2226148890615526, 0.0, 0.11423059666210837, 0.21650057134082049, 0.10912250523744815, -0.02046701711654423, 0.31989081143079806, 0.0, 0.0333527353016232, -0.13191342301703507, 0.049960856529517955, -0.020734773662146287, 0.0
0.1674831633595094, -0.19568798426836914, 0.003850173012300683, 0.6923783904701407, 0.0465651959476495, 0.0, 0.03729377448319925, -0.2733143476374977, 0.07856380763564275, 0.7711505973997886, 0.22176208977310163, 0.0, 0.13627609409201233, 0.23463951645740974, 0.11413985559803382, -0.01907465627115623, 0.3437257746969525, 0.0, 0.015686480429065192, -0.1382541308857019, 0.04180925506830809, -0.035049549496773504, 0.0
0.15481162967640058, -0.18198401502887707, 0.00833365099589886, 0.7003461221927847, 0.043857296669229266, 0.0, 0.024759589834641958, -0.2772561109212738, 0.08504525187387338, 0.748997925583705, 0.22090929048465066, 0.0, 0.1583215915219163, 0.252778461573999, 0.11915720595861946, -0.01768229542576822, 0.3675607379631069, 0.0, -0.0019797744434928224, -0.1445948387543687, 0.03365765360709823, -0.04936432533140072, 0.0
0.14100698286433647, -0.16766171403264696, 0.013736006573054847, 0.7138733942988048, 0.03232905138461483, 0.0, 0.023253764436450105, -0.27656507921987317, 0.08784145957645675, 0.7350355603484551, 0.21271064821130936, 0.0, 0.1744606930030099, 0.25883425840491175, 0.12269044910009339, -0.011970587813425193, 0.3787932197526783, 0.0, -0.005173311167401449, -0.1444836787343092, 0.030735757065630025, -0.049380421455894316, 0.0
0.12720233605227235, -0.15333941303641682, 0.019138362150210836, 0.727400666404825, 0.020800806100000385, 0.0, 0.021747939038258245, -0.2758740475184726, 0.09063766727904014, 0.7210731951132051, 0.20451200593796806, 0.0, 0.19059979448410352, 0.26489005523582454, 0.1262236922415673, -0.006258880201082164, 0.39002570154224986, 0.0, -0.008366847891310076, -0.14437251871424966, 0.027813860524161817, -0.049396517580387905, 0.0
0.11339768924020827, -0.1390171120401867, 0.02454071772736682, 0.7409279385108452, 0.009272560815385942, 0.0, 0.020242113640066388, -0.27518301581707194, 0.0934338749816235, 0.7071108298779555, 0.1963133636646267, 0.0, 0.20673889596519715, 0.27094585206673727, 0.12975693538304123, -0.0005471725887391352, 0.4012581833318213, 0.0, -0.011560384615218708, -0.14426135869419016, 0.024891963982693617, -0.049412613704881495, 0.0
0.09959304242814415, -0.12469481104395659, 0.029943073304522807, 0.7544552106168654, -0.0022556844692284963, 0.0, 0.018736288241874535, -0.2744919841156714, 0.09623008268420691, 0.6931484646427056, 0.1881147213912854, 0.0, 0.22287799744629075, 0.27700164889765005, 0.13329017852451513, 0.005164535023603894, 0.4124906651213928, 0.0, -0.014753921339127334, -0.14415019867413062, 0.021970067441225413, -0.049428709829375084, 0.0
0.08578839561608004, -0.11037251004772648, 0.0353454288816788, 0.7679824827228855, -0.013783929753842936, 0.0, 0.017230462843682678, -0.2738009524142707, 0.0990262903867903, 0.6791860994074557, 0.1799160791179441, 0.0, 0.23901709892738437, 0.2830574457285628, 0.13682342166598904, 0.01087624263594692, 0.42372314691096435, 0.0, -0.01794745806303596, -0.1440390386540711, 0.01904817089975721, -0.04944480595386868, 0.0
0.08297573225117715, -0.10545537858718544, 0.034531929171994984, 0.7723001724742486, -0.01978202704688231, 0.0, 0.024308094450167902, -0.27241405444944145, 0.0979667784905233, 0.6727187993174834, 0.17867284269450498, 0.0, 0.24473666854987594, 0.27551514150175094, 0.13203052902479026, 0.012526149850812815, 0.4207005717497265, 0.0, -0.006520420582020316, -0.14336117720720604, 0.02314916475998298, -0.03514278289101993, 0.0
0.08016306888627427, -0.1005382471266444, 0.03371842946231118, 0.7766178622256119, -0.02578012433992169, 0.0, 0.03138572605665312, -0.27102715648461223, 0.09690726659425636, 0.6662514992275108, 0.1774296062710659, 0.0, 0.25045623817236745, 0.26797283727493915, 0.1272376363835915, 0.01417605706567871, 0.4176779965884887, 0.0, 0.004906616898995329, -0.14268331576034096, 0.027250158620208745, -0.02084075982817119, 0.0
0.07735040552137137, -0.09562111566610337, 0.03290492975262736, 0.7809355519769751, -0.03177822163296106, 0.0, 0.038463357663138346, -0.2696402585197829, 0.09584775469798937, 0.6597841991375384, 0.17618636984762678, 0.0, 0.25617580779485905, 0.2604305330481273, 0.12244474374239274, 0.0158259642805446, 0.414655421427251, 0.0, 0.016333654380010974, -0.1420054543134759, 0.03135115248043452, -0.006538736765322454, 0.0
0.0745377421564685, -0.0907039842055623, 0.03209143004294356, 0.7852532417283383, -0.03777631892600043, 0.0, 0.045540989269623564, -0.26825336055495363, 0.0947882428017224, 0.6533168990475658, 0.17494313342418769, 0.0, 0.2618953774173506, 0.2528882288213154, 0.11765185110119394, 0.01747587149541049, 0.41163284626601315, 0.0, 0.027760691861026615, -0.14132759286661084, 0.03545214634066028, 0.007763286297526293, 0.0
0.0717250787915656, -0.08578685274502128, 0.03127793033325975, 0.7895709314797014, -0.04377441621903982, 0.0, 0.05261862087610879, -0.26686646259012436, 0.09372873090545546, 0.6468495989575934, 0.17369989700074856, 0.0, 0.2676149470398422, 0.2453459245945036, 0.11285895845999518, 0.01912577871027639, 0.4086102711047753, 0.0, 0.03918772934204226, -0.14064973141974574, 0.03955314020088605, 0.022065309360375044, 0.0
0.08329525875305185, -0.09365088189043365, 0.02576506843166228, 0.7796662787317548, -0.0376668965557442, 0.0, 0.058895771183800835, -0.26065313932224365, 0.09025110861471579, 0.6442484230722741, 0.1813917235845788, 0.0, 0.26592521350584086, 0.22448592739825107, 0.10585954692553072, 0.02331720471129914, 0.39351577361560985, 0.0, 0.06086945722073099, -0.14005599379562927, 0.047006654641727035, 0.050616572540702016, 0.0
0.09486543871453813, -0.101514911035846, 0.02025220653006482, 0.769761625983808, -0.0315593768924486, 0.0, 0.06517292149149287, -0.2544398160543629, 0.08677348632397612, 0.6416472471869549, 0.189083550168409, 0.0, 0.2642354799718396, 0.20362593020199854, 0.09886013539106629, 0.027508630712321895, 0.37842127612644433, 0.0, 0.08255118509941974, -0.13946225617151276, 0.05446016908256801, 0.07916783572102899, 0.0
0.10643561867602437, -0.10937894018125836, 0.01473934462846736, 0.7598569732358612, -0.025451857229152983, 0.0, 0.07145007179918492, -0.24822649278648212, 0.08329586403323645, 0.6390460713016356, 0.1967753767522392, 0.0, 0.2625457464378383, 0.18276593300574603, 0.09186072385660184, 0.031700056713344645, 0.3633267786372789, 0.0, 0.10423291297810848, -0.13886851854739626, 0.061913683523408994, 0.10771909890135598, 0.0
0.11800579863751065, -0.11724296932667073, 0.009226482726869897, 0.7499523204879146, -0.019344337565857378, 0.0, 0.07772722210687696, -0.24201316951860138, 0.07981824174249678, 0.6364448954163163, 0.20446720333606935, 0.0, 0.260856012903837, 0.1619059358094935, 0.08486131232213738, 0.0358914827143674, 0.3482322811481134, 0.0, 0.1259146408567972, -0.1382747809232798, 0.06936719796424998, 0.13627036208168294, 0.0
0.1295759785989969, -0.1251069984720831, 0.00371362082527243, 0.7400476677399679, -0.01323681790256177, 0.0, 0.084004372414569, -0.23579984625072065, 0.07634061945175713, 0.633843719530997, 0.21215902991989957, 0.0, 0.25916627936983566, 0.141045938613241, 0.07786190078767294, 0.04008290871539015, 0.333137783658948, 0.0, 0.14759636873548596, -0.13768104329916328, 0.07682071240509096, 0.16482162526200994, 0.0
0.14984299424776487, -0.13922217426466205, -0.0053250292184319845, 0.7221994944767608, -0.00033035208109313336, 0.0, 0.08998256003869916, -0.23192553645187558, 0.07116554263947118, 0.6343396722912438, 0.21637205227602066, 0.0, 0.24716187684935062, 0.1122738992761447, 0.07922590841029646, 0.04548102045465674, 0.31561151717764957, 0.0, 0.16566586720113838, -0.13794883230788946, 0.08015658603530065, 0.2019168793638362, 0.0
0.17011000989653285, -0.15333735005724097, -0.0143636792621364, 0.7043513212135537, 0.012576113740375502, 0.0, 0.09596074766282933, -0.22805122665303051, 0.06599046582718526, 0.6348356250514905, 0.2205850746321417, 0.0, 0.23515747432886558, 0.08350185993904842, 0.08058991603291997, 0.050879132193923336, 0.2980852506963511, 0.0, 0.18373536566679075, -0.13821662131661558, 0.08349245966551035, 0.23901213346566247, 0.0
0.19037702554530087, -0.1674525258498199, -0.023402329305840814, 0.6865031479503467, 0.025482579561844135, 0.0, 0.10193893528695952, -0.2241769168541855, 0.060815389014899315, 0.6353315778117371, 0.22479809698826278, 0.0, 0.22315307180838054, 0.05472982060195215, 0.08195392365554346, 0.056277243933189926, 0.28055898421505265, 0.0, 0.2018048641324432, -0.13848441032534173, 0.08682833329572004, 0.27610738756748865, 0.0
0.21064404119406888, -0.18156770164239885, -0.03244097934954523, 0.6686549746871396, 0.03838904538331278, 0.0, 0.1079171229110897, -0.2203026070553404, 0.05564031220261338, 0.6358275305719839, 0.22901111934438387, 0.0, 0.21114866928789552, 0.025957781264855866, 0.08331793127816697, 0.06167535567245652, 0.2630327177337542, 0.0, 0.2198743625980956, -0.13875219933406785, 0.09016420692592973, 0.31320264166931494, 0.0
0.23091105684283686, -0.19568287743497778, -0.04147962939324964, 0.6508068014239327, 0.05129551120478142, 0.0, 0.11389531053521987, -0.2164282972564954, 0.05046523539032744, 0.6363234833322307, 0.23322414170050496, 0.0, 0.19914426676741048, -0.0028142580722404337, 0.08468193890079048, 0.06707346741172311, 0.2455064512524558, 0.0, 0.23794386106374804, -0.139019988342794, 0.09350008055613943, 0.35029789577114123, 0.0
0.24520502067333158, -0.2041841528192979, -0.04409870153565302, 0.6413086044428489, 0.056302399014633076, 0.0, 0.12195318292867573, -0.21122718466962576, 0.04180649510934874, 0.6423309415241801, 0.22585233519766193, 0.0, 0.18094478560384752, -0.024359957746648953, 0.09281217927728519, 0.07469767435527744, 0.2384105655963898, 0.0, 0.24647174224718554, -0.1372840981804603, 0.08787853909641538, 0.38064034358796606, 0.0
0.25949898450382636, -0.21268542820361805, -0.046717773678056386, 0.6318104074617652, 0.06130928682448473, 0.0, 0.13001105532213159, -0.2060260720827561, 0.03314775482837005, 0.6483383997161296, 0.21848052869481893, 0.0, 0.1627453044402845, -0.04590565742105746, 0.1009424196537799, 0.08232188129883178, 0.23131467994032381, 0.0, 0.25499962343062305, -0.13554820801812661, 0.08225699763669134, 0.4109827914047908, 0.0
0.27379294833432105, -0.22118670358793815, -0.04933684582045977, 0.6223122104806814, 0.06631617463433638, 0.0, 0.13806892771558743, -0.20082495949588647, 0.024489014547391344, 0.6543458579080792, 0.21110872219197588, 0.0, 0.14454582327672155, -0.06745135709546599, 0.1090726600302746, 0.08994608824238609, 0.22421879428425784, 0.0, 0.2635275046140606, -0.13381231785579292, 0.07663545617696728, 0.44132523922161565, 0.0
0.2880869121648158, -0.22968797897225832, -0.05195591796286314, 0.6128140134995976, 0.07132306244418803, 0.0, 0.14612680010904333, -0.19562384690901682, 0.015830274266412647, 0.6603533161000287, 0.2037369156891329, 0.0, 0.12634634211315854, -0.0889970567698745, 0.1172029004067693, 0.09757029518594042, 0.21712290862819184, 0.0, 0.2720553857974981, -0.13207642769345923, 0.07101391471724323, 0.4716676870384404, 0.0
0.3023808759953105, -0.23818925435657842, -0.05457499010526652, 0.603315816518514, 0.07632995025403969, 0.0, 0.15418467250249918, -0.19042273432214718, 0.007171533985433947, 0.6663607742919783, 0.19636510918628988, 0.0, 0.10814686094959557, -0.11054275644428303, 0.12533314078326402, 0.10519450212949476, 0.2100270229721259, 0.0, 0.28058326698093566, -0.13034053753112554, 0.06539237325751918, 0.5020101348552652, 0.0
0.3051857771828981, -0.24181367140378143, -0.05452213734672593, 0.6015405199632627, 0.0738974031941262, 0.0, 0.1542248918697821, -0.18145203518221065, -0.004716584682093316, 0.6687933234462868, 0.1815015536637483, 0.0, 0.09572916481130413, -0.11974589713773673, 0.12719050376714142, 0.11058898183858794, 0.21719527172430877, 0.0, 0.279226280468827, -0.12690951448421656, 0.05120339953364524, 0.5265318014062754, 0.0
0.30799067837048566, -0.24543808845098442, -0.054469284588185334, 0.5997652234080117, 0.0714648561342127, 0.0, 0.15426511123706507, -0.17248133604227414, -0.016604703349620577, 0.6712258726005954, 0.1666379981412067, 0.0, 0.08331146867301269, -0.12894903783119047, 0.1290478667510188, 0.11598346154768113, 0.2243635204764917, 0.0, 0.27786929395671844, -0.1234784914373076, 0.037014425809771295, 0.5510534679572854, 0.0
0.3107955795580732, -0.24906250549818745, -0.054416431829644736, 0.5979899268527606, 0.06903230907429922, 0.0, 0.15430533060434806, -0.1635106369023376, -0.028492822017147836, 0.673658421754904, 0.1517744426186651, 0.0, 0.07089377253472125, -0.13815217852464418, 0.1309052297348962, 0.12137794125677434, 0.2315317692286746, 0.0, 0.27651230744460986, -0.12004746839039863, 0.02282545208589736, 0.5755751345082956, 0.0
0.31360048074566077, -0.2526869225453904, -0.054363579071104146, 0.5962146302975095, 0.06659976201438572, 0.0, 0.15434554997163102, -0.15453993776240113, -0.0403809406846751, 0.6760909709092127, 0.13691088709612353, 0.0, 0.058476076396429814, -0.14735531921809789, 0.1327625927187736, 0.12677242096586752, 0.23870001798085755, 0.0, 0.2751553209325013, -0.11661644534348968, 0.008636478362023418, 0.6000968010593056, 0.0
0.31640538193324835, -0.25631133959259345, -0.054310726312563555, 0.5944393337422584, 0.06416721495447224, 0.0, 0.154385769338914, -0.1455692386224646, -0.05226905935220236, 0.6785235200635212, 0.12204733157358193, 0.0, 0.04605838025813837, -0.15655845991155162, 0.13461995570265098, 0.1321669006749607, 0.24586826673304046, 0.0, 0.2737983344203927, -0.1131854222965807, -0.005552495361850526, 0.6246184676103157, 0.0
0.3156819848461988, -0.2519683809643199, -0.0588503263007374, 0.58846073631482, 0.06839158683765317, 0.0, 0.14418992725482793, -0.14513560807914813, -0.06183629178465122, 0.6684228947658436, 0.11484253004180862, 0.0, 0.04030519507065463, -0.15438073580935122, 0.128726333818636, 0.1366229615256854, 0.2673170053738927, 0.0, 0.2660989261262918, -0.10991602267252587, -0.026625783835468594, 0.6555235188208623, 0.0
0.31495858775914914, -0.2476254223360463, -0.06338992628891126, 0.5824821388873814, 0.07261595872083414, 0.0, 0.13399408517074188, -0.14470197753583164, -0.07140352421710007, 0.6583222694681659, 0.10763772851003534, 0.0, 0.03455200988317088, -0.1522030117071508, 0.12283271193462099, 0.1410790223764101, 0.288765744014745, 0.0, 0.258399517832191, -0.10664662304847104, -0.04769907230908666, 0.6864285700314089, 0.0
0.3142351906720996, -0.2432824637077728, -0.06792952627708511, 0.5765035414599428, 0.07684033060401507, 0.0, 0.12379824308665582, -0.14426834699251512, -0.08097075664954893, 0.6482216441704881, 0.10043292697826206, 0.0, 0.028798824695687137, -0.15002528760495037, 0.116939090050606, 0.1455350832271348, 0.31021448265559726, 0.0, 0.25070010953809013, -0.1033772234244162, -0.06877236078270474, 0.7173336212419557, 0.0
0.31351179358505, -0.2389395050794992, -0.07246912626525895, 0.5705249440325043, 0.08106470248719602, 0.0, 0.11360240100256977, -0.14383471644919862, -0.0905379890819978, 0.6381210188728106, 0.09322812544648876, 0.0, 0.02304563950820339, -0.14784756350274997, 0.111045468166591, 0.1499911440778595, 0.33166322129644954, 0.0, 0.24300070124398931, -0.10010782380036137, -0.0898456492563228, 0.7482386724525024, 0.0
0.3127883964980004, -0.23459654645122566, -0.07700872625343282, 0.5645463466050658, 0.08528907437037697, 0.0, 0.10340655891848373, -0.14340108590588213, -0.10010522151444665, 0.628020393575133, 0.08602332391471548, 0.0, 0.017292454320719637, -0.14566983940054953, 0.10515184628257601, 0.15444720492858416, 0.35311195993730177, 0.0, 0.2353012929498884, -0.09683842417630655, -0.11091893772994088, 0.7791437236630491, 0.0
0.31919701861852084, -0.2274882916467508, -0.0774905802439819, 0.552628390242432, 0.09613427458024792, 0.0, 0.0886663604749463, -0.15273419568367827, -0.09910313828095316, 0.6046456666514124, 0.09219206658657839, 0.0, 0.014265178184954763, -0.13792271938975278, 0.1028970274966565, 0.16122123616261913, 0.38888619003625685, 0.0, 0.21900267535647952, -0.09575341685939229, -0.13565770927726503, 0.8124674591323264, 0.0
0.32560564073904125, -0.22038003684227592, -0.077972434234531, 0.5407104338797982, 0.10697947479011888, 0.0, 0.07392616203140887, -0.1620673054614744, -0.09810105504745965, 0.5812709397276918, 0.0983608092584413, 0.0, 0.01123790204918989, -0.130175599378956, 0.10064220871073701, 0.16799526739665407, 0.4246604201352118, 0.0, 0.20270405776307066, -0.09466840954247804, -0.1603964808245892, 0.845791194601604, 0.0
0.33201426285956165, -0.21327178203780106, -0.07845428822508009, 0.5287924775171645, 0.11782467499998982, 0.0, 0.059185963587871426, -0.17140041523927052, -0.09709897181396615, 0.5578962128039714, 0.10452955193030422, 0.0, 0.008210625913425017, -0.12242847936815922, 0.09838738992481749, 0.17476929863068907, 0.4604346502341668, 0.0, 0.18640544016966176, -0.09358340222556377, -0.1851352523719134, 0.8791149300708813, 0.0
0.338422884980082, -0.2061635272333262, -0.0789361422156292, 0.5168745211545308, 0.12866987520986078, 0.0, 0.044445765144333994, -0.18073352501706666, -0.09609688858047265, 0.534521485880251, 0.11069829460216714, 0.0, 0.005183349777660145, -0.11468135935736244, 0.09613257113889799, 0.18154332986472402, 0.4962088803331218, 0.0, 0.1701068225762529, -0.09249839490864953, -0.20987402391923754, 0.9124386655401587, 0.0
0.34483150710060245, -0.19905527242885132, -0.07941799620617829, 0.504956564791897, 0.1395150754197317, 0.0, 0.02970556670079656, -0.1900666347948628, -0.09509480534697917, 0.5111467589565304, 0.11686703727403006, 0.0, 0.0021560736418952736, -0.10693423934656568, 0.09387775235297849, 0.18831736109875896, 0.5319831104320769, 0.0, 0.153808204982844, -0.09141338759173527, -0.23461279546656172, 0.9457624010094362, 0.0
0.35110750863258083, -0.19969940713325088, -0.0743657846391133, 0.4922931119832249, 0.1483178948295774, 0.0, 0.013732108484890275, -0.19740064793808315, -0.08496392057792798, 0.48225008953218007, 0.13349786432792207, 0.0, 0.005578956054293918, -0.10122311048540261, 0.09865900364806644, 0.20013779544410829, 0.5779268539742858, 0.0, 0.13027544093881638, -0.09330157204300532, -0.2564172356996289, 0.9738628163224416, 0.0
0.3573835101645592, -0.20034354183765038, -0.0693135730720483, 0.47962965917455286, 0.1571207142394231, 0.0, -0.0022413497310160126, -0.20473466108130348, -0.07483303580887682, 0.4533534201078298, 0.15012869138181406, 0.0, 0.00900183846669256, -0.09551198162423956, 0.10344025494315442, 0.21195822978945758, 0.6238705975164945, 0.0, 0.1067426768947887, -0.09518975649427541, -0.27822167593269614, 1.001963231635447, 0.0
0.36365951169653754, -0.20098767654204994, -0.06426136150498332, 0.46696620636588065, 0.1659235336492688, 0.0, -0.018214807946922297, -0.21206867422452377, -0.06470215103982563, 0.4244567506834796, 0.16675951843570602, 0.0, 0.012424720879091205, -0.08980085276307648, 0.10822150623824241, 0.22377866413480693, 0.6698143410587035, 0.0, 0.08320991285076104, -0.09707794094554548, -0.30002611616576336, 1.0300636469484523, 0.0
0.369935513228516, -0.20163181124644944, -0.059209149937918315, 0.45430275355720867, 0.1747263530591145, 0.0, -0.034188266162828586, -0.21940268736774415, -0.054571266270774466, 0.39556008125912934, 0.18339034548959804, 0.0, 0.01584760329148985, -0.08408972390191342, 0.11300275753333039, 0.23559909848015623, 0.7157580846009124, 0.0, 0.05967714880673339, -0.09896612539681554, -0.3218305563988305, 1.0581640622614579, 0.0
0.3762115147604943, -0.202275945950849, -0.05415693837085333, 0.4416393007485365, 0.18352917246896017, 0.0, -0.050161724378734875, -0.22673670051096448, -0.04444038150172329, 0.366663411834779, 0.20002117254349, 0.0, 0.019270485703888493, -0.07837859504075037, 0.11778400882841834, 0.24741953282550558, 0.7617018281431213, 0.0, 0.03614438476270573, -0.10085430984808562, -0.3436349966318978, 1.0862644775744632, 0.0
0.37735602838012366, -0.20831986756153115, -0.045949530355876796, 0.4323676440137031, 0.19235198288005823, 0.0, -0.06634103650046519, -0.2260760759357921, -0.034939852306973246, 0.34514775028908834, 0.21839637939026327, 0.0, 0.027516110495364243, -0.0732554738877695, 0.1227018314393432, 0.25859584293843085, 0.8051101423529334, 0.0, 0.017527045945342365, -0.10350092782394152, -0.36225528610289454, 1.1087237932681466, 0.0
0.37850054199975297, -0.21436378917221333, -0.03774212234090027, 0.42309598727886966, 0.20117479329115623, 0.0, -0.08252034862219551, -0.22541545136061972, -0.025439323112223203, 0.32363208874339755, 0.2367715862370365, 0.0, 0.035761735286839985, -0.06813235273478863, 0.127619654050268, 0.2697721530513561, 0.8485184565627457, 0.0, -0.0010902928720209974, -0.10614754579979743, -0.3808755755738913, 1.13118310896183, 0.0
0.3796450556193822, -0.22040771078289553, -0.029534714325923733, 0.4138243305440363, 0.20999760370225426, 0.0, -0.09869966074392583, -0.22475482678544734, -0.015938793917473167, 0.30211642719770687, 0.2551467930838097, 0.0, 0.044007360078315745, -0.06300923158180775, 0.13253747666119287, 0.2809484631642814, 0.8919267707725579, 0.0, -0.019707631689384362, -0.10879416377565332, -0.3994958650448881, 1.1536424246555137, 0.0
0.38078956923901147, -0.2264516323935777, -0.021327306310947203, 0.40455267380920285, 0.21882041411335226, 0.0, -0.11487897286565613, -0.22409420221027496, -0.006438264722723121, 0.28060076565201614, 0.273521999930583, 0.0, 0.05225298486979149, -0.05788611042882688, 0.1374552992721177, 0.2921247732772067, 0.9353350849823703, 0.0, -0.03832497050674773, -0.11144078175150922, -0.41811615451588485, 1.1761017403491971, 0.0
0.38193408285864083, -0.23249555400425992, -0.01311989829597067, 0.39528101707436947, 0.22764322452445032, 0.0, -0.13105828498738642, -0.22343357763510258, 0.0030622644720269226, 0.2590851041063254, 0.2918972067773562, 0.0, 0.06049860966126724, -0.05276298927584601, 0.14237312188304252, 0.303301083390132, 0.9787433991921823, 0.0, -0.05694230932411108, -0.11408739972736512, -0.4367364439868816, 1.1985610560428808, 0.0
0.3838946635672836, -0.23889278610608183, -0.0013491985039203347, 0.3856947752138395, 0.23665453049476376, 0.0, -0.14298591536099814, -0.21873785305841595, 0.009323860649771283, 0.2451843664469635, 0.30602222622691644, 0.0, 0.06222042932823721, -0.04588794850761529, 0.14300891391361753, 0.30944804574919343, 1.013061857143366, 0.0, -0.06564979885021284, -0.1135019656816979, -0.4525732509508713, 1.2156078823239853, 0.0
0.3858552442759264, -0.24529001820790372, 0.01042150128813, 0.3761085333533097, 0.24566583646507717, 0.0, -0.15491354573460986, -0.2140421284817293, 0.015585456827515647, 0.2312836287876016, 0.32014724567647657, 0.0, 0.06394224899520717, -0.039012907739384546, 0.1436447059441925, 0.31559500810825486, 1.0473803150945495, 0.0, -0.07435728837631461, -0.1129165316360307, -0.468410057914861, 1.2326547086050903, 0.0
0.38781582498456924, -0.2516872503097256, 0.022192201080180333, 0.3665222914927798, 0.2546771424353906, 0.0, -0.16684117610822152, -0.20934640390504267, 0.02184705300526001, 0.21738289112823972, 0.3342722651260368, 0.0, 0.06566406866217714, -0.03213786697115382, 0.14428049797476752, 0.3217419704673163, 1.081698773045733, 0.0, -0.08306477790241636, -0.11233109759036349, -0.4842468648788507, 1.2497015348861953, 0.0
0.38977640569321204, -0.2580844824115475, 0.033962900872230674, 0.35693604963224995, 0.263688448405704, 0.0, -0.17876880648183327, -0.20465067932835598, 0.02810864918300437, 0.20348215346887777, 0.34839728457559693, 0.0, 0.0673858883291471, -0.025262826202923094, 0.1449162900053425, 0.3278889328263777, 1.1160172309969167, 0.0, -0.0917722674285181, -0.11174566354469628, -0.5000836718428404, 1.2667483611673, 0.0
0.3917369864018548, -0.26448171451336944, 0.04573360066428101, 0.34734980777172003, 0.2726997543760174, 0.0, -0.19069643685544493, -0.19995495475166938, 0.03437024536074873, 0.18958141580951585, 0.36252230402515706, 0.0, 0.06910770799611707, -0.01838778543469236, 0.14555208203591752, 0.33403589518543914, 1.1503356889481002, 0.0, -0.10047975695461986, -0.1111602294990291, -0.5159204788068301, 1.2837951874484048, 0.0
0.3963286125606355, -0.26779006988632875, 0.05529260386930672, 0.3312806468697416, 0.27869000013088374, 0.0, -0.20045693238849394, -0.19518735053506858, 0.03580301092738626, 0.17707863801178236, 0.37097335930558034, 0.0, 0.0634443460040543, -0.016591027612827065, 0.14445559289598608, 0.3340036380102038, 1.1744813906342797, 0.0, -0.10362222227283564, -0.11091104046414145, -0.5258583835676858, 1.2947988042131622, 0.0
0.40092023871941623, -0.2710984252592881, 0.06485160707433242, 0.31521148596776316, 0.2846802458857501, 0.0, -0.2102174279215429, -0.19041974631846778, 0.037235776494023785, 0.16457586021404885, 0.37942441458600357, 0.0, 0.0577809840119915, -0.014794269790961769, 0.14335910375605468, 0.3339713808349684, 1.1986270923204592, 0.0, -0.10676468759105145, -0.1106618514292538, -0.5357962883285415, 1.30580242097792, 0.0
0.4055118648781969, -0.27440678063224744, 0.07441061027935811, 0.29914232506578475, 0.2906704916406164, 0.0, -0.21997792345459188, -0.185652142101867, 0.0386685420606613, 0.15207308241631534, 0.38787546986642685, 0.0, 0.05211762201992872, -0.012997511969096475, 0.14226261461612325, 0.33393912365973305, 1.2227727940066386, 0.0, -0.10990715290926723, -0.11041266239436616, -0.5457341930893972, 1.3168060377426773, 0.0
0.4101034910369776, -0.2777151360052068, 0.08396961348438381, 0.2830731641638063, 0.2966607373954828, 0.0, -0.22973841898764094, -0.18088453788526623, 0.04010130762729883, 0.13957030461858186, 0.3963265251468501, 0.0, 0.046454260027865936, -0.011200754147231179, 0.1411661254761918, 0.33390686648449774, 1.2469184956928183, 0.0, -0.11304961822748304, -0.11016347335947851, -0.555672097850253, 1.3278096545074347, 0.0
0.4146951171957583, -0.2810234913781662, 0.09352861668940952, 0.2670040032618278, 0.30265098315034916, 0.0, -0.23949891452068992, -0.17611693366866546, 0.04153407319393635, 0.12706752682084832, 0.4047775804272733, 0.0, 0.04079089803580315, -0.009403996325365883, 0.1400696363362604, 0.3338746093092623, 1.2710641973789978, 0.0, -0.11619208354569882, -0.10991428432459088, -0.5656100026111086, 1.338813271272192, 0.0
0.4157948177415134, -0.274975414138535, 0.09410222263873597, 0.24749679506083283, 0.312842334153204, 0.0, -0.24664705707988988, -0.17095364585734504, 0.04018877584996008, 0.11390660281548028, 0.4087029480880562, 0.0, 0.03787480995008558, -0.012845667276975416, 0.1398020843432467, 0.3302268048500826, 1.2861451546038263, 0.0, -0.11779592593655097, -0.11028498806892427, -0.5689108879748694, 1.3461989112546864, 0.0
0.4168945182872685, -0.26892733689890375, 0.0946758285880624, 0.22798958685983786, 0.32303368515605885, 0.0, -0.2537951996390898, -0.1657903580460246, 0.0388434785059838, 0.10074567881011223, 0.41262831574883907, 0.0, 0.03495872186436801, -0.016287338228584948, 0.13953453235023294, 0.32657900039090293, 1.3012261118286548, 0.0, -0.11939976832740312, -0.11065569181325768, -0.5722117733386303, 1.353584551237181, 0.0
0.41799421883302357, -0.2628792596592726, 0.09524943453738886, 0.2084823786588429, 0.33322503615891363, 0.0, -0.26094334219828974, -0.1606270702347042, 0.037498181162007524, 0.08758475480474419, 0.416553683409622, 0.0, 0.03204263377865045, -0.019729009180194483, 0.13926698035721924, 0.32293119593172315, 1.316307069053483, 0.0, -0.12100361071825527, -0.11102639555759106, -0.5755126587023911, 1.3609701912196752, 0.0
0.41909391937877866, -0.2568311824196414, 0.09582304048671529, 0.18897517045784792, 0.3434163871617685, 0.0, -0.2680914847574897, -0.15546378242338377, 0.036152883818031244, 0.07442383079937613, 0.42047905107040484, 0.0, 0.02912654569293288, -0.023170680131804015, 0.1389994283642055, 0.3192833914725435, 1.3313880262783118, 0.0, -0.12260745310910745, -0.11139709930192444, -0.5788135440661519, 1.3683558312021695, 0.0
0.4201936199245337, -0.25078310518001024, 0.09639664643604172, 0.1694679622568529, 0.35360773816462326, 0.0, -0.27523962731668966, -0.15030049461206338, 0.03480758647405497, 0.06126290679400808, 0.4244044187311878, 0.0, 0.026210457607215312, -0.026612351083413546, 0.1387318763711918, 0.3156355870133637, 1.3464689835031403, 0.0, -0.1242112954999596, -0.11176780304625783, -0.5821144294299128, 1.3757414711846638, 0.0
0.42141036574058605, -0.23730233388125094, 0.09241229223159504, 0.1521858621019207, 0.3606067179046308, 0.0, -0.28419156416716723, -0.14290818607556305, 0.0295379014716708, 0.04828664682654852, 0.42308341741759675, 0.0, 0.022629217771685212, -0.032124285167980646, 0.14038737701724446, 0.3109171975910107, 1.3550170127674628, 0.0, -0.1230702585762003, -0.11366306655297401, -0.5811907662831722, 1.3820395266970704, 0.0
0.42262711155663835, -0.22382156258249167, 0.08842793802714835, 0.13490376194698853, 0.36760569764463824, 0.0, -0.2931435010176448, -0.1355158775390627, 0.02426821646928663, 0.03531038685908895, 0.42176241610400583, 0.0, 0.01904797793615511, -0.03763621925254775, 0.14204287766329715, 0.3061988081686577, 1.3635650420317853, 0.0, -0.12192922165244094, -0.11555833005969014, -0.5802671031364318, 1.388337582209477, 0.0
0.4238438573726907, -0.2103407912837324, 0.08444358382270166, 0.11762166179205634, 0.3746046773846458, 0.0, -0.3020954378681224, -0.12812356900256233, 0.01899853146690246, 0.022334126891629395, 0.42044141479041486, 0.0, 0.015466738100625009, -0.04314815333711486, 0.14369837830934984, 0.3014804187463046, 1.3721130712961078, 0.0, -0.12078818472868164, -0.1174535935664063, -0.5793434399896914, 1.3946356377218836, 0.0
0.42506060318874306, -0.1968600199849731, 0.08045922961825498, 0.10033956163712417, 0.3816036571246533, 0.0, -0.31104737471859994, -0.12073126046606197, 0.013728846464518295, 0.009357866924169825, 0.41912041347682394, 0.0, 0.011885498265094904, -0.04866008742168196, 0.14535387895540253, 0.29676202932395157, 1.3806611005604303, 0.0, -0.1196471478049223, -0.11934885707312246, -0.5784197768429511, 1.4009336932342902, 0.0
0.42627734900479536, -0.18337924868621383, 0.07647487541380829, 0.08305746148219198, 0.3886026368646608, 0.0, -0.31999931156907757, -0.11333895192956164, 0.008459161462134126, -0.003618393043289742, 0.4177994121632329, 0.0, 0.008304258429564799, -0.054172021506249064, 0.14700937960145521, 0.29204363990159854, 1.3892091298247529, 0.0, -0.11850611088116297, -0.1212441205798386, -0.5774961136962106, 1.4072317487466968, 0.0
0.4269701434887405, -0.17168085125282245, 0.07444899076774118, 0.06817987679368336, 0.39088653632657705, 0.0, -0.3277109790558444, -0.10454799342824665, 0.003146063838067552, -0.012672171077351666, 0.4148338080394387, 0.0, 0.004161153753839101, -0.05954736158569903, 0.15270120197949855, 0.2882221123499923, 1.3938904868510371, 0.0, -0.1167907115823794, -0.12290983698706907, -0.5739091130175118, 1.4126454110205329, 0.0
0.4276629379726857, -0.15998245381943113, 0.07242310612167407, 0.053302292105174724, 0.3931704357884932, 0.0, -0.3354226465426113, -0.09575703492693166, -0.002167033785999022, -0.021725949111413595, 0.4118682039156445, 0.0, 1.8049078113403437e-05, -0.064922701665149, 0.15839302435754193, 0.28440058479838604, 1.3985718438773214, 0.0, -0.11507531228359583, -0.12457555339429953, -0.5703221123388131, 1.4180590732943688, 0.0
0.42835573245663083, -0.14828405638603975, 0.07039722147560695, 0.038424707416666086, 0.39545433525040946, 0.0, -0.34313431402937816, -0.0869660764256167, -0.007480131410065596, -0.03077972714547552, 0.4089025997918504, 0.0, -0.004125055597612295, -0.07029804174459899, 0.16408484673558527, 0.28057905724677984, 1.4032532009036056, 0.0, -0.11335991298481224, -0.12624126980152997, -0.5667351116601144, 1.4234727355682049, 0.0
0.429048526940576, -0.13658565895264838, 0.06837133682953984, 0.02354712272815746, 0.3977382347123257, 0.0, -0.35084598151614504, -0.0781751179243017, -0.01279322903413217, -0.039833505179537446, 0.4059369956680562, 0.0, -0.008268160273337991, -0.07567338182404894, 0.16977666911362865, 0.2767575296951736, 1.40793455792989, 0.0, -0.11164451368602865, -0.12790698620876045, -0.5631481109814156, 1.4288863978420405, 0.0
0.42974132142452104, -0.12488726151925701, 0.06634545218347274, 0.00866953803964884, 0.400022134174242, 0.0, -0.3585576490029118, -0.06938415942298672, -0.018106326658198744, -0.04888728321359937, 0.402971391544262, 0.0, -0.01241126494906369, -0.08104872190349892, 0.175468491491672, 0.27293600214356734, 1.4126159149561741, 0.0, -0.10992911438724506, -0.1295727026159909, -0.5595611103027168, 1.4343000601158766, 0.0
0.4297930529835502, -0.11746952144116, 0.0644636772793477, -0.0005274791312176731, 0.39980784962999905, 0.0, -0.3629924398751084, -0.06463567668460495, -0.022189966709671934, -0.05376963584720177, 0.40060302163720773, 0.0, -0.01527957359931036, -0.08533652777834361, 0.18004473082776712, 0.2706458648749045, 1.4146124669007007, 0.0, -0.10991920929467416, -0.13329569236868805, -0.5560539130587363, 1.4373645790296985, 0.0
0.42984478454257935, -0.11005178136306298, 0.06258190237522264, -0.009724496302084188, 0.39959356508575616, 0.0, -0.3674272307473049, -0.05988719394622315, -0.02627360676114512, -0.058651988480804176, 0.3982346517301535, 0.0, -0.018147882249557032, -0.08962433365318828, 0.18462097016386222, 0.26835572760624166, 1.4166090188452267, 0.0, -0.10990930420210325, -0.13701868212138515, -0.5525467158147557, 1.4404290979435201, 0.0
0.4298965161016084, -0.10263404128496598, 0.06070012747109761, -0.0189215134729507, 0.39937928054151334, 0.0, -0.37186202161950127, -0.05513871120784137, -0.03035724681261831, -0.06353434111440658, 0.3958662818230992, 0.0, -0.0210161908998037, -0.09391213952803297, 0.18919720949995736, 0.26606559033757876, 1.4186055707897534, 0.0, -0.10989939910953232, -0.14074167187408232, -0.5490395185707752, 1.4434936168573418, 0.0
0.42994824766063755, -0.09521630120686898, 0.05881835256697257, -0.028118530643817218, 0.39916499599727057, 0.0, -0.37629681249169783, -0.05039022846945958, -0.0344408868640915, -0.06841669374800897, 0.39349791191604494, 0.0, -0.02388449955005037, -0.09819994540287766, 0.19377344883605246, 0.26377545306891587, 1.4206021227342795, 0.0, -0.10988949401696141, -0.14446466162677946, -0.5455323213267945, 1.4465581357711637, 0.0
0.4299999792196667, -0.08779856112877199, 0.05693657766284753, -0.03731554781468373, 0.39895071145302763, 0.0, -0.3807316033638943, -0.04564174573107779, -0.03852452691556469, -0.07329904638161137, 0.3911295420089907, 0.0, -0.026752808200297042, -0.10248775127772233, 0.19834968817214754, 0.261485315800253, 1.422598674678806, 0.0, -0.10987958892439048, -0.1481876513794766, -0.542025124082814, 1.4496226546849855, 0.0
