isaac-sim2real/sage/motion_files/h1_2/amass/0-Subject_33_F_13_poses_action_sequence.txt
/h1_2/pelvis/left_hip_yaw_joint, /h1_2/left_hip_yaw_link/left_hip_pitch_joint, /h1_2/left_hip_pitch_link/left_hip_roll_joint, /h1_2/left_hip_roll_link/left_knee_joint, /h1_2/left_knee_link/left_ankle_pitch_joint, /h1_2/left_ankle_pitch_link/left_ankle_roll_joint, /h1_2/pelvis/right_hip_yaw_joint, /h1_2/right_hip_yaw_link/right_hip_pitch_joint, /h1_2/right_hip_pitch_link/right_hip_roll_joint, /h1_2/right_hip_roll_link/right_knee_joint, /h1_2/right_knee_link/right_ankle_pitch_joint, /h1_2/right_ankle_pitch_link/right_ankle_roll_joint, /h1_2/pelvis/torso_joint, /h1_2/torso_link/left_shoulder_pitch_joint, /h1_2/left_shoulder_pitch_link/left_shoulder_roll_joint, /h1_2/left_shoulder_roll_link/left_shoulder_yaw_joint, /h1_2/left_shoulder_yaw_link/left_elbow_joint, /h1_2/left_elbow_link/left_wrist_roll_joint, /h1_2/torso_link/right_shoulder_pitch_joint, /h1_2/right_shoulder_pitch_link/right_shoulder_roll_joint, /h1_2/right_shoulder_roll_link/right_shoulder_yaw_joint, /h1_2/right_shoulder_yaw_link/right_elbow_joint, /h1_2/right_elbow_link/right_wrist_roll_joint
24.637184, -15.250227, 3.7629995, 12.540573, 11.054873, 0.0, -24.637184, -12.6046095, 0.9121134, 7.290038, 19.915934, 0.0, -2.3272796, -2.6408222, 10.215896, -6.1976595, 75.21229, 0.0, -1.941422, -6.159054, -6.930444, 69.37126, 0.0
24.637184, -15.282219000000001, 3.7190145599999997, 12.521357, 11.073555, 0.0, -24.637184, -12.6394594, 0.917946626, 7.2685547, 19.9267972, 0.0, -2.3083859799999997, -2.73023044, 10.223213600000001, -6.2745622, 75.137908, 0.0, -1.80784586, -6.1808448, -6.49482726, 68.902562, 0.0
24.637184, -15.314211, 3.6750296199999997, 12.502141, 11.092237, 0.0, -24.637184, -12.674309300000001, 0.923779852, 7.2470714, 19.9376604, 0.0, -2.2894923599999997, -2.81963868, 10.230531200000001, -6.3514649, 75.063526, 0.0, -1.6742697199999999, -6.2026356, -6.05921052, 68.433864, 0.0
24.637184, -15.346203000000001, 3.63104468, 12.482925, 11.110918999999999, 0.0, -24.637184, -12.7091592, 0.9296130779999999, 7.2255880999999995, 19.9485236, 0.0, -2.27059874, -2.9090469199999998, 10.2378488, -6.4283676000000005, 74.989144, 0.0, -1.54069358, -6.2244264000000005, -5.62359378, 67.96516600000001, 0.0
24.637184, -15.378195, 3.58705974, 12.463709, 11.129601, 0.0, -24.637184, -12.744009100000001, 0.935446304, 7.2041048, 19.9593868, 0.0, -2.25170512, -2.99845516, 10.2451664, -6.5052703, 74.914762, 0.0, -1.40711744, -6.2462172, -5.18797704, 67.49646800000001, 0.0
24.637184, -15.410187, 3.5430748, 12.444493, 11.148283, 0.0, -24.637184, -12.778859, 0.94127953, 7.1826215, 19.97025, 0.0, -2.2328115, -3.0878634, 10.252484, -6.582173, 74.84038, 0.0, -1.2735413, -6.268008, -4.7523603, 67.02777, 0.0
24.637184, -15.4510498, 3.47182546, 12.409446599999999, 11.174070799999999, 0.0, -24.637184, -12.8362922, 0.941679444, 7.1448726, 19.981261, 0.0, -2.21665352, -3.1828415199999998, 10.231306400000001, -6.72338724, 74.678192, 0.0, -1.035830842, -6.3858976, -3.832440944, 66.01958400000001, 0.0
24.637184, -15.491912600000001, 3.4005761199999998, 12.3744002, 11.199858599999999, 0.0, -24.637184, -12.893725400000001, 0.942079358, 7.1071237, 19.992272, 0.0, -2.20049554, -3.2778196399999997, 10.210128800000001, -6.86460148, 74.516004, 0.0, -0.798120384, -6.5037872, -2.912521588, 65.011398, 0.0
24.637184, -15.5327754, 3.32932678, 12.3393538, 11.2256464, 0.0, -24.637184, -12.9511586, 0.942479272, 7.0693748, 20.003283, 0.0, -2.18433756, -3.37279776, 10.1889512, -7.00581572, 74.353816, 0.0, -0.560409926, -6.6216768, -1.9926022320000003, 64.003212, 0.0
24.637184, -15.573638200000001, 3.25807744, 12.3043074, 11.2514342, 0.0, -24.637184, -13.0085918, 0.942879186, 7.0316259, 20.014294, 0.0, -2.16817958, -3.46777588, 10.1677736, -7.14702996, 74.191628, 0.0, -0.32269946799999993, -6.7395664, -1.072682876, 62.995026, 0.0
24.637184, -15.614501, 3.1868281, 12.269261, 11.277222, 0.0, -24.637184, -13.066025, 0.9432791, 6.993877, 20.025305, 0.0, -2.1520216, -3.562754, 10.146596, -7.2882442, 74.02944, 0.0, -0.08498901, -6.857456, -0.15276352, 61.98684, 0.0
24.637184, -15.6082876, 3.1243671600000003, 12.2198958, 11.3182338, 0.0, -24.637184, -13.1188348, 0.92401888, 6.94996086, 20.0572874, 0.0, -2.24711242, -3.51877148, 10.1249617, -7.45396396, 73.7619888, 0.0, 0.170659992, -7.139295, 1.356222504, 60.324845, 0.0
24.637184, -15.6020742, 3.06190622, 12.1705306, 11.3592456, 0.0, -24.637184, -13.1716446, 0.90475866, 6.90604472, 20.0892698, 0.0, -2.34220324, -3.47478896, 10.1033274, -7.61968372, 73.4945376, 0.0, 0.426308994, -7.4211339999999995, 2.8652085279999997, 58.66285, 0.0
24.637184, -15.5958608, 2.99944528, 12.1211654, 11.400257400000001, 0.0, -24.637184, -13.224454399999999, 0.88549844, 6.86212858, 20.1212522, 0.0, -2.43729406, -3.43080644, 10.0816931, -7.785403479999999, 73.22708639999999, 0.0, 0.6819579960000001, -7.702973, 4.374194552, 57.000855, 0.0
24.637184, -15.5896474, 2.93698434, 12.0718002, 11.4412692, 0.0, -24.637184, -13.2772642, 0.8662382200000001, 6.81821244, 20.1532346, 0.0, -2.53238488, -3.3868239200000003, 10.0600588, -7.951123239999999, 72.9596352, 0.0, 0.937606998, -7.984812, 5.883180576, 55.33886, 0.0
24.637184, -15.583434, 2.8745234, 12.022435, 11.482281, 0.0, -24.637184, -13.330074, 0.846978, 6.7742963, 20.185217, 0.0, -2.6274757, -3.3428414, 10.0384245, -8.116843, 72.692184, 0.0, 1.193256, -8.266651, 7.3921666, 53.676865, 0.0
24.637184, -15.4798256, 2.87088352, 11.9932072, 11.5806766, 0.0, -24.637184, -13.3411526, 0.803138952, 6.73483498, 20.2636068, 0.0, -2.8944983200000003, -3.1209869400000003, 10.0442054, -8.263356799999999, 72.2970684, 0.0, 1.000381164, -8.7315188, 9.48181428, 51.2838984, 0.0
24.637184, -15.3762172, 2.86724364, 11.9639794, 11.6790722, 0.0, -24.637184, -13.3522312, 0.759299904, 6.69537366, 20.3419966, 0.0, -3.16152094, -2.89913248, 10.0499863, -8.4098706, 71.9019528, 0.0, 0.8075063280000001, -9.1963866, 11.57146196, 48.8909318, 0.0
24.637184, -15.2726088, 2.86360376, 11.9347516, 11.7774678, 0.0, -24.637184, -13.3633098, 0.715460856, 6.65591234, 20.420386399999998, 0.0, -3.42854356, -2.67727802, 10.0557672, -8.556384399999999, 71.50683719999999, 0.0, 0.614631492, -9.6612544, 13.66110964, 46.497965199999996, 0.0
24.637184, -15.1690004, 2.85996388, 11.9055238, 11.8758634, 0.0, -24.637184, -13.3743884, 0.671621808, 6.61645102, 20.4987762, 0.0, -3.69556618, -2.45542356, 10.061548100000001, -8.7028982, 71.1117216, 0.0, 0.421756656, -10.1261222, 15.750757320000002, 44.1049986, 0.0
24.637184, -15.065392, 2.856324, 11.876296, 11.974259, 0.0, -24.637184, -13.385467, 0.62778276, 6.5769897, 20.577166, 0.0, -3.9625888, -2.2335691, 10.067329, -8.849412, 70.716606, 0.0, 0.22888182, -10.59099, 17.840405, 41.712032, 0.0
24.637184, -14.9183858, 2.9542427399999998, 11.8911956, 12.0487652, 0.0, -24.637184, -13.337863500000001, 0.634533142, 6.52727956, 20.6703248, 0.0, -4.36541084, -1.99121876, 10.0027918, -8.995588, 70.2868028, 0.0, -0.767973244, -11.0938792, 20.036457000000002, 38.5655316, 0.0
24.637184, -14.7713796, 3.05216148, 11.9060952, 12.1232714, 0.0, -24.637184, -13.29026, 0.641283524, 6.47756942, 20.7634836, 0.0, -4.76823288, -1.74886842, 9.9382546, -9.141764, 69.8569996, 0.0, -1.764828308, -11.5967684, 22.232509, 35.4190312, 0.0
24.637184, -14.6243734, 3.15008022, 11.9209948, 12.1977776, 0.0, -24.637184, -13.2426565, 0.648033906, 6.427859280000001, 20.8566424, 0.0, -5.1710549199999996, -1.50651808, 9.8737174, -9.287939999999999, 69.4271964, 0.0, -2.7616833720000002, -12.0996576, 24.428561000000002, 32.2725308, 0.0
24.637184, -14.4773672, 3.2479989600000003, 11.9358944, 12.2722838, 0.0, -24.637184, -13.195053, 0.654784288, 6.3781491400000005, 20.9498012, 0.0, -5.57387696, -1.26416774, 9.8091802, -9.434116, 68.99739319999999, 0.0, -3.7585384360000003, -12.602546799999999, 26.624613000000004, 29.1260304, 0.0
24.637184, -14.330361, 3.3459177, 11.950794, 12.34679, 0.0, -24.637184, -13.1474495, 0.66153467, 6.328439, 21.04296, 0.0, -5.976699, -1.0218174, 9.744643, -9.580292, 68.56759, 0.0, -4.7553935, -13.105436, 28.820665, 25.97953, 0.0
24.637184, -14.280033, 3.52096016, 11.95834, 12.295576, 0.0, -24.637184, -12.9988086, 0.751579136, 6.286392500000001, 21.146014, 0.0, -6.2580088, -0.887864446, 9.5891198, -9.723401, 68.41542919999999, 0.0, -6.512555, -13.4442138, 30.456134600000002, 22.4402426, 0.0
24.637184, -14.229705, 3.69600262, 11.965886, 12.244362, 0.0, -24.637184, -12.8501677, 0.8416236020000001, 6.244346, 21.249068, 0.0, -6.5393186, -0.753911492, 9.4335966, -9.86651, 68.2632684, 0.0, -8.2697165, -13.782991599999999, 32.0916042, 18.9009552, 0.0
24.637184, -14.179377, 3.87104508, 11.973432, 12.193147999999999, 0.0, -24.637184, -12.7015268, 0.931668068, 6.2022995000000005, 21.352121999999998, 0.0, -6.8206284, -0.6199585379999999, 9.2780734, -10.009619, 68.1111076, 0.0, -10.026878, -14.1217694, 33.7270738, 15.3616678, 0.0
24.637184, -14.129049, 4.046087539999999, 11.980978, 12.141934, 0.0, -24.637184, -12.5528859, 1.0217125340000002, 6.160253, 21.455175999999998, 0.0, -7.1019382, -0.48600558399999993, 9.1225502, -10.152728, 67.9589468, 0.0, -11.784039499999999, -14.460547199999999, 35.3625434, 11.822380399999998, 0.0
24.637184, -14.078721, 4.22113, 11.988524, 12.09072, 0.0, -24.637184, -12.404245, 1.111757, 6.1182065, 21.55823, 0.0, -7.383248, -0.35205263, 8.967027, -10.295837, 67.806786, 0.0, -13.541201, -14.799325, 36.998013, 8.283093, 0.0
24.637184, -14.1423084, 4.4215208, 11.9598206, 11.9935298, 0.0, -24.637184, -12.2063764, 1.24227452, 6.04017334, 21.6125074, 0.0, -7.48938486, -0.19534860399999998, 8.8514424, -10.3080616, 68.0773188, 0.0, -15.5003168, -15.280135, 38.046027, 5.299838199999999, 0.0
24.637184, -14.2058958, 4.6219116, 11.931117200000001, 11.8963396, 0.0, -24.637184, -12.0085078, 1.3727920400000002, 5.9621401800000005, 21.6667848, 0.0, -7.59552172, -0.038644577999999985, 8.7358578, -10.3202862, 68.3478516, 0.0, -17.4594326, -15.760945, 39.094041000000004, 2.316583399999999, 0.0
24.637184, -14.2694832, 4.8223024, 11.9024138, 11.7991494, 0.0, -24.637184, -11.810639199999999, 1.5033095600000002, 5.88410702, 21.7210622, 0.0, -7.70165858, 0.11805944800000001, 8.6202732, -10.332510800000001, 68.61838440000001, 0.0, -19.4185484, -16.241755, 40.142055, -0.6666714000000002, 0.0
24.637184, -14.333070600000001, 5.0226932, 11.8737104, 11.7019592, 0.0, -24.637184, -11.6127706, 1.63382708, 5.806073860000001, 21.7753396, 0.0, -7.80779544, 0.274763474, 8.5046886, -10.344735400000001, 68.88891720000001, 0.0, -21.3776642, -16.722565, 41.190069, -3.6499262000000012, 0.0
24.637184, -14.396658, 5.223084, 11.845007, 11.604769, 0.0, -24.637184, -11.414902, 1.7643446, 5.7280407, 21.829617, 0.0, -7.9139323, 0.4314675, 8.389104, -10.35696, 69.15945, 0.0, -23.33678, -17.203375, 42.238083, -6.633181, 0.0
24.637184, -14.5069817, 5.4386385200000005, 11.800268, 11.507066799999999, 0.0, -24.637184, -11.1651294, 1.91452308, 5.67512504, 21.9001836, 0.0, -7.93015724, 0.6146965799999999, 8.3761318, -10.121599, 69.61301680000001, 0.0, -24.8448642, -17.543328000000002, 42.8260384, -8.7582462, 0.0
24.637184, -14.617305400000001, 5.65419304, 11.755529000000001, 11.4093646, 0.0, -24.637184, -10.9153568, 2.06470156, 5.62220938, 21.970750199999998, 0.0, -7.94638218, 0.79792566, 8.3631596, -9.886238, 70.0665836, 0.0, -26.3529484, -17.883281, 43.4139938, -10.8833114, 0.0
24.637184, -14.7276291, 5.86974756, 11.71079, 11.3116624, 0.0, -24.637184, -10.6655842, 2.2148800399999997, 5.56929372, 22.0413168, 0.0, -7.96260712, 0.9811547399999999, 8.3501874, -9.650877, 70.5201504, 0.0, -27.8610326, -18.223234, 44.001949200000006, -13.008376600000002, 0.0
24.637184, -14.8379528, 6.08530208, 11.666051, 11.2139602, 0.0, -24.637184, -10.4158116, 2.36505852, 5.51637806, 22.1118834, 0.0, -7.97883206, 1.1643838199999998, 8.3372152, -9.415516, 70.9737172, 0.0, -29.3691168, -18.563187, 44.589904600000004, -15.133441800000002, 0.0
24.637184, -14.9482765, 6.3008566, 11.621312, 11.116258, 0.0, -24.637184, -10.166039, 2.515237, 5.4634624, 22.18245, 0.0, -7.995057, 1.3476129, 8.324243, -9.180155, 71.427284, 0.0, -30.877201, -18.90314, 45.17786, -17.258507, 0.0
24.637184, -15.029426, 6.4552456000000005, 11.5834286, 11.0457264, 0.0, -24.637184, -9.9744878, 2.6376444599999997, 5.41520052, 22.2265832, 0.0, -8.0193696, 1.59458884, 8.3307814, -8.74932172, 71.7703152, 0.0, -31.7373708, -19.0165558, 45.499949400000006, -18.5370618, 0.0
24.637184, -15.110575500000001, 6.609634600000001, 11.5455452, 10.9751948, 0.0, -24.637184, -9.7829366, 2.76005192, 5.36693864, 22.2707164, 0.0, -8.0436822, 1.8415647800000001, 8.3373198, -8.31848844, 72.1133464, 0.0, -32.5975406, -19.1299716, 45.8220388, -19.815616600000002, 0.0
24.637184, -15.191725, 6.7640236, 11.507661800000001, 10.9046632, 0.0, -24.637184, -9.5913854, 2.88245938, 5.31867676, 22.3148496, 0.0, -8.0679948, 2.08854072, 8.3438582, -7.8876551599999996, 72.4563776, 0.0, -33.457710399999996, -19.2433874, 46.144128200000004, -21.0941714, 0.0
24.637184, -15.2728745, 6.9184126, 11.469778400000001, 10.834131600000001, 0.0, -24.637184, -9.399834199999999, 3.00486684, 5.27041488, 22.3589828, 0.0, -8.0923074, 2.33551666, 8.3503966, -7.45682188, 72.7994088, 0.0, -34.3178802, -19.3568032, 46.4662176, -22.372726200000002, 0.0
24.637184, -15.354024, 7.0728016, 11.431895, 10.7636, 0.0, -24.637184, -9.208283, 3.1272743, 5.222153, 22.403116, 0.0, -8.11662, 2.5824926, 8.356935, -7.0259886, 73.14244, 0.0, -35.17805, -19.470219, 46.788307, -23.651281, 0.0
24.637184, -15.396785600000001, 7.11345688, 11.386375000000001, 10.7306488, 0.0, -24.637184, -9.1358396, 3.1906115799999997, 5.164032799999999, 22.389688800000002, 0.0, -8.1290598, 2.78060248, 8.3210498, -6.58124008, 73.2924372, 0.0, -35.5354332, -19.5497054, 47.0415648, -24.1714314, 0.0
24.637184, -15.4395472, 7.15411216, 11.340855000000001, 10.6976976, 0.0, -24.637184, -9.0633962, 3.25394886, 5.1059126, 22.3762616, 0.0, -8.1414996, 2.9787123600000003, 8.2851646, -6.13649156, 73.4424344, 0.0, -35.8928164, -19.6291918, 47.2948226, -24.6915818, 0.0
24.637184, -15.4823088, 7.19476744, 11.295335, 10.6647464, 0.0, -24.637184, -8.9909528, 3.3172861399999998, 5.0477924, 22.3628344, 0.0, -8.1539394, 3.17682224, 8.2492794, -5.69174304, 73.5924316, 0.0, -36.250199599999995, -19.708678199999998, 47.548080399999996, -25.2117322, 0.0
24.637184, -15.525070399999999, 7.23542272, 11.249815, 10.6317952, 0.0, -24.637184, -8.9185094, 3.38062342, 4.9896722, 22.349407199999998, 0.0, -8.1663792, 3.37493212, 8.2133942, -5.24699452, 73.7424288, 0.0, -36.607582799999996, -19.788164599999998, 47.8013382, -25.731882600000002, 0.0
24.637184, -15.567832, 7.276078, 11.204295, 10.598844, 0.0, -24.637184, -8.846066, 3.4439607, 4.931552, 22.33598, 0.0, -8.178819, 3.573042, 8.177509, -4.802246, 73.892426, 0.0, -36.964966, -19.867651, 48.054596, -26.252033, 0.0
24.637184, -15.554806, 7.24944792, 11.1650176, 10.6119422, 0.0, -24.637184, -8.812882, 3.41509426, 4.9065008599999995, 22.305486, 0.0, -8.174611200000001, 3.63526256, 8.09403728, -4.48992136, 73.9036748, 0.0, -37.063558799999996, -19.8638524, 48.1955148, -26.343101, 0.0
24.637184, -15.54178, 7.22281784, 11.125740200000001, 10.6250404, 0.0, -24.637184, -8.779698, 3.3862278199999998, 4.88144972, 22.274991999999997, 0.0, -8.170403400000001, 3.6974831200000002, 8.01056556, -4.17759672, 73.91492360000001, 0.0, -37.162151599999994, -19.8600538, 48.3364336, -26.434169, 0.0
24.637184, -15.528754, 7.19618776, 11.0864628, 10.6381386, 0.0, -24.637184, -8.746514000000001, 3.35736138, 4.85639858, 22.244498, 0.0, -8.1661956, 3.75970368, 7.92709384, -3.86527208, 73.9261724, 0.0, -37.2607444, -19.8562552, 48.477352399999994, -26.525237, 0.0
24.637184, -15.515728, 7.1695576800000005, 11.0471854, 10.6512368, 0.0, -24.637184, -8.713330000000001, 3.3284949399999997, 4.83134744, 22.214004, 0.0, -8.1619878, 3.82192424, 7.84362212, -3.55294744, 73.9374212, 0.0, -37.3593372, -19.8524566, 48.618271199999995, -26.616305, 0.0
24.637184, -15.502702, 7.1429276, 11.007908, 10.664335, 0.0, -24.637184, -8.680146, 3.2996285, 4.8062963, 22.18351, 0.0, -8.15778, 3.8841448, 7.7601504, -3.2406228, 73.94867, 0.0, -37.45793, -19.848658, 48.75919, -26.707373, 0.0
24.637184, -15.459280999999999, 7.09447818, 10.968049, 10.686468, 0.0, -24.637184, -8.648196800000001, 3.23891798, 4.80570588, 22.152302, 0.0, -8.158818400000001, 3.83480188, 7.66726192, -3.0818466, 73.8965108, 0.0, -37.536887, -19.8238594, 48.7661296, -26.6996176, 0.0
24.637184, -15.415859999999999, 7.0460287600000004, 10.92819, 10.708601, 0.0, -24.637184, -8.616247600000001, 3.17820746, 4.80511546, 22.121094, 0.0, -8.1598568, 3.78545896, 7.57437344, -2.9230704, 73.8443516, 0.0, -37.615844, -19.7990608, 48.7730692, -26.6918622, 0.0
24.637184, -15.372439, 6.99757934, 10.888330999999999, 10.730734, 0.0, -24.637184, -8.5842984, 3.11749694, 4.80452504, 22.089886, 0.0, -8.1608952, 3.7361160399999997, 7.48148496, -2.7642942, 73.7921924, 0.0, -37.694801, -19.774262200000003, 48.7800088, -26.684106800000002, 0.0
24.637184, -15.329018, 6.94912992, 10.848472, 10.752867, 0.0, -24.637184, -8.5523492, 3.05678642, 4.80393462, 22.058678, 0.0, -8.1619336, 3.68677312, 7.38859648, -2.605518, 73.7400332, 0.0, -37.773758, -19.749463600000002, 48.7869484, -26.6763514, 0.0
24.637184, -15.285597, 6.9006805, 10.808613, 10.775, 0.0, -24.637184, -8.5204, 2.9960759, 4.8033442, 22.02747, 0.0, -8.162972, 3.6374302, 7.295708, -2.4467418, 73.687874, 0.0, -37.852715, -19.724665, 48.793888, -26.668596, 0.0
24.637184, -15.241166, 6.8701396, 10.763689999999999, 10.7859708, 0.0, -24.637184, -8.4916202, 2.9602593600000002, 4.80275008, 22.0048324, 0.0, -8.1768658, 3.55369344, 7.240864520000001, -2.36839192, 73.6359804, 0.0, -37.945526400000006, -19.717078, 48.7760024, -26.6486148, 0.0
24.637184, -15.196735, 6.8395987, 10.718767, 10.7969416, 0.0, -24.637184, -8.4628404, 2.9244428200000003, 4.80215596, 21.982194800000002, 0.0, -8.1907596, 3.46995668, 7.18602104, -2.29004204, 73.5840868, 0.0, -38.0383378, -19.709491, 48.7581168, -26.6286336, 0.0
24.637184, -15.152303999999999, 6.809057800000001, 10.673843999999999, 10.8079124, 0.0, -24.637184, -8.4340606, 2.88862628, 4.80156184, 21.9595572, 0.0, -8.2046534, 3.3862199200000003, 7.13117756, -2.21169216, 73.5321932, 0.0, -38.1311492, -19.701904000000003, 48.7402312, -26.6086524, 0.0
24.637184, -15.107873, 6.7785169000000005, 10.628921, 10.8188832, 0.0, -24.637184, -8.4052808, 2.85280974, 4.80096772, 21.9369196, 0.0, -8.2185472, 3.30248316, 7.07633408, -2.13334228, 73.4802996, 0.0, -38.2239606, -19.694317, 48.7223456, -26.5886712, 0.0
24.637184, -15.063442, 6.747976, 10.583998, 10.829854, 0.0, -24.637184, -8.376501, 2.8169932, 4.8003736, 21.914282, 0.0, -8.232441, 3.2187464, 7.0214906, -2.0549924, 73.428406, 0.0, -38.316772, -19.68673, 48.70446, -26.56869, 0.0
24.637184, -15.0214814, 6.750128200000001, 10.545654899999999, 10.8300488, 0.0, -24.637184, -8.356194799999999, 2.81099908, 4.7849528800000005, 21.9045384, 0.0, -8.255389, 3.15670908, 7.02688534, -1.9922735400000002, 73.4008388, 0.0, -38.3832028, -19.6625744, 48.6931174, -26.5517236, 0.0
24.637184, -14.9795208, 6.7522804, 10.5073118, 10.8302436, 0.0, -24.637184, -8.335888599999999, 2.80500496, 4.769532160000001, 21.8947948, 0.0, -8.278337, 3.09467176, 7.03228008, -1.92955468, 73.3732716, 0.0, -38.4496336, -19.6384188, 48.6817748, -26.5347572, 0.0
24.637184, -14.9375602, 6.7544326, 10.4689687, 10.8304384, 0.0, -24.637184, -8.3155824, 2.7990108399999998, 4.75411144, 21.8850512, 0.0, -8.301285, 3.03263444, 7.03767482, -1.8668358200000001, 73.3457044, 0.0, -38.516064400000005, -19.6142632, 48.6704322, -26.5177908, 0.0
24.637184, -14.895599599999999, 6.7565848, 10.4306256, 10.8306332, 0.0, -24.637184, -8.2952762, 2.79301672, 4.73869072, 21.8753076, 0.0, -8.324233000000001, 2.97059712, 7.04306956, -1.80411696, 73.3181372, 0.0, -38.582495200000004, -19.5901076, 48.6590896, -26.500824400000003, 0.0
24.637184, -14.853639, 6.758737, 10.3922825, 10.830828, 0.0, -24.637184, -8.27497, 2.7870226, 4.72327, 21.865564, 0.0, -8.347181, 2.9085598, 7.0484643, -1.7413981, 73.29057, 0.0, -38.648926, -19.565952, 48.647747, -26.483858, 0.0
24.637184, -14.8128662, 6.7872823, 10.360398400000001, 10.8084952, 0.0, -24.637184, -8.248339, 2.79604164, 4.70139948, 21.8644376, 0.0, -8.3654372, 2.88091918, 7.09260904, -1.68340618, 73.29307800000001, 0.0, -38.6861842, -19.529009, 48.658781600000005, -26.4789408, 0.0
24.637184, -14.7720934, 6.8158276, 10.3285143, 10.7861624, 0.0, -24.637184, -8.221708, 2.80506068, 4.67952896, 21.8633112, 0.0, -8.3836934, 2.8532785599999997, 7.13675378, -1.62541426, 73.295586, 0.0, -38.7234424, -19.492065999999998, 48.6698162, -26.4740236, 0.0
24.637184, -14.7313206, 6.8443729, 10.296630200000001, 10.7638296, 0.0, -24.637184, -8.195077, 2.8140797199999996, 4.6576584400000005, 21.8621848, 0.0, -8.4019496, 2.82563794, 7.1808985199999995, -1.56742234, 73.298094, 0.0, -38.7607006, -19.455123, 48.6808508, -26.4691064, 0.0
24.637184, -14.6905478, 6.8729182, 10.2647461, 10.7414968, 0.0, -24.637184, -8.168446, 2.8230987599999997, 4.63578792, 21.8610584, 0.0, -8.4202058, 2.79799732, 7.22504326, -1.5094304200000002, 73.300602, 0.0, -38.7979588, -19.41818, 48.6918854, -26.4641892, 0.0
24.637184, -14.649775, 6.9014635, 10.232862, 10.719164, 0.0, -24.637184, -8.141815, 2.8321178, 4.6139174, 21.859932, 0.0, -8.438462, 2.7703567, 7.269188, -1.4514385, 73.30311, 0.0, -38.835217, -19.381237, 48.70292, -26.459272, 0.0
24.637184, -14.6041392, 6.94687346, 10.2041828, 10.681842, 0.0, -24.637184, -8.1107675, 2.8382387199999997, 4.5861705200000005, 21.8398896, 0.0, -8.4331924, 2.76662858, 7.31406694, -1.4059131, 73.33036200000001, 0.0, -38.8516002, -19.3628932, 48.750342599999996, -26.453626399999997, 0.0
24.637184, -14.5585034, 6.99228342, 10.1755036, 10.64452, 0.0, -24.637184, -8.07972, 2.84435964, 4.55842364, 21.8198472, 0.0, -8.4279228, 2.76290046, 7.35894588, -1.3603877, 73.357614, 0.0, -38.8679834, -19.3445494, 48.7977652, -26.4479808, 0.0
24.637184, -14.5128676, 7.03769338, 10.1468244, 10.607197999999999, 0.0, -24.637184, -8.0486725, 2.85048056, 4.53067676, 21.7998048, 0.0, -8.422653200000001, 2.7591723399999997, 7.40382482, -1.3148623000000002, 73.384866, 0.0, -38.8843666, -19.3262056, 48.8451878, -26.4423352, 0.0
24.637184, -14.467231799999999, 7.08310334, 10.1181452, 10.569875999999999, 0.0, -24.637184, -8.017625, 2.85660148, 4.50292988, 21.779762400000003, 0.0, -8.4173836, 2.7554442199999998, 7.44870376, -1.2693369, 73.41211799999999, 0.0, -38.9007498, -19.3078618, 48.8926104, -26.4366896, 0.0
24.637184, -14.421596, 7.1285133, 10.089466, 10.532554, 0.0, -24.637184, -7.9865775, 2.8627224, 4.475183, 21.75972, 0.0, -8.412114, 2.7517161, 7.4935827, -1.2238115, 73.43937, 0.0, -38.917133, -19.289518, 48.940033, -26.431044, 0.0
24.637184, -14.367220399999999, 7.17556144, 10.0608168, 10.490703, 0.0, -24.637184, -7.953995, 2.8510614, 4.44494408, 21.713963, 0.0, -8.3818952, 2.75358422, 7.5148835, -1.19673008, 73.47874399999999, 0.0, -38.9228558, -19.2904168, 48.9733894, -26.4200424, 0.0
24.637184, -14.312844799999999, 7.22260958, 10.0321676, 10.448852, 0.0, -24.637184, -7.9214125, 2.8394004, 4.4147051600000005, 21.668206, 0.0, -8.3516764, 2.75545234, 7.5361843, -1.16964866, 73.518118, 0.0, -38.9285786, -19.2913156, 49.0067458, -26.4090408, 0.0
24.637184, -14.2584692, 7.26965772, 10.0035184, 10.407001, 0.0, -24.637184, -7.8888300000000005, 2.8277394, 4.38446624, 21.622449, 0.0, -8.3214576, 2.75732046, 7.5574851, -1.14256724, 73.557492, 0.0, -38.934301399999995, -19.2922144, 49.0401022, -26.3980392, 0.0
24.637184, -14.2040936, 7.31670586, 9.9748692, 10.36515, 0.0, -24.637184, -7.8562475, 2.8160784000000003, 4.354227320000001, 21.576692, 0.0, -8.2912388, 2.75918858, 7.578785900000001, -1.11548582, 73.596866, 0.0, -38.940024199999996, -19.2931132, 49.073458599999995, -26.3870376, 0.0
24.637184, -14.149718, 7.363754, 9.94622, 10.323299, 0.0, -24.637184, -7.823665, 2.8044174, 4.3239884, 21.530935, 0.0, -8.26102, 2.7610567, 7.6000867, -1.0884044, 73.63624, 0.0, -38.945747, -19.294012, 49.106815, -26.376036, 0.0
24.637184, -14.0825608, 7.4047296000000005, 9.9179972, 10.2829274, 0.0, -24.637184, -7.79179352, 2.78234356, 4.2932922, 21.4951806, 0.0, -8.2125277, 2.75426282, 7.59763022, -1.085866, 73.680562, 0.0, -38.94613, -19.304484799999997, 49.1030088, -26.370079999999998, 0.0
24.637184, -14.015403599999999, 7.4457052, 9.8897744, 10.2425558, 0.0, -24.637184, -7.75992204, 2.76026972, 4.262596, 21.4594262, 0.0, -8.1640354, 2.74746894, 7.59517374, -1.0833276, 73.724884, 0.0, -38.946512999999996, -19.3149576, 49.0992026, -26.364124, 0.0
24.637184, -13.9482464, 7.4866808, 9.8615516, 10.202184200000001, 0.0, -24.637184, -7.72805056, 2.73819588, 4.2318998, 21.4236718, 0.0, -8.1155431, 2.74067506, 7.592717260000001, -1.0807892, 73.769206, 0.0, -38.946896, -19.3254304, 49.0953964, -26.358168, 0.0
24.637184, -13.8810892, 7.5276564, 9.8333288, 10.161812600000001, 0.0, -24.637184, -7.69617908, 2.71612204, 4.2012036, 21.3879174, 0.0, -8.067050799999999, 2.73388118, 7.59026078, -1.0782508, 73.813528, 0.0, -38.947279, -19.3359032, 49.0915902, -26.352212, 0.0
24.637184, -13.813932, 7.568632, 9.805106, 10.121441, 0.0, -24.637184, -7.6643076, 2.6940482, 4.1705074, 21.352163, 0.0, -8.0185585, 2.7270873, 7.5878043, -1.0757124, 73.85785, 0.0, -38.947662, -19.346376, 49.087784, -26.346256, 0.0
24.637184, -13.7382928, 7.6070696, 9.773213, 10.0729986, 0.0, -24.637184, -7.62967634, 2.6772824, 4.13956106, 21.338878, 0.0, -7.950539599999999, 2.69677012, 7.57227572, -1.12037446, 73.922888, 0.0, -38.9576036, -19.377161, 49.070268399999996, -26.3550406, 0.0
24.637184, -13.6626536, 7.6455072, 9.74132, 10.024556200000001, 0.0, -24.637184, -7.59504508, 2.6605166000000002, 4.10861472, 21.325593, 0.0, -7.8825207, 2.66645294, 7.556747140000001, -1.1650365200000001, 73.987926, 0.0, -38.967545199999996, -19.407946, 49.0527528, -26.3638252, 0.0
24.637184, -13.5870144, 7.6839448, 9.709427, 9.9761138, 0.0, -24.637184, -7.56041382, 2.6437508, 4.0776683799999995, 21.312307999999998, 0.0, -7.8145017999999995, 2.6361357599999997, 7.54121856, -1.20969858, 74.052964, 0.0, -38.9774868, -19.438731, 49.0352372, -26.3726098, 0.0
24.637184, -13.5113752, 7.7223824, 9.677534, 9.927671400000001, 0.0, -24.637184, -7.525782560000001, 2.626985, 4.04672204, 21.299023, 0.0, -7.7464829, 2.6058185799999998, 7.52568998, -1.25436064, 74.118002, 0.0, -38.9874284, -19.469516, 49.0177216, -26.3813944, 0.0
24.637184, -13.435736, 7.76082, 9.645641, 9.879229, 0.0, -24.637184, -7.4911513, 2.6102192, 4.0157757, 21.285738, 0.0, -7.678464, 2.5755014, 7.5101614, -1.2990227, 74.18304, 0.0, -38.99737, -19.500301, 49.000206, -26.390179, 0.0
24.637184, -13.3441034, 7.8097638, 9.6267084, 9.8159814, 0.0, -24.637184, -7.43528698, 2.59608376, 4.00586426, 21.2808864, 0.0, -7.5909558, 2.50687196, 7.50572776, -1.4101126400000001, 74.283766, 0.0, -39.009504799999995, -19.5576568, 48.9389148, -26.3595434, 0.0
24.637184, -13.2524708, 7.8587076, 9.6077758, 9.7527338, 0.0, -24.637184, -7.37942266, 2.58194832, 3.99595282, 21.276034799999998, 0.0, -7.5034476, 2.4382425199999997, 7.50129412, -1.52120258, 74.38449200000001, 0.0, -39.0216396, -19.6150126, 48.8776236, -26.3289078, 0.0
24.637184, -13.1608382, 7.907651400000001, 9.5888432, 9.689486200000001, 0.0, -24.637184, -7.32355834, 2.56781288, 3.98604138, 21.2711832, 0.0, -7.4159394, 2.36961308, 7.4968604800000005, -1.63229252, 74.485218, 0.0, -39.0337744, -19.6723684, 48.8163324, -26.2982722, 0.0
24.637184, -13.0692056, 7.956595200000001, 9.5699106, 9.6262386, 0.0, -24.637184, -7.26769402, 2.55367744, 3.97612994, 21.266331599999997, 0.0, -7.328431200000001, 2.30098364, 7.49242684, -1.7433824599999999, 74.58594400000001, 0.0, -39.045909200000004, -19.7297242, 48.7550412, -26.2676366, 0.0
24.637184, -12.977573, 8.005539, 9.550978, 9.562991, 0.0, -24.637184, -7.2118297, 2.539542, 3.9662185, 21.26148, 0.0, -7.240923, 2.2323542, 7.4879932, -1.8544724, 74.68667, 0.0, -39.058044, -19.78708, 48.69375, -26.237001, 0.0
24.637184, -12.878828, 8.062819000000001, 9.554066, 9.5015904, 0.0, -24.637184, -7.13091856, 2.52573192, 4.01172354, 21.2635538, 0.0, -7.1276136, 2.0958127, 7.50647722, -2.06261702, 74.812982, 0.0, -38.9886578, -19.9502466, 48.4566366, -25.874831, 0.0
24.637184, -12.780083, 8.120099, 9.557154, 9.4401898, 0.0, -24.637184, -7.05000742, 2.51192184, 4.05722858, 21.2656276, 0.0, -7.0143042, 1.9592712, 7.52496124, -2.27076164, 74.939294, 0.0, -38.9192716, -20.1134132, 48.219523200000005, -25.512661, 0.0
24.637184, -12.681338, 8.177379, 9.560242, 9.3787892, 0.0, -24.637184, -6.96909628, 2.49811176, 4.1027336199999995, 21.2677014, 0.0, -6.9009948, 1.8227297, 7.54344526, -2.4789062599999996, 75.065606, 0.0, -38.8498854, -20.2765798, 47.9824098, -25.150491, 0.0
24.637184, -12.582593, 8.234658999999999, 9.56333, 9.317388600000001, 0.0, -24.637184, -6.88818514, 2.4843016799999997, 4.14823866, 21.269775199999998, 0.0, -6.7876854, 1.6861882000000001, 7.56192928, -2.6870508799999997, 75.191918, 0.0, -38.7804992, -20.4397464, 47.7452964, -24.788321, 0.0
24.637184, -12.483848, 8.291939, 9.566418, 9.255988, 0.0, -24.637184, -6.807274, 2.4704916, 4.1937437, 21.271849, 0.0, -6.674376, 1.5496467, 7.5804133, -2.8951955, 75.31823, 0.0, -38.711113, -20.602913, 47.508183, -24.426151, 0.0
24.637184, -12.4424754, 8.259385799999999, 9.5314352, 9.266270200000001, 0.0, -24.637184, -6.7954753, 2.45756364, 4.25805406, 21.2797218, 0.0, -6.489768499999999, 1.32581382, 7.59965244, -3.2155585999999996, 75.413936, 0.0, -38.297160399999996, -20.8451126, 47.005536400000004, -23.3164728, 0.0
24.637184, -12.4011028, 8.2268326, 9.4964524, 9.2765524, 0.0, -24.637184, -6.7836766, 2.44463568, 4.3223644199999995, 21.2875946, 0.0, -6.305161, 1.10198094, 7.61889158, -3.5359217, 75.509642, 0.0, -37.8832078, -21.0873122, 46.502889800000005, -22.2067946, 0.0
24.637184, -12.3597302, 8.1942794, 9.4614696, 9.2868346, 0.0, -24.637184, -6.7718779, 2.43170772, 4.38667478, 21.2954674, 0.0, -6.1205535, 0.87814806, 7.63813072, -3.8562847999999996, 75.605348, 0.0, -37.4692552, -21.329511800000002, 46.0002432, -21.097116399999997, 0.0
24.637184, -12.3183576, 8.1617262, 9.4264868, 9.2971168, 0.0, -24.637184, -6.7600792, 2.41877976, 4.450985139999999, 21.303340199999997, 0.0, -5.935946, 0.65431518, 7.65736986, -4.1766479, 75.701054, 0.0, -37.055302600000005, -21.5717114, 45.4975966, -19.9874382, 0.0
24.637184, -12.276985, 8.129173, 9.391504, 9.307399, 0.0, -24.637184, -6.7482805, 2.4058518, 4.5152955, 21.311213, 0.0, -5.7513385, 0.4304823, 7.676609, -4.497011, 75.79676, 0.0, -36.64135, -21.813911, 44.99495, -18.87776, 0.0
24.637184, -12.2699942, 7.8799589999999995, 9.3094854, 9.5534026, 0.0, -24.637184, -6.95761946, 2.30020052, 4.472945, 21.2445992, 0.0, -5.4546695000000005, 0.25578174, 7.6378656, -4.85331626, 75.82738400000001, 0.0, -35.5510728, -21.635223, 44.330652, -16.9154677, 0.0
24.637184, -12.2630034, 7.630745, 9.2274668, 9.7994062, 0.0, -24.637184, -7.16695842, 2.19454924, 4.4305945, 21.1779854, 0.0, -5.1580005, 0.08108117999999997, 7.5991222, -5.20962152, 75.858008, 0.0, -34.460795600000004, -21.456535, 43.666354, -14.9531754, 0.0
24.637184, -12.2560126, 7.381531, 9.145448199999999, 10.0454098, 0.0, -24.637184, -7.3762973800000005, 2.08889796, 4.388244, 21.1113716, 0.0, -4.8613315, -0.09361938000000003, 7.5603788, -5.56592678, 75.888632, 0.0, -33.3705184, -21.277847, 43.002056, -12.9908831, 0.0
24.637184, -12.249021800000001, 7.1323170000000005, 9.0634296, 10.2914134, 0.0, -24.637184, -7.58563634, 1.98324668, 4.3458935, 21.0447578, 0.0, -4.564662500000001, -0.26831994000000003, 7.5216354, -5.92223204, 75.91925599999999, 0.0, -32.2802412, -21.099159, 42.337758, -11.0285908, 0.0
24.637184, -12.242031, 6.883103, 8.981411, 10.537417, 0.0, -24.637184, -7.7949753, 1.8775954, 4.303543, 20.978144, 0.0, -4.2679935, -0.4430205, 7.482892, -6.2785373, 75.94988, 0.0, -31.189964, -20.920471, 41.67346, -9.0662985, 0.0
24.637184, -12.2184934, 6.4682226, 8.8866584, 10.952967, 0.0, -24.637184, -8.16433664, 1.650689772, 4.164072780000001, 20.7893496, 0.0, -3.87575496, -0.55908358, 7.3743435999999996, -6.60171404, 75.90683999999999, 0.0, -29.3593068, -20.152997799999998, 40.772712, -6.26983014, 0.0
24.637184, -12.1949558, 6.0533422, 8.7919058, 11.368516999999999, 0.0, -24.637184, -8.53369798, 1.4237841439999999, 4.02460256, 20.600555200000002, 0.0, -3.48351642, -0.67514666, 7.2657951999999995, -6.92489078, 75.8638, 0.0, -27.528649599999998, -19.3855246, 39.871964, -3.4733617800000003, 0.0
24.637184, -12.1714182, 5.6384618, 8.697153199999999, 11.784067, 0.0, -24.637184, -8.90305932, 1.196878516, 3.88513234, 20.4117608, 0.0, -3.0912778800000003, -0.79120974, 7.1572468, -7.24806752, 75.82075999999999, 0.0, -25.697992399999997, -18.6180514, 38.971216, -0.6768934200000007, 0.0
24.637184, -12.1478806, 5.2235814000000005, 8.6024006, 12.199617, 0.0, -24.637184, -9.27242066, 0.9699728879999999, 3.74566212, 20.2229664, 0.0, -2.69903934, -0.90727282, 7.0486984, -7.57124426, 75.77772, 0.0, -23.8673352, -17.8505782, 38.070468, 2.1195749399999997, 0.0
24.637184, -12.124343, 4.808701, 8.507648, 12.615167, 0.0, -24.637184, -9.641782, 0.74306726, 3.6061919, 20.034172, 0.0, -2.3068008, -1.0233359, 6.94015, -7.894421, 75.73468, 0.0, -22.036678, -17.083105, 37.16972, 4.9160433, 0.0
24.637184, -12.14749, 4.41580974, 8.3565754, 12.894403, 0.0, -24.637184, -9.892394, 0.5076366139999999, 3.55227906, 19.8385384, 0.0, -1.825058844, -1.28795196, 6.8014526, -8.2361488, 75.6369948, 0.0, -19.8282548, -16.138757599999998, 35.773542, 8.324152040000001, 0.0
24.637184, -12.170637, 4.02291848, 8.2055028, 13.173639, 0.0, -24.637184, -10.143006, 0.27220596799999996, 3.49836622, 19.6429048, 0.0, -1.343316888, -1.55256802, 6.6627552, -8.5778766, 75.5393096, 0.0, -17.619831599999998, -15.1944102, 34.377364, 11.73226078, 0.0
24.637184, -12.193784, 3.63002722, 8.054430199999999, 13.452875, 0.0, -24.637184, -10.393618, 0.03677532199999989, 3.44445338, 19.447271200000003, 0.0, -0.8615749319999999, -1.81718408, 6.5240578, -8.9196044, 75.4416244, 0.0, -15.4114084, -14.2500628, 32.981186, 15.140369520000002, 0.0
24.637184, -12.216931, 3.23713596, 7.9033576, 13.732111, 0.0, -24.637184, -10.64423, -0.19865532400000008, 3.39054054, 19.251637600000002, 0.0, -0.3798329759999999, -2.0818001400000004, 6.3853604, -9.2613322, 75.3439392, 0.0, -13.2029852, -13.3057154, 31.585008, 18.548478260000003, 0.0
24.637184, -12.240078, 2.8442447, 7.752285, 14.011347, 0.0, -24.637184, -10.894842, -0.43408597, 3.3366277, 19.056004, 0.0, 0.10190898, -2.3464162, 6.246663, -9.60306, 75.246254, 0.0, -10.994562, -12.361368, 30.18883, 21.956587, 0.0
24.637184, -12.195771, 2.66853844, 7.62376, 14.0305972, 0.0, -24.637184, -10.9840608, -0.560103296, 3.3647644800000003, 18.8295302, 0.0, 0.367691284, -2.4620930000000003, 6.17433856, -9.7917974, 75.21377319999999, 0.0, -9.18588846, -11.7878454, 28.2013382, 25.252819199999998, 0.0
24.637184, -12.151464, 2.49283218, 7.495235, 14.0498474, 0.0, -24.637184, -11.0732796, -0.686120622, 3.3929012600000004, 18.6030564, 0.0, 0.6334735880000001, -2.5777698, 6.10201412, -9.9805348, 75.18129239999999, 0.0, -7.37721492, -11.2143228, 26.213846399999998, 28.5490514, 0.0
24.637184, -12.107156999999999, 2.31712592, 7.366709999999999, 14.0690976, 0.0, -24.637184, -11.1624984, -0.8121379479999999, 3.42103804, 18.376582600000003, 0.0, 0.8992558920000001, -2.6934466, 6.02968968, -10.1692722, 75.1488116, 0.0, -5.568541379999999, -10.640800200000001, 24.2263546, 31.8452836, 0.0
24.637184, -12.06285, 2.14141966, 7.238185, 14.0883478, 0.0, -24.637184, -11.2517172, -0.9381552740000001, 3.44917482, 18.1501088, 0.0, 1.165038196, -2.8091234, 5.95736524, -10.358009599999999, 75.1163308, 0.0, -3.759867839999999, -10.0672776, 22.2388628, 35.1415158, 0.0
24.637184, -12.018543, 1.9657134, 7.10966, 14.107598, 0.0, -24.637184, -11.340936, -1.0641726, 3.4773116, 17.923635, 0.0, 1.4308205, -2.9248002, 5.8850408, -10.546747, 75.08385, 0.0, -1.9511943, -9.493755, 20.251371, 38.437748, 0.0
24.637184, -11.899068, 1.93019676, 6.98534448, 13.9272858, 0.0, -24.637184, -11.380082199999999, -1.14085492, 3.4776544400000002, 17.585571, 0.0, 1.41676094, -2.7753517, 5.91204484, -10.4738706, 75.136482, 0.0, -0.8934068800000001, -9.128491, 18.156178399999998, 41.0710068, 0.0
24.637184, -11.779593, 1.89468012, 6.86102896, 13.7469736, 0.0, -24.637184, -11.4192284, -1.21753724, 3.4779972800000003, 17.247507000000002, 0.0, 1.40270138, -2.6259031999999998, 5.93904888, -10.4009942, 75.189114, 0.0, 0.1643805399999998, -8.763227, 16.060985799999997, 43.7042656, 0.0
24.637184, -11.660117999999999, 1.8591634799999999, 6.73671344, 13.5666614, 0.0, -24.637184, -11.458374599999999, -1.2942195600000002, 3.47834012, 16.909443, 0.0, 1.38864182, -2.4764546999999997, 5.96605292, -10.328117800000001, 75.24174599999999, 0.0, 1.2221679599999997, -8.397963, 13.9657932, 46.3375244, 0.0
24.637184, -11.540643, 1.8236468399999999, 6.612397919999999, 13.3863492, 0.0, -24.637184, -11.4975208, -1.3709018800000001, 3.47868296, 16.571379, 0.0, 1.37458226, -2.3270062, 5.99305696, -10.255241400000001, 75.294378, 0.0, 2.2799553799999996, -8.032699000000001, 11.8706006, 48.9707832, 0.0
24.637184, -11.421168, 1.7881302, 6.4880824, 13.206037, 0.0, -24.637184, -11.536667, -1.4475842, 3.4790258, 16.233315, 0.0, 1.3605227, -2.1775577, 6.020061, -10.182365, 75.34701, 0.0, 3.3377428, -7.667435, 9.775408, 51.604042, 0.0
24.637184, -11.2721186, 1.7386453599999998, 6.39713932, 13.1537872, 0.0, -24.637184, -11.5435844, -1.53346358, 3.4745269, 16.0535518, 0.0, 1.24208307, -1.99427428, 6.0984308, -9.9937394, 75.398348, 0.0, 3.6813096400000003, -7.50077434, 8.206250220000001, 53.4682044, 0.0
24.637184, -11.1230692, 1.68916052, 6.30619624, 13.1015374, 0.0, -24.637184, -11.5505018, -1.61934296, 3.470028, 15.873788600000001, 0.0, 1.12364344, -1.81099086, 6.1768006, -9.8051138, 75.449686, 0.0, 4.0248764800000005, -7.334113680000001, 6.63709244, 55.3323668, 0.0
24.637184, -10.9740198, 1.6396756799999999, 6.21525316, 13.049287600000001, 0.0, -24.637184, -11.5574192, -1.7052223400000002, 3.4655291, 15.6940254, 0.0, 1.00520381, -1.62770744, 6.2551704, -9.6164882, 75.501024, 0.0, 4.368443320000001, -7.16745302, 5.067934660000001, 57.1965292, 0.0
24.637184, -10.8249704, 1.59019084, 6.12431008, 12.997037800000001, 0.0, -24.637184, -11.564336599999999, -1.7911017200000001, 3.4610302, 15.5142622, 0.0, 0.88676418, -1.44442402, 6.3335402, -9.4278626, 75.552362, 0.0, 4.71201016, -7.00079236, 3.4987768800000003, 59.060691600000006, 0.0
24.637184, -10.675921, 1.540706, 6.033367, 12.944788, 0.0, -24.637184, -11.571254, -1.8769811, 3.4565313, 15.334499, 0.0, 0.76832455, -1.2611406, 6.41191, -9.239237, 75.6037, 0.0, 5.055577, -6.8341317, 1.9296191, 60.924854, 0.0
24.637184, -10.559943, 1.4907718399999998, 5.97247206, 12.9458563, 0.0, -24.637184, -11.533889799999999, -1.90503628, 3.47442738, 15.284716, 0.0, 0.629819598, -1.129712368, 6.4501759, -9.098786599999999, 75.648388, 0.0, 4.863172400000001, -6.666387960000001, 0.97546622, 62.072341200000004, 0.0
24.637184, -10.443965, 1.44083768, 5.9115771200000005, 12.946924600000001, 0.0, -24.637184, -11.4965256, -1.93309146, 3.49232346, 15.234933, 0.0, 0.491314646, -0.9982841360000001, 6.4884417999999995, -8.9583362, 75.693076, 0.0, 4.6707678, -6.49864422, 0.02131334000000007, 63.219828400000004, 0.0
24.637184, -10.327987, 1.39090352, 5.85068218, 12.9479929, 0.0, -24.637184, -11.4591614, -1.96114664, 3.51021954, 15.18515, 0.0, 0.35280969400000006, -0.866855904, 6.5267077, -8.817885799999999, 75.737764, 0.0, 4.4783632, -6.33090048, -0.9328395399999998, 64.3673156, 0.0
24.637184, -10.212009, 1.34096936, 5.78978724, 12.9490612, 0.0, -24.637184, -11.4217972, -1.98920182, 3.5281156200000003, 15.135367, 0.0, 0.21430474200000005, -0.735427672, 6.5649736, -8.6774354, 75.782452, 0.0, 4.2859586, -6.16315674, -1.88699242, 65.5148028, 0.0
24.637184, -10.096031, 1.2910352, 5.7288923, 12.9501295, 0.0, -24.637184, -11.384433, -2.017257, 3.5460117, 15.085584, 0.0, 0.07579979, -0.60399944, 6.6032395, -8.536985, 75.82714, 0.0, 4.093554, -5.995413, -2.8411453, 66.66229, 0.0
24.637184, -10.0226572, 1.30384312, 5.70815344, 12.9017526, 0.0, -24.637184, -11.3288546, -2.01790412, 3.56701916, 15.0210462, 0.0, 0.01725874, -0.583197496, 6.6105579, -8.4841014, 75.841756, 0.0, 3.6271796800000002, -5.73512654, -3.28096724, 67.202516, 0.0
24.637184, -9.9492834, 1.31665104, 5.68741458, 12.853375699999999, 0.0, -24.637184, -11.2732762, -2.01855124, 3.58802662, 14.9565084, 0.0, -0.04128231, -0.562395552, 6.6178763, -8.4312178, 75.85637200000001, 0.0, 3.16080536, -5.47484008, -3.72078918, 67.742742, 0.0
24.637184, -9.8759096, 1.32945896, 5.66667572, 12.8049988, 0.0, -24.637184, -11.2176978, -2.01919836, 3.6090340800000003, 14.8919706, 0.0, -0.09982336, -0.541593608, 6.6251947, -8.3783342, 75.870988, 0.0, 2.69443104, -5.21455362, -4.16061112, 68.282968, 0.0
24.637184, -9.802535800000001, 1.34226688, 5.64593686, 12.756621899999999, 0.0, -24.637184, -11.1621194, -2.01984548, 3.63004154, 14.8274328, 0.0, -0.15836441, -0.520791664, 6.6325131, -8.3254506, 75.885604, 0.0, 2.2280567199999997, -4.954267160000001, -4.60043306, 68.823194, 0.0
24.637184, -9.729162, 1.3550748, 5.625198, 12.708245, 0.0, -24.637184, -11.106541, -2.0204926, 3.651049, 14.762895, 0.0, -0.21690546, -0.49998972, 6.6398315, -8.272567, 75.90022, 0.0, 1.7616824, -4.6939807, -5.040255, 69.36342, 0.0
24.637184, -9.6805024, 1.39615468, 5.63609314, 12.6711147, 0.0, -24.637184, -11.0723067, -2.0277788599999997, 3.65655392, 14.6938762, 0.0, -0.200091524, -0.589918936, 6.61620088, -8.302529400000001, 75.866692, 0.0, 1.34151094, -4.45376844, -5.0889481000000005, 69.49996200000001, 0.0
24.637184, -9.6318428, 1.43723456, 5.64698828, 12.6339844, 0.0, -24.637184, -11.0380724, -2.03506512, 3.66205884, 14.6248574, 0.0, -0.183277588, -0.679848152, 6.59257026, -8.3324918, 75.833164, 0.0, 0.92133948, -4.21355618, -5.1376412, 69.636504, 0.0
24.637184, -9.5831832, 1.47831444, 5.65788342, 12.5968541, 0.0, -24.637184, -11.0038381, -2.04235138, 3.66756376, 14.555838600000001, 0.0, -0.166463652, -0.769777368, 6.56893964, -8.3624542, 75.799636, 0.0, 0.5011680199999999, -3.97334392, -5.1863343, 69.77304600000001, 0.0
24.637184, -9.5345236, 1.51939432, 5.668778560000001, 12.559723799999999, 0.0, -24.637184, -10.9696038, -2.0496376400000003, 3.67306868, 14.486819800000001, 0.0, -0.149649716, -0.859706584, 6.5453090199999995, -8.392416599999999, 75.766108, 0.0, 0.08099656, -3.7331316599999997, -5.2350274, 69.909588, 0.0
24.637184, -9.485864, 1.5604742, 5.6796737, 12.5225935, 0.0, -24.637184, -10.9353695, -2.0569239, 3.6785736, 14.417801, 0.0, -0.13283578, -0.9496358, 6.5216784, -8.422379, 75.73258, 0.0, -0.3391749, -3.4929194, -5.2837205, 70.04613, 0.0
