isaac-sim2real/sage/motion_files/h1_2/amass/0-wave_both02_poses_action_sequence.txt
left_hip_yaw_joint, left_hip_pitch_joint, left_hip_roll_joint, left_knee_joint, left_ankle_pitch_joint, left_ankle_roll_joint, right_hip_yaw_joint, right_hip_pitch_joint, right_hip_roll_joint, right_knee_joint, right_ankle_pitch_joint, right_ankle_roll_joint, torso_joint, left_shoulder_pitch_joint, left_shoulder_roll_joint, left_shoulder_yaw_joint, left_elbow_joint, left_wrist_roll_joint, right_shoulder_pitch_joint, right_shoulder_roll_joint, right_shoulder_yaw_joint, right_elbow_joint, right_wrist_roll_joint
0.4299999792196667, 0.021837528185026513, 0.03713883846390706, -0.08447426740908343, 0.3345264199717122, 0.0, -0.2888651684409141, 0.057752840228737244, -0.02208687115795418, -0.10727406716923375, 0.3427881105189525, 0.0, 0.014039319769029987, 0.05039083200431493, 0.20194536313722872, 0.19255540449503666, 1.284669667216824, 0.0, 0.010560660927247566, -0.205561685347361, -0.3965982170608495, 1.1510219524099845, 0.0
0.4299999792196667, 0.02195740891722655, 0.037183563573186966, -0.08429252278341474, 0.3346751569305671, 0.0, -0.28898363789988096, 0.05759481916545923, -0.022386286928989862, -0.10752438962093763, 0.34226785579420105, 0.0, 0.013771463146248622, 0.05033391681740739, 0.20194307675590864, 0.19252875680801718, 1.2846310256271851, 0.0, 0.010804990616431802, -0.20555807600646786, -0.3967984621765893, 1.151124787209512, 0.0
0.4299999792196667, 0.022077289649426582, 0.03722828868246687, -0.08411077815774608, 0.334823893889422, 0.0, -0.2891021073588478, 0.05743679810218121, -0.022685702700025543, -0.10777471207264153, 0.3417476010694496, 0.0, 0.013503606523467255, 0.050277001630499855, 0.2019407903745885, 0.19250210912099774, 1.2845923840375457, 0.0, 0.01104932030561604, -0.20555446666557475, -0.39699870729232917, 1.1512276220090396, 0.0
0.4299999792196667, 0.022197170381626614, 0.03727301379174678, -0.0839290335320774, 0.33497263084827705, 0.0, -0.2892205768178147, 0.05727877703890319, -0.022985118471061227, -0.1080250345243454, 0.34122734634469815, 0.0, 0.01323574990068589, 0.05022008644359231, 0.20193850399326838, 0.1924754614339783, 1.2845537424479068, 0.0, 0.011293649994800278, -0.20555085732468162, -0.39719895240806896, 1.1513304568085667, 0.0
0.4299999792196667, 0.022317051113826647, 0.037317738901026694, -0.08374728890640873, 0.335121367807132, 0.0, -0.28933904627678153, 0.05712075597562519, -0.02328453424209691, -0.10827535697604929, 0.34070709161994667, 0.0, 0.012967893277904525, 0.05016317125668479, 0.20193621761194827, 0.19244881374695888, 1.2845151008582674, 0.0, 0.011537979683984517, -0.20554724798378848, -0.3973991975238088, 1.1514332916080945, 0.0
0.4299999792196667, 0.022436931846026683, 0.037362464010306594, -0.08356554428074006, 0.3352701047659869, 0.0, -0.28945751573574846, 0.056962734912347164, -0.023583950013132588, -0.10852567942775318, 0.34018683689519513, 0.0, 0.012700036655123158, 0.05010625606977725, 0.2019339312306282, 0.1924221660599394, 1.2844764592686282, 0.0, 0.011782309373168754, -0.20554363864289538, -0.3975994426395486, 1.1515361264076218, 0.0
0.4299999792196667, 0.022462740378741772, 0.037279963692828225, -0.0833865412182604, 0.33521180378765336, 0.0, -0.2897909434360494, 0.0571655795214749, -0.02387608915745086, -0.10834791624717414, 0.33952339186795155, 0.0, 0.012545924954836685, 0.05014915277213276, 0.20179223143931727, 0.19230127059331226, 1.2844558120235772, 0.0, 0.01200728430342617, -0.20544632606512117, -0.39773326401461606, 1.1516588230540372, 0.0
0.4299999792196667, 0.022488548911456865, 0.037197463375349855, -0.08320753815578076, 0.33515350280931977, 0.0, -0.2901243711363504, 0.05736842413060263, -0.02416822830176913, -0.10817015306659512, 0.33885994684070797, 0.0, 0.012391813254550212, 0.050192049474488284, 0.20165053164800636, 0.1921803751266851, 1.2844351647785264, 0.0, 0.012232259233683585, -0.20534901348734694, -0.3978670853896834, 1.1517815197004524, 0.0
0.4299999792196667, 0.02251435744417195, 0.03711496305787148, -0.08302853509330113, 0.33509520183098607, 0.0, -0.2904577988366514, 0.05757126873973036, -0.024460367446087393, -0.1079923898860161, 0.3381965018134644, 0.0, 0.012237701554263737, 0.0502349461768438, 0.20150883185669544, 0.19205947966005799, 1.284414517533475, 0.0, 0.012457234163941, -0.2052517009095728, -0.39800090676475086, 1.1519042163468676, 0.0
0.4299999792196667, 0.022540165976887048, 0.03703246274039311, -0.08284953203082149, 0.3350369008526525, 0.0, -0.29079122653695244, 0.0577741133488581, -0.024752506590405662, -0.10781462670543708, 0.33753305678622075, 0.0, 0.012083589853977264, 0.05027784287919931, 0.20136713206538448, 0.19193858419343085, 1.2843938702884239, 0.0, 0.012682209094198418, -0.2051543883317986, -0.3981347281398183, 1.1520269129932827, 0.0
0.4299999792196667, 0.022565974509602134, 0.03694996242291474, -0.08267052896834186, 0.3349785998743189, 0.0, -0.2911246542372534, 0.05797695795798583, -0.025044645734723932, -0.10763686352485805, 0.33686961175897717, 0.0, 0.011929478153690791, 0.050320739581554835, 0.20122543227407358, 0.19181768872680366, 1.2843732230433729, 0.0, 0.012907184024455834, -0.20505707575402438, -0.3982685495148856, 1.152149609639698, 0.0
0.4299999792196667, 0.02243187457998611, 0.03668979003104429, -0.08255718833391489, 0.33469614276949305, 0.0, -0.2913603504807597, 0.05831773349443773, -0.025110337484308045, -0.10720449659991999, 0.336205192838011, 0.0, 0.012017566491835273, 0.050422074794189024, 0.20103048248728433, 0.19159869179358044, 1.2843487360739674, 0.0, 0.012931991366498809, -0.20496084877104492, -0.3983125178494019, 1.1521970825953523, 0.0
0.4299999792196667, 0.022297774650370073, 0.03642961763917386, -0.08244384769948793, 0.33441368566466734, 0.0, -0.2915960467242661, 0.05865850903088962, -0.025176029233892158, -0.10677212967498194, 0.3355407739170448, 0.0, 0.012105654829979754, 0.05052341000682321, 0.20083553270049503, 0.19137969486035722, 1.2843242491045619, 0.0, 0.012956798708541786, -0.20486462178806547, -0.3983564861839181, 1.1522445555510064, 0.0
0.4299999792196667, 0.02216367472075404, 0.03616944524730342, -0.08233050706506097, 0.33413122855984156, 0.0, -0.29183174296777237, 0.05899928456734152, -0.025241720983476275, -0.1063397627500439, 0.33487635499607854, 0.0, 0.012193743168124235, 0.050624745219457416, 0.20064058291370582, 0.19116069792713397, 1.2842997621351564, 0.0, 0.012981606050584765, -0.20476839480508602, -0.3984004545184344, 1.1522920285066607, 0.0
0.4299999792196667, 0.02202957479113801, 0.03590927285543298, -0.08221716643063402, 0.3338487714550159, 0.0, -0.29206743921127876, 0.05934006010379341, -0.025307412733060385, -0.10590739582510585, 0.33421193607511235, 0.0, 0.012281831506268714, 0.05072608043209159, 0.20044563312691652, 0.1909417009939107, 1.284275275165751, 0.0, 0.013006413392627739, -0.20467216782210654, -0.3984444228529506, 1.152339501462315, 0.0
0.4299999792196667, 0.021895474861521977, 0.035649100463562546, -0.08210382579620705, 0.3335663143501901, 0.0, -0.29230313545478503, 0.059680835640245296, -0.025373104482644498, -0.1054750289001678, 0.3335475171541461, 0.0, 0.012369919844413194, 0.050827415644725794, 0.20025068334012724, 0.19072270406068748, 1.2842507881963454, 0.0, 0.013031220734670716, -0.20457594083912709, -0.3984883911874669, 1.1523869744179691, 0.0
0.4299999792196667, 0.021705380231645914, 0.035443065043496313, -0.0820521486914506, 0.3332637929402834, 0.0, -0.2920213834629771, 0.05929595214293701, -0.025366018445881405, -0.1057206002165819, 0.3329148353002982, 0.0, 0.012228863730530417, 0.050881358884983026, 0.20019572641264047, 0.19042011283761073, 1.2841913771886075, 0.0, 0.01316453893131478, -0.2046054229408518, -0.3986498725405199, 1.1524317246599904, 0.0
0.4299999792196667, 0.021515285601769848, 0.035237029623430074, -0.08200047158669416, 0.33296127153037675, 0.0, -0.29173963147116916, 0.05891106864562871, -0.025358932409118306, -0.10596617153299602, 0.33228215344645023, 0.0, 0.012087807616647635, 0.050935302125240264, 0.20014076948515366, 0.19011752161453396, 1.2841319661808694, 0.0, 0.013297857127958845, -0.2046349050425765, -0.3988113538935729, 1.1524764749020113, 0.0
0.4299999792196667, 0.021325190971893785, 0.03503099420336385, -0.08194879448193769, 0.3326587501204701, 0.0, -0.2914578794793612, 0.05852618514832042, -0.02535184637235521, -0.10621174284941011, 0.3316494715926023, 0.0, 0.011946751502764854, 0.05098924536549751, 0.2000858125576669, 0.1898149303914572, 1.284072555173132, 0.0, 0.013431175324602905, -0.20466438714430119, -0.39897283524662597, 1.1525212251440327, 0.0
0.4299999792196667, 0.02113509634201772, 0.03482495878329762, -0.08189711737718125, 0.33235622871056336, 0.0, -0.2911761274875532, 0.058141301651012126, -0.02534476033559211, -0.10645731416582421, 0.3310167897387543, 0.0, 0.011805695388882074, 0.05104318860575475, 0.20003085563018008, 0.18951233916838042, 1.284013144165394, 0.0, 0.01356449352124697, -0.2046938692460259, -0.399134316599679, 1.1525659753860535, 0.0
0.4299999792196667, 0.020945001712141656, 0.03461892336323139, -0.0818454402724248, 0.3320537073006567, 0.0, -0.2908943754957453, 0.05775641815370383, -0.02533767429882901, -0.10670288548223833, 0.33038410788490635, 0.0, 0.011664639274999295, 0.05109713184601198, 0.1999758987026933, 0.18920974794530368, 1.283953733157656, 0.0, 0.013697811717891032, -0.20472335134775055, -0.3992957979527319, 1.1526107256280749, 0.0
0.4299999792196667, 0.020838172203022184, 0.034640701581637776, -0.08170206566316368, 0.3318394437003649, 0.0, -0.2904881920002457, 0.057390417024507014, -0.025147808307084966, -0.10696061964914373, 0.32985846707408323, 0.0, 0.011733450277022573, 0.051245916626888446, 0.2000107145306121, 0.18875865712815024, 1.2838969890130152, 0.0, 0.013727392430718459, -0.20470261334557835, -0.39935270964898095, 1.1526131900329788, 0.0
0.4299999792196667, 0.020731342693902716, 0.03466247980004416, -0.08155869105390254, 0.331625180100073, 0.0, -0.2900820085047461, 0.057024415895310196, -0.024957942315340906, -0.10721835381604913, 0.3293328262632601, 0.0, 0.011802261279045852, 0.05139470140776491, 0.20004553035853084, 0.18830756631099677, 1.2838402448683743, 0.0, 0.013756973143545884, -0.20468187534340615, -0.39940962134523006, 1.1526156544378827, 0.0
0.4299999792196667, 0.02062451318478324, 0.03468425801845054, -0.08141531644464141, 0.3314109164997812, 0.0, -0.28967582500924643, 0.056658414766113385, -0.024768076323596854, -0.10747608798295454, 0.32880718545243703, 0.0, 0.011871072281069126, 0.05154348618864137, 0.20008034618644963, 0.18785647549384332, 1.2837835007237335, 0.0, 0.013786553856373309, -0.20466113734123398, -0.3994665330414791, 1.1526181188427862, 0.0
0.4299999792196667, 0.020517683675663773, 0.03470603623685693, -0.08127194183538028, 0.33119665289948935, 0.0, -0.28926964151374673, 0.05629241363691656, -0.024578210331852802, -0.10773382214985995, 0.32828154464161385, 0.0, 0.011939883283092407, 0.051692270969517826, 0.2001151620143684, 0.18740538467668988, 1.2837267565790926, 0.0, 0.013816134569200734, -0.20464039933906178, -0.39952344473772816, 1.1526205832476901, 0.0
0.4299999792196667, 0.0204108541665443, 0.03472781445526331, -0.08112856722611916, 0.33098238929919754, 0.0, -0.28886345801824714, 0.05592641250771974, -0.02438834434010875, -0.10799155631676535, 0.32775590383079073, 0.0, 0.012008694285115685, 0.05184105575039429, 0.2001499778422872, 0.18695429385953644, 1.283670012434452, 0.0, 0.013845715282028161, -0.20461966133688958, -0.3995803564339771, 1.1526230476525938, 0.0
0.4299999792196667, 0.02034103541141092, 0.03488193435859727, -0.08099218999089514, 0.3307629176364178, 0.0, -0.2885598719574967, 0.05577152710297586, -0.0241506559777942, -0.10804636524033157, 0.32771742630210127, 0.0, 0.01210369744322364, 0.051992507394367796, 0.20013690183553126, 0.18614298453806388, 1.2835469178529673, 0.0, 0.013816249272239175, -0.20454997383051593, -0.3994439694249093, 1.1525695847269468, 0.0
0.4299999792196667, 0.020271216656277544, 0.03503605426193123, -0.08085581275567111, 0.330543445973638, 0.0, -0.28825628589674634, 0.055616641698231974, -0.023912967615479654, -0.10810117416389779, 0.3276789487734118, 0.0, 0.012198700601331599, 0.05214395903834131, 0.20012382582877533, 0.18533167521659136, 1.2834238232714825, 0.0, 0.013786783262450192, -0.20448028632414234, -0.3993075824158414, 1.1525161218012996, 0.0
0.4299999792196667, 0.020201397901144166, 0.03519017416526519, -0.08071943552044705, 0.3303239743108582, 0.0, -0.2879526998359959, 0.0554617562934881, -0.0236752792531651, -0.10815598308746403, 0.3276404712447223, 0.0, 0.012293703759439554, 0.05229541068231482, 0.20011074982201937, 0.18452036589511878, 1.2833007286899978, 0.0, 0.013757317252661206, -0.20441059881776869, -0.39917119540677365, 1.1524626588756526, 0.0
0.4299999792196667, 0.020131579146010787, 0.03534429406859914, -0.08058305828522302, 0.3301045026480784, 0.0, -0.28764911377524555, 0.05530687088874421, -0.023437590890850554, -0.10821079201103026, 0.3276019937160329, 0.0, 0.012388706917547513, 0.05244686232628834, 0.20009767381526342, 0.18370905657364622, 1.2831776341085133, 0.0, 0.013727851242872223, -0.20434091131139503, -0.3990348083977058, 1.1524091959500056, 0.0
0.4299999792196667, 0.020061760390877408, 0.0354984139719331, -0.08044668104999898, 0.3298850309852986, 0.0, -0.2873455277144951, 0.055151985484000327, -0.023199902528536005, -0.10826560093459649, 0.3275635161873434, 0.0, 0.01248371007565547, 0.052598313970261844, 0.2000845978085075, 0.18289774725217367, 1.2830545395270285, 0.0, 0.013698385233083235, -0.2042712238050214, -0.39889842138863785, 1.1523557330243586, 0.0
0.4299999792196667, 0.020140398643786965, 0.03562794602583082, -0.08034365182079281, 0.3295741878455184, 0.0, -0.28718774296879784, 0.05506467783163027, -0.0231919375439616, -0.10827491610588023, 0.3278619256015324, 0.0, 0.012279011403263339, 0.05270908408376647, 0.1999278532790444, 0.18150348923388873, 1.2827727526286357, 0.0, 0.01385691293053652, -0.20424639824174104, -0.39859404992972414, 1.1522464754131836, 0.0
0.4299999792196667, 0.02021903689669652, 0.035757478079728525, -0.08024062259158664, 0.3292633447057382, 0.0, -0.2870299582231005, 0.05497737017926021, -0.0231839725593872, -0.10828423127716397, 0.3281603350157214, 0.0, 0.012074312730871213, 0.05281985419727109, 0.1997711087495813, 0.1801092312156038, 1.2824909657302428, 0.0, 0.014015440627989807, -0.2042215726784607, -0.3982896784708103, 1.1521372178020088, 0.0
0.4299999792196667, 0.02029767514960608, 0.03588701013362624, -0.08013759336238045, 0.32895250156595807, 0.0, -0.28687217347740324, 0.054890062526890146, -0.023176007574812803, -0.10829354644844773, 0.32845874442991035, 0.0, 0.011869614058479085, 0.052930624310775706, 0.19961436422011816, 0.17871497319731894, 1.2822091788318497, 0.0, 0.01417396832544309, -0.2041967471151803, -0.39798530701189655, 1.1520279601908336, 0.0
0.4299999792196667, 0.020376313402515635, 0.03601654218752395, -0.08003456413317428, 0.3286416584261779, 0.0, -0.28671438873170596, 0.05480275487452008, -0.0231680425902384, -0.10830286161973146, 0.3287571538440993, 0.0, 0.01166491538608696, 0.05304139442428033, 0.19945761969065504, 0.17732071517903397, 1.2819273919334566, 0.0, 0.014332496022896376, -0.20417192155189995, -0.3976809355529828, 1.151918702579659, 0.0
0.4299999792196667, 0.020454951655425192, 0.03614607424142166, -0.07993153490396811, 0.3283308152863977, 0.0, -0.2865566039860087, 0.05471544722215002, -0.023160077605664, -0.10831217679101521, 0.3290555632582883, 0.0, 0.011460216713694833, 0.053152164537784964, 0.19930087516119196, 0.17592645716074906, 1.2816456050350635, 0.0, 0.014491023720349659, -0.20414709598861955, -0.39737656409406896, 1.1518094449684841, 0.0
0.4299999792196667, 0.020588081531042964, 0.036215538694716894, -0.07997374185220323, 0.327920254505134, 0.0, -0.2863569976607751, 0.05463799579313182, -0.023190882317895845, -0.10840720647812781, 0.32935223083388376, 0.0, 0.011233505599710703, 0.05346727221505947, 0.1991408633753691, 0.1738075419276946, 1.2811349775464662, 0.0, 0.014831864532115577, -0.20412718178185432, -0.396634491984023, 1.15150827095276, 0.0
0.4299999792196667, 0.020721211406660736, 0.03628500314801211, -0.08001594880043836, 0.32750969372387034, 0.0, -0.2861573913355415, 0.05456054436411362, -0.023221687030127697, -0.10850223616524038, 0.3296488984094793, 0.0, 0.011006794485726572, 0.05378237989233398, 0.19898085158954626, 0.17168862669464013, 1.280624350057869, 0.0, 0.015172705343881494, -0.2041072675750891, -0.39589241987397705, 1.1512070969370358, 0.0
0.4299999792196667, 0.02085434128227851, 0.03635446760130734, -0.08005815574867348, 0.3270991329426068, 0.0, -0.28595778501030794, 0.054483092935095415, -0.02325249174235955, -0.10859726585235295, 0.3299455659850748, 0.0, 0.010780083371742442, 0.05409748756960849, 0.19882083980372345, 0.16956971146158564, 1.2801137225692714, 0.0, 0.015513546155647413, -0.20408735336832382, -0.39515034776393115, 1.1509059229213119, 0.0
0.4299999792196667, 0.020987471157896283, 0.03642393205460256, -0.08010036269690862, 0.3266885721613431, 0.0, -0.28575817868507436, 0.05440564150607721, -0.0232832964545914, -0.10869229553946555, 0.3302422335606703, 0.0, 0.010553372257758311, 0.054412595246883, 0.1986608280179006, 0.16745079622853118, 1.2796030950806738, 0.0, 0.015854386967413328, -0.2040674391615586, -0.3944082756538852, 1.1506047489055877, 0.0
0.4299999792196667, 0.021120601033514055, 0.03649339650789779, -0.08014256964514374, 0.3262780113800795, 0.0, -0.2855585723598408, 0.05432819007705901, -0.023314101166823246, -0.10878732522657815, 0.3305389011362658, 0.0, 0.010326661143774181, 0.054727702924157524, 0.19850081623207774, 0.16533188099547672, 1.2790924675920765, 0.0, 0.01619522777917925, -0.2040475249547933, -0.39366620354383924, 1.1503035748898636, 0.0
0.4299999792196667, 0.021271160814239794, 0.036411919651492784, -0.08022979561610481, 0.3258940110193727, 0.0, -0.2854774948347686, 0.05455384893203712, -0.023516458829089672, -0.10874553645923181, 0.33092867504613815, 0.0, 0.0101651799303475, 0.05521899600436725, 0.1984368883122357, 0.1620819313206061, 1.2779962611954838, 0.0, 0.016610048909147, -0.20394832393076845, -0.39201620417558886, 1.1494239987600283, 0.0
0.4299999792196667, 0.021421720594965537, 0.036330442795087785, -0.08031702158706587, 0.3255100106586659, 0.0, -0.28539641730969645, 0.05477950778701522, -0.023718816491356102, -0.10870374769188546, 0.33131844895601054, 0.0, 0.010003698716920823, 0.055710289084576994, 0.19837296039239366, 0.1588319816457355, 1.2769000547988911, 0.0, 0.01702487003911475, -0.20384912290674362, -0.3903662048073384, 1.1485444226301933, 0.0
0.4299999792196667, 0.021572280375691276, 0.03624896593868278, -0.08040424755802696, 0.3251260102979591, 0.0, -0.28531533978462437, 0.05500516664199332, -0.023921174153622528, -0.10866195892453909, 0.331708222865883, 0.0, 0.009842217503494143, 0.05620158216478672, 0.1983090324725516, 0.1555820319708649, 1.2758038484022987, 0.0, 0.017439691169082505, -0.20374992188271873, -0.3887162054390881, 1.1476648465003583, 0.0
0.4299999792196667, 0.021722840156417015, 0.036167489082277786, -0.08049147352898801, 0.32474200993725233, 0.0, -0.2852342622595522, 0.05523082549697142, -0.024123531815888954, -0.10862017015719273, 0.33209799677575536, 0.0, 0.009680736290067465, 0.056692875244996464, 0.19824510455270958, 0.15233208229599426, 1.274707642005706, 0.0, 0.017854512299050256, -0.20365072085869387, -0.38706620607083764, 1.1467852703705232, 0.0
0.4299999792196667, 0.021873399937142754, 0.03608601222587278, -0.08057869949994909, 0.3243580095765456, 0.0, -0.28515318473448, 0.05545648435194953, -0.02432588947815538, -0.10857838138984639, 0.3324877706856277, 0.0, 0.009519255076640785, 0.05718416832520619, 0.19818117663286752, 0.1490821326211237, 1.2736114356091133, 0.0, 0.01826933342901801, -0.203551519834669, -0.3854162067025873, 1.145905694240688, 0.0
0.4299999792196667, 0.022108429464874818, 0.035867835946463825, -0.08046459894916583, 0.3239853992345373, 0.0, -0.2851727184594684, 0.05609333579738048, -0.024742573572566713, -0.10824725298630199, 0.3328960590482053, 0.0, 0.009450435452691001, 0.05763542843929707, 0.19829543286702006, 0.14402255576461528, 1.271014123882758, 0.0, 0.01861361847352981, -0.20335459782582502, -0.3821213357434289, 1.1435466374105223, 0.0
0.4299999792196667, 0.022343458992606875, 0.03564965966705488, -0.08035049839838253, 0.323612788892529, 0.0, -0.28519225218445665, 0.056730187242811446, -0.025159257666978047, -0.10791612458275755, 0.3333043474107828, 0.0, 0.00938161582874122, 0.05808668855338797, 0.19840968910117265, 0.13896297890810685, 1.2684168121564026, 0.0, 0.018957903518041615, -0.20315767581698096, -0.37882646478427034, 1.141187580580357, 0.0
0.4299999792196667, 0.02257848852033894, 0.03543148338764592, -0.08023639784759926, 0.3232401785505208, 0.0, -0.285211785909445, 0.057367038688242396, -0.025575941761389373, -0.10758499617921315, 0.3337126357733603, 0.0, 0.009312796204791435, 0.05853794866747886, 0.19852394533532522, 0.13390340205159845, 1.2658195004300472, 0.0, 0.01930218856255342, -0.202960753808137, -0.3755315938251119, 1.1388285237501914, 0.0
0.4299999792196667, 0.022813518048070996, 0.035213307108236974, -0.08012229729681598, 0.3228675682085125, 0.0, -0.28523131963443327, 0.05800389013367336, -0.025992625855800706, -0.10725386777566873, 0.3341209241359378, 0.0, 0.009243976580841654, 0.05898920878156975, 0.19863820156947776, 0.12884382519509005, 1.263222188703692, 0.0, 0.019646473607065222, -0.202763831799293, -0.37223672286595344, 1.136469466920026, 0.0
0.4299999792196667, 0.023048547575803057, 0.03499513082882801, -0.08000819674603271, 0.3224949578665042, 0.0, -0.28525085335942163, 0.05864074157910432, -0.026409309950212036, -0.10692273937212429, 0.33452921249851536, 0.0, 0.00917515695689187, 0.059440468895660646, 0.1987524578036303, 0.12378424833858162, 1.2606248769773367, 0.0, 0.019990758651577026, -0.20256690979044897, -0.368941851906795, 1.1341104100898602, 0.0
0.4299999792196667, 0.02341258346426213, 0.034604499613227056, -0.07953413390526451, 0.3220263020557587, 0.0, -0.28495275810449805, 0.059383133782535076, -0.026746049936367467, -0.10655040095241348, 0.33450617066173055, 0.0, 0.009221231100963814, 0.06042328369421212, 0.1993863578972961, 0.11635699063100766, 1.2550070286343098, 0.0, 0.02066607087053663, -0.2025889882054867, -0.36329733493279776, 1.1285240439958808, 0.0
0.4299999792196667, 0.0237766193527212, 0.03421386839762609, -0.07906007106449632, 0.32155764624501315, 0.0, -0.2846546628495744, 0.060125525985965836, -0.0270827899225229, -0.10617806253270269, 0.3344831288249457, 0.0, 0.009267305245035754, 0.0614060984927636, 0.20002025799096199, 0.10892973292343368, 1.2493891802912829, 0.0, 0.021341383089496235, -0.20261106662052442, -0.35765281795880044, 1.1229376779019016, 0.0
0.4299999792196667, 0.024140655241180274, 0.03382323718202513, -0.07858600822372812, 0.3210889904342677, 0.0, -0.2843565675946508, 0.06086791818939659, -0.027419529908678332, -0.10580572411299188, 0.3344600869881609, 0.0, 0.0093133793891077, 0.06238891329131507, 0.2006541580846278, 0.10150247521585969, 1.2437713319482562, 0.0, 0.022016695308455844, -0.2026331450355621, -0.3520083009848031, 1.1173513118079221, 0.0
0.4299999792196667, 0.024504691129639343, 0.03343260596642417, -0.07811194538295993, 0.3206203346235222, 0.0, -0.28405847233972714, 0.06161031039282734, -0.027756269894833766, -0.10543338569328106, 0.334437045151376, 0.0, 0.009359453533179641, 0.06337172808986656, 0.20128805817829365, 0.09407521750828571, 1.238153483605229, 0.0, 0.022692007527415452, -0.20265522345059983, -0.3463637840108058, 1.1117649457139427, 0.0
0.4299999792196667, 0.024868727018098412, 0.03304197475082321, -0.07763788254219173, 0.3201516788127767, 0.0, -0.28376037708480356, 0.06235270259625811, -0.028093009880989193, -0.10506104727357025, 0.3344140033145912, 0.0, 0.009405527677251583, 0.06435454288841803, 0.20192195827195952, 0.08664795980071174, 1.2325356352622023, 0.0, 0.023367319746375056, -0.20267730186563757, -0.34071926703680855, 1.1061785796199635, 0.0
0.4299999792196667, 0.025193317767330713, 0.03247219805387565, -0.0769812512803479, 0.3198616016004367, 0.0, -0.28317788391892595, 0.06304746057561172, -0.028538379159788754, -0.10482272605486893, 0.3341312634664267, 0.0, 0.009476472204659084, 0.06668063009994762, 0.2033610590347159, 0.07627262666008719, 1.221686040313275, 0.0, 0.02458752829566335, -0.202736314938306, -0.3319463032291475, 1.094738456009282, 0.0
0.4299999792196667, 0.025517908516563013, 0.031902421356928085, -0.0763246200185041, 0.3195715243880967, 0.0, -0.28259539075304835, 0.06374221855496535, -0.02898374843858831, -0.1045844048361676, 0.3338485236182621, 0.0, 0.009547416732066584, 0.06900671731147721, 0.2048001597974723, 0.06589729351946264, 1.2108364453643472, 0.0, 0.025807736844951638, -0.20279532801097444, -0.3231733394214864, 1.083298332398601, 0.0
0.4299999792196667, 0.025842499265795307, 0.03133264465998052, -0.07566798875666028, 0.31928144717575674, 0.0, -0.2820128975871707, 0.06443697653431898, -0.029429117717387872, -0.10434608361746629, 0.3335657837700975, 0.0, 0.009618361259474085, 0.07133280452300682, 0.20623926056022873, 0.0555219603788381, 1.1999868504154199, 0.0, 0.02702794539423993, -0.20285434108364292, -0.31440037561382533, 1.0718582087879196, 0.0
0.4299999792196667, 0.02616709001502761, 0.030762867963032955, -0.07501135749481648, 0.3189913699634168, 0.0, -0.28143040442129313, 0.06513173451367262, -0.02987448699618743, -0.10410776239876497, 0.3332830439219329, 0.0, 0.009689305786881585, 0.0736588917345364, 0.20767836132298514, 0.045146627238213555, 1.1891372554664923, 0.0, 0.028248153943528222, -0.20291335415631132, -0.3056274118061643, 1.0604180851772385, 0.0
0.4299999792196667, 0.02649168076425991, 0.030193091266085388, -0.07435472623297266, 0.3187012927510768, 0.0, -0.2808479112554156, 0.06582649249302623, -0.03031985627498699, -0.10386944118006364, 0.33300030407376835, 0.0, 0.009760250314289086, 0.075984978946066, 0.20911746208574153, 0.034771294097588994, 1.178287660517565, 0.0, 0.029468362492816515, -0.20297236722897974, -0.2968544479985032, 1.048977961566557, 0.0
0.4299999792196667, 0.02682997828223982, 0.029411169449492066, -0.07378453659112408, 0.3189116153979177, 0.0, -0.27962476182633766, 0.06568235552394784, -0.031165962923888256, -0.10462244498534652, 0.3325411603074462, 0.0, 0.009369341242271208, 0.07841095903013594, 0.21241108687981408, 0.021958510569050408, 1.1594310185592631, 0.0, 0.03012405930537881, -0.2041257924997697, -0.28435161085957517, 1.0288536730098978, 0.0
0.4299999792196667, 0.02716827580021973, 0.028629247632898737, -0.07321434694927549, 0.31912193804475847, 0.0, -0.27840161239725975, 0.06553821855486942, -0.03201206957278952, -0.10537544879062942, 0.3320820165411241, 0.0, 0.008978432170253329, 0.08083693911420588, 0.21570471167388658, 0.009145727040511815, 1.1405743766009613, 0.0, 0.0307797561179411, -0.2052792177705597, -0.27184877372064703, 1.0087293844532383, 0.0
0.4299999792196667, 0.027506573318199643, 0.02784732581630541, -0.07264415730742692, 0.31933226069159937, 0.0, -0.2771784629681818, 0.06539408158579103, -0.03285817622169079, -0.10612845259591228, 0.3316228727748019, 0.0, 0.00858752309823545, 0.08326291919827582, 0.21899833646795913, -0.003667056488026773, 1.1217177346426592, 0.0, 0.03143545293050339, -0.2064326430413497, -0.25934593658171895, 0.9886050958965791, 0.0
0.4299999792196667, 0.027844870836179553, 0.027065403999712082, -0.07207396766557833, 0.3195425833384401, 0.0, -0.27595531353910396, 0.06524994461671264, -0.03370428287059206, -0.10688145640119517, 0.33116372900847973, 0.0, 0.008196614026217573, 0.08568889928234574, 0.2222919612620316, -0.016479840016565366, 1.1028610926843576, 0.0, 0.032091149743065685, -0.2075860683121397, -0.2468430994427909, 0.9684808073399198, 0.0
0.4299999792196667, 0.028183168354159464, 0.02628348218311876, -0.07150377802372974, 0.319752905985281, 0.0, -0.27473216411002604, 0.06510580764763423, -0.03455038951949333, -0.10763446020647804, 0.3307045852421576, 0.0, 0.007805704954199693, 0.0881148793664157, 0.22558558605610415, -0.02929262354510396, 1.0840044507260558, 0.0, 0.03274684655562798, -0.20873949358292967, -0.2343402623038628, 0.9483565187832604, 0.0
0.4299999792196667, 0.028700041328952278, 0.0254975977709917, -0.07128472279650948, 0.3204622636438275, 0.0, -0.27323753569711745, 0.0649081320056192, -0.03566152825503428, -0.10867675931659601, 0.3313351936448542, 0.0, 0.007272464456214603, 0.08649923436102985, 0.23357040804278364, -0.04067738112312174, 1.0548448579218679, 0.0, 0.029657392262409356, -0.21313874257023852, -0.21726375844415707, 0.9176605405638101, 0.0
0.4299999792196667, 0.02921691430374509, 0.024711713358864646, -0.07106566756928921, 0.32117162130237414, 0.0, -0.27174290728420886, 0.06471045636360417, -0.03677266699057525, -0.10971905842671396, 0.3319658020475508, 0.0, 0.006739223958229511, 0.08488358935564401, 0.2415552300294631, -0.05206213870113952, 1.0256852651176802, 0.0, 0.026567937969190724, -0.21753799155754738, -0.20018725458445127, 0.8869645623443599, 0.0
0.4299999792196667, 0.029733787278537906, 0.023925828946737598, -0.07084661234206896, 0.3218809789609206, 0.0, -0.2702482788713002, 0.06451278072158916, -0.037883805726116215, -0.11076135753683189, 0.33259641045024735, 0.0, 0.006205983460244421, 0.08326794435025815, 0.24954005201614263, -0.0634468962791573, 0.9965256723134926, 0.0, 0.0234784836759721, -0.22193724054485628, -0.18311075072474556, 0.8562685841249095, 0.0
0.4299999792196667, 0.030250660253330723, 0.023139944534610546, -0.0706275571148487, 0.32259033661946723, 0.0, -0.26875365045839156, 0.06431510507957412, -0.038994944461657174, -0.11180365664694986, 0.3332270188529439, 0.0, 0.00567274296225933, 0.08165229934487231, 0.2575248740028221, -0.07483165385717508, 0.967366079509305, 0.0, 0.020389029382753474, -0.22633648953216515, -0.16603424686503981, 0.8255726059054592, 0.0
0.4299999792196667, 0.03076753322812353, 0.02235406012248349, -0.07040850188762846, 0.3232996942780138, 0.0, -0.26725902204548296, 0.06411742943755909, -0.04010608319719814, -0.11284595575706781, 0.3338576272556405, 0.0, 0.005139502464274239, 0.08003665433948647, 0.2655096959895016, -0.08621641143519287, 0.9382064867051172, 0.0, 0.01729957508953485, -0.23073573851947404, -0.14895774300533404, 0.7948766276860091, 0.0
0.4299999792196667, 0.03172281894838331, 0.02202417439336649, -0.07052868386365738, 0.3241713605756788, 0.0, -0.2656743433698177, 0.06433602913384459, -0.041407749753335506, -0.11407388564296692, 0.3350745999644956, 0.0, 0.005011775778954789, 0.07055889795647036, 0.279257322894903, -0.09215455736655795, 0.8974115203068277, 0.0, 0.0064348106463202525, -0.23885435744661138, -0.12991006708095268, 0.7526242171145245, 0.0
0.4299999792196667, 0.03267810466864308, 0.02169428866424949, -0.07064886583968631, 0.3250430268733438, 0.0, -0.26408966469415246, 0.06455462883013006, -0.04270941630947288, -0.11530181552886604, 0.33629157267335064, 0.0, 0.0048840490936353405, 0.06108114157345424, 0.2930049498003045, -0.09809270329792302, 0.8566165539085382, 0.0, -0.004429953796894342, -0.2469729763737488, -0.11086239115657134, 0.7103718065430402, 0.0
0.4299999792196667, 0.033633390388902853, 0.021364402935132493, -0.07076904781571523, 0.32591469317100885, 0.0, -0.26250498601848715, 0.06477322852641557, -0.04401108286561025, -0.11652974541476516, 0.33750854538220576, 0.0, 0.004756322408315892, 0.05160338519043812, 0.30675257670570594, -0.10403084922928808, 0.8158215875102487, 0.0, -0.015294718240108933, -0.25509159530088615, -0.09181471523219001, 0.6681193959715557, 0.0
0.4299999792196667, 0.03458867610916262, 0.02103451720601549, -0.07088922979174415, 0.32678635946867385, 0.0, -0.2609203073428219, 0.06499182822270104, -0.04531274942174762, -0.11775767530066426, 0.33872551809106083, 0.0, 0.004628595722996442, 0.042125628807422, 0.3205002036111074, -0.10996899516065316, 0.7750266211119592, 0.0, -0.02615948268332353, -0.26321021422802354, -0.07276703930780866, 0.6258669854000714, 0.0
0.4299999792196667, 0.035543961829422405, 0.02070463147689849, -0.07100941176777309, 0.3276580257663389, 0.0, -0.25933562866715665, 0.06521042791898653, -0.04661441597788499, -0.11898560518656338, 0.33994249079991595, 0.0, 0.004500869037676994, 0.03264787242440588, 0.33424783051650886, -0.11590714109201823, 0.7342316547136696, 0.0, -0.03702424712653813, -0.2713288331551609, -0.053719363383427324, 0.5836145748285868, 0.0
0.4299999792196667, 0.037541297077717084, 0.020290141959488618, -0.0711534255166063, 0.3283314540769039, 0.0, -0.2579926868195389, 0.06653883780618637, -0.048159453688381405, -0.12031431387413115, 0.3396121697856835, 0.0, 0.004710095408308059, 0.012254864947594922, 0.35135206067671176, -0.11743413523964168, 0.6813004994737354, 0.0, -0.05942164167995352, -0.28365523496000483, -0.03702515260335405, 0.5301229489872769, 0.0
0.4299999792196667, 0.039538632326011784, 0.019875652442078746, -0.07129743926543951, 0.3290048823874689, 0.0, -0.25664974497192106, 0.06786724769338619, -0.04970449139887782, -0.12164302256169891, 0.33928184877145107, 0.0, 0.004919321778939126, -0.008138142529216037, 0.36845629083691467, -0.11896112938726512, 0.6283693442338012, 0.0, -0.08181903623336893, -0.29598163676484884, -0.020330941823280786, 0.4766313231459666, 0.0
0.4299999792196667, 0.041535967574306464, 0.01946116292466887, -0.07144145301427271, 0.32967831069803394, 0.0, -0.2553068031243033, 0.06919565758058602, -0.05124952910937423, -0.12297173124926669, 0.3389515277572186, 0.0, 0.0051285481495701914, -0.028531150006026997, 0.3855605209971176, -0.12048812353488855, 0.5754381889938671, 0.0, -0.10421643078678434, -0.3083080385696928, -0.0036367310432075207, 0.4231396973046566, 0.0
0.4299999792196667, 0.04353330282260116, 0.019046673407258997, -0.07158546676310593, 0.33035173900859893, 0.0, -0.2539638612766855, 0.07052406746778585, -0.052794566819870645, -0.12430043993683446, 0.3386212067429861, 0.0, 0.005337774520201257, -0.048924157482837946, 0.4026647511573206, -0.122015117682512, 0.5225070337539328, 0.0, -0.12661382534019974, -0.3206344403745368, 0.01305747973686575, 0.3696480714633465, 0.0
0.4299999792196667, 0.04553063807089584, 0.018632183889849125, -0.07172948051193913, 0.3310251673191639, 0.0, -0.2526209194290678, 0.07185247735498569, -0.054339604530367056, -0.12562914862440225, 0.3382908857287537, 0.0, 0.0055470008908323236, -0.06931716495964892, 0.41976898131752355, -0.12354211183013544, 0.46957587851399873, 0.0, -0.14901121989361513, -0.3329608421793807, 0.029751690516939013, 0.31615644562203643, 0.0
0.4299999792196667, 0.04940657451660375, 0.01908228650158009, -0.07122891694087449, 0.3321363695846897, 0.0, -0.2526508535710687, 0.07535466655121056, -0.05663022350990347, -0.12612048184718477, 0.336901443073875, 0.0, 0.005974329853071322, -0.09970376960654918, 0.43887765580113036, -0.12386530282530764, 0.41018761590692365, 0.0, -0.1808054081476393, -0.34959532046206787, 0.04193914212217566, 0.2583049195904695, 0.0
0.4299999792196667, 0.05328251096231165, 0.01953238911331106, -0.07072835336980988, 0.33324757185021536, 0.0, -0.2526807877130697, 0.07885685574743546, -0.05892084248943988, -0.1266118150699673, 0.3355120004189963, 0.0, 0.006401658815310322, -0.13009037425344944, 0.4579863302847372, -0.12418849382047985, 0.35079935329984874, 0.0, -0.21259959640166345, -0.36622979874475503, 0.054126593727412305, 0.2004533935589026, 0.0
0.4299999792196667, 0.05715844740801955, 0.019982491725042028, -0.07022778979874525, 0.3343587741157411, 0.0, -0.2527107218550706, 0.08235904494366034, -0.0612114614689763, -0.12710314829274982, 0.33412255776411776, 0.0, 0.006828987777549323, -0.1604769789003497, 0.47709500476834404, -0.12451168481565204, 0.29141109069277377, 0.0, -0.2443937846556876, -0.3828642770274423, 0.06631404533264895, 0.14260186752733567, 0.0
0.4299999792196667, 0.06103438385372745, 0.020432594336772993, -0.06972722622768061, 0.33546997638126685, 0.0, -0.2527406559970716, 0.08586123413988524, -0.06350208044851272, -0.12759448151553238, 0.3327331151092391, 0.0, 0.007256316739788321, -0.19086358354724997, 0.49620367925195097, -0.12483487581082425, 0.23202282808569877, 0.0, -0.27618797290971175, -0.3994987553101294, 0.07850149693788559, 0.08475034149576875, 0.0
0.4299999792196667, 0.06491032029943536, 0.020882696948503962, -0.069226662656616, 0.3365811786467926, 0.0, -0.25277059013907255, 0.0893634233361101, -0.06579269942804912, -0.1280858147383149, 0.3313436724543604, 0.0, 0.007683645702027321, -0.2212501881941502, 0.5153123537355577, -0.12515806680599645, 0.17263456547862377, 0.0, -0.30798216116373595, -0.41613323359281656, 0.09068894854312223, 0.026898815464201878, 0.0
0.4299999792196667, 0.06865968546778863, 0.021687649431774904, -0.06902663675423022, 0.3371249150313003, 0.0, -0.25268818267311033, 0.0931224262125929, -0.0674197920479988, -0.12871546111552779, 0.33037358354951685, 0.0, 0.007986959945200014, -0.2561934181670117, 0.5338187534915448, -0.1277901056975446, 0.12239610560492985, 0.0, -0.3436870563128262, -0.43328862633471243, 0.10016352772876803, -0.02133476026311662, 0.0
0.4299999792196667, 0.0724090506361419, 0.022492601915045846, -0.06882661085184447, 0.3376686514158082, 0.0, -0.2526057752071482, 0.09688142908907567, -0.06904688466794848, -0.12934510749274064, 0.3294034946446734, 0.0, 0.008290274188372705, -0.29113664813987317, 0.552325153247532, -0.1304221445890927, 0.07215764573123594, 0.0, -0.3793919514619165, -0.45044401907660836, 0.10963810691441381, -0.06956833599043512, 0.0
0.4299999792196667, 0.07615841580449519, 0.02329755439831679, -0.06862658494945871, 0.338212387800316, 0.0, -0.252523367741186, 0.10064043196555847, -0.07067397728789815, -0.12997475386995352, 0.32843340573982993, 0.0, 0.008593588431545396, -0.32607987811273464, 0.5708315530035192, -0.13305418348064088, 0.021919185857542038, 0.0, -0.4150968466110069, -0.4675994118185043, 0.11911268610005961, -0.11780191171775363, 0.0
0.4299999792196667, 0.07990778097284845, 0.02410250688158773, -0.06842655904707295, 0.3387561241848238, 0.0, -0.2524409602752239, 0.10439943484204126, -0.07230106990784782, -0.1306044002471664, 0.3274633168349864, 0.0, 0.008896902674718089, -0.36102310808559607, 0.5893379527595063, -0.13568622237218902, -0.02831927401615189, 0.0, -0.4508017417600972, -0.4847548045604001, 0.12858726528570538, -0.1660354874450721, 0.0
0.4299999792196667, 0.08365714614120173, 0.02490745936485867, -0.06822653314468718, 0.3392998605693316, 0.0, -0.25235855280926167, 0.10815843771852403, -0.07392816252779749, -0.13123404662437926, 0.3264932279301429, 0.0, 0.00920021691789078, -0.3959663380584575, 0.6078443525154934, -0.13831826126373717, -0.07855773388984581, 0.0, -0.48650663690918744, -0.501910197302296, 0.13806184447135117, -0.21426906317239064, 0.0
0.4299999792196667, 0.08674419585940331, 0.02617002286630266, -0.06820875173026786, 0.3398516219777401, 0.0, -0.2522230105395518, 0.11168689795971577, -0.07480660279735536, -0.1316819609422941, 0.32746609539915555, 0.0, 0.00950891948115657, -0.4265740235617079, 0.6217960049197945, -0.14413861457481927, -0.11444467351217026, 0.0, -0.5170963106145573, -0.5144324599557988, 0.14751876441562528, -0.24816537484673581, 0.0
0.4299999792196667, 0.08983124557760487, 0.027432586367746647, -0.06819097031584855, 0.34040338338614856, 0.0, -0.2520874682698419, 0.11521535820090754, -0.07568504306691322, -0.1321298752602089, 0.32843896286816826, 0.0, 0.009817622044422358, -0.4571817090649583, 0.6357476573240957, -0.1499589678859014, -0.15033161313449472, 0.0, -0.5476859843199271, -0.5269547226093015, 0.15697568435989936, -0.282061686521081, 0.0
0.4299999792196667, 0.09291829529580645, 0.028695149869190643, -0.06817318890142923, 0.340955144794557, 0.0, -0.25195192600013205, 0.11874381844209929, -0.07656348333647109, -0.13257778957812372, 0.3294118303371809, 0.0, 0.010126324607688149, -0.4877893945682087, 0.6496993097283967, -0.15577932119698354, -0.18621855275681917, 0.0, -0.5782756580252968, -0.5394769852628044, 0.16643260430417345, -0.3159579981954262, 0.0
0.4299999792196667, 0.096005345014008, 0.029957713370634624, -0.0681554074870099, 0.34150690620296553, 0.0, -0.2518163837304222, 0.12227227868329105, -0.07744192360602895, -0.13302570389603854, 0.33038469780619356, 0.0, 0.010435027170953938, -0.518397080071459, 0.6636509621326978, -0.16159967450806567, -0.22210549237914365, 0.0, -0.6088653317306666, -0.5519992479163072, 0.1758895242484476, -0.34985430986977134, 0.0
0.4299999792196667, 0.09909239473220957, 0.03122027687207862, -0.06813762607259058, 0.342058667611374, 0.0, -0.2516808414607123, 0.12580073892448282, -0.07832036387558682, -0.13347361821395334, 0.3313575652752062, 0.0, 0.010743729734219727, -0.5490047655747095, 0.677602614536999, -0.16742002781914778, -0.2579924320014681, 0.0, -0.6394550054360364, -0.5645215105698099, 0.1853464441927217, -0.3837506215441165, 0.0
0.4299999792196667, 0.10130274706664431, 0.0323897221710068, -0.0683289392913504, 0.34272862620738603, 0.0, -0.2512065691804338, 0.1283466283641525, -0.07898389163143696, -0.1341268726127604, 0.33325870705084304, 0.0, 0.010760106612376795, -0.5700820143749332, 0.6847137700786906, -0.17078749051255518, -0.27967218765810203, 0.0, -0.6599397742964027, -0.5717416235260452, 0.19167944817807023, -0.403156532580655, 0.0
0.4299999792196667, 0.10351309940107907, 0.03355916746993499, -0.06852025251011021, 0.34339858480339813, 0.0, -0.2507322969001554, 0.13089251780382222, -0.0796474193872871, -0.13478012701156744, 0.33515984882648, 0.0, 0.010776483490533863, -0.5911592631751569, 0.6918249256203823, -0.17415495320596258, -0.3013519433147361, 0.0, -0.6804245431567689, -0.5789617364822803, 0.1980124521634187, -0.42256244361719353, 0.0
0.4299999792196667, 0.10572345173551383, 0.034728612768863173, -0.06871156572887001, 0.3440685433994101, 0.0, -0.250258024619877, 0.1334384072434919, -0.08031094714313725, -0.1354333814103745, 0.33706099060211686, 0.0, 0.010792860368690932, -0.6122365119753808, 0.698936081162074, -0.17752241589936996, -0.32303169897137, 0.0, -0.7009093120171351, -0.5861818494385155, 0.20434545614876723, -0.44196835465373197, 0.0
0.4299999792196667, 0.10793380406994856, 0.035898058067791366, -0.06890287894762982, 0.3447385019954222, 0.0, -0.24978375233959854, 0.13598429668316162, -0.08097447489898739, -0.13608663580918154, 0.33896213237775374, 0.0, 0.010809237246848, -0.6333137607756045, 0.7060472367037656, -0.18088987859277733, -0.34471145462800407, 0.0, -0.7213940808775013, -0.5934019623947506, 0.21067846013411576, -0.46137426569027046, 0.0
0.4299999792196667, 0.1101441564043833, 0.037067503366719545, -0.06909419216638962, 0.3454084605914342, 0.0, -0.24930948005932013, 0.13853018612283133, -0.08163800265483753, -0.1367398902079886, 0.34086327415339057, 0.0, 0.010825614125005068, -0.6543910095758283, 0.7131583922454573, -0.18425734128618473, -0.36639121028463806, 0.0, -0.7418788497378677, -0.6006220753509859, 0.21701146411946423, -0.48078017672680895, 0.0
0.4299999792196667, 0.11061912227850647, 0.03665287317577197, -0.07002892314404867, 0.3455116584194462, 0.0, -0.24731175525353638, 0.13897330078530318, -0.08159995796780255, -0.13873765131662077, 0.34171754300907176, 0.0, 0.010436615630012762, -0.6659753078546997, 0.7165679557710812, -0.1770872704102627, -0.37407182836401187, 0.0, -0.7534796588314632, -0.6080296366688853, 0.21092064202112246, -0.48662722170720774, 0.0
0.4299999792196667, 0.11109408815262965, 0.03623824298482438, -0.0709636541217077, 0.3456148562474581, 0.0, -0.24531403044775266, 0.139416415447775, -0.08156191328076759, -0.14073541242525295, 0.34257181186475294, 0.0, 0.010047617135020457, -0.6775596061335711, 0.7199775192967053, -0.16991719953434073, -0.38175244644338574, 0.0, -0.7650804679250586, -0.6154371979867845, 0.20482981992278068, -0.4924742666876064, 0.0
0.4299999792196667, 0.11156905402675282, 0.0358236127938768, -0.07189838509936675, 0.34571805407546996, 0.0, -0.24331630564196896, 0.1398595301102468, -0.0815238685937326, -0.14273317353388515, 0.343426080720434, 0.0, 0.009658618640028151, -0.6891439044124428, 0.7233870828223292, -0.16274712865841873, -0.38943306452275966, 0.0, -0.7766812770186537, -0.622844759304684, 0.1987389978244389, -0.4983213116680052, 0.0
0.4299999792196667, 0.11204401990087601, 0.035408982602929205, -0.07283311607702576, 0.34582125190348195, 0.0, -0.24131858083618518, 0.14030264477271867, -0.08148582390669763, -0.1447309346425173, 0.34428034957611514, 0.0, 0.009269620145035845, -0.7007282026913142, 0.7267966463479533, -0.15557705778249672, -0.39711368260213353, 0.0, -0.7882820861122491, -0.6302523206225834, 0.19264817572609713, -0.5041683566484039, 0.0
0.4299999792196667, 0.11251898577499918, 0.03499435241198163, -0.07376784705468481, 0.34592444973149383, 0.0, -0.23932085603040146, 0.1407457594351905, -0.08144777921966266, -0.1467286957511495, 0.3451346184317963, 0.0, 0.008880621650043542, -0.7123125009701858, 0.7302062098735773, -0.14840698690657472, -0.4047943006815074, 0.0, -0.7998828952058445, -0.6376598819404827, 0.18655735362775536, -0.5100154016288027, 0.0
0.4299999792196667, 0.1130682401924701, 0.035177755100439696, -0.07433456488758534, 0.3464745984556735, 0.0, -0.23838667203893, 0.14159674707187786, -0.08140796023091011, -0.14787235415944533, 0.3462903056492969, 0.0, 0.008631637516810084, -0.7169461057881354, 0.7358949744347711, -0.1272650296752674, -0.3991918356705077, 0.0, -0.8066772979229089, -0.649071228562457, 0.16541286427276924, -0.5052638404786861, 0.0
0.4299999792196667, 0.113617494609941, 0.03536115778889777, -0.07490128272048585, 0.3470247471798531, 0.0, -0.23745248804745853, 0.14244773470856528, -0.08136814124215756, -0.14901601256774114, 0.3474459928667975, 0.0, 0.008382653383576629, -0.7215797106060851, 0.741583738995965, -0.1061230724439601, -0.39358937065950794, 0.0, -0.813471700639973, -0.6604825751844314, 0.14426837491778313, -0.5005122793285697, 0.0
0.4299999792196667, 0.11416674902741193, 0.03554456047735584, -0.07546800055338637, 0.3475748959040327, 0.0, -0.2365183040559871, 0.14329872234525268, -0.081328322253405, -0.15015967097603697, 0.348601680084298, 0.0, 0.008133669250343173, -0.7262133154240347, 0.7472725035571588, -0.0849811152126528, -0.3879869056485082, 0.0, -0.8202661033570373, -0.6718939218064058, 0.12312388556279705, -0.49576071817845324, 0.0
0.4299999792196667, 0.11471600344488285, 0.035727963165813906, -0.07603471838628688, 0.34812504462821237, 0.0, -0.23558412006451562, 0.14414970998194007, -0.08128850326465245, -0.15130332938433277, 0.34975736730179857, 0.0, 0.007884685117109717, -0.7308469202419843, 0.7529612681183527, -0.06383915798134548, -0.3823844406375084, 0.0, -0.8270605060741014, -0.6833052684283801, 0.10197939620781094, -0.4910091570283368, 0.0
0.4299999792196667, 0.11526525786235377, 0.03591136585427197, -0.0766014362191874, 0.348675193352392, 0.0, -0.23464993607304416, 0.14500069761862747, -0.08124868427589992, -0.1524469877926286, 0.35091305451929916, 0.0, 0.007635700983876261, -0.7354805250599341, 0.7586500326795466, -0.04269720075003817, -0.37678197562650867, 0.0, -0.8338549087911657, -0.6947166150503545, 0.08083490685282485, -0.4862575958782203, 0.0
0.4299999792196667, 0.11612028139840347, 0.037208644303603974, -0.07671011298478718, 0.34965022502967713, 0.0, -0.2353971638857005, 0.1468677635859484, -0.08133055522765001, -0.1523288394742441, 0.3521465834214386, 0.0, 0.007902833609177314, -0.7321238031227435, 0.7671228277811326, -0.006854929339260001, -0.3580582614346973, 0.0, -0.8343989523536218, -0.7071357985582345, 0.04472005655172137, -0.47173868703241156, 0.0
0.4299999792196667, 0.11697530493445318, 0.03850592275293598, -0.07681878975038696, 0.35062525670696226, 0.0, -0.2361443916983568, 0.14873482955326933, -0.08141242617940012, -0.15221069115585958, 0.35338011232357813, 0.0, 0.008169966234478368, -0.7287670811855528, 0.7755956228827187, 0.028987342071518166, -0.33933454724288575, 0.0, -0.8349429959160779, -0.7195549820661146, 0.008605206250617881, -0.4572197781866028, 0.0
0.4299999792196667, 0.11783032847050288, 0.03980320120226799, -0.07692746651598675, 0.35160028838424745, 0.0, -0.23689161951101315, 0.15060189552059025, -0.08149429713115021, -0.15209254283747506, 0.3546136412257177, 0.0, 0.008437098859779422, -0.7254103592483623, 0.7840684179843049, 0.06482961348229632, -0.3206108330510743, 0.0, -0.8354870394785342, -0.7319741655739945, -0.027509644050485612, -0.442700869340794, 0.0
0.4299999792196667, 0.11868535200655259, 0.0411004796516, -0.07703614328158653, 0.3525753200615326, 0.0, -0.23763884732366947, 0.1524689614879112, -0.08157616808290032, -0.1519743945190906, 0.35584717012785716, 0.0, 0.008704231485080476, -0.7220536373111717, 0.792541213085891, 0.10067188489307449, -0.3018871188592628, 0.0, -0.8360310830409903, -0.7443933490818744, -0.0636244943515891, -0.42818196049498525, 0.0
0.4299999792196667, 0.1195403755426023, 0.042397758100932006, -0.07714482004718631, 0.35355035173881766, 0.0, -0.23838607513632581, 0.15433602745523212, -0.08165803903465041, -0.1518562462007061, 0.35708069902999673, 0.0, 0.00897136411038153, -0.718696915373981, 0.8010140081874769, 0.13651415630385266, -0.2831634046674514, 0.0, -0.8365751266034465, -0.7568125325897544, -0.09973934465269257, -0.41366305164917644, 0.0
0.4299999792196667, 0.11882914584390004, 0.04279435066312608, -0.0779032123820018, 0.3537803163210605, 0.0, -0.23797786356823536, 0.15456111558754482, -0.08092468658954745, -0.15265304485477757, 0.35783631838569663, 0.0, 0.00911824983340548, -0.7050202710092581, 0.807936867137488, 0.18149450253357025, -0.25306167370825916, 0.0, -0.8266439204162599, -0.7631495089444804, -0.14510382563346932, -0.38871957392454437, 0.0
0.4299999792196667, 0.11811791614519782, 0.043190943225320154, -0.0786616047168173, 0.3540102809033032, 0.0, -0.23756965200014493, 0.15478620371985752, -0.08019133414444446, -0.15344984350884902, 0.3585919377413965, 0.0, 0.009265135556429431, -0.6913436266445353, 0.814859726087499, 0.22647484876328777, -0.22295994274906697, 0.0, -0.8167127142290733, -0.7694864852992064, -0.19046830661424605, -0.36377609619991236, 0.0
0.4299999792196667, 0.11740668644649556, 0.043587535787514224, -0.07941999705163279, 0.35424024548554606, 0.0, -0.23716144043205448, 0.15501129185217025, -0.07945798169934148, -0.15424664216292047, 0.35934755709709637, 0.0, 0.009412021279453382, -0.6776669822798124, 0.82178258503751, 0.2714551949930053, -0.19285821178987478, 0.0, -0.8067815080418868, -0.7758234616539326, -0.23583278759502274, -0.33883261847528023, 0.0
0.4299999792196667, 0.1166954567477933, 0.043984128349708294, -0.08017838938644828, 0.3544702100677887, 0.0, -0.236753228863964, 0.15523637998448292, -0.0787246292542385, -0.15504344081699198, 0.3601031764527964, 0.0, 0.009558907002477333, -0.6639903379150895, 0.8287054439875211, 0.3164355412227228, -0.16275648083068261, 0.0, -0.7968503018547002, -0.7821604380086586, -0.28119726857579946, -0.31388914075064817, 0.0
0.4299999792196667, 0.11598422704909105, 0.04438072091190237, -0.08093678172126377, 0.35470017465003156, 0.0, -0.23634501729587357, 0.15546146811679562, -0.07799127680913552, -0.15584023947106346, 0.3608587958084963, 0.0, 0.009705792725501285, -0.6503136935503668, 0.8356283029375321, 0.3614158874524404, -0.13265474987149042, 0.0, -0.7869190956675136, -0.7884974143633847, -0.3265617495565762, -0.2889456630260161, 0.0
0.4299999792196667, 0.11461079709196774, 0.04515843962659105, -0.08188646074583443, 0.35444554158414115, 0.0, -0.2356178782229077, 0.1550804662317438, -0.07653120417008714, -0.15636327974130113, 0.3624269322535111, 0.0, 0.009244620328082959, -0.6288925346023545, 0.8358311276499063, 0.398241699369673, -0.1004392534477347, 0.0, -0.7684836679802296, -0.7861282416048746, -0.3637513928096796, -0.2616252213930929, 0.0
0.4299999792196667, 0.1132373671348444, 0.04593615834127972, -0.0828361397704051, 0.35419090851825064, 0.0, -0.2348907391499418, 0.1546994643466919, -0.07507113153103878, -0.15688632001153877, 0.36399506869852605, 0.0, 0.008783447930664632, -0.6074713756543423, 0.8360339523622804, 0.4350675112869057, -0.06822375702397897, 0.0, -0.7500482402929456, -0.7837590688463645, -0.4009410360627829, -0.23430477976016975, 0.0
0.4299999792196667, 0.11186393717772108, 0.04671387705596839, -0.08378581879497575, 0.35393627545236017, 0.0, -0.23416360007697593, 0.15431846246164005, -0.07361105889199039, -0.1574093602817764, 0.3655632051435409, 0.0, 0.008322275533246307, -0.5860502167063301, 0.8362367770746549, 0.4718933232041382, -0.036008260600223246, 0.0, -0.7316128126056615, -0.7813898960878541, -0.43813067931588634, -0.20698433812724662, 0.0
0.4299999792196667, 0.11049050722059775, 0.04749159577065706, -0.08473549781954641, 0.3536816423864697, 0.0, -0.23343646100401005, 0.1539374605765882, -0.07215098625294201, -0.15793240055201407, 0.36713134158855576, 0.0, 0.00786110313582798, -0.5646290577583177, 0.8364396017870291, 0.5087191351213709, -0.0037927641764675247, 0.0, -0.7131773849183776, -0.779020723329344, -0.47532032256898965, -0.17966389649432343, 0.0
0.4299999792196667, 0.10911707726347443, 0.048269314485345736, -0.08568517684411708, 0.35342700932057924, 0.0, -0.23270932193104418, 0.15355645869153636, -0.07069091361389364, -0.15845544082225174, 0.3686994780335706, 0.0, 0.007399930738409654, -0.5432078988103055, 0.8366424264994033, 0.5455449470386035, 0.02842273224728821, 0.0, -0.6947419572310934, -0.7766515505708339, -0.512509965822093, -0.1523434548614003, 0.0
0.4299999792196667, 0.108189466181966, 0.049299816565983604, -0.08634029804709208, 0.3531012645596456, 0.0, -0.23199918236499276, 0.1530293238788735, -0.06922098789308606, -0.15885013306995624, 0.36930929258355893, 0.0, 0.0063902555670160765, -0.5237659711593229, 0.8328978121172739, 0.5678252617642024, 0.05088603217858817, 0.0, -0.677211008031412, -0.7703763309463605, -0.5350857822433471, -0.1339622266287077, 0.0
0.4299999792196667, 0.10726185510045753, 0.05033031864662148, -0.08699541925006705, 0.3527755197987118, 0.0, -0.2312890427989413, 0.15250218906621066, -0.06775106217227847, -0.15924482531766074, 0.3699191071335472, 0.0, 0.005380580395622499, -0.5043240435083403, 0.8291531977351446, 0.5901055764898014, 0.07334933210988814, 0.0, -0.6596800588317304, -0.7641011113218867, -0.5576615986646013, -0.11558099839601507, 0.0
0.4299999792196667, 0.10633424401894909, 0.05136082072725934, -0.08765054045304205, 0.35244977503777813, 0.0, -0.23057890323288982, 0.15197505425354782, -0.06628113645147089, -0.15963951756536526, 0.3705289216835355, 0.0, 0.004370905224228922, -0.4848821158573576, 0.8254085833530154, 0.6123858912154003, 0.09581263204118812, 0.0, -0.6421491096320489, -0.7578258916974134, -0.5802374150858554, -0.09719977016332244, 0.0
0.4299999792196667, 0.10540663293744065, 0.05239132280789721, -0.08830566165601703, 0.35212403027684436, 0.0, -0.2298687636668384, 0.151447919440885, -0.0648112107306633, -0.16003420981306976, 0.37113873623352384, 0.0, 0.003361230052835345, -0.46544018820637495, 0.8216639689708861, 0.6346662059409993, 0.11827593197248806, 0.0, -0.6246181604323673, -0.7515506720729399, -0.6028132315071096, -0.07881854193062983, 0.0
0.4299999792196667, 0.10447902185593219, 0.053421824888535085, -0.08896078285899202, 0.3517982855159107, 0.0, -0.22915862410078694, 0.15092078462822214, -0.06334128500985572, -0.16042890206077426, 0.37174855078351215, 0.0, 0.002351554881441768, -0.4459982605553923, 0.8179193545887566, 0.6569465206665983, 0.14073923190378804, 0.0, -0.6070872112326858, -0.7452754524484664, -0.6253890479283637, -0.06043731369793721, 0.0
0.4299999792196667, 0.1041203472698694, 0.05403459567721043, -0.08919366074482223, 0.3516425044081946, 0.0, -0.22899760700531493, 0.15075481428833298, -0.06253760138095098, -0.1604865956645282, 0.37161866338057875, 0.0, 0.001618120266237607, -0.4364936651972708, 0.815906483815724, 0.664699660667051, 0.14940518608435083, 0.0, -0.5992122681943949, -0.7423176499464287, -0.6333215414534098, -0.05521767583732105, 0.0
0.4299999792196667, 0.10376167268380662, 0.05464736646588577, -0.0894265386306524, 0.35148672330047864, 0.0, -0.22883658990984293, 0.15058884394844385, -0.06173391775204624, -0.1605442892682821, 0.37148877597764535, 0.0, 0.0008846856510334455, -0.42698906983914914, 0.8138936130426916, 0.6724528006675038, 0.15807114026491362, 0.0, -0.5913373251561039, -0.7393598474443909, -0.641254034978456, -0.049998037976704886, 0.0
0.4299999792196667, 0.10340299809774381, 0.05526013725456111, -0.08965941651648264, 0.3513309421927626, 0.0, -0.22867557281437098, 0.1504228736085547, -0.0609302341231415, -0.16060198287203603, 0.37135888857471194, 0.0, 0.0001512510358292842, -0.41748447448102766, 0.8118807422696589, 0.6802059406679567, 0.16673709444547644, 0.0, -0.583462382117813, -0.7364020449423531, -0.6491865285035023, -0.04477840011608874, 0.0
0.4299999792196667, 0.10304432351168101, 0.055872908043236455, -0.08989229440231282, 0.35117516108504665, 0.0, -0.22851455571889898, 0.15025690326866556, -0.060126550494236757, -0.16065967647578994, 0.3712290011717785, 0.0, -0.000582183579374877, -0.40797987912290595, 0.8098678714966265, 0.6879590806684094, 0.1754030486260392, 0.0, -0.5755874390795219, -0.7334442424403151, -0.6571190220285484, -0.03955876225547258, 0.0
0.4299999792196667, 0.10268564892561823, 0.056485678831911794, -0.09012517228814303, 0.3510193799773306, 0.0, -0.22835353862342697, 0.1500909329287764, -0.059322866865332, -0.16071737007954387, 0.371099113768845, 0.0, -0.0013156181945790382, -0.3984752837647844, 0.8078550007235938, 0.6957122206688621, 0.18406900280660202, 0.0, -0.5677124960412311, -0.7304864399382774, -0.6650515155535947, -0.034339124394856424, 0.0
0.4299999792196667, 0.1028612314918298, 0.05659256174810638, -0.08993793930010854, 0.35117412435947093, 0.0, -0.22880701705099712, 0.15037199377020055, -0.059381053350066694, -0.16035464877307742, 0.3706784440405539, 0.0, -0.00118683778417699, -0.40115666101989134, 0.8116455835875623, 0.689019909241064, 0.17864728409293879, 0.0, -0.5718056422030082, -0.7345046067553889, -0.6583760221184688, -0.04269698293294752, 0.0
0.4299999792196667, 0.10303681405804138, 0.05669944466430096, -0.08975070631207403, 0.3513288687416113, 0.0, -0.2292604954785673, 0.15065305461162473, -0.059439239834801386, -0.15999192746661095, 0.3702577743122627, 0.0, -0.0010580573737749418, -0.4038380382749983, 0.8154361664515306, 0.6823275978132659, 0.17322556537927555, 0.0, -0.5758987883647854, -0.7385227735725002, -0.6517005286833428, -0.051054841471038614, 0.0
0.4299999792196667, 0.10321239662425297, 0.05680632758049554, -0.08956347332403954, 0.3514836131237516, 0.0, -0.2297139739061375, 0.15093411545304886, -0.05949742631953607, -0.15962920616014445, 0.3698371045839715, 0.0, -0.0009292769633728937, -0.4065194155301052, 0.8192267493154991, 0.6756352863854679, 0.16780384666561238, 0.0, -0.5799919345265625, -0.7425409403896117, -0.6450250352482171, -0.05941270000912972, 0.0
0.4299999792196667, 0.10338797919046454, 0.05691321049669013, -0.08937624033600504, 0.3516383575058919, 0.0, -0.23016745233370767, 0.15121517629447304, -0.05955561280427076, -0.15926648485367798, 0.36941643485568026, 0.0, -0.0008004965529708457, -0.40920079278521204, 0.8230173321794674, 0.6689429749576697, 0.16238212795194915, 0.0, -0.5840850806883395, -0.7465591072067232, -0.6383495418130912, -0.06777055854722082, 0.0
0.4299999792196667, 0.10356356175667612, 0.057020093412884706, -0.08918900734797056, 0.35179310188803226, 0.0, -0.23062093076127785, 0.1514962371358972, -0.05961379928900544, -0.15890376354721153, 0.3689957651273892, 0.0, -0.0006717161425687976, -0.411882170040319, 0.8268079150434359, 0.6622506635298717, 0.15696040923828594, 0.0, -0.5881782268501167, -0.7505772740238347, -0.6316740483779653, -0.0761284170853119, 0.0
0.4299999792196667, 0.10406446078002299, 0.056655227794899246, -0.08882226515197335, 0.3519024293123772, 0.0, -0.23107213327950346, 0.15169073662773944, -0.060265851155957874, -0.15835778965060265, 0.36810954976507954, 0.0, -0.00031559207595511146, -0.4239238039244076, 0.83554899866698, 0.6410457020069624, 0.13763701283092566, 0.0, -0.6002956917995459, -0.7588911499157095, -0.6103423864233369, -0.09753173178705177, 0.0
0.4299999792196667, 0.10456535980336984, 0.05629036217691377, -0.08845552295597611, 0.3520117567367221, 0.0, -0.23152333579772902, 0.15188523611958168, -0.0609179030229103, -0.15781181575399378, 0.3672233344027699, 0.0, 4.053199065857467e-05, -0.43596543780849617, 0.8442900822905242, 0.6198407404840532, 0.11831361642356542, 0.0, -0.6124131567489752, -0.7672050258075847, -0.5890107244687084, -0.11893504648879161, 0.0
0.4299999792196667, 0.1050662588267167, 0.055925496558928305, -0.08808878075997892, 0.352121084161067, 0.0, -0.23197453831595458, 0.15207973561142396, -0.06156995488986273, -0.15726584185738493, 0.36633711904046024, 0.0, 0.0003966560572722609, -0.4480070716925847, 0.8530311659140682, 0.5986357789611442, 0.09899022001620518, 0.0, -0.6245306216984043, -0.7755189016994595, -0.5676790625140798, -0.14033836119053145, 0.0
0.4299999792196667, 0.10556715785006357, 0.05556063094094283, -0.0877220385639817, 0.3522304115854119, 0.0, -0.23242574083418013, 0.1522742351032662, -0.06222200675681516, -0.15671986796077605, 0.3654509036781506, 0.0, 0.000752780123885947, -0.4600487055766733, 0.8617722495376126, 0.577430817438235, 0.07966682360884492, 0.0, -0.6366480866478336, -0.7838327775913346, -0.5463474005594514, -0.1617416758922713, 0.0
0.4299999792196667, 0.10606805687341042, 0.055195765322957356, -0.08735529636798449, 0.3523397390097569, 0.0, -0.23287694335240572, 0.15246873459510843, -0.06287405862376758, -0.15617389406416718, 0.3645646883158408, 0.0, 0.001108904190499633, -0.4720903394607619, 0.8705133331611564, 0.5562258559153257, 0.060343427201484674, 0.0, -0.6487655515972628, -0.7921466534832096, -0.525015738604823, -0.18314499059401118, 0.0
0.4299999792196667, 0.10685922160465645, 0.0548751490374977, -0.08665683235649718, 0.35252652414630525, 0.0, -0.23352967903935912, 0.15258276742711674, -0.0637754820870474, -0.155238181164271, 0.36409842709682905, 0.0, 0.0007835322668007263, -0.4857142329941725, 0.8786257282441813, 0.5205328813650265, 0.029001075369270414, 0.0, -0.6598565535070091, -0.7981312199366899, -0.48909589917703256, -0.21284376447335898, 0.0
0.4299999792196667, 0.1076503863359025, 0.05455453275203804, -0.08595836834500986, 0.35271330928285377, 0.0, -0.23418241472631243, 0.15269680025912505, -0.06467690555032725, -0.15430246826437477, 0.36363216587781727, 0.0, 0.0004581603431018196, -0.49933812652758297, 0.886738123327206, 0.4848399068147274, -0.002341276462943847, 0.0, -0.6709475554167554, -0.8041157863901703, -0.45317605974924213, -0.24254253835270675, 0.0
0.4299999792196667, 0.10844155106714855, 0.05423391646657839, -0.08525990433352255, 0.3529000944194021, 0.0, -0.2348351504132658, 0.15281083309113333, -0.06557832901360706, -0.15336675536447858, 0.3631659046588056, 0.0, 0.00013278841940291293, -0.5129620200609936, 0.8948505184102309, 0.4491469322644282, -0.033683628295158106, 0.0, -0.6820385573265018, -0.8101003528436506, -0.41725622032145177, -0.27224131223205456, 0.0
0.4299999792196667, 0.10923271579839458, 0.05391330018111873, -0.08456144032203522, 0.35308687955595064, 0.0, -0.23548788610021915, 0.15292486592314167, -0.0664797524768869, -0.15243104246458236, 0.36269964343979383, 0.0, -0.00019258350429599369, -0.5265859135944042, 0.9029629134932555, 0.41345395771412913, -0.06502598012737236, 0.0, -0.6931295592362481, -0.8160849192971309, -0.38133638089366134, -0.30194008611140233, 0.0
0.4299999792196667, 0.11002388052964063, 0.05359268389565907, -0.08386297631054793, 0.353273664692499, 0.0, -0.23614062178717252, 0.15303889875514995, -0.06738117594016672, -0.15149532956468614, 0.36223338222078194, 0.0, -0.0005179554279949003, -0.5402098071278147, 0.9110753085762803, 0.3777609831638299, -0.09636833195958665, 0.0, -0.7042205611459944, -0.8220694857506115, -0.3454165414658709, -0.33163885999075016, 0.0
0.4299999792196667, 0.1101549498695435, 0.05296005928861059, -0.0829444842253153, 0.353600104094475, 0.0, -0.23658507162652215, 0.1524930400502717, -0.06813923037923902, -0.15043131053015882, 0.3629842612622335, 0.0, -0.0014119958343795258, -0.549006901857714, 0.9129063823637666, 0.3338942512446644, -0.13140943755343898, 0.0, -0.710002826485876, -0.8212963572518555, -0.30118762999043874, -0.3574075677829687, 0.0
0.4299999792196667, 0.11028601920944635, 0.05232743468156212, -0.08202599214008266, 0.3539265434964511, 0.0, -0.23702952146587172, 0.15194718134539348, -0.06889728481831132, -0.14936729149563152, 0.3637351403036849, 0.0, -0.002306036240764151, -0.557803996587613, 0.914737456151253, 0.29002751932549875, -0.16645054314729132, 0.0, -0.7157850918257577, -0.8205232287530995, -0.25695871851500657, -0.38317627557518724, 0.0
0.4299999792196667, 0.11041708854934923, 0.05169481007451364, -0.08110750005485003, 0.35425298289842705, 0.0, -0.23747397130522133, 0.15140132264051526, -0.06965533925738362, -0.1483032724611042, 0.3644860193451365, 0.0, -0.0032000766471487765, -0.5666010913175122, 0.9165685299387392, 0.24616078740633324, -0.20149164874114364, 0.0, -0.7215673571656396, -0.8197501002543436, -0.21272980703957434, -0.4089449833674058, 0.0
0.4299999792196667, 0.1105481578892521, 0.051062185467465146, -0.0801890079696174, 0.3545794223004031, 0.0, -0.23791842114457096, 0.15085546393563704, -0.07041339369645594, -0.14723925342657687, 0.365236898386588, 0.0, -0.004094117053533401, -0.5753981860474113, 0.9183996037262255, 0.2022940554871677, -0.23653275433499601, 0.0, -0.7273496225055212, -0.8189769717555876, -0.16850089556414216, -0.4347136911596243, 0.0
0.4299999792196667, 0.11067922722915495, 0.050429560860416674, -0.07927051588438477, 0.35490586170237903, 0.0, -0.23836287098392053, 0.15030960523075879, -0.07117144813552825, -0.14617523439204955, 0.3659877774280395, 0.0, -0.004988157459918026, -0.5841952807773104, 0.9202306775137119, 0.1584273235680021, -0.2715738599288484, 0.0, -0.7331318878454028, -0.8182038432568318, -0.12427198408870994, -0.4604823989518429, 0.0
0.4299999792196667, 0.10890209144593814, 0.04841927945786239, -0.07882456226935164, 0.35503018499565714, 0.0, -0.23730179631984136, 0.14780980016279044, -0.07164947915688379, -0.1464856167649072, 0.365972868825569, 0.0, -0.005919645162041251, -0.5872163828806596, 0.9172712274208602, 0.123424241019102, -0.297546125471727, 0.0, -0.7357291367399053, -0.8140196851558801, -0.08876856905033818, -0.4748840740317952, 0.0
0.4299999792196667, 0.10712495566272132, 0.04640899805530811, -0.07837860865431853, 0.3551545082889352, 0.0, -0.23624072165576213, 0.1453099950948221, -0.0721275101782393, -0.1467959991377649, 0.3659579602230985, 0.0, -0.0068511328641644755, -0.5902374849840086, 0.9143117773280085, 0.0884211584702019, -0.3235183910146056, 0.0, -0.7383263856344074, -0.8098355270549287, -0.053265154011966416, -0.4892857491117475, 0.0
0.4299999792196667, 0.10534781987950449, 0.04439871665275383, -0.0779326550392854, 0.3552788315822133, 0.0, -0.23517964699168295, 0.14281019002685374, -0.07260554119959484, -0.14710638151062255, 0.3659430516206279, 0.0, -0.007782620566287701, -0.5932585870873578, 0.911352327235157, 0.0534180759213018, -0.34949065655748424, 0.0, -0.7409236345289097, -0.8056513689539768, -0.017761738973594655, -0.5036874241916999, 0.0
0.4299999792196667, 0.10357068409628765, 0.04238843525019956, -0.07748670142425228, 0.35540315487549134, 0.0, -0.23411857232760372, 0.1403103849588854, -0.07308357222095035, -0.14741676388348024, 0.36592814301815735, 0.0, -0.008714108268410925, -0.596279689190707, 0.9083928771423053, 0.018414993372401697, -0.375462922100363, 0.0, -0.743520883423412, -0.8014672108530253, 0.01774167606477711, -0.5180890992716521, 0.0
0.4299999792196667, 0.10179354831307083, 0.04037815384764527, -0.07704074780921914, 0.3555274781687694, 0.0, -0.23305749766352454, 0.13781057989091705, -0.07356160324230589, -0.1477271462563379, 0.36591323441568685, 0.0, -0.00964559597053415, -0.599300791294056, 0.9054334270494536, -0.016588089176498406, -0.4014351876432416, 0.0, -0.7461181323179142, -0.7972830527520737, 0.053245091103148894, -0.5324907743516044, 0.0
0.4299999792196667, 0.09936377877012895, 0.03847197924057734, -0.07698503096537603, 0.35548231253838625, 0.0, -0.2320465017316728, 0.13530193717374833, -0.07336590854899187, -0.14831487890062997, 0.36551688410519295, 0.0, -0.009783014329563583, -0.5977455179256285, 0.9026076796492802, -0.03688077931669494, -0.4151058245846791, 0.0, -0.7449146754387866, -0.793729768343865, 0.07402346972226113, -0.53668493318917, 0.0
0.4299999792196667, 0.0969340092271871, 0.03656580463350943, -0.07692931412153291, 0.35543714690800315, 0.0, -0.23103550579982107, 0.13279329445657959, -0.07317021385567785, -0.14890261154492204, 0.36512053379469905, 0.0, -0.009920432688593016, -0.5961902445572006, 0.8997819322491069, -0.05717346945689147, -0.42877646152611654, 0.0, -0.7437112185596589, -0.7901764839356564, 0.09480184834137341, -0.5408790920267355, 0.0
0.4299999792196667, 0.09450423968424523, 0.034659630026441506, -0.07687359727768979, 0.3553919812776201, 0.0, -0.2300245098679693, 0.1302846517394108, -0.07297451916236385, -0.14949034418921414, 0.36472418348420516, 0.0, -0.01005785104762245, -0.5946349711887731, 0.8969561848489335, -0.077466159597088, -0.44244709846755403, 0.0, -0.7425077616805313, -0.7866231995274475, 0.11558022696048567, -0.545073250864301, 0.0
0.4299999792196667, 0.09207447014130338, 0.03275345541937358, -0.07681788043384667, 0.35534681564723697, 0.0, -0.22901351393611763, 0.1277760090222421, -0.07277882446904983, -0.1500780768335062, 0.3643278331737113, 0.0, -0.010195269406651884, -0.5930796978203453, 0.8941304374487601, -0.09775884973728453, -0.45611773540899153, 0.0, -0.7413043048014036, -0.7830699151192388, 0.13635860557959795, -0.5492674097018665, 0.0
0.4299999792196667, 0.08964470059836151, 0.03084728081230566, -0.07676216359000357, 0.3553016500168539, 0.0, -0.22800251800426588, 0.12526736630507335, -0.07258312977573582, -0.15066580947779828, 0.3639314828632174, 0.0, -0.010332687765681317, -0.5915244244519177, 0.8913046900485867, -0.11805153987748107, -0.46978837235042903, 0.0, -0.7401008479222759, -0.7795166307110301, 0.15713698419871017, -0.5534615685394321, 0.0
0.4299999792196667, 0.08894621808638412, 0.030670151535310962, -0.07647942374183898, 0.35550415009798725, 0.0, -0.2288398920727877, 0.12499846901227217, -0.07236477268021635, -0.15005047619671516, 0.3637243018090301, 0.0, -0.009940377124460916, -0.5835038022716214, 0.8909458259197671, -0.12536702809602074, -0.47482088613155604, 0.0, -0.732443610273562, -0.7788349295398108, 0.16296012165901508, -0.5537722196929945, 0.0
0.4299999792196667, 0.08824773557440674, 0.030493022258316262, -0.07619668389367441, 0.3557066501791206, 0.0, -0.22967726614130954, 0.12472957171947101, -0.07214641558469691, -0.14943514291563204, 0.36351712075484294, 0.0, -0.009548066483240516, -0.5754831800913249, 0.8905869617909475, -0.1326825163145604, -0.47985339991268294, 0.0, -0.7247863726248478, -0.7781532283685911, 0.16878325911932002, -0.5540828708465569, 0.0
0.4299999792196667, 0.08754925306242936, 0.030315892981321563, -0.07591394404550982, 0.35590915026025405, 0.0, -0.23051464020983137, 0.12446067442666986, -0.07192805848917744, -0.14881980963454894, 0.36330993970065567, 0.0, -0.009155755842020115, -0.5674625579110285, 0.8902280976621278, -0.13999800453310005, -0.48488591369380996, 0.0, -0.7171291349761334, -0.7774715271973719, 0.1746063965796249, -0.5543935220001195, 0.0
0.4299999792196667, 0.08685077055045197, 0.030138763704326863, -0.07563120419734524, 0.35611165034138736, 0.0, -0.2313520142783532, 0.1241917771338687, -0.07170970139365798, -0.1482044763534658, 0.3631027586464684, 0.0, -0.008763445200799717, -0.5594419357307321, 0.8898692335333084, -0.1473134927516397, -0.48991842747493686, 0.0, -0.7094718973274193, -0.7767898260261522, 0.1804295340399298, -0.554704173153682, 0.0
0.4299999792196667, 0.08615228803847459, 0.029961634427332164, -0.07534846434918066, 0.3563141504225208, 0.0, -0.23218938834687508, 0.12392287984106755, -0.07149134429813853, -0.14758914307238266, 0.3628955775922812, 0.0, -0.008371134559579316, -0.5514213135504358, 0.8895103694044888, -0.15462898097017938, -0.4949509412560639, 0.0, -0.7018146596787053, -0.7761081248549329, 0.18625267150023472, -0.5550148243072445, 0.0
0.4299999792196667, 0.0870497066692528, 0.03083488024797024, -0.07499970742205941, 0.3563449485025015, 0.0, -0.23386723618867028, 0.12480345709176154, -0.07153840919581365, -0.146494147934291, 0.3622440426918532, 0.0, -0.008009563425089912, -0.5339508923692134, 0.8865455087909561, -0.15495319333202984, -0.4993068083394852, 0.0, -0.6852075795746159, -0.7747803935517462, 0.18058884769405187, -0.5588157255577506, 0.0
0.4299999792196667, 0.087947125300031, 0.03170812606860832, -0.07465095049493817, 0.3563757465824821, 0.0, -0.2355450840304655, 0.12568403434245556, -0.07158547409348878, -0.14539915279619928, 0.3615925077914252, 0.0, -0.007647992290600505, -0.516480471187991, 0.8835806481774231, -0.1552774056938803, -0.5036626754229064, 0.0, -0.6686004994705266, -0.7734526622485596, 0.174925023887869, -0.5626166268082567, 0.0
0.4299999792196667, 0.08884454393080919, 0.0325813718892464, -0.07430219356781688, 0.35640654466246285, 0.0, -0.23722293187226076, 0.12656461159314955, -0.07163253899116391, -0.14430415765810753, 0.3609409728909972, 0.0, -0.0072864211561111, -0.4990100500067686, 0.8806157875638903, -0.1556016180557308, -0.5080185425063278, 0.0, -0.6519934193664372, -0.7721249309453728, 0.16926120008168613, -0.566417528058763, 0.0
0.4299999792196667, 0.08974196256158738, 0.03345461770988448, -0.07395343664069562, 0.35643734274244354, 0.0, -0.238900779714056, 0.1274451888438436, -0.07167960388883904, -0.14320916252001584, 0.3602894379905693, 0.0, -0.006924850021621695, -0.48153962882554624, 0.8776509269503574, -0.15592583041758123, -0.5123744095897491, 0.0, -0.6353863392623478, -0.7707971996421863, 0.16359737627550325, -0.570218429309269, 0.0
0.4299999792196667, 0.0906393811923656, 0.03432786353052256, -0.07360467971357437, 0.3564681408224243, 0.0, -0.2405786275558512, 0.12832576609453758, -0.07172666878651418, -0.14211416738192412, 0.35963790309014126, 0.0, -0.006563278887132289, -0.46406920764432386, 0.8746860663368247, -0.15625004277943172, -0.5167302766731705, 0.0, -0.6187792591582584, -0.7694694683389995, 0.1579335524693204, -0.5740193305597753, 0.0
0.4299999792196667, 0.09158990844695272, 0.03486422345547974, -0.0734653483340584, 0.3560610602276891, 0.0, -0.24175057775132183, 0.1286201116840962, -0.07210065130638037, -0.1414052900379877, 0.3579769290915543, 0.0, -0.006275277988283671, -0.4398851924904046, 0.8664857066594993, -0.1559661300700098, -0.5232320714504793, 0.0, -0.5943278839975432, -0.7626310553995171, 0.15254289956914513, -0.5826897737271741, 0.0
0.4299999792196667, 0.09254043570153986, 0.03540058338043692, -0.07332601695454245, 0.355653979632954, 0.0, -0.24292252794679245, 0.12891445727365486, -0.07247463382624654, -0.14069641269405128, 0.3563159550929674, 0.0, -0.005987277089435051, -0.4157011773364853, 0.858285346982174, -0.15568221736058788, -0.5297338662277882, 0.0, -0.5698765088368278, -0.7557926424600345, 0.14715224666896987, -0.5913602168945731, 0.0
0.4299999792196667, 0.093490962956127, 0.0359369433053941, -0.0731866855750265, 0.35524689903821877, 0.0, -0.2440944781422631, 0.12920880286321348, -0.07284861634611275, -0.13998753535011488, 0.35465498109438043, 0.0, -0.0056992761905864334, -0.39151716218256605, 0.8500849873048488, -0.15539830465116597, -0.536235661005097, 0.0, -0.5454251336761126, -0.7489542295205521, 0.1417615937687946, -0.6000306600619721, 0.0
0.4299999792196667, 0.09444149021071413, 0.03647330323035127, -0.07304735419551052, 0.3548398184434836, 0.0, -0.24526642833773377, 0.12950314845277214, -0.07322259886597893, -0.13927865800617847, 0.3529940070957935, 0.0, -0.005411275291737815, -0.3673331470286468, 0.8418846276275234, -0.15511439194174403, -0.542737455782406, 0.0, -0.5209737585153974, -0.7421158165810695, 0.1363709408686193, -0.608701103229371, 0.0
0.4299999792196667, 0.09539201746530128, 0.03700966315530845, -0.07290802281599457, 0.35443273784874846, 0.0, -0.24643837853320438, 0.1297974940423308, -0.07359658138584511, -0.13856978066224207, 0.35133303309720654, 0.0, -0.005123274392889195, -0.3431491318747275, 0.8336842679501982, -0.15483047923232213, -0.5492392505597148, 0.0, -0.49652238335468213, -0.7352774036415869, 0.13098028796844405, -0.6173715463967699, 0.0
0.4299999792196667, 0.09515379258877465, 0.03669899873724367, -0.07304131535629864, 0.3535508823189103, 0.0, -0.24668929404778808, 0.12892446080279557, -0.07357461990786728, -0.13823760296675136, 0.34909089238297347, 0.0, -0.00542382543079013, -0.3173379322965399, 0.8204819552069483, -0.15799366859007613, -0.5513166077579501, 0.0, -0.46857123558062425, -0.7226952831760578, 0.13162353953624206, -0.6261136527832557, 0.0
0.4299999792196667, 0.09491556771224804, 0.036388334319178886, -0.0731746078966027, 0.35266902678907214, 0.0, -0.24694020956237184, 0.12805142756326038, -0.07355265842988942, -0.13790542527126062, 0.34684875166874046, 0.0, -0.005724376468691064, -0.29152673271835233, 0.8072796424636987, -0.16115685794783005, -0.5533939649561853, 0.0, -0.4406200878065664, -0.7101131627105287, 0.1322667911040401, -0.6348557591697415, 0.0
0.4299999792196667, 0.09467734283572145, 0.0360776699011141, -0.07330790043690674, 0.351787171259234, 0.0, -0.24719112507695556, 0.1271783943237252, -0.07353069695191157, -0.1375732475757699, 0.3446066109545075, 0.0, -0.006024927506591999, -0.2657155331401648, 0.7940773297204486, -0.16432004730558405, -0.5554713221544205, 0.0, -0.41266894003250854, -0.6975310422449995, 0.13291004267183812, -0.6435978655562273, 0.0
0.4299999792196667, 0.09443911795919484, 0.03576700548304932, -0.0734411929772108, 0.3509053157293959, 0.0, -0.24744204059153926, 0.12630536108419002, -0.07350873547393372, -0.13724106988027918, 0.34236447024027444, 0.0, -0.006325478544492934, -0.23990433356197718, 0.780875016977199, -0.167483236663338, -0.5575486793526558, 0.0, -0.3847177922584507, -0.6849489217794703, 0.13355329423963613, -0.6523399719427131, 0.0
0.4299999792196667, 0.09420089308266823, 0.035456341064984534, -0.07357448551751487, 0.35002346019955766, 0.0, -0.24769295610612296, 0.12543232784465483, -0.07348677399595588, -0.13690889218478847, 0.34012232952604143, 0.0, -0.006626029582393868, -0.2140931339837896, 0.7676727042339491, -0.17064642602109198, -0.559626036550891, 0.0, -0.3567666444843929, -0.6723668013139411, 0.13419654580743415, -0.661082078329199, 0.0
0.4299999792196667, 0.09280330951402654, 0.03492767420230428, -0.07361594232323748, 0.34931919890242696, 0.0, -0.2476463418524607, 0.1237306189085239, -0.07302542762411772, -0.13661811788794526, 0.33848358404080786, 0.0, -0.006859043150120119, -0.188716128341201, 0.7495316891568667, -0.1782522532513594, -0.55145170671403, 0.0, -0.3278578066244977, -0.6557049353246317, 0.1414940372379248, -0.6608476771199976, 0.0
0.4299999792196667, 0.09140572594538489, 0.034399007339624046, -0.07365739912896009, 0.3486149376052962, 0.0, -0.24759972759879847, 0.12202890997239295, -0.07256408125227955, -0.13632734359110205, 0.33684483855557434, 0.0, -0.007092056717846372, -0.16333912269861248, 0.7313906740797848, -0.1858580804816268, -0.5432773768771689, 0.0, -0.29894896876460253, -0.6390430693353222, 0.14879152866841547, -0.6606132759107963, 0.0
0.4299999792196667, 0.09000814237674319, 0.03387034047694381, -0.07369885593468273, 0.3479106763081654, 0.0, -0.24755311334513616, 0.12032720103626203, -0.07210273488044139, -0.13603656929425884, 0.3352060930703408, 0.0, -0.007325070285572624, -0.1379621170560239, 0.7132496590027027, -0.19346390771189423, -0.5351030470403079, 0.0, -0.27004013090470735, -0.6223812033460128, 0.1560890200989061, -0.660378874701595, 0.0
0.4299999792196667, 0.08861055880810154, 0.03334167361426357, -0.07374031274040535, 0.34720641501103466, 0.0, -0.24750649909147393, 0.11862549210013111, -0.07164138850860322, -0.13574579499741563, 0.3335673475851073, 0.0, -0.007558083853298875, -0.11258511141343536, 0.6951086439256204, -0.20106973494216168, -0.5269287172034468, 0.0, -0.24113129304481218, -0.6057193373567032, 0.16338651152939676, -0.6601444734923936, 0.0
0.4299999792196667, 0.08721297523945985, 0.03281300675158333, -0.07378176954612796, 0.3465021537139039, 0.0, -0.24745988483781167, 0.11692378316400016, -0.07118004213676506, -0.13545502070057244, 0.33192860209987374, 0.0, -0.007791097421025127, -0.08720810577084678, 0.6769676288485383, -0.2086755621724291, -0.5187543873665857, 0.0, -0.21222245518491703, -0.5890574713673938, 0.17068400295988742, -0.6599100722831923, 0.0
0.4299999792196667, 0.08548532826718333, 0.03252374321174065, -0.07354712538709474, 0.34626511356687356, 0.0, -0.24760909652622315, 0.11489337218105092, -0.07070760943351823, -0.13510286806085847, 0.33073581616379283, 0.0, -0.007828050160266883, -0.0661509984192569, 0.6556720219055976, -0.21501193813389247, -0.4982469815858212, 0.0, -0.1865250929618615, -0.5700968112763315, 0.1798047026770573, -0.6469815039611423, 0.0
0.4299999792196667, 0.08375768129490681, 0.032234479671897964, -0.07331248122806153, 0.3460280734198432, 0.0, -0.24775830821463465, 0.11286296119810169, -0.07023517673027138, -0.13475071542114453, 0.32954303022771186, 0.0, -0.007865002899508635, -0.04509389106766698, 0.6343764149626568, -0.22134831409535585, -0.4777395758050566, 0.0, -0.160827730738806, -0.5511361511852694, 0.18892540239422723, -0.634052935639092, 0.0
0.4299999792196667, 0.08203003432263029, 0.03194521613205528, -0.0730778370690283, 0.34579103327281285, 0.0, -0.24790751990304613, 0.11083255021515245, -0.06976274402702456, -0.1343985627814306, 0.3283502442916309, 0.0, -0.007901955638750392, -0.02403678371607707, 0.613080808019716, -0.22768469005681918, -0.45723217002429195, 0.0, -0.13513036851575044, -0.5321754910942071, 0.19804610211139714, -0.6211243673170421, 0.0
0.4299999792196667, 0.08030238735035375, 0.0316559525922126, -0.07284319290999508, 0.34555399312578255, 0.0, -0.24805673159145766, 0.10880213923220323, -0.06929031132377772, -0.13404641014171667, 0.32715745835554993, 0.0, -0.007938908377992144, -0.0029796763644871697, 0.5917852010767752, -0.23402106601828257, -0.43672476424352735, 0.0, -0.10943300629269494, -0.5132148310031449, 0.2071668018285671, -0.608195798994992, 0.0
0.4299999792196667, 0.07857474037807723, 0.03136668905236992, -0.07260854875096187, 0.34531695297875215, 0.0, -0.24820594327986914, 0.10677172824925397, -0.0688178786205309, -0.13369425750200273, 0.32596467241946897, 0.0, -0.0079758611172339, 0.01807743098710273, 0.5704895941338345, -0.24035744197974593, -0.4162173584627627, 0.0, -0.08373564406963942, -0.4942541709120827, 0.216287501545737, -0.595267230672942, 0.0
0.4299999792196667, 0.07709470466304455, 0.03138346376087669, -0.07222754023365885, 0.34534546816807127, 0.0, -0.24899733839457644, 0.1053265258154326, -0.06836141463274226, -0.13268600278427417, 0.3249657157687975, 0.0, -0.007623406395933022, 0.030573084001763742, 0.5514811259839016, -0.24411930021488498, -0.38307592612451463, 0.0, -0.06693650354690288, -0.47710499154232394, 0.22334229691522328, -0.5693287163071384, 0.0
0.4299999792196667, 0.07561466894801186, 0.03140023846938345, -0.07184653171635583, 0.34537398335739034, 0.0, -0.24978873350928374, 0.10388132338161123, -0.06790495064495362, -0.1316777480665456, 0.32396675911812606, 0.0, -0.007270951674632144, 0.04306873701642476, 0.5324726578339688, -0.24788115845002404, -0.3499344937862665, 0.0, -0.05013736302416632, -0.4599558121725651, 0.2303970922847096, -0.5433902019413348, 0.0
0.4299999792196667, 0.07413463323297916, 0.031417013177890224, -0.07146552319905282, 0.34540249854670935, 0.0, -0.25058012862399104, 0.10243612094778982, -0.06744848665716498, -0.13066949334881708, 0.3229678024674545, 0.0, -0.006918496953331264, 0.055564390031085785, 0.513464189684036, -0.25164301668516303, -0.31679306144801833, 0.0, -0.033338222501429766, -0.4428066328028064, 0.23745188765419584, -0.5174516875755313, 0.0
0.4299999792196667, 0.07265459751794648, 0.031433787886396995, -0.07108451468174981, 0.34543101373602847, 0.0, -0.2513715237386983, 0.10099091851396845, -0.06699202266937634, -0.12966123863108853, 0.32196884581678303, 0.0, -0.006566042232030388, 0.0680600430457468, 0.49445572153410305, -0.2554048749203021, -0.28365162910977026, 0.0, -0.016539081978693217, -0.42565745343304756, 0.2445066830236821, -0.4915131732097277, 0.0
0.4299999792196667, 0.07117456180291379, 0.03145056259490376, -0.07070350616444677, 0.3454595289253476, 0.0, -0.25216291885340564, 0.09954571608014708, -0.06653555868158771, -0.12865298391335997, 0.3209698891661116, 0.0, -0.006213587510729509, 0.08055569606040781, 0.4754472533841702, -0.25916673315544114, -0.2505101967715222, 0.0, 0.0002600585440433327, -0.40850827406328877, 0.2515614783931684, -0.4655746588439241, 0.0
0.4299999792196667, 0.06968108914703586, 0.03157367113902243, -0.07069846635169873, 0.34523411965245254, 0.0, -0.25243362640170697, 0.09770955500695706, -0.06535890342751953, -0.12808978536236318, 0.32015384302104916, 0.0, -0.0059584800992549414, 0.08252607365120788, 0.4627888445770364, -0.2591546031171398, -0.20585094469841347, 0.0, 0.006802462396222535, -0.39641886702691465, 0.25656498829278573, -0.42721190649672675, 0.0
0.4299999792196667, 0.06818761649115791, 0.0316967796831411, -0.07069342653895067, 0.34500871037955744, 0.0, -0.2527043339500083, 0.09587339393376702, -0.06418224817345136, -0.1275265868113664, 0.3193377968759866, 0.0, -0.005703372687780373, 0.08449645124200798, 0.4501304357699025, -0.2591424730788384, -0.16119169262530478, 0.0, 0.013344866248401735, -0.38432945999054047, 0.26156849819240313, -0.3888491541495295, 0.0
0.4299999792196667, 0.06669414383527997, 0.03181988822725978, -0.07068838672620262, 0.3447833011066624, 0.0, -0.2529750414983096, 0.09403723286057701, -0.0630055929193832, -0.1269633882603696, 0.31852175073092415, 0.0, -0.005448265276305806, 0.08646682883280807, 0.4374720269627687, -0.2591303430405371, -0.1165324405521961, 0.0, 0.01988727010058094, -0.3722400529541663, 0.2665720080920204, -0.35048640180233215, 0.0
0.4299999792196667, 0.06520067117940202, 0.03194299677137845, -0.07068334691345456, 0.34455789183376734, 0.0, -0.25324574904661096, 0.09220107178738698, -0.06182893766531501, -0.12640018970937278, 0.31770570458586167, 0.0, -0.005193157864831239, 0.08843720642360815, 0.42481361815563484, -0.2591182130022357, -0.0718731884790874, 0.0, 0.026429673952760142, -0.3601506459177921, 0.2715755179916378, -0.3121236494551348, 0.0
0.4299999792196667, 0.06370719852352409, 0.03206610531549712, -0.0706783071007065, 0.34433248256087223, 0.0, -0.2535164565949123, 0.09036491071419697, -0.06065228241124684, -0.125836991158376, 0.31688965844079925, 0.0, -0.004938050453356671, 0.09040758401440824, 0.412155209348501, -0.2591060829639344, -0.027213936405978703, 0.0, 0.03297207780493934, -0.348061238881418, 0.2765790278912551, -0.27376089710793744, 0.0
0.4299999792196667, 0.062425240225300244, 0.03228671807454186, -0.0709483863304771, 0.34415535607640435, 0.0, -0.25408816013535407, 0.088921445581113, -0.05927522880153053, -0.1250642204521167, 0.31687336404690264, 0.0, -0.004987594591234258, 0.08593975789919585, 0.40344738471918296, -0.25638096775777247, 0.024745680258635265, 0.0, 0.03262938589696877, -0.34087496436872045, 0.27700488822874175, -0.2267305011014614, 0.0
0.4299999792196667, 0.06114328192707639, 0.03250733083358659, -0.07121846556024772, 0.3439782295919364, 0.0, -0.2546598636757958, 0.08747798044802907, -0.05789817519181421, -0.12429144974585744, 0.31685706965300603, 0.0, -0.005037138729111846, 0.08147193178398346, 0.3947395600898647, -0.25365585255161055, 0.07670529692324925, 0.0, 0.03228669398899818, -0.33368868985602296, 0.27743074856622835, -0.17970010509498532, 0.0
0.4299999792196667, 0.059861323628852534, 0.03272794359263133, -0.07148854479001832, 0.3438011031074686, 0.0, -0.25523156721623763, 0.08603451531494512, -0.05652112158209789, -0.12351867903959819, 0.3168407752591094, 0.0, -0.005086682866989434, 0.07700410566877108, 0.3860317354605466, -0.2509307373454487, 0.12866491358786322, 0.0, 0.031944002081027593, -0.3265024153433254, 0.277856608903715, -0.13266970908850922, 0.0
0.4299999792196667, 0.05857936533062868, 0.03294855635167607, -0.07175862401978894, 0.3436239766230007, 0.0, -0.25580327075667936, 0.08459105018186117, -0.05514406797238159, -0.1227459083333389, 0.31682448086521275, 0.0, -0.005136227004867021, 0.0725362795535587, 0.37732391083122835, -0.24820562213928676, 0.1806245302524772, 0.0, 0.031601310173057014, -0.3193161408306279, 0.2782824692412016, -0.08563931308203318, 0.0
0.4299999792196667, 0.05729740703240483, 0.033169169110720806, -0.07202870324955954, 0.34344685013853277, 0.0, -0.25637497429712114, 0.08314758504877723, -0.053767014362665275, -0.12197313762707965, 0.31680818647131614, 0.0, -0.005185771142744608, 0.0680684534383463, 0.3686160862019103, -0.2454805069331249, 0.23258414691709114, 0.0, 0.03125861826508643, -0.31212986631793044, 0.2787083295786882, -0.03860891707555712, 0.0
0.4299999792196667, 0.05654474217006268, 0.03338161687045886, -0.0722495128817439, 0.3434405111026895, 0.0, -0.25773043190080497, 0.08251469480261658, -0.05278581120114508, -0.12070411780366667, 0.31773155640274225, 0.0, -0.005452225218939071, 0.06280447513901738, 0.36256302604726465, -0.23822597259338185, 0.2835616364428789, 0.0, 0.029583772389604638, -0.3083293630024937, 0.27256758408242243, 0.009832176205428401, 0.0
0.4299999792196667, 0.05579207730772054, 0.033594064630196915, -0.07247032251392826, 0.3434341720668463, 0.0, -0.2590858895044888, 0.08188180455645595, -0.05180460803962491, -0.1194350979802537, 0.31865492633416836, 0.0, -0.005718679295133534, 0.057540496839688454, 0.35650996589261896, -0.23097143825363886, 0.3345391259686667, 0.0, 0.02790892651412285, -0.304528859687057, 0.26642683858615657, 0.05827326948641392, 0.0
0.4299999792196667, 0.0550394124453784, 0.03380651238993497, -0.07269113214611263, 0.34342783303100305, 0.0, -0.2604413471081726, 0.08124891431029534, -0.05082340487810471, -0.11816607815684074, 0.3195782962655945, 0.0, -0.005985133371327997, 0.052276518540359536, 0.35045690573797345, -0.22371690391389584, 0.38551661549445443, 0.0, 0.02623408063864106, -0.30072835637162026, 0.26028609308989076, 0.10671436276739943, 0.0
0.4299999792196667, 0.05428674758303626, 0.034018960149673025, -0.07291194177829699, 0.34342149399515975, 0.0, -0.2617968047118565, 0.08061602406413469, -0.049842201716584524, -0.11689705833342777, 0.32050166619702053, 0.0, -0.00625158744752246, 0.04701254024103061, 0.34440384558332776, -0.21646236957415285, 0.4364941050202423, 0.0, 0.02455923476315927, -0.2969278530561835, 0.2541453475936249, 0.15515545604838496, 0.0
0.4299999792196667, 0.053534082720694105, 0.034231407909411087, -0.07313275141048135, 0.3434151549593165, 0.0, -0.26315226231554034, 0.07998313381797408, -0.04886099855506434, -0.1156280385100148, 0.32142503612844664, 0.0, -0.006518041523716924, 0.04174856194170169, 0.33835078542868213, -0.20920783523440983, 0.48747159454603, 0.0, 0.022884388887677475, -0.29312734974074683, 0.24800460209735908, 0.20359654932937046, 0.0
0.4299999792196667, 0.052995197653375146, 0.034035374971288036, -0.07342260522067706, 0.34319521903895567, 0.0, -0.26421688174333036, 0.07881760643415076, -0.048227992069975516, -0.11522917981231993, 0.3221471556344838, 0.0, -0.00676701431231024, 0.03869210959061683, 0.3339210909179015, -0.19678692734122888, 0.5318555443170486, 0.0, 0.022020783218629866, -0.29081286861967715, 0.2358279320890437, 0.24853392206224542, 0.0
0.4299999792196667, 0.052456312586056174, 0.033839342033164986, -0.07371245903087276, 0.34297528311859493, 0.0, -0.2652815011711203, 0.07765207905032745, -0.0475949855848867, -0.11483032111462506, 0.32286927514052094, 0.0, -0.007015987100903559, 0.03563565723953198, 0.32949139640712083, -0.18436601944804792, 0.5762394940880672, 0.0, 0.02115717754958225, -0.2884983874986075, 0.2236512620807283, 0.29347129479512035, 0.0
0.4299999792196667, 0.051917427518737215, 0.033643309095041936, -0.07400231284106848, 0.3427553471982341, 0.0, -0.26634612059891033, 0.07648655166650413, -0.04696197909979789, -0.11443146241693021, 0.3235913946465581, 0.0, -0.007264959889496877, 0.03257920488844712, 0.32506170189634015, -0.17194511155486697, 0.6206234438590857, 0.0, 0.020293571880534638, -0.2861839063775378, 0.21147459207241295, 0.33840866752799525, 0.0
0.4299999792196667, 0.05137854245141824, 0.033447276156918886, -0.07429216665126417, 0.3425354112778733, 0.0, -0.26741074002670034, 0.07532102428268082, -0.04632897261470907, -0.11403260371923536, 0.32431351415259524, 0.0, -0.007513932678090195, 0.029522752537362265, 0.32063200738555947, -0.159524203661686, 0.6650073936301043, 0.0, 0.019429966211487022, -0.28386942525646813, 0.1992979220640976, 0.3833460402608702, 0.0
0.4299999792196667, 0.05083965738409928, 0.033251243218795835, -0.07458202046145988, 0.3423154753575125, 0.0, -0.26847535945449036, 0.0741554968988575, -0.045695966129620263, -0.1136337450215405, 0.32503563365863236, 0.0, -0.007762905466683513, 0.02646630018627741, 0.31620231287477885, -0.14710329576850503, 0.7093913434011229, 0.0, 0.01856636054243941, -0.28155494413539844, 0.1871212520557822, 0.42828341299374517, 0.0
0.4299999792196667, 0.050296640773375, 0.03286318950543422, -0.07482306264846507, 0.3420479582710838, 0.0, -0.269491127116517, 0.07293003909731091, -0.04532451678063042, -0.11350819057300807, 0.32556215062474, 0.0, -0.008004177618270937, 0.0256153457108458, 0.3111099412816254, -0.13268822458841195, 0.7447566847442376, 0.0, 0.01853522282138628, -0.27847745742523444, 0.1703376751820191, 0.46724966179903854, 0.0
0.4299999792196667, 0.04975362416265071, 0.032475135792072604, -0.07506410483547024, 0.3417804411846551, 0.0, -0.27050689477854367, 0.07170458129576432, -0.04495306743164057, -0.11338263612447566, 0.32608866759084765, 0.0, -0.008245449769858361, 0.0247643912354142, 0.30601756968847205, -0.1182731534083189, 0.7801220260873524, 0.0, 0.01850408510033315, -0.2753999707150704, 0.15355409830825595, 0.506215910604332, 0.0
0.4299999792196667, 0.04921060755192641, 0.03208708207871099, -0.07530514702247544, 0.3415129240982264, 0.0, -0.2715226624405704, 0.07047912349421774, -0.04458161808265073, -0.11325708167594323, 0.32661518455695526, 0.0, -0.008486721921445783, 0.023913436759982584, 0.30092519809531865, -0.1038580822282258, 0.8154873674304672, 0.0, 0.01847294737928002, -0.27232248400490633, 0.1367705214344928, 0.5451821594096254, 0.0
0.4299999792196667, 0.048667590941202134, 0.03169902836534937, -0.07554618920948061, 0.34124540701179773, 0.0, -0.27253843010259704, 0.06925366569267115, -0.04421016873366089, -0.11313152722741082, 0.3271417015230629, 0.0, -0.008727994073033207, 0.023062482284550982, 0.2958328265021653, -0.08944301104813276, 0.850852708773582, 0.0, 0.018441809658226893, -0.26924499729474227, 0.11998694456072968, 0.5841484082149188, 0.0
0.4299999792196667, 0.048124574330477836, 0.03131097465198776, -0.0757872313964858, 0.3409778899253691, 0.0, -0.27355419776462375, 0.06802820789112457, -0.04383871938467105, -0.11300597277887839, 0.32766821848917055, 0.0, -0.008969266224620631, 0.022211527809119374, 0.2907404549090119, -0.07502793986803967, 0.8862180501166967, 0.0, 0.018410671937173762, -0.2661675105845782, 0.10320336768696656, 0.6231146570202123, 0.0
0.4299999792196667, 0.0474812651668145, 0.030891655808537616, -0.07595196290167187, 0.3408035594583629, 0.0, -0.2748529915088123, 0.06718165618326404, -0.0438635267965272, -0.11267969639065453, 0.32763106042939555, 0.0, -0.009166705898120788, 0.02251299783268465, 0.2851788480558013, -0.06126349867006402, 0.9127566051886775, 0.0, 0.019207258708274045, -0.2624170423681377, 0.08219395564597759, 0.6556317990476561, 0.0
0.4299999792196667, 0.04683795600315117, 0.030472336965087474, -0.07611669440685796, 0.34062922899135667, 0.0, -0.27615178525300094, 0.06633510447540351, -0.04388833420838333, -0.11235342000243063, 0.3275939023696206, 0.0, -0.009364145571620946, 0.022814467856249934, 0.2796172412025908, -0.047499057472088366, 0.9392951602606582, 0.0, 0.02000384547937433, -0.2586665741516972, 0.06118454360498863, 0.6881489410750998, 0.0
0.4299999792196667, 0.046194646839487825, 0.03005301812163733, -0.07628142591204404, 0.34045489852435046, 0.0, -0.2774505789971895, 0.06548855276754298, -0.04391314162023948, -0.11202714361420678, 0.32755674430984566, 0.0, -0.009561585245121105, 0.02311593787981521, 0.27405563434938024, -0.0337346162741127, 0.9658337153326388, 0.0, 0.02080043225047461, -0.25491610593525665, 0.04017513156399968, 0.7206660831025435, 0.0
0.4299999792196667, 0.04555133767582449, 0.02963369927818719, -0.07644615741723013, 0.34028056805734425, 0.0, -0.27874937274137807, 0.06464200105968246, -0.04393794903209563, -0.11170086722598291, 0.3275195862500707, 0.0, -0.009759024918621262, 0.02341740790338049, 0.2684940274961697, -0.019970175076137044, 0.9923722704046196, 0.0, 0.021597019021574897, -0.2511656377188161, 0.01916571952301073, 0.7531832251299874, 0.0
0.4299999792196667, 0.04490802851216115, 0.02921438043473705, -0.0766108889224162, 0.34010623759033803, 0.0, -0.2800481664855667, 0.06379544935182192, -0.04396275644395178, -0.11137459083775902, 0.3274824281902957, 0.0, -0.00995646459212142, 0.02371887792694577, 0.26293242064295913, -0.006205733878161385, 1.0189108254766004, 0.0, 0.02239360579267518, -0.24741516950237555, -0.001843692517978226, 0.7857003671574312, 0.0
0.4299999792196667, 0.04421991744473082, 0.02886752870902726, -0.07652540967697054, 0.34004603071246126, 0.0, -0.28126602233102327, 0.06321956749315089, -0.0439530607908911, -0.11089607496393729, 0.32688997966636474, 0.0, -0.009853832041347635, 0.024601604376080683, 0.25763617015856327, 0.00476707628940864, 1.0377369032290413, 0.0, 0.02385812099280158, -0.2439722283001364, -0.023374995006293624, 0.8113514188141142, 0.0
0.4299999792196667, 0.043531806377300496, 0.028520676983317474, -0.07643993043152485, 0.3399858238345845, 0.0, -0.28248387817647985, 0.06264368563447985, -0.04394336513783042, -0.11041755909011554, 0.32629753114243376, 0.0, -0.00975119949057385, 0.025484330825215597, 0.2523399196741674, 0.015739886456978665, 1.0565629809814823, 0.0, 0.02532263619292798, -0.2405292870978973, -0.04490629749460903, 0.8370024704707975, 0.0
0.4299999792196667, 0.04284369530987016, 0.02817382525760769, -0.07635445118607918, 0.3399256169567077, 0.0, -0.28370173402193655, 0.062067803775808804, -0.04393366948476974, -0.10993904321629382, 0.32570508261850284, 0.0, -0.009648566939800065, 0.026367057274350507, 0.24704366918977155, 0.02671269662454869, 1.0753890587339232, 0.0, 0.026787151393054383, -0.23708634589565816, -0.06643759998292444, 0.8626535221274804, 0.0
0.4299999792196667, 0.04215558424243983, 0.027826973531897906, -0.0762689719406335, 0.33986541007883087, 0.0, -0.28491958986739313, 0.061491921917137767, -0.04392397383170906, -0.1094605273424721, 0.32511263409457186, 0.0, -0.009545934389026279, 0.027249783723485417, 0.24174741870537572, 0.03768550679211872, 1.0942151364863641, 0.0, 0.028251666593180784, -0.23364340469341904, -0.08796890247123983, 0.8883045737841635, 0.0
0.4299999792196667, 0.0414674731750095, 0.027480121806188116, -0.07618349269518784, 0.3398052032009541, 0.0, -0.2861374457128497, 0.06091604005846672, -0.04391427817864838, -0.10898201146865036, 0.3245201855706409, 0.0, -0.009443301838252495, 0.028132510172620334, 0.23645116822097986, 0.04865831695968874, 1.113041214238805, 0.0, 0.02971618179330719, -0.2302004634911799, -0.10950020495955523, 0.9139556254408466, 0.0
