isaac-sim2real/sage/motion_files/g1/amass/0-BMLmovi_Subject_47_F_MoSh_Subject_47_F_14_poses.txt
left_hip_yaw_joint, left_hip_pitch_joint, left_hip_roll_joint, left_knee_joint, left_ankle_pitch_joint, left_ankle_roll_joint, right_hip_yaw_joint, right_hip_pitch_joint, right_hip_roll_joint, right_knee_joint, right_ankle_pitch_joint, right_ankle_roll_joint, torso_joint, left_shoulder_pitch_joint, left_shoulder_roll_joint, left_shoulder_yaw_joint, left_elbow_joint, left_wrist_roll_joint, right_shoulder_pitch_joint, right_shoulder_roll_joint, right_shoulder_yaw_joint, right_elbow_joint, right_wrist_roll_joint
-0.173140510916710, 0.411675065755844, 0.757515370845795, 0.505834817886353, -0.208650425076485, 0.000000000000000, -0.292500108480453, -0.172046586871147, -0.388179570436478, 0.468709379434586, -0.204400107264519, 0.000000000000000, 0.090109907090664, -0.018869921565056, 0.094190731644630, -0.023300640285015, 0.211806669831276, -0.273186653852463, 0.911484301090240, -0.056058455258608, 0.179173350334167, -0.080725021660328, 0.055339969694614
-0.172932431101799, 0.411574453115463, 0.757174491882324, 0.506828248500824, -0.208332091569901, 0.000000000000000, -0.293108016252518, -0.172098800539970, -0.386991173028946, 0.469818383455276, -0.203410789370537, 0.000000000000000, 0.089950501918793, -0.019031723961234, 0.093695044517517, -0.024109452962875, 0.210616976022720, -0.273802816867828, 0.910511851310730, -0.056176930665970, 0.178837746381760, -0.081026807427406, 0.055315036326647
-0.172927007079124, 0.411574065685272, 0.756544649600983, 0.508577644824982, -0.207787215709686, 0.000000000000000, -0.294649273157120, -0.172136321663857, -0.384764909744263, 0.471943348646164, -0.201773777604103, 0.000000000000000, 0.090024888515472, -0.019068276509643, 0.093358948826790, -0.025290604680777, 0.209749311208725, -0.274489969015121, 0.909342408180237, -0.056318748742342, 0.178462997078896, -0.081370674073696, 0.055422104895115
-0.173281729221344, 0.411744147539139, 0.755617022514343, 0.511033475399017, -0.207035422325134, 0.000000000000000, -0.297076463699341, -0.172102913260460, -0.381510555744171, 0.475177466869354, -0.199574470520020, 0.000000000000000, 0.090495467185974, -0.018889328464866, 0.093353912234306, -0.026686962693930, 0.209696397185326, -0.275030553340912, 0.908282876014709, -0.056444089859724, 0.178161621093750, -0.081645600497723, 0.055693741887808
-0.173976629972458, 0.412056714296341, 0.754359543323517, 0.514229178428650, -0.206067696213722, 0.000000000000000, -0.300222188234329, -0.171959117054939, -0.377210825681686, 0.479603379964828, -0.196768060326576, 0.000000000000000, 0.091339141130447, -0.018543373793364, 0.093533791601658, -0.028236296027899, 0.210388690233231, -0.275413960218430, 0.907330214977264, -0.056549314409494, 0.177925065159798, -0.081839710474014, 0.056195668876171
-0.175053089857101, 0.412519127130508, 0.752739846706390, 0.518173277378082, -0.204900488257408, 0.000000000000000, -0.304033696651459, -0.171676740050316, -0.371848523616791, 0.485251456499100, -0.193314820528030, 0.000000000000000, 0.092516578733921, -0.018087593838573, 0.093757532536983, -0.029811464250088, 0.211676239967346, -0.275705158710480, 0.906427443027496, -0.056643769145012, 0.177728965878487, -0.081981085240841, 0.056986860930920
-0.176625490188599, 0.413163691759109, 0.750730037689209, 0.522866010665894, -0.203581318259239, 0.000000000000000, -0.308546781539917, -0.171210259199142, -0.365409076213837, 0.492135703563690, -0.189204081892967, 0.000000000000000, 0.093994513154030, -0.017591876909137, 0.093939885497093, -0.031266193836927, 0.213465258479118, -0.275981366634369, 0.905526638031006, -0.056739225983620, 0.177554830908775, -0.082106851041317, 0.058063689619303
-0.178811416029930, 0.413997322320938, 0.748304545879364, 0.528333723545074, -0.202155664563179, 0.000000000000000, -0.313844978809357, -0.170511037111282, -0.357864797115326, 0.500272631645203, -0.184438541531563, 0.000000000000000, 0.095777533948421, -0.017103986814618, 0.093983128666878, -0.032559871673584, 0.215665042400360, -0.276305198669434, 0.904574990272522, -0.056845344603062, 0.177381902933121, -0.082247413694859, 0.059226628392935
-0.181747257709503, 0.415053278207779, 0.745434701442719, 0.534577965736389, -0.200625404715538, 0.000000000000000, -0.320137441158295, -0.169560372829437, -0.349170356988907, 0.509629189968109, -0.179010599851608, 0.000000000000000, 0.097834281623363, -0.016650460660458, 0.093898653984070, -0.033673554658890, 0.218142122030258, -0.276732593774796, 0.903602898120880, -0.056967820972204, 0.177224993705750, -0.082425996661186, 0.060211747884750
-0.185523033142090, 0.416320770978928, 0.742088198661804, 0.541627168655396, -0.198965370655060, 0.000000000000000, -0.327669918537140, -0.168350100517273, -0.339260369539261, 0.520162761211395, -0.172903642058372, 0.000000000000000, 0.100076608359814, -0.016247682273388, 0.093739300966263, -0.034643374383450, 0.220809176564217, -0.277295410633087, 0.902709126472473, -0.057107176631689, 0.177127957344055, -0.082654215395451, 0.060638323426247
-0.190093532204628, 0.417664706707001, 0.738213002681732, 0.549663364887238, -0.197240442037582, 0.000000000000000, -0.336691230535507, -0.166929528117180, -0.328035116195679, 0.531834602355957, -0.166125506162643, 0.000000000000000, 0.102413110435009, -0.015907345339656, 0.093631736934185, -0.035301666706800, 0.223559066653252, -0.278062194585800, 0.902110517024994, -0.057265646755695, 0.177188009023666, -0.082957595586777, 0.060172718018293
-0.195372343063354, 0.418911188840866, 0.733726382255554, 0.558982491493225, -0.195637494325638, 0.000000000000000, -0.347385704517365, -0.165350243449211, -0.315390616655350, 0.544639468193054, -0.158711731433868, 0.000000000000000, 0.104838222265244, -0.015687394887209, 0.093767970800400, -0.035060569643974, 0.225960105657578, -0.279258340597153, 0.902146935462952, -0.057462163269520, 0.177563861012459, -0.083425022661686, 0.058532744646072
-0.201217904686928, 0.419825077056885, 0.728517830371857, 0.569977521896362, -0.194404169917107, 0.000000000000000, -0.359840780496597, -0.163548603653908, -0.301272183656693, 0.558592677116394, -0.150664806365967, 0.000000000000000, 0.107350833714008, -0.015625212341547, 0.094150602817535, -0.033484779298306, 0.227798536419868, -0.281031847000122, 0.903043925762177, -0.057709090411663, 0.178364261984825, -0.084118448197842, 0.055340841412544
-0.207613244652748, 0.420340776443481, 0.722433209419250, 0.582970499992371, -0.193834930658340, 0.000000000000000, -0.374154359102249, -0.161485880613327, -0.285639435052872, 0.573625206947327, -0.141943022608757, 0.000000000000000, 0.109899133443832, -0.015755802392960, 0.094672821462154, -0.030432241037488, 0.229123175144196, -0.283421665430069, 0.904831230640411, -0.058010395616293, 0.179613009095192, -0.085062161087990, 0.050297804176807
-0.214602127671242, 0.420550286769867, 0.715248167514801, 0.598234534263611, -0.194293096661568, 0.000000000000000, -0.390415698289871, -0.159165859222412, -0.268467754125595, 0.589585542678833, -0.132493481040001, 0.000000000000000, 0.112415499985218, -0.016161583364010, 0.095159791409969, -0.026003124192357, 0.229990169405937, -0.286413311958313, 0.907328128814697, -0.058367744088173, 0.181244060397148, -0.086261548101902, 0.043278295546770
-0.221818059682846, 0.420394390821457, 0.706632852554321, 0.616250693798065, -0.196181833744049, 0.000000000000000, -0.408624261617661, -0.156391963362694, -0.249857172369957, 0.606280207633972, -0.122269101440907, 0.000000000000000, 0.114684373140335, -0.017027057707310, 0.095348946750164, -0.020432187244296, 0.230603724718094, -0.289866626262665, 0.910251915454865, -0.058766346424818, 0.183142036199570, -0.087663836777210, 0.034766782075167
-0.228793501853943, 0.419841766357422, 0.696204543113708, 0.637435853481293, -0.199842438101768, 0.000000000000000, -0.428561717271805, -0.152965426445007, -0.229964748024940, 0.623397529125214, -0.111155606806278, 0.000000000000000, 0.116510391235352, -0.018468679860234, 0.094926111400127, -0.014102874323726, 0.231614559888840, -0.293414205312729, 0.913254499435425, -0.059159453958273, 0.185147851705551, -0.089110240340233, 0.025848925113678
-0.235816642642021, 0.418920278549194, 0.683799445629120, 0.661606907844543, -0.205451428890228, 0.000000000000000, -0.449561417102814, -0.148934841156006, -0.208862587809563, 0.640603542327881, -0.098872430622578, 0.000000000000000, 0.118219636380672, -0.020364770665765, 0.093597836792469, -0.007839297875762, 0.233924269676208, -0.296492725610733, 0.915818691253662, -0.059473387897015, 0.187008723616600, -0.090344481170177, 0.017182944342494
-0.243266791105270, 0.417578667402267, 0.669443190097809, 0.688097834587097, -0.213082343339920, 0.000000000000000, -0.471685349941254, -0.144514739513397, -0.186663940548897, 0.657336831092834, -0.085197649896145, 0.000000000000000, 0.120308585464954, -0.022469218820333, 0.091741129755974, -0.002465573139489, 0.238078951835632, -0.298610508441925, 0.917522907257080, -0.059636466205120, 0.188503608107567, -0.091120801866055, 0.009428520686924
-0.251314371824265, 0.415785223245621, 0.653425216674805, 0.715502679347992, -0.222565457224846, 0.000000000000000, -0.495184451341629, -0.139823183417320, -0.163629516959190, 0.673196554183960, -0.070057272911072, 0.000000000000000, 0.123014405369759, -0.024326195940375, 0.090028516948223, 0.001571923028678, 0.244002535939217, -0.299546122550964, 0.918007314205170, -0.059613421559334, 0.189454644918442, -0.091312170028687, 0.003475635545328
-0.259908825159073, 0.414378821849823, 0.636266052722931, 0.740969002246857, -0.233172416687012, 0.000000000000000, -0.520020365715027, -0.134811356663704, -0.140201196074486, 0.687968373298645, -0.053524222224951, 0.000000000000000, 0.125787690281868, -0.025396702811122, 0.088429898023605, 0.004047883674502, 0.250961571931839, -0.299436211585999, 0.916697680950165, -0.059433881193399, 0.189632266759872, -0.090983167290688, 0.000098034390248
-0.269333332777023, 0.415846228599548, 0.618666827678680, 0.760091423988342, -0.243642732501030, 0.000000000000000, -0.545851409435272, -0.130003437399864, -0.116618216037750, 0.701294541358948, -0.035674341022968, 0.000000000000000, 0.127108260989189, -0.025758113712072, 0.086281135678291, 0.005144808907062, 0.257904857397079, -0.298755109310150, 0.913199722766876, -0.059181399643421, 0.188918903470039, -0.090378291904926, -0.000328669906594
-0.281625419855118, 0.420621544122696, 0.602807223796844, 0.769108414649963, -0.252486228942871, 0.000000000000000, -0.571747064590454, -0.126244530081749, -0.092922791838646, 0.712829828262329, -0.016369465738535, 0.000000000000000, 0.125663638114929, -0.025987079367042, 0.082956522703171, 0.005566088948399, 0.264065295457840, -0.298048794269562, 0.907877981662750, -0.058932352811098, 0.187523439526558, -0.089767321944237, 0.001170064788312
-0.295367807149887, 0.425238341093063, 0.590950727462769, 0.769005477428436, -0.258179008960724, 0.000000000000000, -0.597931861877441, -0.122722052037716, -0.069988012313843, 0.721918165683746, 0.004614178556949, 0.000000000000000, 0.120079286396503, -0.026153557002544, 0.078014343976974, 0.005848490167409, 0.269343525171280, -0.297660619020462, 0.901272356510162, -0.058729637414217, 0.185708910226822, -0.089326292276382, 0.003781459061429
-0.301817476749420, 0.427058994770050, 0.582448244094849, 0.766884624958038, -0.261149287223816, 0.000000000000000, -0.625918447971344, -0.117929302155972, -0.049005761742592, 0.727576851844788, 0.027476163581014, 0.000000000000000, 0.109046168625355, -0.026078544557095, 0.071139387786388, 0.005620481446385, 0.273701310157776, -0.297758132219315, 0.893700003623962, -0.058593038469553, 0.183619916439056, -0.089143566787243, 0.006465076468885
-0.304766297340393, 0.423242270946503, 0.579684197902679, 0.766046822071075, -0.263370066881180, 0.000000000000000, -0.656256020069122, -0.112257346510887, -0.030067056417465, 0.729400575160980, 0.052389521151781, 0.000000000000000, 0.092660494148731, -0.026028092950583, 0.063016168773174, 0.004937062039971, 0.277068018913269, -0.298573434352875, 0.885777533054352, -0.058540645986795, 0.181521922349930, -0.089320130646229, 0.007485417649150
-0.309873491525650, 0.412952810525894, 0.584422409534454, 0.767025887966156, -0.266208142042160, 0.000000000000000, -0.689713299274445, -0.106548279523849, -0.013043655082583, 0.727016985416412, 0.079352341592312, 0.000000000000000, 0.071813441812992, -0.026296110823750, 0.055028218775988, 0.003380672307685, 0.280035108327866, -0.300043463706970, 0.878051578998566, -0.058552313596010, 0.179625436663628, -0.089827977120876, 0.005328882485628
-0.319348216056824, 0.398824483156204, 0.595486938953400, 0.768642902374268, -0.269577324390411, 0.000000000000000, -0.726678311824799, -0.101330757141113, 0.001959590241313, 0.720470011234283, 0.108101151883602, 0.000000000000000, 0.048509147018194, -0.027102511376143, 0.048783168196678, 0.000696190923918, 0.283803135156631, -0.301817595958710, 0.871252954006195, -0.058562438935041, 0.178192645311356, -0.090499185025692, -0.001074439496733
-0.333327561616898, 0.384670823812485, 0.610400617122650, 0.768869221210480, -0.272281855344772, 0.000000000000000, -0.765718877315521, -0.096745409071445, 0.014564421027899, 0.710932672023773, 0.138071924448013, 0.000000000000000, 0.025129962712526, -0.028545506298542, 0.045517090708017, -0.002288420684636, 0.289901375770569, -0.303320974111557, 0.866653263568878, -0.058455400168896, 0.177702084183693, -0.091036826372147, -0.010924611240625
-0.349803209304810, 0.371273577213287, 0.627936482429504, 0.767068207263947, -0.273369729518890, 0.000000000000000, -0.803752362728119, -0.092228330671787, 0.023980531841516, 0.700904488563538, 0.168213590979576, 0.000000000000000, 0.002337355166674, -0.030220219865441, 0.044940669089556, -0.004196003545076, 0.298885077238083, -0.304084181785583, 0.865120291709900, -0.058132100850344, 0.178490698337555, -0.091182217001915, -0.020296379923820
-0.364838570356369, 0.357434809207916, 0.647368073463440, 0.763929426670074, -0.272382140159607, 0.000000000000000, -0.838802039623260, -0.087805807590485, 0.029876263812184, 0.692898750305176, 0.197037205100060, 0.000000000000000, -0.019499594345689, -0.031438432633877, 0.045980509370565, -0.003933058120310, 0.310014337301254, -0.303896129131317, 0.866878688335419, -0.057536970824003, 0.180645227432251, -0.090780436992645, -0.025973932817578
-0.376538246870041, 0.343246519565582, 0.667808115482330, 0.759377121925354, -0.268975287675858, 0.000000000000000, -0.870788455009460, -0.083244286477566, 0.032118383795023, 0.688213884830475, 0.223204523324966, 0.000000000000000, -0.039501305669546, -0.032256014645100, 0.048220939934254, -0.001301835756749, 0.322796255350113, -0.302526921033859, 0.872017562389374, -0.056617900729179, 0.184182643890381, -0.089672148227692, -0.027579465880990
-0.384638667106628, 0.329854458570480, 0.688358187675476, 0.753062784671783, -0.263059735298157, 0.000000000000000, -0.899672627449036, -0.077665768563747, 0.030520750209689, 0.687363564968109, 0.245792493224144, 0.000000000000000, -0.057676091790199, -0.033332202583551, 0.051516029983759, 0.003355694469064, 0.336648255586624, -0.299994051456451, 0.880163729190826, -0.055375937372446, 0.188953027129173, -0.087841436266899, -0.025339398533106
-0.389289408922195, 0.317514836788177, 0.708618938922882, 0.745149374008179, -0.254845589399338, 0.000000000000000, -0.923935770988464, -0.070512175559998, 0.025323798879981, 0.691038608551025, 0.264273047447205, 0.000000000000000, -0.074543155729771, -0.035307381302118, 0.055184815078974, 0.010091012343764, 0.350123465061188, -0.296879142522812, 0.890327692031860, -0.053913835436106, 0.194611877202988, -0.085561648011208, -0.019621253013611
-0.391864657402039, 0.305916845798492, 0.728753685951233, 0.735773026943207, -0.244719684123993, 0.000000000000000, -0.941633522510529, -0.061602842062712, 0.017195127904415, 0.699969768524170, 0.278372287750244, 0.000000000000000, -0.090110406279564, -0.038220174610615, 0.058453556150198, 0.018596384674311, 0.361906409263611, -0.293873518705368, 0.901109576225281, -0.052373256534338, 0.200658544898033, -0.083192110061646, -0.011755049228668
-0.393604815006256, 0.295277267694473, 0.748656094074249, 0.725226521492004, -0.233137220144272, 0.000000000000000, -0.952358245849609, -0.051807098090649, 0.007332144770771, 0.714024662971497, 0.287979602813721, 0.000000000000000, -0.103961937129498, -0.041621930897236, 0.060937609523535, 0.028162084519863, 0.371446758508682, -0.291401207447052, 0.911084532737732, -0.050867371261120, 0.206561729311943, -0.080987915396690, -0.003087761811912
-0.394856929779053, 0.285917758941650, 0.767892181873322, 0.714096844196320, -0.220450431108475, 0.000000000000000, -0.957081496715546, -0.042598493397236, -0.002943414729089, 0.732379496097565, 0.293144673109055, 0.000000000000000, -0.115496620535851, -0.045062035322189, 0.062710829079151, 0.038163341581821, 0.378527551889420, -0.289660096168518, 0.919051826000214, -0.049468871206045, 0.211863368749619, -0.079087898135185, 0.005549293477088
-0.396284133195877, 0.277814805507660, 0.786282300949097, 0.702780127525330, -0.206862181425095, 0.000000000000000, -0.956866025924683, -0.034905694425106, -0.012654398567975, 0.754336059093475, 0.294145464897156, 0.000000000000000, -0.124037101864815, -0.047908645123243, 0.063780725002289, 0.047431342303753, 0.383365064859390, -0.288503855466843, 0.923760175704956, -0.048190861940384, 0.216052800416946, -0.077458798885345, 0.013349081389606
-0.398993939161301, 0.270884633064270, 0.803882837295532, 0.691334605216980, -0.192462831735611, 0.000000000000000, -0.953093230724335, -0.028913991525769, -0.021261468529701, 0.779233098030090, 0.291386187076569, 0.000000000000000, -0.129305556416512, -0.049572810530663, 0.064043611288071, 0.054186198860407, 0.386296689510345, -0.287588834762573, 0.923813104629517, -0.047010291367769, 0.218532830476761, -0.075963787734509, 0.019722504541278
-0.403706550598145, 0.265148043632507, 0.820658564567566, 0.679792702198029, -0.177264451980591, 0.000000000000000, -0.948057770729065, -0.024684952571988, -0.028520686551929, 0.806082189083099, 0.285240054130554, 0.000000000000000, -0.131262868642807, -0.049786839634180, 0.063570536673069, 0.057032816112041, 0.387567520141602, -0.286641985177994, 0.918265879154205, -0.045902017503977, 0.218895867466927, -0.074487462639809, 0.024147976189852
-0.410617202520370, 0.260781079530716, 0.836415886878967, 0.668275177478790, -0.161241680383682, 0.000000000000000, -0.943487048149109, -0.022590842097998, -0.034206844866276, 0.834182739257812, 0.276303857564926, 0.000000000000000, -0.129603549838066, -0.048262692987919, 0.062546752393246, 0.055798839777708, 0.387544155120850, -0.285522162914276, 0.906948924064636, -0.044847317039967, 0.217074573040009, -0.072972349822521, 0.026447456330061
-0.419834882020950, 0.258125007152557, 0.850882589817047, 0.656961143016815, -0.144390836358070, 0.000000000000000, -0.940100252628326, -0.023156272247434, -0.038031727075577, 0.863264381885529, 0.265407443046570, 0.000000000000000, -0.123768448829651, -0.044788043946028, 0.061073265969753, 0.051257722079754, 0.386314898729324, -0.284387052059174, 0.890213191509247, -0.043871816247702, 0.213239520788193, -0.071504823863506, 0.026179948821664
-0.431544870138168, 0.257340192794800, 0.863846957683563, 0.646154522895813, -0.126739233732224, 0.000000000000000, -0.937268495559692, -0.027076950296760, -0.039514113217592, 0.893304288387299, 0.253667443990707, 0.000000000000000, -0.113594926893711, -0.039579797536135, 0.059134010225534, 0.044523209333420, 0.383529603481293, -0.283704221248627, 0.868671834468842, -0.043048139661551, 0.207678496837616, -0.070311896502972, 0.022890416905284
-0.445785731077194, 0.258235961198807, 0.875177264213562, 0.636306941509247, -0.108310572803020, 0.000000000000000, -0.934359312057495, -0.035470955073833, -0.037812873721123, 0.923464059829712, 0.242291763424873, 0.000000000000000, -0.099722087383270, -0.033034816384315, 0.056670043617487, 0.036169078201056, 0.379031270742416, -0.283921360969543, 0.842895925045013, -0.042442526668310, 0.200644269585609, -0.069608598947525, 0.016372986137867
-0.462304681539536, 0.260647565126419, 0.884625196456909, 0.627998709678650, -0.089119285345078, 0.000000000000000, -0.932846605777740, -0.048484649509192, -0.032749339938164, 0.951262056827545, 0.231996953487396, 0.000000000000000, -0.082934871315956, -0.025582512840629, 0.053957499563694, 0.026696516200900, 0.373183935880661, -0.285338521003723, 0.813692510128021, -0.042085494846106, 0.192471876740456, -0.069532737135887, 0.006523177027702
-0.481483072042465, 0.264421910047531, 0.892150282859802, 0.621521770954132, -0.069195002317429, 0.000000000000000, -0.934807658195496, -0.065706551074982, -0.024554520845413, 0.973624229431152, 0.223198503255844, 0.000000000000000, -0.063812091946602, -0.017762303352356, 0.051380269229412, 0.016498632729053, 0.366359323263168, -0.288197547197342, 0.781869351863861, -0.041989471763372, 0.183482781052589, -0.070181153714657, -0.007045997772366
-0.503882348537445, 0.268952250480652, 0.897955715656281, 0.617023289203644, -0.048539698123932, 0.000000000000000, -0.942355453968048, -0.086056247353554, -0.013804621994495, 0.987939298152924, 0.216121390461922, 0.000000000000000, -0.042901087552309, -0.010142853483558, 0.049627687782049, 0.006018658634275, 0.358758687973022, -0.292699009180069, 0.748270690441132, -0.042151287198067, 0.174003243446350, -0.071614794433117, -0.024602519348264
-0.529757440090179, 0.273735076189041, 0.902206182479858, 0.614506900310516, -0.027138667181134, 0.000000000000000, -0.957151949405670, -0.108618773519993, -0.000751627609134, 0.992423534393311, 0.210990175604820, 0.000000000000000, -0.020958907902241, -0.003049549413845, 0.049270126968622, -0.004633296746761, 0.350367903709412, -0.298953175544739, 0.713509857654572, -0.042556263506413, 0.164244204759598, -0.073847822844982, -0.046315535902977
-0.558893263339996, 0.278562992811203, 0.904920458793640, 0.613900542259216, -0.004986822605133, 0.000000000000000, -0.979321718215942, -0.133034214377403, 0.015001353807747, 0.987082242965698, 0.208030000329018, 0.000000000000000, 0.001343918847851, 0.004228528123349, 0.050348076969385, -0.015919608995318, 0.342125803232193, -0.306373804807663, 0.678020238876343, -0.043127976357937, 0.154308527708054, -0.076657213270664, -0.072315871715546
-0.591122508049011, 0.283521026372910, 0.906112134456635, 0.614962995052338, 0.017847498878837, 0.000000000000000, -1.007230043411255, -0.158851370215416, 0.033791620284319, 0.974814176559448, 0.207232758402824, 0.000000000000000, 0.024379096925259, 0.012886004522443, 0.052361544221640, -0.027373941615224, 0.335853934288025, -0.313850343227386, 0.642998456954956, -0.043727699667215, 0.144605293869972, -0.079627864062786, -0.102547883987427
-0.626814365386963, 0.288756012916565, 0.905974566936493, 0.617247939109802, 0.041164636611938, 0.000000000000000, -1.039228796958923, -0.184722661972046, 0.055031746625900, 0.960203409194946, 0.208167240023613, 0.000000000000000, 0.049201693385839, 0.021740615367889, 0.056890372186899, -0.034858260303736, 0.330479055643082, -0.321986734867096, 0.611834764480591, -0.044310577213764, 0.136506989598274, -0.082816168665886, -0.135773897171021
-0.666157841682434, 0.294002532958984, 0.904826462268829, 0.620200932025909, 0.064825855195522, 0.000000000000000, -1.073988795280457, -0.208420500159264, 0.077581815421581, 0.946006953716278, 0.210606247186661, 0.000000000000000, 0.075047962367535, 0.027760284021497, 0.064823426306248, -0.037328008562326, 0.324687987565994, -0.331202208995819, 0.586618125438690, -0.044832706451416, 0.130814090371132, -0.086198814213276, -0.172146916389465
-0.709392428398132, 0.299589842557907, 0.902940571308136, 0.622751057147980, 0.088714852929115, 0.000000000000000, -1.110687851905823, -0.228119224309921, 0.100256085395813, 0.933023631572723, 0.214462503790855, 0.000000000000000, 0.099438920617104, 0.029457708820701, 0.075704611837864, -0.040191892534494, 0.317929536104202, -0.340373963117599, 0.566053032875061, -0.045222971588373, 0.126834720373154, -0.089324012398720, -0.211852401494980
-0.756254553794861, 0.305124998092651, 0.900707304477692, 0.624085903167725, 0.112726151943207, 0.000000000000000, -1.148203492164612, -0.243293076753616, 0.121948793530464, 0.921648263931274, 0.219693258404732, 0.000000000000000, 0.121614173054695, 0.027884107083082, 0.087449260056019, -0.049762554466724, 0.313182234764099, -0.346072942018509, 0.548085153102875, -0.045305851846933, 0.123555235564709, -0.091162629425526, -0.254141867160797
-0.806396663188934, 0.310465902090073, 0.898329615592957, 0.623608648777008, 0.136707544326782, 0.000000000000000, -1.185324430465698, -0.253400564193726, 0.140876054763794, 0.912188649177551, 0.226055324077606, 0.000000000000000, 0.140931010246277, 0.021544938907027, 0.100992552936077, -0.064027369022369, 0.310163557529449, -0.348584175109863, 0.533731043338776, -0.045080397278070, 0.121427021920681, -0.091791830956936, -0.296989738941193
-0.859413683414459, 0.315543234348297, 0.895786345005035, 0.621218502521515, 0.160475969314575, 0.000000000000000, -1.222606658935547, -0.257951885461807, 0.155122652649879, 0.904567360877991, 0.232763826847076, 0.000000000000000, 0.159525722265244, 0.011547614820302, 0.117607720196247, -0.075460329651833, 0.310321033000946, -0.348597735166550, 0.525627136230469, -0.044536549597979, 0.121679581701756, -0.091491065919399, -0.337291955947876
-0.913980782032013, 0.319692999124527, 0.892933011054993, 0.617357730865479, 0.183862134814262, 0.000000000000000, -1.262427806854248, -0.256660193204880, 0.163292467594147, 0.898443102836609, 0.239105954766273, 0.000000000000000, 0.177813842892647, 0.001309432904236, 0.135533183813095, -0.085635140538216, 0.314024358987808, -0.345585972070694, 0.521423161029816, -0.043710578233004, 0.123328663408756, -0.090216018259525, -0.374026447534561
-0.969585537910461, 0.323515564203262, 0.889623165130615, 0.611704170703888, 0.206602066755295, 0.000000000000000, -1.305078864097595, -0.250113844871521, 0.165343433618546, 0.894588887691498, 0.245573326945305, 0.000000000000000, 0.195919185876846, -0.007933724671602, 0.152999609708786, -0.096685871481895, 0.319782942533493, -0.340156555175781, 0.518635988235474, -0.042706444859505, 0.125339224934578, -0.088207118213177, -0.408687800168991
-1.025191903114319, 0.327603608369827, 0.885546326637268, 0.604070127010345, 0.228391900658607, 0.000000000000000, -1.353048205375671, -0.240278691053391, 0.163645073771477, 0.892774641513824, 0.253046005964279, 0.000000000000000, 0.213793769478798, -0.015646098181605, 0.170298457145691, -0.108960144221783, 0.325849145650864, -0.333668559789658, 0.516144871711731, -0.041638914495707, 0.127275645732880, -0.085885629057884, -0.442449957132339
-1.078642010688782, 0.332546561956406, 0.880062580108643, 0.594459116458893, 0.248845815658569, 0.000000000000000, -1.408616065979004, -0.229301184415817, 0.160655185580254, 0.892245113849640, 0.261879622936249, 0.000000000000000, 0.232125148177147, -0.022330205887556, 0.187248677015305, -0.121415019035339, 0.330659747123718, -0.327874809503555, 0.513434708118439, -0.040636468678713, 0.128979638218880, -0.083788141608238, -0.476316392421722
-1.125854730606079, 0.339506357908249, 0.871602594852448, 0.584294676780701, 0.267552822828293, 0.000000000000000, -1.466008305549622, -0.218733489513397, 0.157074093818665, 0.892890453338623, 0.271737486124039, 0.000000000000000, 0.248911887407303, -0.029966864734888, 0.202859953045845, -0.132169365882874, 0.332893431186676, -0.324794411659241, 0.510531961917877, -0.039836119860411, 0.130530908703804, -0.082526169717312, -0.509100198745728
-1.162714362144470, 0.348687827587128, 0.858617544174194, 0.577851653099060, 0.284238606691360, 0.000000000000000, -1.514668345451355, -0.209148451685905, 0.153129264712334, 0.895013153553009, 0.282183766365051, 0.000000000000000, 0.260404616594315, -0.038687437772751, 0.218271389603615, -0.140787407755852, 0.332518130540848, -0.325157821178436, 0.507941424846649, -0.039279650896788, 0.132161557674408, -0.082306705415249, -0.537290513515472
-1.189898967742920, 0.353688269853592, 0.843353271484375, 0.582635641098022, 0.298833817243576, 0.000000000000000, -1.553326368331909, -0.202789738774300, 0.150859609246254, 0.897377550601959, 0.292540043592453, 0.000000000000000, 0.267550766468048, -0.045970514416695, 0.234081268310547, -0.148245781660080, 0.330803871154785, -0.327809989452362, 0.505543351173401, -0.038896273821592, 0.133798003196716, -0.082796372473240, -0.559450507164001
-1.211475729942322, 0.348756670951843, 0.829668462276459, 0.604150891304016, 0.311450779438019, 0.000000000000000, -1.585421681404114, -0.200535506010056, 0.151042461395264, 0.898183524608612, 0.302320718765259, 0.000000000000000, 0.271442860364914, -0.051424134522676, 0.249082326889038, -0.154603645205498, 0.327718079090118, -0.332074105739594, 0.502879917621613, -0.038649365305901, 0.135246053338051, -0.083799391984940, -0.575985193252563
-1.226443648338318, 0.335307031869888, 0.817578434944153, 0.643845200538635, 0.322359919548035, 0.000000000000000, -1.611431956291199, -0.202520728111267, 0.152999117970467, 0.896584749221802, 0.311336815357208, 0.000000000000000, 0.272856086492538, -0.054719723761082, 0.261278331279755, -0.159463539719582, 0.323771327733994, -0.337007880210876, 0.499257534742355, -0.038490030914545, 0.136219561100006, -0.085067622363567, -0.587214410305023
-1.233282208442688, 0.314818859100342, 0.806615769863129, 0.698333621025085, 0.331785738468170, 0.000000000000000, -1.630700826644897, -0.207608401775360, 0.155640974640846, 0.892851591110229, 0.319474756717682, 0.000000000000000, 0.272623807191849, -0.055564515292645, 0.268989145755768, -0.162429526448250, 0.319745630025864, -0.341774016618729, 0.493964552879333, -0.038379166275263, 0.136427730321884, -0.086396709084511, -0.593279898166656
-1.231224894523621, 0.288970828056335, 0.795565485954285, 0.759830892086029, 0.339640915393829, 0.000000000000000, -1.644011020660400, -0.213015943765640, 0.157892629504204, 0.887964129447937, 0.326636701822281, 0.000000000000000, 0.271638780832291, -0.054025325924158, 0.272265136241913, -0.163121595978737, 0.316259026527405, -0.346019715070724, 0.486883431673050, -0.038297779858112, 0.135828718543053, -0.087707087397575, -0.594519913196564
-1.222122430801392, 0.261208921670914, 0.782444357872009, 0.819148182868958, 0.345537126064301, 0.000000000000000, -1.652850508689880, -0.215071409940720, 0.158538460731506, 0.883044719696045, 0.332743495702744, 0.000000000000000, 0.270105928182602, -0.050834976136684, 0.272350519895554, -0.161783695220947, 0.314099788665771, -0.349494278430939, 0.478620171546936, -0.038217641413212, 0.134669095277786, -0.088924378156662, -0.591659486293793
-1.209903717041016, 0.232683986425400, 0.767165958881378, 0.870595693588257, 0.349225789308548, 0.000000000000000, -1.657471418380737, -0.211895555257797, 0.156783893704414, 0.878718256950378, 0.337726682424545, 0.000000000000000, 0.268062353134155, -0.047100555151701, 0.270366996526718, -0.159928247332573, 0.314053416252136, -0.351622164249420, 0.469796448945999, -0.038087464869022, 0.133176311850548, -0.089863181114197, -0.586172223091125
-1.197170376777649, 0.203857034444809, 0.750579357147217, 0.912334024906158, 0.350756496191025, 0.000000000000000, -1.658277630805969, -0.203838467597961, 0.152295321226120, 0.875256538391113, 0.341598719358444, 0.000000000000000, 0.265222370624542, -0.043728552758694, 0.267132937908173, -0.158597111701965, 0.316173642873764, -0.351866960525513, 0.461048811674118, -0.037854086607695, 0.131584286689758, -0.090329460799694, -0.579096317291260
-1.185199975967407, 0.176123782992363, 0.733630120754242, 0.944365859031677, 0.350380331277847, 0.000000000000000, -1.657027244567871, -0.193026840686798, 0.145051032304764, 0.872284531593323, 0.344360500574112, 0.000000000000000, 0.260991305112839, -0.040702622383833, 0.263484895229340, -0.157505273818970, 0.319842129945755, -0.350061148405075, 0.453061282634735, -0.037485271692276, 0.130167081952095, -0.090230248868465, -0.570350587368011
-1.175472974777222, 0.151580661535263, 0.717545211315155, 0.967584848403931, 0.348403543233871, 0.000000000000000, -1.655250906944275, -0.181906849145889, 0.135356932878494, 0.869453847408295, 0.345966041088104, 0.000000000000000, 0.254356086254120, -0.037577722221613, 0.259459048509598, -0.156480029225349, 0.324278891086578, -0.346306949853897, 0.445965111255646, -0.036981333047152, 0.128975063562393, -0.089568808674812, -0.559436917304993
-1.168936610221863, 0.131607800722122, 0.703171789646149, 0.984116852283478, 0.345086991786957, 0.000000000000000, -1.653155446052551, -0.171926304697990, 0.124174617230892, 0.866888225078583, 0.346324026584625, 0.000000000000000, 0.244011059403419, -0.034046370536089, 0.254202038049698, -0.155177786946297, 0.328450620174408, -0.341234833002090, 0.439490675926208, -0.036387663334608, 0.127905368804932, -0.088516682386398, -0.545520901679993
-1.165216684341431, 0.115709044039249, 0.690219283103943, 0.996614515781403, 0.340597331523895, 0.000000000000000, -1.650517225265503, -0.162745699286461, 0.112518586218357, 0.865248680114746, 0.345341563224792, 0.000000000000000, 0.228863507509232, -0.030325483530760, 0.246298402547836, -0.152655035257339, 0.331771224737167, -0.335531443357468, 0.433449417352676, -0.035753130912781, 0.126902848482132, -0.087279811501503, -0.527325868606567
-1.163552403450012, 0.102307140827179, 0.677567124366760, 1.006815671920776, 0.334963977336884, 0.000000000000000, -1.647167801856995, -0.153615176677704, 0.100901149213314, 0.865603804588318, 0.342984169721603, 0.000000000000000, 0.209328696131706, -0.026606820523739, 0.235222667455673, -0.148099496960640, 0.334170043468475, -0.329683244228363, 0.427652657032013, -0.035115063190460, 0.125911042094231, -0.086018212139606, -0.503955185413361
-1.163862228393555, 0.090545460581779, 0.663830816745758, 1.015275001525879, 0.328049182891846, 0.000000000000000, -1.643102169036865, -0.144129320979118, 0.089548714458942, 0.869000315666199, 0.339265435934067, 0.000000000000000, 0.187020242214203, -0.022518796846271, 0.222065106034279, -0.141273632645607, 0.335590898990631, -0.324074566364288, 0.421923279762268, -0.034503094851971, 0.124867886304855, -0.084853775799274, -0.475392371416092
-1.166035890579224, 0.080588974058628, 0.647087216377258, 1.022619009017944, 0.319630086421967, 0.000000000000000, -1.638395786285400, -0.133879750967026, 0.078149721026421, 0.876104533672333, 0.334202945232391, 0.000000000000000, 0.163509920239449, -0.017622467130423, 0.208045542240143, -0.132338196039200, 0.336177945137024, -0.318823069334030, 0.416269093751907, -0.033925615251064, 0.123779103159904, -0.083824664354324, -0.442494362592697
-1.170246839523315, 0.072683028876781, 0.625303447246552, 1.030038237571716, 0.309446275234222, 0.000000000000000, -1.633419632911682, -0.122635319828987, 0.066094942390919, 0.886891782283783, 0.327775567770004, 0.000000000000000, 0.140550017356873, -0.011765572242439, 0.194217056035995, -0.121843516826630, 0.336244434118271, -0.313715994358063, 0.410865157842636, -0.033366512507200, 0.122709944844246, -0.082866832613945, -0.407131046056747
-1.176829338073730, 0.066516347229481, 0.597262382507324, 1.040585875511169, 0.297398835420609, 0.000000000000000, -1.629647374153137, -0.109695822000504, 0.052636649459600, 0.900905549526215, 0.319884598255157, 0.000000000000000, 0.118836805224419, -0.005345061421394, 0.181696251034737, -0.110971488058567, 0.335991591215134, -0.308321714401245, 0.406013906002045, -0.032792288810015, 0.121764294803143, -0.081834770739079, -0.371453255414963
-1.186217665672302, 0.061442229896784, 0.563930451869965, 1.059264063835144, 0.283862024545670, 0.000000000000000, -1.628724098205566, -0.095350287854671, 0.037540841847658, 0.918287992477417, 0.310507327318192, 0.000000000000000, 0.098294660449028, 0.000715797592420, 0.171184316277504, -0.101406462490559, 0.335801899433136, -0.301925420761108, 0.402050077915192, -0.032152399420738, 0.121048726141453, -0.080496974289417, -0.337551981210709
-1.200218081474304, 0.058337025344372, 0.527690112590790, 1.088520407676697, 0.269476383924484, 0.000000000000000, -1.631294965744019, -0.081136092543602, 0.020364364609122, 0.940184295177460, 0.299822121858597, 0.000000000000000, 0.078915514051914, 0.005923644173890, 0.163520634174347, -0.094354622066021, 0.336407542228699, -0.293687164783478, 0.399533897638321, -0.031385608017445, 0.120771445333958, -0.078594215214252, -0.306779772043228
-1.219883322715759, 0.058804869651794, 0.490278512239456, 1.128238081932068, 0.254651069641113, 0.000000000000000, -1.637410283088684, -0.069082126021385, 0.001532172784209, 0.967548310756683, 0.288052290678024, 0.000000000000000, 0.060701109468937, 0.009980930015445, 0.159267947077751, -0.090235412120819, 0.338246315717697, -0.283254534006119, 0.398957967758179, -0.030461462214589, 0.121132098138332, -0.076015196740627, -0.279802531003952
-1.244768619537354, 0.064225479960442, 0.453019559383392, 1.177478194236755, 0.239617764949799, 0.000000000000000, -1.646982550621033, -0.060929968953133, -0.017507210373878, 1.000441431999207, 0.275310486555099, 0.000000000000000, 0.043449856340885, 0.012689725495875, 0.158288016915321, -0.088926978409290, 0.341079384088516, -0.271008789539337, 0.400358825922012, -0.029402084648609, 0.122158505022526, -0.072866201400757, -0.257110774517059
-1.272342681884766, 0.073810786008835, 0.417222738265991, 1.234201073646545, 0.224419489502907, 0.000000000000000, -1.660867810249329, -0.055326920002699, -0.037184454500675, 1.038732171058655, 0.261658191680908, 0.000000000000000, 0.027166556566954, 0.014401715248823, 0.159545779228210, -0.089787304401398, 0.344584882259369, -0.257594317197800, 0.403347373008728, -0.028255168348551, 0.123715586960316, -0.069349646568298, -0.238870352506638
-1.300067901611328, 0.085769824683666, 0.383341133594513, 1.295107126235962, 0.208931654691696, 0.000000000000000, -1.677850246429443, -0.050261419266462, -0.057627700269222, 1.082644343376160, 0.247178092598915, 0.000000000000000, 0.012864525429904, 0.015874885022640, 0.161613419651985, -0.091674119234085, 0.348864763975143, -0.243451654911041, 0.407412916421890, -0.027060646563768, 0.125627532601357, -0.065631031990051, -0.225285977125168
-1.326514244079590, 0.098166808485985, 0.350655198097229, 1.356940269470215, 0.193047329783440, 0.000000000000000, -1.697174549102783, -0.044348128139973, -0.078224137425423, 1.130831360816956, 0.231916218996048, 0.000000000000000, 0.001579990726896, 0.017415223643184, 0.163862779736519, -0.093719981610775, 0.353985816240311, -0.228953152894974, 0.412159025669098, -0.025851294398308, 0.127761885523796, -0.061845142394304, -0.216912955045700
-1.352000236511230, 0.109085477888584, 0.318163722753525, 1.417932868003845, 0.176783517003059, 0.000000000000000, -1.718950629234314, -0.036851439625025, -0.098540239036083, 1.180767893791199, 0.215909302234650, 0.000000000000000, -0.006429119501263, 0.018646292388439, 0.166205525398254, -0.095937788486481, 0.359824329614639, -0.214447379112244, 0.417091518640518, -0.024658532813191, 0.129931852221489, -0.058104317635298, -0.214458897709846
-1.378062725067139, 0.117303639650345, 0.285477012395859, 1.478077292442322, 0.160352796316147, 0.000000000000000, -1.742075085639954, -0.027907336130738, -0.118209868669510, 1.230179190635681, 0.199262723326683, 0.000000000000000, -0.011409591883421, 0.019051276147366, 0.168735086917877, -0.098884463310242, 0.366214245557785, -0.200262054800987, 0.421535909175873, -0.023515287786722, 0.131868511438370, -0.054512418806553, -0.218512311577797
-1.405723929405212, 0.123444668948650, 0.252818644046783, 1.537344574928284, 0.144132763147354, 0.000000000000000, -1.766397953033447, -0.018485266715288, -0.137106388807297, 1.277696847915649, 0.182164132595062, 0.000000000000000, -0.014139972627163, 0.018461251631379, 0.171524524688721, -0.102856561541557, 0.372899681329727, -0.186864227056503, 0.424930393695831, -0.022461568936706, 0.133353963494301, -0.051211062818766, -0.229172006249428
-1.434411644935608, 0.129535704851151, 0.220240995287895, 1.595508813858032, 0.128526717424393, 0.000000000000000, -1.791533827781677, -0.010190510191023, -0.154807806015015, 1.323523640632629, 0.164859116077423, 0.000000000000000, -0.015606798231602, 0.016794851049781, 0.173889443278313, -0.107478678226471, 0.379872649908066, -0.174635410308838, 0.427129089832306, -0.021526016294956, 0.134348392486572, -0.048316746950150, -0.245958626270294
-1.463056087493896, 0.137119248509407, 0.187619581818581, 1.652521729469299, 0.113828733563423, 0.000000000000000, -1.816218733787537, -0.004061797168106, -0.170968472957611, 1.368248224258423, 0.147559821605682, 0.000000000000000, -0.016547188162804, 0.013969146646559, 0.174991607666016, -0.112221136689186, 0.387530595064163, -0.163629606366158, 0.428320199251175, -0.020711427554488, 0.134945541620255, -0.045851543545723, -0.267902523279190
-1.491280317306519, 0.146607607603073, 0.155140623450279, 1.708142876625061, 0.100203521549702, 0.000000000000000, -1.839811801910400, -0.000223825903959, -0.185626044869423, 1.411695837974548, 0.130376845598221, 0.000000000000000, -0.017671452835202, 0.010250244289637, 0.174870207905769, -0.116952955722809, 0.396209597587585, -0.153722271323204, 0.428731143474579, -0.020007006824017, 0.135243758559227, -0.043778568506241, -0.293593406677246
-1.519013762474060, 0.157766148447990, 0.123199455440044, 1.762144088745117, 0.087813504040241, 0.000000000000000, -1.861867427825928, 0.001825026702136, -0.198983207345009, 1.453372001647949, 0.113388508558273, 0.000000000000000, -0.019653147086501, 0.005624719895422, 0.173432737588882, -0.121923133730888, 0.406220883131027, -0.144580498337746, 0.428616255521774, -0.019386574625969, 0.135341525077820, -0.041995003819466, -0.322170853614807
-1.546457052230835, 0.170300886034966, 0.091970205307007, 1.814746975898743, 0.076835542917252, 0.000000000000000, -1.882056117057800, 0.002757761860266, -0.211199387907982, 1.492970466613770, 0.096662901341915, 0.000000000000000, -0.023201091215014, -0.000103896563814, 0.170630425214767, -0.127480179071426, 0.417744189500809, -0.135875791311264, 0.428266406059265, -0.018823072314262, 0.135348483920097, -0.040394738316536, -0.352914750576019
-1.574264287948608, 0.183475583791733, 0.061336476355791, 1.866450667381287, 0.067262791097164, 0.000000000000000, -1.899921536445618, 0.003222352825105, -0.222283244132996, 1.530728101730347, 0.080269537866116, 0.000000000000000, -0.028357045724988, -0.006903350353241, 0.166874989867210, -0.134032040834427, 0.430997818708420, -0.127257153391838, 0.427761644124985, -0.018290836364031, 0.135286837816238, -0.038870759308338, -0.384566962718964
-1.602998971939087, 0.196422785520554, 0.030773410573602, 1.917820930480957, 0.058945953845978, 0.000000000000000, -1.915632009506226, 0.003798934165388, -0.232170671224594, 1.567122220993042, 0.064280942082405, 0.000000000000000, -0.035034969449043, -0.014387049712241, 0.162852048873901, -0.141804367303848, 0.445930659770966, -0.118573293089867, 0.427083641290665, -0.017778286710382, 0.135142147541046, -0.037372250109911, -0.415571659803391
-1.632024407386780, 0.209026664495468, -0.000750440056436, 1.969310283660889, 0.051673252135515, 0.000000000000000, -1.929759383201599, 0.005235650576651, -0.240891978144646, 1.602711915969849, 0.048761356621981, 0.000000000000000, -0.043531417846680, -0.022444413974881, 0.158741906285286, -0.150787174701691, 0.462120324373245, -0.109908238053322, 0.426317870616913, -0.017287181690335, 0.134945005178452, -0.035907696932554, -0.444816023111343
-1.660517811775208, 0.220869243144989, -0.033798675984144, 2.020574331283569, 0.045060012489557, 0.000000000000000, -1.943214893341064, 0.007947293110192, -0.248523563146591, 1.637744069099426, 0.033724881708622, 0.000000000000000, -0.053454533219337, -0.030926141887903, 0.154755860567093, -0.161010339856148, 0.478676348924637, -0.101500451564789, 0.425330966711044, -0.016829917207360, 0.134635403752327, -0.034523233771324, -0.471510559320450
-1.687991499900818, 0.231338381767273, -0.067967616021633, 2.070437669754028, 0.038677696138620, 0.000000000000000, -1.956777811050415, 0.011711224913597, -0.255178660154343, 1.671793460845947, 0.019158530980349, 0.000000000000000, -0.063569419085979, -0.039870306849480, 0.151759684085846, -0.172963961958885, 0.494491666555405, -0.093411907553673, 0.423876881599426, -0.016405927017331, 0.134096816182137, -0.033205628395081, -0.494919180870056
-1.715209484100342, 0.240185767412186, -0.101824432611465, 2.117369174957275, 0.032278038561344, 0.000000000000000, -1.970461845397949, 0.015708044171333, -0.260925620794296, 1.704106807708740, 0.005076649133116, 0.000000000000000, -0.072700694203377, -0.049489941447973, 0.151284322142601, -0.187443628907204, 0.508364439010620, -0.085506096482277, 0.421868503093719, -0.015997949987650, 0.133268892765045, -0.031874664127827, -0.514242708683014
-1.743144869804382, 0.248155191540718, -0.133061170578003, 2.159793615341187, 0.025855835527182, 0.000000000000000, -1.983661055564880, 0.018603583797812, -0.265683054924011, 1.733923316001892, -0.008472546935081, 0.000000000000000, -0.079836964607239, -0.059842512011528, 0.154687717556953, -0.204785361886024, 0.518542170524597, -0.077947892248631, 0.419362515211105, -0.015605309978127, 0.132156103849411, -0.030525481328368, -0.529216229915619
-1.770921707153320, 0.256277203559875, -0.159153059124947, 2.196511983871460, 0.019675109535456, 0.000000000000000, -1.995962142944336, 0.019175827503204, -0.269365698099136, 1.760204911231995, -0.021435000002384, 0.000000000000000, -0.084140732884407, -0.070203371345997, 0.161753833293915, -0.223929941654205, 0.522575139999390, -0.071574613451958, 0.416428059339523, -0.015270593576133, 0.130792006850243, -0.029343131929636, -0.540109872817993
-1.795509099960327, 0.264659732580185, -0.177933111786842, 2.226795434951782, 0.014217305928469, 0.000000000000000, -2.006632804870605, 0.017481379210949, -0.272266685962677, 1.781675457954407, -0.033710353076458, 0.000000000000000, -0.084875911474228, -0.078541241586208, 0.170722916722298, -0.242625907063484, 0.518692731857300, -0.067165538668633, 0.413251608610153, -0.015035080723464, 0.129277646541595, -0.028518119826913, -0.547240972518921
-1.813453316688538, 0.272873282432556, -0.189364641904831, 2.251105546951294, 0.009779101237655, 0.000000000000000, -2.014486789703369, 0.015152505598962, -0.275145411491394, 1.797256231307983, -0.045151110738516, 0.000000000000000, -0.082562141120434, -0.083530105650425, 0.180436491966248, -0.258944541215897, 0.506898880004883, -0.064976759254932, 0.410333812236786, -0.014910534955561, 0.127840831875801, -0.028126237913966, -0.551287233829498
-1.825049042701721, 0.279551744461060, -0.193758800625801, 2.270350933074951, 0.005865355487913, 0.000000000000000, -2.019006013870239, 0.013706104829907, -0.278517007827759, 1.807014107704163, -0.055741567164660, 0.000000000000000, -0.077757321298122, -0.085954412817955, 0.189724087715149, -0.271171391010284, 0.488011896610260, -0.065354838967323, 0.408078491687775, -0.014920085668564, 0.126671120524406, -0.028292877599597, -0.553785085678101
-1.831646442413330, 0.284157603979111, -0.192759111523628, 2.285373449325562, 0.002039113314822, 0.000000000000000, -2.020700454711914, 0.013687106780708, -0.282372742891312, 1.811711549758911, -0.065587975084782, 0.000000000000000, -0.071367688477039, -0.087061077356339, 0.198420628905296, -0.278852194547653, 0.464246809482574, -0.068035647273064, 0.406871110200882, -0.015053899027407, 0.125935032963753, -0.028995111584663, -0.555907964706421
-1.834796905517578, 0.287153542041779, -0.188404932618141, 2.296759605407715, -0.001849587773904, 0.000000000000000, -2.020387887954712, 0.014758382923901, -0.286272197961807, 1.812558293342590, -0.074839264154434, 0.000000000000000, -0.064515821635723, -0.087610132992268, 0.206942364573479, -0.282914638519287, 0.438854098320007, -0.071924634277821, 0.406974673271179, -0.015254016034305, 0.125727921724319, -0.029988171532750, -0.558175086975098
-1.835111975669861, 0.289633631706238, -0.182870998978615, 2.305449008941650, -0.005642394535244, 0.000000000000000, -2.017849445343018, 0.016554560512304, -0.289808958768845, 1.811147451400757, -0.083591341972351, 0.000000000000000, -0.058760154992342, -0.088064908981323, 0.214982822537422, -0.285163700580597, 0.415318429470062, -0.075455114245415, 0.408466041088104, -0.015434466302395, 0.126053407788277, -0.030892265960574, -0.560045957565308
-1.832623958587646, 0.291964858770370, -0.177191793918610, 2.312416076660156, -0.009026378393173, 0.000000000000000, -2.013143062591553, 0.018813902512193, -0.292566955089569, 1.809087872505188, -0.091906093060970, 0.000000000000000, -0.054744631052017, -0.087808042764664, 0.221924662590027, -0.287257373332977, 0.396557003259659, -0.076999209821224, 0.411335766315460, -0.015502494759858, 0.126876950263977, -0.031294405460358, -0.560668230056763
-1.827815532684326, 0.293905884027481, -0.172120660543442, 2.318590641021729, -0.011741328053176, 0.000000000000000, -2.006557464599609, 0.021711267530918, -0.294290244579315, 1.808094978332520, -0.099791675806046, 0.000000000000000, -0.052662845700979, -0.086783021688461, 0.227098941802979, -0.290380269289017, 0.383761048316956, -0.075883969664574, 0.415417492389679, -0.015419743023813, 0.128106608986855, -0.031020555645227, -0.559957921504974
-1.821455240249634, 0.295387297868729, -0.169015854597092, 2.325135707855225, -0.013602149672806, 0.000000000000000, -1.998732805252075, 0.025304246693850, -0.294640481472015, 1.810282588005066, -0.107245348393917, 0.000000000000000, -0.052472490817308, -0.085940860211849, 0.229530975222588, -0.294542670249939, 0.375740766525269, -0.073011912405491, 0.420364677906036, -0.015240957960486, 0.129599973559380, -0.030308611690998, -0.558752000331879
-1.813897728919983, 0.296378076076508, -0.168760210275650, 2.332832813262939, -0.014585368335247, 0.000000000000000, -1.990578532218933, 0.029176108539104, -0.293255746364594, 1.816994071006775, -0.114258140325546, 0.000000000000000, -0.053972318768501, -0.085576459765434, 0.229073584079742, -0.299416929483414, 0.371488332748413, -0.069101646542549, 0.425936698913574, -0.015008987858891, 0.131265282630920, -0.029348051175475, -0.557123541831970
-1.805568933486938, 0.297100633382797, -0.171001642942429, 2.341291666030884, -0.014770662412047, 0.000000000000000, -1.982589840888977, 0.032966550439596, -0.290110766887665, 1.827883481979370, -0.120807945728302, 0.000000000000000, -0.056785199791193, -0.085563942790031, 0.226714655756950, -0.304881393909454, 0.369828969240189, -0.064690046012402, 0.432061523199081, -0.014753186143935, 0.133078873157501, -0.028268678113818, -0.555334866046906
-1.796672224998474, 0.297779351472855, -0.174964129924774, 2.349871635437012, -0.014224789105356, 0.000000000000000, -1.974857687950134, 0.036323722451925, -0.285359263420105, 1.841898322105408, -0.126876980066299, 0.000000000000000, -0.060639847069979, -0.085686698555946, 0.223371818661690, -0.310528188943863, 0.369239300489426, -0.060375388711691, 0.438784241676331, -0.014505376107991, 0.135072261095047, -0.027211412787437, -0.553480923175812
-1.787159085273743, 0.298273921012878, -0.179672405123711, 2.357918977737427, -0.013084155507386, 0.000000000000000, -1.967175483703613, 0.038950961083174, -0.279324740171432, 1.857589244842529, -0.132473796606064, 0.000000000000000, -0.065157420933247, -0.085790239274502, 0.219571724534035, -0.315692901611328, 0.368471086025238, -0.056577671319246, 0.446188777685165, -0.014287177473307, 0.137298047542572, -0.026273084804416, -0.551499724388123
-1.777105450630188, 0.298109918832779, -0.183639481663704, 2.364782810211182, -0.011513478122652, 0.000000000000000, -1.959169983863831, 0.040706653147936, -0.272581338882446, 1.873086810112000, -0.137641519308090, 0.000000000000000, -0.069624297320843, -0.085720255970955, 0.215721607208252, -0.319845616817474, 0.366792082786560, -0.053513765335083, 0.454269051551819, -0.014110352844000, 0.139770507812500, -0.025504268705845, -0.549650847911835
-1.766682505607605, 0.296975493431091, -0.185305237770081, 2.369972229003906, -0.009686613455415, 0.000000000000000, -1.950717449188232, 0.041563227772713, -0.265685617923737, 1.886720418930054, -0.142449527978897, 0.000000000000000, -0.073258608579636, -0.085332475602627, 0.212193071842194, -0.322809755802155, 0.363784939050674, -0.051407475024462, 0.462882041931152, -0.013990815728903, 0.142444118857384, -0.024966593831778, -0.548660576343536
-1.756073474884033, 0.294942170381546, -0.184161081910133, 2.373332023620605, -0.007736695464700, 0.000000000000000, -1.941920161247253, 0.041533119976521, -0.258754849433899, 1.898312687873840, -0.146942064166069, 0.000000000000000, -0.075598210096359, -0.084702305495739, 0.208854779601097, -0.324649602174759, 0.359386235475540, -0.050426911562681, 0.471783757209778, -0.013943922705948, 0.145229652523994, -0.024715062230825, -0.549294531345367
-1.745451211929321, 0.292347490787506, -0.180765613913536, 2.374956369400024, -0.005724286194891, 0.000000000000000, -1.933085322380066, 0.040705312043428, -0.251617938280106, 1.908602952957153, -0.151135921478271, 0.000000000000000, -0.076762415468693, -0.084327146410942, 0.205381244421005, -0.325443357229233, 0.353636205196381, -0.050791993737221, 0.480756163597107, -0.013990310020745, 0.148048639297485, -0.024823928251863, -0.552052438259125
-1.734843492507935, 0.289664030075073, -0.175739213824272, 2.375255584716797, -0.003686352632940, 0.000000000000000, -1.924677371978760, 0.039282817393541, -0.244146943092346, 1.918290972709656, -0.155044704675674, 0.000000000000000, -0.077244818210602, -0.084424547851086, 0.201462700963020, -0.325413554906845, 0.346843063831329, -0.052523687481880, 0.489567995071411, -0.014136819168925, 0.150813758373260, -0.025312995538116, -0.556924641132355
-1.724404573440552, 0.287338912487030, -0.169286489486694, 2.375124931335449, -0.001626013079658, 0.000000000000000, -1.917225718498230, 0.037496175616980, -0.236326798796654, 1.927761077880859, -0.158684164285660, 0.000000000000000, -0.077510498464108, -0.084526546299458, 0.197289779782295, -0.324913650751114, 0.339639246463776, -0.055265821516514, 0.498075604438782, -0.014360168017447, 0.153467744588852, -0.026090610772371, -0.563374519348145
-1.714474678039551, 0.285683929920197, -0.161501869559288, 2.375382184982300, 0.000454524037195, 0.000000000000000, -1.910833239555359, 0.035624288022518, -0.228324428200722, 1.937191605567932, -0.162068262696266, 0.000000000000000, -0.077881976962090, -0.084249980747700, 0.193182572722435, -0.324360072612762, 0.332824677228928, -0.058350160717964, 0.506277084350586, -0.014608957804739, 0.156005740165710, -0.026967095211148, -0.570391535758972
-1.705497264862061, 0.284844517707825, -0.152446657419205, 2.376206398010254, 0.002519464353099, 0.000000000000000, -1.905571341514587, 0.033787358552217, -0.220281839370728, 1.946398973464966, -0.165226534008980, 0.000000000000000, -0.078437522053719, -0.083358943462372, 0.189633175730705, -0.324049741029739, 0.326866626739502, -0.061158686876297, 0.514244198799133, -0.014830902218819, 0.158452972769737, -0.027756450697780, -0.576987266540527
-1.697947263717651, 0.284662187099457, -0.142556369304657, 2.377351045608521, 0.004528326913714, 0.000000000000000, -1.901632905006409, 0.032112587243319, -0.212301328778267, 1.955046772956848, -0.168186962604523, 0.000000000000000, -0.078989431262016, -0.081996947526932, 0.187351375818253, -0.324174374341965, 0.321690350770950, -0.063367187976837, 0.522055149078369, -0.014993921853602, 0.160840332508087, -0.028350178152323, -0.582667708396912
-1.692015767097473, 0.284743219614029, -0.133071020245552, 2.378623485565186, 0.006464050151408, 0.000000000000000, -1.899167656898499, 0.030822847038507, -0.204511895775795, 1.962902545928955, -0.170964658260345, 0.000000000000000, -0.079595856368542, -0.080783560872078, 0.186649993062019, -0.324925303459167, 0.317055314779282, -0.064827293157578, 0.529704809188843, -0.015080045908689, 0.163166508078575, -0.028691213577986, -0.587124168872833
-1.687864780426025, 0.284436464309692, -0.124592408537865, 2.379667043685913, 0.008291319943964, 0.000000000000000, -1.898257732391357, 0.030026681721210, -0.197038695216179, 1.969592332839966, -0.173577725887299, 0.000000000000000, -0.079690068960190, -0.080007679760456, 0.187428519129753, -0.326479345560074, 0.313129335641861, -0.065383575856686, 0.536954343318939, -0.015075552277267, 0.165337264537811, -0.028733843937516, -0.590629637241364
-1.685356378555298, 0.283383667469025, -0.117315232753754, 2.379965543746948, 0.009933909401298, 0.000000000000000, -1.898575663566589, 0.029771815985441, -0.190132454037666, 1.974770784378052, -0.176038399338722, 0.000000000000000, -0.078954182565212, -0.079730927944183, 0.189026400446892, -0.328722298145294, 0.310014605522156, -0.065358869731426, 0.543387413024902, -0.015013906173408, 0.167196750640869, -0.028591319918633, -0.593562543392181
-1.684285283088684, 0.281754314899445, -0.110857553780079, 2.379110336303711, 0.011314813978970, 0.000000000000000, -1.899781942367554, 0.030031774193048, -0.184031099081039, 1.978101968765259, -0.178364068269730, 0.000000000000000, -0.077503882348537, -0.079771555960178, 0.190861135721207, -0.331530094146729, 0.307555377483368, -0.065344452857971, 0.548533618450165, -0.014954295009375, 0.168569386005402, -0.028460483998060, -0.596294283866882
-1.684384107589722, 0.279896974563599, -0.104947350919247, 2.377128124237061, 0.012400504201651, 0.000000000000000, -1.901753187179565, 0.030717141926289, -0.178755521774292, 1.979656338691711, -0.180560514330864, 0.000000000000000, -0.075673721730709, -0.079977497458458, 0.192567422986031, -0.334731996059418, 0.305387765169144, -0.065902978181839, 0.552089095115662, -0.014951323159039, 0.169344231486320, -0.028522202745080, -0.599112093448639
-1.685293674468994, 0.278051912784576, -0.099518619477749, 2.374301671981812, 0.013200299814343, 0.000000000000000, -1.904570579528809, 0.031737025827169, -0.174133807420731, 1.979797482490540, -0.182624951004982, 0.000000000000000, -0.073674231767654, -0.080290205776691, 0.194270387291908, -0.337971001863480, 0.303439944982529, -0.067067243158817, 0.554275453090668, -0.015004895627499, 0.169615685939789, -0.028782308101654, -0.602099418640137
-1.686885237693787, 0.276232779026031, -0.094423055648804, 2.371241331100464, 0.013778901658952, 0.000000000000000, -1.908223986625671, 0.033132556825876, -0.169980093836784, 1.979311466217041, -0.184540599584579, 0.000000000000000, -0.071511633694172, -0.080658406019211, 0.196250736713409, -0.340856343507767, 0.301960647106171, -0.068522587418556, 0.555586457252502, -0.015080169774592, 0.169582039117813, -0.029135584831238, -0.605187177658081
-1.689078092575073, 0.274388104677200, -0.089594192802906, 2.368956804275513, 0.014231533743441, 0.000000000000000, -1.912379622459412, 0.034931022673845, -0.166198551654816, 1.979213237762451, -0.186284556984901, 0.000000000000000, -0.069174580276012, -0.081022977828979, 0.198437169194221, -0.343291580677032, 0.300987482070923, -0.069945529103279, 0.556365728378296, -0.015140819363296, 0.169377490878105, -0.029469199478626, -0.608316183090210
-1.691417098045349, 0.272631615400314, -0.085025951266289, 2.368013620376587, 0.014608431607485, 0.000000000000000, -1.916591405868530, 0.036941792815924, -0.162717700004578, 1.980114579200745, -0.187850013375282, 0.000000000000000, -0.066945642232895, -0.081290945410728, 0.200311094522476, -0.345168054103851, 0.300293207168579, -0.071241833269596, 0.556850314140320, -0.015172487124801, 0.169096618890762, -0.029741881415248, -0.611170768737793
-1.693019747734070, 0.271101117134094, -0.081153325736523, 2.368127107620239, 0.014893791638315, 0.000000000000000, -1.920477628707886, 0.038888458162546, -0.159500271081924, 1.982200026512146, -0.189237222075462, 0.000000000000000, -0.065361395478249, -0.081389963626862, 0.201212227344513, -0.346357166767120, 0.299493759870529, -0.072544798254967, 0.557283997535706, -0.015182553790510, 0.168840616941452, -0.029985042288899, -0.613216757774353
-1.693235516548157, 0.269759476184845, -0.078431256115437, 2.368637561798096, 0.015060679055750, 0.000000000000000, -1.924110293388367, 0.040603250265121, -0.156474247574806, 1.985208153724670, -0.190457135438919, 0.000000000000000, -0.064840570092201, -0.081262327730656, 0.200950667262077, -0.346906304359436, 0.298312813043594, -0.074020594358444, 0.557859838008881, -0.015183110721409, 0.168687805533409, -0.030244367197156, -0.614212572574615
-1.692319631576538, 0.268492549657822, -0.076101914048195, 2.368603944778442, 0.015097883529961, 0.000000000000000, -1.927675485610962, 0.042228210717440, -0.153733700513840, 1.988396883010864, -0.191511869430542, 0.000000000000000, -0.064815632998943, -0.080704003572464, 0.200499758124352, -0.347154855728149, 0.296881020069122, -0.075596787035465, 0.558737397193909, -0.015165816992521, 0.168694153428078, -0.030495328828692, -0.614701628684998
-1.690837979316711, 0.267348170280457, -0.073929041624069, 2.368407964706421, 0.015090434812009, 0.000000000000000, -1.930852890014648, 0.043856196105480, -0.151386693120003, 1.991824746131897, -0.192365854978561, 0.000000000000000, -0.065174438059330, -0.079713448882103, 0.200241833925247, -0.347500443458557, 0.295598506927490, -0.077117688953876, 0.559941053390503, -0.015117570757866, 0.168861374258995, -0.030694935470819, -0.614688873291016
-1.689274907112122, 0.266298830509186, -0.072507709264755, 2.368524789810181, 0.015129787847400, 0.000000000000000, -1.933196425437927, 0.045424491167068, -0.149519130587578, 1.995764017105103, -0.192984670400620, 0.000000000000000, -0.066056489944458, -0.078904539346695, 0.200101003050804, -0.348229259252548, 0.294739574193954, -0.078584909439087, 0.561470508575439, -0.015040483325720, 0.169186607003212, -0.030850930139422, -0.614216864109039
-1.687682747840881, 0.265204757452011, -0.071999639272690, 2.369421958923340, 0.015261380933225, 0.000000000000000, -1.934706807136536, 0.046807851642370, -0.148142024874687, 2.000167369842529, -0.193361267447472, 0.000000000000000, -0.067364685237408, -0.078530423343182, 0.199796169996262, -0.349185019731522, 0.294502705335617, -0.080090038478374, 0.563323318958282, -0.014945235103369, 0.169674709439278, -0.031000677496195, -0.613391280174255
-1.685989618301392, 0.264084607362747, -0.071989282965660, 2.370928764343262, 0.015429220162332, 0.000000000000000, -1.935794591903687, 0.047898136079311, -0.147189274430275, 2.004735946655273, -0.193499818444252, 0.000000000000000, -0.068810991942883, -0.078348524868488, 0.199353173375130, -0.349970728158951, 0.294725447893143, -0.081750459969044, 0.565487682819366, -0.014842148870230, 0.170328825712204, -0.031180124729872, -0.612538993358612
-1.684021115303040, 0.262936234474182, -0.072109058499336, 2.373020172119141, 0.015554291196167, 0.000000000000000, -1.936740279197693, 0.048625402152538, -0.146607428789139, 2.009212970733643, -0.193401187658310, 0.000000000000000, -0.070116862654686, -0.078120589256287, 0.198676511645317, -0.350258916616440, 0.295061975717545, -0.083574265241623, 0.567832291126251, -0.014729953370988, 0.171101480722427, -0.031383845955133, -0.612139582633972
-1.681906461715698, 0.261754244565964, -0.072043009102345, 2.375252723693848, 0.015531048178673, 0.000000000000000, -1.937700629234314, 0.049041688442230, -0.146441340446472, 2.013073682785034, -0.193083748221397, 0.000000000000000, -0.071244783699512, -0.077879168093204, 0.197894364595413, -0.350177139043808, 0.295155674219131, -0.085298530757427, 0.570195853710175, -0.014579589478672, 0.171921849250793, -0.031512226909399, -0.612735748291016
-1.679680228233337, 0.260544747114182, -0.071884714066982, 2.377266883850098, 0.015310310758650, 0.000000000000000, -1.938799142837524, 0.049395192414522, -0.146784096956253, 2.015997886657715, -0.192546337842941, 0.000000000000000, -0.072424545884132, -0.077774949371815, 0.197177678346634, -0.349923163652420, 0.294887125492096, -0.086707033216953, 0.572477936744690, -0.014368226751685, 0.172743529081345, -0.031487245112658, -0.614409148693085
-1.677512168884277, 0.259355813264847, -0.071673057973385, 2.379022598266602, 0.014907739125192, 0.000000000000000, -1.939957618713379, 0.049970500171185, -0.147735774517059, 2.017940044403076, -0.191771000623703, 0.000000000000000, -0.073912255465984, -0.077772758901119, 0.196599841117859, -0.349603682756424, 0.294532179832458, -0.087605677545071, 0.574622690677643, -0.014078315347433, 0.173542454838753, -0.031249860301614, -0.616775214672089
-1.675523161888123, 0.258340209722519, -0.071788981556892, 2.380832672119141, 0.014384107664227, 0.000000000000000, -1.941069364547729, 0.050902985036373, -0.149286195635796, 2.019232273101807, -0.190725922584534, 0.000000000000000, -0.076045922935009, -0.077727481722832, 0.195903941988945, -0.349117875099182, 0.294332236051559, -0.088030181825161, 0.576548039913177, -0.013716652058065, 0.174293518066406, -0.030820688232780, -0.619148850440979
-1.673770308494568, 0.257669985294342, -0.072822473943233, 2.382761716842651, 0.013791680335999, 0.000000000000000, -1.942015528678894, 0.052129156887531, -0.151446282863617, 2.020025491714478, -0.189382389187813, 0.000000000000000, -0.079148672521114, -0.077596485614777, 0.194879606366158, -0.348155438899994, 0.294581562280655, -0.088207952678204, 0.578253507614136, -0.013310363516212, 0.175010591745377, -0.030287716537714, -0.620739221572876
-1.672486901283264, 0.257377058267593, -0.074973091483116, 2.384790420532227, 0.013163509778678, 0.000000000000000, -1.942679047584534, 0.053569525480270, -0.154304966330528, 2.020221471786499, -0.187715187668800, 0.000000000000000, -0.083195112645626, -0.077091284096241, 0.193410202860832, -0.346403211355209, 0.295876502990723, -0.088273607194424, 0.579712510108948, -0.012880108319223, 0.175697311758995, -0.029716523364186, -0.620870411396027
-1.672210693359375, 0.257501900196075, -0.078105628490448, 2.386956214904785, 0.012519770301878, 0.000000000000000, -1.943041205406189, 0.055297560989857, -0.157958239316940, 2.019704103469849, -0.185701847076416, 0.000000000000000, -0.087991409003735, -0.075900934636593, 0.191596329212189, -0.343437075614929, 0.298692226409912, -0.088311262428761, 0.580922365188599, -0.012440230697393, 0.176368191838264, -0.029151838272810, -0.619059622287750
-1.673132777214050, 0.258164018392563, -0.082423292100430, 2.389403581619263, 0.011865643784404, 0.000000000000000, -1.943125009536743, 0.057521119713783, -0.162497028708458, 2.018429279327393, -0.183319270610809, 0.000000000000000, -0.093624673783779, -0.073974825441837, 0.189393267035484, -0.338582545518875, 0.303143888711929, -0.088470660150051, 0.581950485706329, -0.012008679099381, 0.177072688937187, -0.028651254251599, -0.614620625972748
-1.674896001815796, 0.259546041488647, -0.088070176541805, 2.392157793045044, 0.011178071610630, 0.000000000000000, -1.943061351776123, 0.060416713356972, -0.167994990944862, 2.016154289245605, -0.180558100342751, 0.000000000000000, -0.100248076021671, -0.070987701416016, 0.186937913298607, -0.331258058547974, 0.309276312589645, -0.088814921677113, 0.582669019699097, -0.011595727875829, 0.177790120244026, -0.028245227411389, -0.605966508388519
-1.678104758262634, 0.261523783206940, -0.095129311084747, 2.394670009613037, 0.010385365225375, 0.000000000000000, -1.943323254585266, 0.063886150717735, -0.174328714609146, 2.012566328048706, -0.177442416548729, 0.000000000000000, -0.107881307601929, -0.066374637186527, 0.184871450066566, -0.321792334318161, 0.316858589649200, -0.089473597705364, 0.582166612148285, -0.011224006302655, 0.178184270858765, -0.027990100905299, -0.590821385383606
-1.683376550674438, 0.263907194137573, -0.103708893060684, 2.396638393402100, 0.009448834694922, 0.000000000000000, -1.944192647933960, 0.067722812294960, -0.181332111358643, 2.007656574249268, -0.173983618617058, 0.000000000000000, -0.116028442978859, -0.060422282665968, 0.183409184217453, -0.311129003763199, 0.325164794921875, -0.090823546051979, 0.579310476779938, -0.010940534994006, 0.177819147706032, -0.028014639392495, -0.568286299705505
-1.690110325813293, 0.266803532838821, -0.113541312515736, 2.398733377456665, 0.008412581868470, 0.000000000000000, -1.945553421974182, 0.071823425590992, -0.188901692628860, 2.001934766769409, -0.170153915882111, 0.000000000000000, -0.124044902622700, -0.053492788225412, 0.181909248232841, -0.299546360969543, 0.333703875541687, -0.093165777623653, 0.573847413063049, -0.010778008960187, 0.176611125469208, -0.028417799621820, -0.539388000965118
-1.697754859924316, 0.270389318466187, -0.124068543314934, 2.401250839233398, 0.007298571988940, 0.000000000000000, -1.947332262992859, 0.076052226126194, -0.196903318166733, 1.995920300483704, -0.165927544236183, 0.000000000000000, -0.131274431943893, -0.045617066323757, 0.180474936962128, -0.286919653415680, 0.342397600412369, -0.096563436090946, 0.566161215305328, -0.010741019621491, 0.174726709723473, -0.029220726341009, -0.505740284919739
-1.706101894378662, 0.274466276168823, -0.135041713714600, 2.404188394546509, 0.006111565977335, 0.000000000000000, -1.949392080307007, 0.080214530229568, -0.205220475792885, 1.989993453025818, -0.161280378699303, 0.000000000000000, -0.136822566390038, -0.037680316716433, 0.179343104362488, -0.273730546236038, 0.351133078336716, -0.101050406694412, 0.556409358978271, -0.010832060128450, 0.172219574451447, -0.030433015897870, -0.469371140003204
-1.715021491050720, 0.278708338737488, -0.146431609988213, 2.407742977142334, 0.004870927892625, 0.000000000000000, -1.951723337173462, 0.084034018218517, -0.213718950748444, 1.984249472618103, -0.156208992004395, 0.000000000000000, -0.139829888939857, -0.031035242602229, 0.178630381822586, -0.261000603437424, 0.359368741512299, -0.106911741197109, 0.544400215148926, -0.011078476905823, 0.168982148170471, -0.032137572765350, -0.432964503765106
-1.724683880805969, 0.282723277807236, -0.158335074782372, 2.411753177642822, 0.003546309424564, 0.000000000000000, -1.954570889472961, 0.087186135351658, -0.222216069698334, 1.978574752807617, -0.150731191039085, 0.000000000000000, -0.139378800988197, -0.026886168867350, 0.178738325834274, -0.250173985958099, 0.366655528545380, -0.114421971142292, 0.529720544815063, -0.011508108116686, 0.164799585938454, -0.034414969384670, -0.399424999952316
-1.735616803169250, 0.285976558923721, -0.170734912157059, 2.415182352066040, 0.002028139075264, 0.000000000000000, -1.958353161811829, 0.089382953941822, -0.230505391955376, 1.972787857055664, -0.144874975085258, 0.000000000000000, -0.134607881307602, -0.025872871279716, 0.180311352014542, -0.242555111646652, 0.372779995203018, -0.123752452433109, 0.512062668800354, -0.012137853540480, 0.159493416547775, -0.037314102053642, -0.371377944946289
-1.747936725616455, 0.288127452135086, -0.183149695396423, 2.418058872222900, 0.000289653486107, 0.000000000000000, -1.963536739349365, 0.090499170124531, -0.238407224416733, 1.966839909553528, -0.138655558228493, 0.000000000000000, -0.125000208616257, -0.027591049671173, 0.183700844645500, -0.238756537437439, 0.377984791994095, -0.134786278009415, 0.491530150175095, -0.012955660931766, 0.153056636452675, -0.040797054767609, -0.350970327854156
-1.761870741844177, 0.289098531007767, -0.194980949163437, 2.420198678970337, -0.001695135026239, 0.000000000000000, -1.970543026924133, 0.090587399899960, -0.245847925543785, 1.960602879524231, -0.132086634635925, 0.000000000000000, -0.110940285027027, -0.031081907451153, 0.189394533634186, -0.238377273082733, 0.382938057184219, -0.147140428423882, 0.468981683254242, -0.013919131830335, 0.145799741148949, -0.044741731137037, -0.338618248701096
-1.776984453201294, 0.288869351148605, -0.206634700298309, 2.422172307968140, -0.003852979745716, 0.000000000000000, -1.979206204414368, 0.089879624545574, -0.252859592437744, 1.954383611679077, -0.125150516629219, 0.000000000000000, -0.093621686100960, -0.035846147686243, 0.196848645806313, -0.240425020456314, 0.387949138879776, -0.160662621259689, 0.445488840341568, -0.015000298619270, 0.138131305575371, -0.049087375402451, -0.333648383617401
-1.792933225631714, 0.287651538848877, -0.218365281820297, 2.423580408096313, -0.006165335886180, 0.000000000000000, -1.989357829093933, 0.088610149919987, -0.259449988603592, 1.948405623435974, -0.117860674858093, 0.000000000000000, -0.074829563498497, -0.040938802063465, 0.204754710197449, -0.243664741516113, 0.393105089664459, -0.175335362553596, 0.421731382608414, -0.016185024753213, 0.130312114953995, -0.053818441927433, -0.334526628255844
-1.809299707412720, 0.285698264837265, -0.230600669980049, 2.423912763595581, -0.008630155585706, 0.000000000000000, -2.000549554824829, 0.087029658257961, -0.265737801790237, 1.942684769630432, -0.110229454934597, 0.000000000000000, -0.056162167340517, -0.046106297522783, 0.211715251207352, -0.247113153338432, 0.398413121700287, -0.191170275211334, 0.398119211196899, -0.017465868964791, 0.122494198381901, -0.058931801468134, -0.339671909809113
-1.825442910194397, 0.283158957958221, -0.243664205074310, 2.422560214996338, -0.011275169439614, 0.000000000000000, -2.011919260025024, 0.085447087883949, -0.272094398736954, 1.936702966690063, -0.102252788841724, 0.000000000000000, -0.038797225803137, -0.051311984658241, 0.217214971780777, -0.250462472438812, 0.404680669307709, -0.207617923617363, 0.375097662210464, -0.018801514059305, 0.114836223423481, -0.064275354146957, -0.347609937191010
-1.840874910354614, 0.280136406421661, -0.257522314786911, 2.419591665267944, -0.014042777940631, 0.000000000000000, -2.023164272308350, 0.083835147321224, -0.278666079044342, 1.929959654808044, -0.093991652131081, 0.000000000000000, -0.023293511942029, -0.056561637669802, 0.221175804734230, -0.252609908580780, 0.412468552589417, -0.224344819784164, 0.353236466646194, -0.020161401480436, 0.107562914490700, -0.069758690893650, -0.357430249452591
-1.855612993240356, 0.276553958654404, -0.271962732076645, 2.414902210235596, -0.016855128109455, 0.000000000000000, -2.034176826477051, 0.082047298550606, -0.285629063844681, 1.921627163887024, -0.085571661591530, 0.000000000000000, -0.009792050346732, -0.062284678220749, 0.223971381783485, -0.253198802471161, 0.421790003776550, -0.241238415241241, 0.332702785730362, -0.021536370739341, 0.100724279880524, -0.075343862175941, -0.369428902864456
-1.869312882423401, 0.272205263376236, -0.286627054214478, 2.408271312713623, -0.019610555842519, 0.000000000000000, -2.044817924499512, 0.080013781785965, -0.292995840311050, 1.911246299743652, -0.077080637216568, 0.000000000000000, 0.001727214432321, -0.068288944661617, 0.226440086960793, -0.253092885017395, 0.432399511337280, -0.258147954940796, 0.313081055879593, -0.022925151512027, 0.094114735722542, -0.080972798168659, -0.383907109498978
-1.881592392921448, 0.267235726118088, -0.301423311233521, 2.399549961090088, -0.022190384566784, 0.000000000000000, -2.054850339889526, 0.077797286212444, -0.300746262073517, 1.898474454879761, -0.068545825779438, 0.000000000000000, 0.010783573612571, -0.074433296918869, 0.229411631822586, -0.252940952777863, 0.443968683481216, -0.274932533502579, 0.294416755437851, -0.024315677583218, 0.087730690836906, -0.086568638682365, -0.400229811668396
-1.892205834388733, 0.262066364288330, -0.316475450992584, 2.388661146163940, -0.024479415267706, 0.000000000000000, -2.063703536987305, 0.075573772192001, -0.308972269296646, 1.882934212684631, -0.059920661151409, 0.000000000000000, 0.016820324584842, -0.080672025680542, 0.233427181839943, -0.253175109624863, 0.456176668405533, -0.291232496500015, 0.277469873428345, -0.025672363117337, 0.081879325211048, -0.091973222792149, -0.417365014553070
-1.901169657707214, 0.256690472364426, -0.331358373165131, 2.375395298004150, -0.026360562071204, 0.000000000000000, -2.070331096649170, 0.073571473360062, -0.318149715662003, 1.863642811775208, -0.051177598536015, 0.000000000000000, 0.019222931936383, -0.087245933711529, 0.238359704613686, -0.254710823297501, 0.468875288963318, -0.306342929601669, 0.263323336839676, -0.026939712464809, 0.077009454369545, -0.096931599080563, -0.434960931539536
-1.907975912094116, 0.251462072134018, -0.345171302556992, 2.359611749649048, -0.027631513774395, 0.000000000000000, -2.073648214340210, 0.071834743022919, -0.328395605087280, 1.840508580207825, -0.042200446128845, 0.000000000000000, 0.017971683293581, -0.093462191522121, 0.243940353393555, -0.258239269256592, 0.481572210788727, -0.320001542568207, 0.252757847309113, -0.028086785227060, 0.073451764881611, -0.101320996880531, -0.453146755695343
-1.911557555198669, 0.247161135077477, -0.356591254472733, 2.341225385665894, -0.027941770851612, 0.000000000000000, -2.073003292083740, 0.069837823510170, -0.339209228754044, 1.814413189888000, -0.032834820449352, 0.000000000000000, 0.014252328313887, -0.097505412995815, 0.249396860599518, -0.263677477836609, 0.493230491876602, -0.332596093416214, 0.246329918503761, -0.029109254479408, 0.071451097726822, -0.105193823575974, -0.472147792577744
-1.911964058876038, 0.243725642561913, -0.363843947649002, 2.319446325302124, -0.027127301320434, 0.000000000000000, -2.068565607070923, 0.066709607839584, -0.349749594926834, 1.786071896553040, -0.023045040667057, 0.000000000000000, 0.010044813156128, -0.099060691893101, 0.253080189228058, -0.270009994506836, 0.502029895782471, -0.345046073198318, 0.244995743036270, -0.030004488304257, 0.071430601179600, -0.108710795640945, -0.491864144802094
-1.909196376800537, 0.240917071700096, -0.365823954343796, 2.293681621551514, -0.025096744298935, 0.000000000000000, -2.060230970382690, 0.062568120658398, -0.359788000583649, 1.755416035652161, -0.012869690544903, 0.000000000000000, 0.007078025490046, -0.099838845431805, 0.254930555820465, -0.277192175388336, 0.507085561752319, -0.357448399066925, 0.249520644545555, -0.030747372657061, 0.073718100786209, -0.111829861998558, -0.511133134365082
-1.903375148773193, 0.237923428416252, -0.361775547266006, 2.263522148132324, -0.021766217425466, 0.000000000000000, -2.048141479492188, 0.058198068290949, -0.369325995445251, 1.722240209579468, -0.002422855235636, 0.000000000000000, 0.005606193095446, -0.099972598254681, 0.256194412708282, -0.286386400461197, 0.508141219615936, -0.369330793619156, 0.259676784276962, -0.031323079019785, 0.078200064599514, -0.114400088787079, -0.529455244541168
-1.894629001617432, 0.234300434589386, -0.351765185594559, 2.229209899902344, -0.017035685479641, 0.000000000000000, -2.032809257507324, 0.054417707026005, -0.378168970346451, 1.686695098876953, 0.008127936162055, 0.000000000000000, 0.005299839656800, -0.099325038492680, 0.257550060749054, -0.298178285360336, 0.504820644855499, -0.380576103925705, 0.274543404579163, -0.031749349087477, 0.084464326500893, -0.116399139165878, -0.546933352947235
-1.882868885993958, 0.230145975947380, -0.336212962865829, 2.191148519515991, -0.010895262472332, 0.000000000000000, -2.015104770660400, 0.051533676683903, -0.385831952095032, 1.649123787879944, 0.018600145354867, 0.000000000000000, 0.006264913361520, -0.097919091582298, 0.259181231260300, -0.312037974596024, 0.497214883565903, -0.391172677278519, 0.293052792549133, -0.032054059207439, 0.092039331793785, -0.117873750627041, -0.563441693782806
-1.867976903915405, 0.225392833352089, -0.315378129482269, 2.149399757385254, -0.003456833073869, 0.000000000000000, -1.995664358139038, 0.049492839723825, -0.391901046037674, 1.609616756439209, 0.028870645910501, 0.000000000000000, 0.009146265685558, -0.095439523458481, 0.260821670293808, -0.327350854873657, 0.486121058464050, -0.400817394256592, 0.313961625099182, -0.032261412590742, 0.100382119417191, -0.118826270103455, -0.578831136226654
-1.850369691848755, 0.219616740942001, -0.289522975683212, 2.103814840316772, 0.005081639625132, 0.000000000000000, -1.974720120429993, 0.048312749713659, -0.396162539720535, 1.568083286285400, 0.038874253630638, 0.000000000000000, 0.014568875543773, -0.091759361326694, 0.262542158365250, -0.343830078840256, 0.472746014595032, -0.409296900033951, 0.335677057504654, -0.032411534339190, 0.108812011778355, -0.119300499558449, -0.592624247074127
-1.830970525741577, 0.212630420923233, -0.259761363267899, 2.055187463760376, 0.014589501544833, 0.000000000000000, -1.952510237693787, 0.047804787755013, -0.397931575775146, 1.525555968284607, 0.048622246831656, 0.000000000000000, 0.022788025438786, -0.087526999413967, 0.264682888984680, -0.360836952924728, 0.458480566740036, -0.416883498430252, 0.355948626995087, -0.032593976706266, 0.116394840180874, -0.119511179625988, -0.604072153568268
-1.810476660728455, 0.205008044838905, -0.228168949484825, 2.005517721176147, 0.024970935657620, 0.000000000000000, -1.930124998092651, 0.047049432992935, -0.396094560623169, 1.483563899993896, 0.058115251362324, 0.000000000000000, 0.032931670546532, -0.083875544369221, 0.267838776111603, -0.376589357852936, 0.444444417953491, -0.424562990665436, 0.372770965099335, -0.032932825386524, 0.122333705425262, -0.119875386357307, -0.613075077533722
-1.788570404052734, 0.197422027587891, -0.195676669478416, 1.955588102340698, 0.036069434136152, 0.000000000000000, -1.908240318298340, 0.045989930629730, -0.390659838914871, 1.442033886909485, 0.067377977073193, 0.000000000000000, 0.043718092143536, -0.078988730907440, 0.271729201078415, -0.389730036258698, 0.432540118694305, -0.432567983865738, 0.385231077671051, -0.033482924103737, 0.126285403966904, -0.120574347674847, -0.619576632976532
-1.764674663543701, 0.190495759248734, -0.163226306438446, 1.906255841255188, 0.047717727720737, 0.000000000000000, -1.886940836906433, 0.044337350875139, -0.381553649902344, 1.401387333869934, 0.076435707509518, 0.000000000000000, 0.054337993264198, -0.072145350277424, 0.274554193019867, -0.398815214633942, 0.423327296972275, -0.441531002521515, 0.393416583538055, -0.034286398440599, 0.128325611352921, -0.121825389564037, -0.623650431632996
-1.739429950714111, 0.183943867683411, -0.131218954920769, 1.857449769973755, 0.059743203222752, 0.000000000000000, -1.866564035415649, 0.041641525924206, -0.369151115417480, 1.361493706703186, 0.085238948464394, 0.000000000000000, 0.065799474716187, -0.064083933830261, 0.276577144861221, -0.404080599546432, 0.417260795831680, -0.451285541057587, 0.398094981908798, -0.035310573875904, 0.128778889775276, -0.123567476868629, -0.626350820064545
-1.714003205299377, 0.177427023649216, -0.099830068647861, 1.808853507041931, 0.072064273059368, 0.000000000000000, -1.847047805786133, 0.037842508405447, -0.354419499635696, 1.322552800178528, 0.093706950545311, 0.000000000000000, 0.078636363148689, -0.055629868060350, 0.278735667467117, -0.406488567590714, 0.414397090673447, -0.461201936006546, 0.400270909070969, -0.036481440067291, 0.128045827150345, -0.125574573874474, -0.628596246242523
-1.688927531242371, 0.171082913875580, -0.069281652569771, 1.760419487953186, 0.084658771753311, 0.000000000000000, -1.828269839286804, 0.033143527805805, -0.338707059621811, 1.285265445709229, 0.101774945855141, 0.000000000000000, 0.092695020139217, -0.047549922019243, 0.281337350606918, -0.406357318162918, 0.414001166820526, -0.470809251070023, 0.401085972785950, -0.037724375724792, 0.126586154103279, -0.127643480896950, -0.630432367324829
-1.663361787796021, 0.165019512176514, -0.039780162274837, 1.712468266487122, 0.097456127405167, 0.000000000000000, -1.809830784797668, 0.027711823582649, -0.323187768459320, 1.250122189521790, 0.109353356063366, 0.000000000000000, 0.107449091970921, -0.040500015020370, 0.283709436655045, -0.403871595859528, 0.415017604827881, -0.479620397090912, 0.401779323816299, -0.038958631455898, 0.124902255833149, -0.129561051726341, -0.631178379058838
-1.636214852333069, 0.159036234021187, -0.011413962580264, 1.665006875991821, 0.110283955931664, 0.000000000000000, -1.790913820266724, 0.021333435550332, -0.308464378118515, 1.217297673225403, 0.116316013038158, 0.000000000000000, 0.121975988149643, -0.034759454429150, 0.284457653760910, -0.399417787790298, 0.416586279869080, -0.486864745616913, 0.403458237648010, -0.040091704577208, 0.123436503112316, -0.131043359637260, -0.629669904708862
-1.606711983680725, 0.153296396136284, 0.015726258978248, 1.617631793022156, 0.122944511473179, 0.000000000000000, -1.770908713340759, 0.013536343351007, -0.294765502214432, 1.186297535896301, 0.122517034411430, 0.000000000000000, 0.136132687330246, -0.030071526765823, 0.282761365175247, -0.392966747283936, 0.418460369110107, -0.491721272468567, 0.406861096620560, -0.041043713688850, 0.122480630874634, -0.131822645664215, -0.624687254428864
-1.574430227279663, 0.148080378770828, 0.041746519505978, 1.569926023483276, 0.135349512100220, 0.000000000000000, -1.748918771743774, 0.004169023595750, -0.282128870487213, 1.156065106391907, 0.127796694636345, 0.000000000000000, 0.149699211120605, -0.025797422975302, 0.278658121824265, -0.383991628885269, 0.420186191797256, -0.493979156017303, 0.412182092666626, -0.041790306568146, 0.122109286487103, -0.131816849112511, -0.614929199218750
-1.539630293846130, 0.143314003944397, 0.067387722432613, 1.520912408828735, 0.147458165884018, 0.000000000000000, -1.722618222236633, -0.005437416955829, -0.271081089973450, 1.125134348869324, 0.131939038634300, 0.000000000000000, 0.161814436316490, -0.021244205534458, 0.272714883089066, -0.372358292341232, 0.421277135610580, -0.493583202362061, 0.419204860925674, -0.042330861091614, 0.122222095727921, -0.130993053317070, -0.599194884300232
-1.503022789955139, 0.139235466718674, 0.092521786689758, 1.472761273384094, 0.159313052892685, 0.000000000000000, -1.690459966659546, -0.014770912006497, -0.261290341615677, 1.093390464782715, 0.134722515940666, 0.000000000000000, 0.171685531735420, -0.016441244632006, 0.264596253633499, -0.357302576303482, 0.421288818120956, -0.491082102060318, 0.427553653717041, -0.042707793414593, 0.122674614191055, -0.129514425992966, -0.576532125473022
-1.466330409049988, 0.136142373085022, 0.117062665522099, 1.428407549858093, 0.170780047774315, 0.000000000000000, -1.652201175689697, -0.023775260895491, -0.252367526292801, 1.061520338058472, 0.135957434773445, 0.000000000000000, 0.178878545761108, -0.011283415369689, 0.254125446081161, -0.337747097015381, 0.419783592224121, -0.487670063972473, 0.437227755784988, -0.042991280555725, 0.123504742980003, -0.127736330032349, -0.546662628650665
-1.431063055992126, 0.134253069758415, 0.141347542405128, 1.390755772590637, 0.181482657790184, 0.000000000000000, -1.608502864837646, -0.033243231475353, -0.243669927120209, 1.030984878540039, 0.135528922080994, 0.000000000000000, 0.183503597974777, -0.005391726735979, 0.240828484296799, -0.312917828559875, 0.416852951049805, -0.484378337860107, 0.448565632104874, -0.043233998119831, 0.124898456037045, -0.125981912016869, -0.509664475917816
-1.396363973617554, 0.134289205074310, 0.165351644158363, 1.359412193298340, 0.190747752785683, 0.000000000000000, -1.559208035469055, -0.042678628116846, -0.235826149582863, 1.001655697822571, 0.133336916565895, 0.000000000000000, 0.185614481568336, 0.001224929001182, 0.224404901266098, -0.283481538295746, 0.412356376647949, -0.481609225273132, 0.461664050817490, -0.043457843363285, 0.126911550760269, -0.124374710023403, -0.466438055038452
-1.360045552253723, 0.137251853942871, 0.189532756805420, 1.332926034927368, 0.197882488369942, 0.000000000000000, -1.505307793617249, -0.051651034504175, -0.230373874306679, 0.972380161285400, 0.129299029707909, 0.000000000000000, 0.185233280062675, 0.008163479156792, 0.205111801624298, -0.250853151082993, 0.406390041112900, -0.479163438081741, 0.476469814777374, -0.043652597814798, 0.129516497254372, -0.122859373688698, -0.418039798736572
-1.320555090904236, 0.143399208784103, 0.215405255556107, 1.308623194694519, 0.202378213405609, 0.000000000000000, -1.446566700935364, -0.060520607978106, -0.228461474180222, 0.942668259143829, 0.123431600630283, 0.000000000000000, 0.183498516678810, 0.014839330688119, 0.184634432196617, -0.216502368450165, 0.399084270000458, -0.476711362600327, 0.492943406105042, -0.043797843158245, 0.132685780525208, -0.121334835886955, -0.366036593914032
-1.280345082283020, 0.153402343392372, 0.243727102875710, 1.279422044754028, 0.203856095671654, 0.000000000000000, -1.379259228706360, -0.069013759493828, -0.229928568005562, 0.914722740650177, 0.115968585014343, 0.000000000000000, 0.180955901741982, 0.021097224205732, 0.164940819144249, -0.182442650198936, 0.390144497156143, -0.473974287509918, 0.510521888732910, -0.043890759348869, 0.136164024472237, -0.119712918996811, -0.311500966548920
-1.243148088455200, 0.166840061545372, 0.275161504745483, 1.238967657089233, 0.202310204505920, 0.000000000000000, -1.304504752159119, -0.076101757586002, -0.234482362866402, 0.890933513641357, 0.107256777584553, 0.000000000000000, 0.177152052521706, 0.026431614533067, 0.146944031119347, -0.150797858834267, 0.379591256380081, -0.470443099737167, 0.528580963611603, -0.043913684785366, 0.139665290713310, -0.117841318249702, -0.254937648773193
-1.210321307182312, 0.182219058275223, 0.310130864381790, 1.185755491256714, 0.198084354400635, 0.000000000000000, -1.226714134216309, -0.081267699599266, -0.241799771785736, 0.872041285037994, 0.097666777670383, 0.000000000000000, 0.172518476843834, 0.029983002692461, 0.130419790744781, -0.122292242944241, 0.368168711662292, -0.465558558702469, 0.547100901603699, -0.043824486434460, 0.143178090453148, -0.115560308098793, -0.197374030947685
-1.181524395942688, 0.198246106505394, 0.347905248403549, 1.121448755264282, 0.191685289144516, 0.000000000000000, -1.149315834045410, -0.084343224763870, -0.251496374607086, 0.857930839061737, 0.087581872940063, 0.000000000000000, 0.168153867125511, 0.031133906915784, 0.114575818181038, -0.096562556922436, 0.356896370649338, -0.458905637264252, 0.566424190998077, -0.043578486889601, 0.146863847970963, -0.112758032977581, -0.140513673424721
-1.154061675071716, 0.213715091347694, 0.386914342641830, 1.049589633941650, 0.183669194579124, 0.000000000000000, -1.071395754814148, -0.085277169942856, -0.262768417596817, 0.849750936031342, 0.077531963586807, 0.000000000000000, 0.164712324738503, 0.029989773407578, 0.099384613335133, -0.072605639696121, 0.346102923154831, -0.450697422027588, 0.586947321891785, -0.043174192309380, 0.150926947593689, -0.109504133462906, -0.085755966603756
-1.125680327415466, 0.227420106530190, 0.425708115100861, 0.973785042762756, 0.174473971128464, 0.000000000000000, -0.992457568645477, -0.083997152745724, -0.274958580732346, 0.847536683082581, 0.068087473511696, 0.000000000000000, 0.162462905049324, 0.027042886242270, 0.084783606231213, -0.049915637820959, 0.335906565189362, -0.441228181123734, 0.608795702457428, -0.042626027017832, 0.155457526445389, -0.105896048247814, -0.034636810421944
-1.095266819000244, 0.238594487309456, 0.463010370731354, 0.897522926330566, 0.164394021034241, 0.000000000000000, -0.913858652114868, -0.080689772963524, -0.287440508604050, 0.849922597408295, 0.059730224311352, 0.000000000000000, 0.161725580692291, 0.022975496947765, 0.071246549487114, -0.028549289330840, 0.326113551855087, -0.430881828069687, 0.632078468799591, -0.041958332061768, 0.160526990890503, -0.102044425904751, 0.010906933806837
-1.061331629753113, 0.246589675545692, 0.497498303651810, 0.825537919998169, 0.153725519776344, 0.000000000000000, -0.837031900882721, -0.075875587761402, -0.299369901418686, 0.855791509151459, 0.052946243435144, 0.000000000000000, 0.161990255117416, 0.017963431775570, 0.059355285018682, -0.008621789515018, 0.316526442766190, -0.420093387365341, 0.656982064247131, -0.041201196610928, 0.166240677237511, -0.098075941205025, 0.049665767699480
-1.022289872169495, 0.250374108552933, 0.528422415256500, 0.763025462627411, 0.142747625708580, 0.000000000000000, -0.763208210468292, -0.069924995303154, -0.310041606426239, 0.864643812179565, 0.048180546611547, 0.000000000000000, 0.162199631333351, 0.011677677743137, 0.049360014498234, 0.010185777209699, 0.307421267032623, -0.409180611371994, 0.683858275413513, -0.040375854820013, 0.172788813710213, -0.094096884131432, 0.081308633089066
-0.977464020252228, 0.249031051993370, 0.555807590484619, 0.713656187057495, 0.131573706865311, 0.000000000000000, -0.692492544651031, -0.063321806490421, -0.318495064973831, 0.877212107181549, 0.045817937701941, 0.000000000000000, 0.161348134279251, 0.004138409160078, 0.041125230491161, 0.028755299746990, 0.299351304769516, -0.398448079824448, 0.713077068328857, -0.039508134126663, 0.180396333336830, -0.090232551097870, 0.106113120913506
-0.926946341991425, 0.243294328451157, 0.579463362693787, 0.678776383399963, 0.120028614997864, 0.000000000000000, -0.625455498695374, -0.057483948767185, -0.323223203420639, 0.895099163055420, 0.046149488538504, 0.000000000000000, 0.157893449068069, -0.003672313177958, 0.034250151365995, 0.047272961586714, 0.292765438556671, -0.388119786977768, 0.744323313236237, -0.038639996200800, 0.189012065529823, -0.086609534919262, 0.125290542840958
-0.872302412986755, 0.236609399318695, 0.598461925983429, 0.656919419765472, 0.107765652239323, 0.000000000000000, -0.568146467208862, -0.054661590605974, -0.323417007923126, 0.918330490589142, 0.049184631556273, 0.000000000000000, 0.149974077939987, -0.010831836611032, 0.029082566499710, 0.064462967216969, 0.287804424762726, -0.378265708684921, 0.776631712913513, -0.037816599011421, 0.198292970657349, -0.083305537700653, 0.139566823840141
-0.817499339580536, 0.232865154743195, 0.612517714500427, 0.643482446670532, 0.094693802297115, 0.000000000000000, -0.524994730949402, -0.055287502706051, -0.319486528635025, 0.946265995502472, 0.054534237831831, 0.000000000000000, 0.137051910161972, -0.017285777255893, 0.026318127289414, 0.078601293265820, 0.283838003873825, -0.369053125381470, 0.808498144149780, -0.037106715142727, 0.207668051123619, -0.080429576337337, 0.148293450474739
-0.763701915740967, 0.231487199664116, 0.622774064540863, 0.634903311729431, 0.080924823880196, 0.000000000000000, -0.494669049978256, -0.058954287320375, -0.311294078826904, 0.977847397327423, 0.061171468347311, 0.000000000000000, 0.120106831192970, -0.022671354934573, 0.025370394811034, 0.089056894183159, 0.279777884483337, -0.360821604728699, 0.837689518928528, -0.036618549376726, 0.216266557574272, -0.078163184225559, 0.153462186455727
-0.712366521358490, 0.230405658483505, 0.630862951278687, 0.628733694553375, 0.066538654267788, 0.000000000000000, -0.474442899227142, -0.064166627824306, -0.299285769462585, 1.010710000991821, 0.067323811352253, 0.000000000000000, 0.101211644709110, -0.026730490848422, 0.025593539699912, 0.095705188810825, 0.276420444250107, -0.353458762168884, 0.862051963806152, -0.036406315863132, 0.223202958703041, -0.076529115438461, 0.157599300146103
-0.665736377239227, 0.229973122477531, 0.637161374092102, 0.623440742492676, 0.051732178777456, 0.000000000000000, -0.466930270195007, -0.070730581879616, -0.284427732229233, 1.039791107177734, 0.070618398487568, 0.000000000000000, 0.082024298608303, -0.029394293203950, 0.026838937774301, 0.096922196447849, 0.274995923042297, -0.346642225980759, 0.879211008548737, -0.036501228809357, 0.227450966835022, -0.075473308563232, 0.160980239510536
-0.624134480953217, 0.231207564473152, 0.641279995441437, 0.618716001510620, 0.036881938576698, 0.000000000000000, -0.475930303335190, -0.079993247985840, -0.267355382442474, 1.058751821517944, 0.069637186825275, 0.000000000000000, 0.063848324120045, -0.030641369521618, 0.029152790084481, 0.092073999345303, 0.275338172912598, -0.340331107378006, 0.887887239456177, -0.036930572241545, 0.228452831506729, -0.074992947280407, 0.163017436861992
-0.586400210857391, 0.233368262648582, 0.643371164798737, 0.614960432052612, 0.022347023710608, 0.000000000000000, -0.497979432344437, -0.091242350637913, -0.248895883560181, 1.064155101776123, 0.065614916384220, 0.000000000000000, 0.047069750726223, -0.031662538647652, 0.031792867928743, 0.082524858415127, 0.276090741157532, -0.334709137678146, 0.888385951519012, -0.037695210427046, 0.226343527436256, -0.075102552771568, 0.164215385913849
-0.552388250827789, 0.236183300614357, 0.643667280673981, 0.612267196178436, 0.008197190240026, 0.000000000000000, -0.527099728584290, -0.103833697736263, -0.229336276650429, 1.054870605468750, 0.060548510402441, 0.000000000000000, 0.031791370362043, -0.032627105712891, 0.033683784306049, 0.069414429366589, 0.276813358068466, -0.329632341861725, 0.881704866886139, -0.038723383098841, 0.221541285514832, -0.075670301914215, 0.165198728442192
-0.522197484970093, 0.239781945943832, 0.642237365245819, 0.610794842243195, -0.005648233927786, 0.000000000000000, -0.560919940471649, -0.115729443728924, -0.210388615727425, 1.030913114547729, 0.055718723684549, 0.000000000000000, 0.018084937706590, -0.033378221094608, 0.034245155751705, 0.053928781300783, 0.277977734804153, -0.324940472841263, 0.869213521480560, -0.039943829178810, 0.214607626199722, -0.076584652066231, 0.167049705982208
-0.495520323514938, 0.243403717875481, 0.639387905597687, 0.611013829708099, -0.019216904416680, 0.000000000000000, -0.601478159427643, -0.128363162279129, -0.191629961133003, 0.992836296558380, 0.051141586154699, 0.000000000000000, 0.005356014240533, -0.034921787679195, 0.033772435039282, 0.037614405155182, 0.279288470745087, -0.320967435836792, 0.852450728416443, -0.041365966200829, 0.206159144639969, -0.077947467565536, 0.171481281518936
-0.473260074853897, 0.247849717736244, 0.635107100009918, 0.612692236900330, -0.032695587724447, 0.000000000000000, -0.643282175064087, -0.140019208192825, -0.173546984791756, 0.946254432201385, 0.047216415405273, 0.000000000000000, -0.005847438704222, -0.037613213062286, 0.032358374446630, 0.021337598562241, 0.280669599771500, -0.317919909954071, 0.833108425140381, -0.042969916015863, 0.196822553873062, -0.079780399799347, 0.177510708570480
-0.455171257257462, 0.253330230712891, 0.629420578479767, 0.616000592708588, -0.046136680990458, 0.000000000000000, -0.680350959300995, -0.149209395051003, -0.156700611114502, 0.896734416484833, 0.044332005083561, 0.000000000000000, -0.015294740907848, -0.042878195643425, 0.030192222446203, 0.005066183861345, 0.281727015972137, -0.316014945507050, 0.813027203083038, -0.044720984995365, 0.187235444784164, -0.082063689827919, 0.181655392050743
-0.439647912979126, 0.259513437747955, 0.622386515140533, 0.621564686298370, -0.059538144618273, 0.000000000000000, -0.707239031791687, -0.155485793948174, -0.141698166728020, 0.849456131458282, 0.042635522782803, 0.000000000000000, -0.022256614640355, -0.045995511114597, 0.029813829809427, -0.010236687958241, 0.281397581100464, -0.315650254487991, 0.794078588485718, -0.046594835817814, 0.178052559494972, -0.084811829030514, 0.184890389442444
-0.424726605415344, 0.266670823097229, 0.613837242126465, 0.630021691322327, -0.073043785989285, 0.000000000000000, -0.719177782535553, -0.159384220838547, -0.129217773675919, 0.809227645397186, 0.041935652494431, 0.000000000000000, -0.025233579799533, -0.046308450400829, 0.030663335695863, -0.022741749882698, 0.279408633708954, -0.316770792007446, 0.778289496898651, -0.048506997525692, 0.170026049017906, -0.087866961956024, 0.187912553548813
