isaac-sim2real/sage/motion_files/g1/amass/0-KIT_674_dry_head03_poses.txt
/g1/pelvis/left_hip_yaw_joint, /g1/left_hip_yaw_link/left_hip_pitch_joint, /g1/left_hip_pitch_link/left_hip_roll_joint, /g1/left_hip_roll_link/left_knee_joint, /g1/left_knee_link/left_ankle_pitch_joint, /g1/left_ankle_pitch_link/left_ankle_roll_joint, /g1/pelvis/right_hip_yaw_joint, /g1/right_hip_yaw_link/right_hip_pitch_joint, /g1/right_hip_pitch_link/right_hip_roll_joint, /g1/right_hip_roll_link/right_knee_joint, /g1/right_knee_link/right_ankle_pitch_joint, /g1/right_ankle_pitch_link/right_ankle_roll_joint, /g1/pelvis/torso_joint, /g1/torso_link/left_shoulder_pitch_joint, /g1/left_shoulder_pitch_link/left_shoulder_roll_joint, /g1/left_shoulder_roll_link/left_shoulder_yaw_joint, /g1/left_shoulder_yaw_link/left_elbow_joint, /g1/left_elbow_link/left_wrist_roll_joint, /g1/torso_link/right_shoulder_pitch_joint, /g1/right_shoulder_pitch_link/right_shoulder_roll_joint, /g1/right_shoulder_roll_link/right_shoulder_yaw_joint, /g1/right_shoulder_yaw_link/right_elbow_joint, /g1/right_elbow_link/right_wrist_roll_joint
-0.330047041177750, 0.223978593945503, 0.219283312559128, 0.311513543128967, -0.164313137531281, 0.000000000000000, -0.289061665534973, 0.000115903014375, -0.158763796091080, 0.291383981704712, -0.101269997656345, 0.000000000000000, -0.019364945590496, -0.026564171537757, 0.135679662227631, 0.041328057646751, 0.720047116279602, 0.592501938343048, 1.066376328468323, 0.085375957190990, 0.279316216707230, 0.173932343721390, 0.115807183086872
-0.333646953105927, 0.225102499127388, 0.217769876122475, 0.312659263610840, -0.163430124521255, 0.000000000000000, -0.290935218334198, 0.001020931173116, -0.160328924655914, 0.292547196149826, -0.099467419087887, 0.000000000000000, -0.019357001408935, -0.026799278333783, 0.135893613100052, 0.040799960494041, 0.716972589492798, 0.590366005897522, 1.064854621887207, 0.084936119616032, 0.278854995965958, 0.173125714063644, 0.115502893924713
-0.340274930000305, 0.226942971348763, 0.214933693408966, 0.315008580684662, -0.161661177873611, 0.000000000000000, -0.294552385807037, 0.002484620083123, -0.163265839219093, 0.294809728860855, -0.096137158572674, 0.000000000000000, -0.019260024651885, -0.026990186423063, 0.136120900511742, 0.039778951555490, 0.711355030536652, 0.586282968521118, 1.061846852302551, 0.084106147289276, 0.277944743633270, 0.171603128314018, 0.114833235740662
-0.349660307168961, 0.229136765003204, 0.210897997021675, 0.318622857332230, -0.158889696002007, 0.000000000000000, -0.299966573715210, 0.004193037748337, -0.167461246252060, 0.298131257295609, -0.091487802565098, 0.000000000000000, -0.018909430131316, -0.026913218200207, 0.136358633637428, 0.038129121065140, 0.703453838825226, 0.580260097980499, 1.057247281074524, 0.082900576293468, 0.276544272899628, 0.169381394982338, 0.113503098487854
-0.361706912517548, 0.231423348188400, 0.205779641866684, 0.323468983173370, -0.154990464448929, 0.000000000000000, -0.307348906993866, 0.005922082811594, -0.172814354300499, 0.302389264106750, -0.085737720131874, 0.000000000000000, -0.018119854852557, -0.026459971442819, 0.136731922626495, 0.035650689154863, 0.693295478820801, 0.572246015071869, 1.050969719886780, 0.081318862736225, 0.274611622095108, 0.166441559791565, 0.111162148416042
-0.376500368118286, 0.233719319105148, 0.199652537703514, 0.329477459192276, -0.149852842092514, 0.000000000000000, -0.316876202821732, 0.007437211927027, -0.179218500852585, 0.307463079690933, -0.079075433313847, 0.000000000000000, -0.016697946935892, -0.025597568601370, 0.137351214885712, 0.032131213694811, 0.680696249008179, 0.562134027481079, 1.042953610420227, 0.079346686601639, 0.272109419107437, 0.162732973694801, 0.107491582632065
-0.394206285476685, 0.235873982310295, 0.192602202296257, 0.336628228425980, -0.143369510769844, 0.000000000000000, -0.328702300786972, 0.008578690700233, -0.186587274074554, 0.313285320997238, -0.071649298071861, 0.000000000000000, -0.014427896589041, -0.024335661903024, 0.138265550136566, 0.027324805036187, 0.665330588817596, 0.549775540828705, 1.033144354820251, 0.076962940394878, 0.268998652696609, 0.158185780048370, 0.102193742990494
-0.415017843246460, 0.237713664770126, 0.184712737798691, 0.344929248094559, -0.135455444455147, 0.000000000000000, -0.342911452054977, 0.009164093993604, -0.194827660918236, 0.319843113422394, -0.063527420163155, 0.000000000000000, -0.011092017404735, -0.022699430584908, 0.139619782567024, 0.020915124565363, 0.646835088729858, 0.535000562667847, 1.021505713462830, 0.074145630002022, 0.265247106552124, 0.152724355459213, 0.094934187829494
-0.439051687717438, 0.239015698432922, 0.176076501607895, 0.354395985603333, -0.126052975654602, 0.000000000000000, -0.359566181898117, 0.008986281231046, -0.203841418027878, 0.327102750539780, -0.054710686206818, 0.000000000000000, -0.006489850580692, -0.020642453804612, 0.141680121421814, 0.012637543492019, 0.624937653541565, 0.517675578594208, 1.008090376853943, 0.070882968604565, 0.260866612195969, 0.146297872066498, 0.085444606840611
-0.466329783201218, 0.239492043852806, 0.166806623339653, 0.365001201629639, -0.115108661353588, 0.000000000000000, -0.378711938858032, 0.007870946079493, -0.213542699813843, 0.334953576326370, -0.045173961669207, 0.000000000000000, -0.000412738299929, -0.018084887415171, 0.144752755761147, 0.002393480855972, 0.599536061286926, 0.497750699520111, 0.993073344230652, 0.067182205617428, 0.255931854248047, 0.138903334736824, 0.073579289019108
-0.496897131204605, 0.238930687308311, 0.157008081674576, 0.376577317714691, -0.102555602788925, 0.000000000000000, -0.400309026241302, 0.005674597807229, -0.223859220743179, 0.343211174011230, -0.034897100180387, 0.000000000000000, 0.007399105466902, -0.014989339746535, 0.149197667837143, -0.009836540557444, 0.570827662944794, 0.475280940532684, 0.976657927036285, 0.063076421618462, 0.250539600849152, 0.130594968795776, 0.059122610837221
-0.530831634998322, 0.237242892384529, 0.146768987178802, 0.388794422149658, -0.088319137692451, 0.000000000000000, -0.424280941486359, 0.002381097525358, -0.234764099121094, 0.351598739624023, -0.023881258442998, 0.000000000000000, 0.017188217490911, -0.011358760297298, 0.155378460884094, -0.024089241400361, 0.539419054985046, 0.450445055961609, 0.958969891071320, 0.058628916740417, 0.244760990142822, 0.121489502489567, 0.041705772280693
-0.568161189556122, 0.234533682465553, 0.136148333549500, 0.401155501604080, -0.072344057261944, 0.000000000000000, -0.450514316558838, -0.001852417364717, -0.246288523077965, 0.359746634960175, -0.012158427387476, 0.000000000000000, 0.029064271599054, -0.007241620682180, 0.163547322154045, -0.040333945304155, 0.506201982498169, 0.423540592193604, 0.940094947814941, 0.053925160318613, 0.238653391599655, 0.111753933131695, 0.020994562655687
-0.608689486980438, 0.231180131435394, 0.125168934464455, 0.412949711084366, -0.054594308137894, 0.000000000000000, -0.478598386049271, -0.006784789729863, -0.258480638265610, 0.367293447256088, 0.000210618891288, 0.000000000000000, 0.042983062565327, -0.002788341837004, 0.173716574907303, -0.058362472802401, 0.472128421068192, 0.394949108362198, 0.920161008834839, 0.049058087170124, 0.232290029525757, 0.101579718291759, -0.003150705946609
-0.651702046394348, 0.227743566036224, 0.113873928785324, 0.423240721225739, -0.035034872591496, 0.000000000000000, -0.507759571075439, -0.012082825414836, -0.271397411823273, 0.373948961496353, 0.013138137757778, 0.000000000000000, 0.058713890612125, 0.001737577258609, 0.185576945543289, -0.077842779457569, 0.438114523887634, 0.365103095769882, 0.899327039718628, 0.044119890779257, 0.225751534104347, 0.091164588928223, -0.030620526522398
-0.695766568183899, 0.224934935569763, 0.102378211915493, 0.430976390838623, -0.013678627088666, 0.000000000000000, -0.537365078926086, -0.017225947231054, -0.285157233476639, 0.379392981529236, 0.026476204395294, 0.000000000000000, 0.075718790292740, 0.006037601269782, 0.198605373501778, -0.098434314131737, 0.405013412237167, 0.334457695484161, 0.877735257148743, 0.039197959005833, 0.219103887677193, 0.080700710415840, -0.060935541987419
-0.739833950996399, 0.223834380507469, 0.090846404433250, 0.434770673513412, 0.009234657511115, 0.000000000000000, -0.566918015480042, -0.021632174029946, -0.299891859292984, 0.383397936820984, 0.040031328797340, 0.000000000000000, 0.093226090073586, 0.009817854501307, 0.212227150797844, -0.119755722582340, 0.373456329107285, 0.303428769111633, 0.855537474155426, 0.034363280981779, 0.212408110499382, 0.070347517728806, -0.093212507665157
-0.784563660621643, 0.225248873233795, 0.079697966575623, 0.432730734348297, 0.033186089247465, 0.000000000000000, -0.595913171768188, -0.025304723531008, -0.315525799989700, 0.385868072509766, 0.053620524704456, 0.000000000000000, 0.110894687473774, 0.012642269022763, 0.225745424628258, -0.141155526041985, 0.343655049800873, 0.272348254919052, 0.833023965358734, 0.029664346948266, 0.205777496099472, 0.060218065977097, -0.127025753259659
-0.830272376537323, 0.228374481201172, 0.069863118231297, 0.423848390579224, 0.057723749428988, 0.000000000000000, -0.624720335006714, -0.028882725164294, -0.331819623708725, 0.386411964893341, 0.066991820931435, 0.000000000000000, 0.128852650523186, 0.013835289515555, 0.238440662622452, -0.161641463637352, 0.315282076597214, 0.241442158818245, 0.810722470283508, 0.025124480947852, 0.199422195553780, 0.050374235957861, -0.162550702691078
-0.877045035362244, 0.233356744050980, 0.061774432659149, 0.408047586679459, 0.082533411681652, 0.000000000000000, -0.651665568351746, -0.032324325293303, -0.348533064126968, 0.385703682899475, 0.080109059810638, 0.000000000000000, 0.146281257271767, 0.013428438454866, 0.249872952699661, -0.180634230375290, 0.288837254047394, 0.211150631308556, 0.788948953151703, 0.020795106887817, 0.193462371826172, 0.040951374918222, -0.198193505406380
-0.922781467437744, 0.240744963288307, 0.055399503558874, 0.387331902980804, 0.107591457664967, 0.000000000000000, -0.676654398441315, -0.035656418651342, -0.365492373704910, 0.383849084377289, 0.092911094427109, 0.000000000000000, 0.162695780396461, 0.011296682991087, 0.259822994470596, -0.197507798671722, 0.264400541782379, 0.181800797581673, 0.768183588981628, 0.016708407551050, 0.188086807727814, 0.032039746642113, -0.233112677931786
-0.965321362018585, 0.249784514307976, 0.050628874450922, 0.364517658948898, 0.132804766297340, 0.000000000000000, -0.701156079769135, -0.038187362253666, -0.382836490869522, 0.380557805299759, 0.105409622192383, 0.000000000000000, 0.178392931818962, 0.007434101775289, 0.267845958471298, -0.211822271347046, 0.241882145404816, 0.153659462928772, 0.748873829841614, 0.012888770550489, 0.183469533920288, 0.023708129301667, -0.267725646495819
-1.001230835914612, 0.257956534624100, 0.047252610325813, 0.342699974775314, 0.158008724451065, 0.000000000000000, -0.725529730319977, -0.038708522915840, -0.400725722312927, 0.376079559326172, 0.117669098079205, 0.000000000000000, 0.193668901920319, 0.001737202866934, 0.273694813251495, -0.222274854779243, 0.221092239022255, 0.126998916268349, 0.731890082359314, 0.009355994872749, 0.179967701435089, 0.016021125018597, -0.301595568656921
-1.031379222869873, 0.262614279985428, 0.044756423681974, 0.322726607322693, 0.182805180549622, 0.000000000000000, -0.749456346035004, -0.036308072507381, -0.419143646955490, 0.370930612087250, 0.129884153604507, 0.000000000000000, 0.209219142794609, -0.005513749551028, 0.277788817882538, -0.228163614869118, 0.202744498848915, 0.102405637502670, 0.717829525470734, 0.006166606675833, 0.177820175886154, 0.009151280857623, -0.334571480751038
-1.059561967849731, 0.263372361660004, 0.042257621884346, 0.304116547107697, 0.206767216324806, 0.000000000000000, -0.773080646991730, -0.031145885586739, -0.437829494476318, 0.365321367979050, 0.142156332731247, 0.000000000000000, 0.225598007440567, -0.014262634329498, 0.280979275703430, -0.229788169264793, 0.187422350049019, 0.080348975956440, 0.706919670104980, 0.003365283133462, 0.177095606923103, 0.003233098657802, -0.367815971374512
-1.089043259620667, 0.261794686317444, 0.038887921720743, 0.287019997835159, 0.229622006416321, 0.000000000000000, -0.796087563037872, -0.023888960480690, -0.456420689821243, 0.359423428773880, 0.154439970850945, 0.000000000000000, 0.242355346679688, -0.024066036567092, 0.284104913473129, -0.229334339499474, 0.176209807395935, 0.061336956918240, 0.698382019996643, 0.000999064068310, 0.177412718534470, -0.001589445280842, -0.402150899171829
-1.120776057243347, 0.259691476821899, 0.034115210175514, 0.272471964359283, 0.251299679279327, 0.000000000000000, -0.817763268947601, -0.015364743769169, -0.474561899900436, 0.353289335966110, 0.166648030281067, 0.000000000000000, 0.259655267000198, -0.034308403730392, 0.287746191024780, -0.229093685746193, 0.169065847992897, 0.045189071446657, 0.691004514694214, -0.000958883902058, 0.178226500749588, -0.005403828807175, -0.439111560583115
-1.153809070587158, 0.257761806249619, 0.027920413762331, 0.261127948760986, 0.271718025207520, 0.000000000000000, -0.836641907691956, -0.006848616991192, -0.491717070341110, 0.347002148628235, 0.178728222846985, 0.000000000000000, 0.278521716594696, -0.043493364006281, 0.292070895433426, -0.231128245592117, 0.166217744350433, 0.031669091433287, 0.682982623577118, -0.002544730668887, 0.178766623139381, -0.008322389796376, -0.478903472423553
-1.183992385864258, 0.256527304649353, 0.020335882902145, 0.253059595823288, 0.290809124708176, 0.000000000000000, -0.851968705654144, 0.000236201885855, -0.507450938224792, 0.340297996997833, 0.190577015280724, 0.000000000000000, 0.295895248651505, -0.050932437181473, 0.297181487083435, -0.234539613127708, 0.166096895933151, 0.019708363339305, 0.673398017883301, -0.003882409771904, 0.178678870201111, -0.010727302171290, -0.517475366592407
-1.211681365966797, 0.253792077302933, 0.012220500037074, 0.246608480811119, 0.308519393205643, 0.000000000000000, -0.866190850734711, 0.005658226553351, -0.522153615951538, 0.332242697477341, 0.202090635895729, 0.000000000000000, 0.315889298915863, -0.055490687489510, 0.305110275745392, -0.240534961223602, 0.166487872600555, 0.007951049134135, 0.660609781742096, -0.005126553587615, 0.177266418933868, -0.013081335462630, -0.560702621936798
-1.236634969711304, 0.249467879533768, 0.003768924390897, 0.240593135356903, 0.324845880270004, 0.000000000000000, -0.879530727863312, 0.009986210614443, -0.536055743694305, 0.322973579168320, 0.213283091783524, 0.000000000000000, 0.338405460119247, -0.057892236858606, 0.315640449523926, -0.249997764825821, 0.166703596711159, -0.004338693339378, 0.643396615982056, -0.006370425689965, 0.174000397324562, -0.015653518959880, -0.609166204929352
-1.257555484771729, 0.244919911026955, -0.005286581814289, 0.234840318560600, 0.339844852685928, 0.000000000000000, -0.890417575836182, 0.014151406474411, -0.549143850803375, 0.313414722681046, 0.224200353026390, 0.000000000000000, 0.363150477409363, -0.059663873165846, 0.325764209032059, -0.261688888072968, 0.166549593210220, -0.017512856051326, 0.621969521045685, -0.007658433169127, 0.168971493840218, -0.018576623871922, -0.660698711872101
-1.276632785797119, 0.239702001214027, -0.014675727114081, 0.229644924402237, 0.353668630123138, 0.000000000000000, -0.899543106555939, 0.017435761168599, -0.561145305633545, 0.303453415632248, 0.234828442335129, 0.000000000000000, 0.388044178485870, -0.060570742934942, 0.338155239820480, -0.274584561586380, 0.165069669485092, -0.031864896416664, 0.597282409667969, -0.009013961069286, 0.162571564316750, -0.021930055692792, -0.714639008045197
-1.295030832290649, 0.233657553792000, -0.024180678650737, 0.225041821599007, 0.366405010223389, 0.000000000000000, -0.907531440258026, 0.019654862582684, -0.571942925453186, 0.293150663375854, 0.245184421539307, 0.000000000000000, 0.411884158849716, -0.060443911701441, 0.353620052337646, -0.287338495254517, 0.161816015839577, -0.047296941280365, 0.570666491985321, -0.010417164303362, 0.155339017510414, -0.025662170723081, -0.769651830196381
-1.310790538787842, 0.228242307901382, -0.034060429781675, 0.220997601747513, 0.378074079751968, 0.000000000000000, -0.914072692394257, 0.021589627489448, -0.581599652767181, 0.283102661371231, 0.255306661128998, 0.000000000000000, 0.435985952615738, -0.060127582401037, 0.368584573268890, -0.298033833503723, 0.156068608164787, -0.063918016850948, 0.543564319610596, -0.011861872859299, 0.147858127951622, -0.029779581353068, -0.824640631675720
-1.324952125549316, 0.222811028361320, -0.043955568224192, 0.216948673129082, 0.388702273368835, 0.000000000000000, -0.919823884963989, 0.022960606962442, -0.590068399906158, 0.273101508617401, 0.265158951282501, 0.000000000000000, 0.460011512041092, -0.059569716453552, 0.386236518621445, -0.306982398033142, 0.148360103368759, -0.081263840198517, 0.516848504543304, -0.013300068676472, 0.140442535281181, -0.034124147146940, -0.877688407897949
-1.338379502296448, 0.217464596033096, -0.053782247006893, 0.213008791208267, 0.398378401994705, 0.000000000000000, -0.925052702426910, 0.024160670116544, -0.597505509853363, 0.263169497251511, 0.274737656116486, 0.000000000000000, 0.483621209859848, -0.058925047516823, 0.406605303287506, -0.314226120710373, 0.139307156205177, -0.098795637488365, 0.491608828306198, -0.014683478511870, 0.133503958582878, -0.038522943854332, -0.928816974163055
-1.350823163986206, 0.212607830762863, -0.063564956188202, 0.209749028086662, 0.407210618257523, 0.000000000000000, -0.929069221019745, 0.025700971484184, -0.603992164134979, 0.253599494695663, 0.284050643444061, 0.000000000000000, 0.502749145030975, -0.059225339442492, 0.423593699932098, -0.319678008556366, 0.129952400922775, -0.115572400391102, 0.468997180461884, -0.015946030616760, 0.127485632896423, -0.042698115110397, -0.979228496551514
-1.362437486648560, 0.207955047488213, -0.073118105530739, 0.207221731543541, 0.415235400199890, 0.000000000000000, -0.931848704814911, 0.027555234730244, -0.609626173973083, 0.244235247373581, 0.293050259351730, 0.000000000000000, 0.516831696033478, -0.060644704848528, 0.437658488750458, -0.323989629745483, 0.121196523308754, -0.130701228976250, 0.449709653854370, -0.017030844464898, 0.122640147805214, -0.046385277062654, -1.027582764625549
-1.374059200286865, 0.203377723693848, -0.082331813871861, 0.205162346363068, 0.422447472810745, 0.000000000000000, -0.934822559356689, 0.030550768598914, -0.615032732486725, 0.234602376818657, 0.301678240299225, 0.000000000000000, 0.527751803398132, -0.063558690249920, 0.453072607517242, -0.328818500041962, 0.113548479974270, -0.143377959728241, 0.433831959962845, -0.017894174903631, 0.118965193629265, -0.049343407154083, -1.072951555252075
-1.386265635490417, 0.198492079973221, -0.091036967933178, 0.203466609120369, 0.428862631320953, 0.000000000000000, -0.939335703849792, 0.035267278552055, -0.620711624622345, 0.224833801388741, 0.309907704591751, 0.000000000000000, 0.536599218845367, -0.067718103528023, 0.472413092851639, -0.334826707839966, 0.107119359076023, -0.153242647647858, 0.420976459980011, -0.018524138256907, 0.116287626326084, -0.051475826650858, -1.114403963088989
-1.395975232124329, 0.194736078381538, -0.099557645618916, 0.202314496040344, 0.434513688087463, 0.000000000000000, -0.942406475543976, 0.037954397499561, -0.625119090080261, 0.216629311442375, 0.317747294902802, 0.000000000000000, 0.543191432952881, -0.071267440915108, 0.487729012966156, -0.337296456098557, 0.100871212780476, -0.161944910883904, 0.410612076520920, -0.019028492271900, 0.114461719989777, -0.053303439170122, -1.149013161659241
-1.403425693511963, 0.191951811313629, -0.107842296361923, 0.201296076178551, 0.439364105463028, 0.000000000000000, -0.944389820098877, 0.039585866034031, -0.628659307956696, 0.210370019078255, 0.325151383876801, 0.000000000000000, 0.547863960266113, -0.073788009583950, 0.498466968536377, -0.335726439952850, 0.095238238573074, -0.169411137700081, 0.402562111616135, -0.019412327557802, 0.113422885537148, -0.054828271269798, -1.176740527153015
-1.410253405570984, 0.189824655652046, -0.115825638175011, 0.199951529502869, 0.443398267030716, 0.000000000000000, -0.946251273155212, 0.041711479425430, -0.632034063339233, 0.205636098980904, 0.332060724496841, 0.000000000000000, 0.552059531211853, -0.076222680509090, 0.507078826427460, -0.331431835889816, 0.090775072574615, -0.175076618790627, 0.396749377250671, -0.019649110734463, 0.113119617104530, -0.055889822542667, -1.199582099914551
-1.416468739509583, 0.187970966100693, -0.123356983065605, 0.198704138398170, 0.446783989667892, 0.000000000000000, -0.948104500770569, 0.043700505048037, -0.635225832462311, 0.201848775148392, 0.338403642177582, 0.000000000000000, 0.554611504077911, -0.077924467623234, 0.513342559337616, -0.326747208833694, 0.087616875767708, -0.178637132048607, 0.392279118299484, -0.019737541675568, 0.113151192665100, -0.056402787566185, -1.217266201972961
-1.422805666923523, 0.185760423541069, -0.130247890949249, 0.197711586952209, 0.449637174606323, 0.000000000000000, -0.950599074363708, 0.045666873455048, -0.638454854488373, 0.198477864265442, 0.344121932983398, 0.000000000000000, 0.554707407951355, -0.078484579920769, 0.517853915691376, -0.323982596397400, 0.085783436894417, -0.179918378591537, 0.388334631919861, -0.019681937992573, 0.113153129816055, -0.056315530091524, -1.230409979820251
-1.428693056106567, 0.183254659175873, -0.136458173394203, 0.196965947747231, 0.451954036951065, 0.000000000000000, -0.953091979026794, 0.047507785260677, -0.641616940498352, 0.195637062191963, 0.349142879247665, 0.000000000000000, 0.554000496864319, -0.078077569603920, 0.519686877727509, -0.322006106376648, 0.085338898003101, -0.179211392998695, 0.384892135858536, -0.019501581788063, 0.113135941326618, -0.055726204067469, -1.240028142929077
-1.433195233345032, 0.180668085813522, -0.141985267400742, 0.196781635284424, 0.453776746988297, 0.000000000000000, -0.954777359962463, 0.048654254525900, -0.644459307193756, 0.193461865186691, 0.353431642055511, 0.000000000000000, 0.553309381008148, -0.077025651931763, 0.519985198974609, -0.320022314786911, 0.085610449314117, -0.177250295877457, 0.381926119327545, -0.019237307831645, 0.113109566271305, -0.054839078336954, -1.246832728385925
-1.436443686485291, 0.177953884005547, -0.146807163953781, 0.197000667452812, 0.455092459917068, 0.000000000000000, -0.955532014369965, 0.049385469406843, -0.647020041942596, 0.191788926720619, 0.356964647769928, 0.000000000000000, 0.552324652671814, -0.075911104679108, 0.519999980926514, -0.318523794412613, 0.086364746093750, -0.174314066767693, 0.379310041666031, -0.018907774239779, 0.113023199141026, -0.053727969527245, -1.251763105392456
-1.438659429550171, 0.175496906042099, -0.151040315628052, 0.197407707571983, 0.455874860286713, 0.000000000000000, -0.955563426017761, 0.050113413482904, -0.649400353431702, 0.190419510006905, 0.359732925891876, 0.000000000000000, 0.550189495086670, -0.075385749340057, 0.519999980926514, -0.317815840244293, 0.087200149893761, -0.170818910002708, 0.377067536115646, -0.018536109477282, 0.112890899181366, -0.052498944103718, -1.255641222000122
-1.440268754959106, 0.173065692186356, -0.154630437493324, 0.197798430919647, 0.456093370914459, 0.000000000000000, -0.955150127410889, 0.050995595753193, -0.651639282703400, 0.189239159226418, 0.361749976873398, 0.000000000000000, 0.547155380249023, -0.075555942952633, 0.519999980926514, -0.317612886428833, 0.088747128844261, -0.166422188282013, 0.375423103570938, -0.018104976043105, 0.112810090184212, -0.051066510379314, -1.259148478507996
-1.441233158111572, 0.171042963862419, -0.157672807574272, 0.198199719190598, 0.455782204866409, 0.000000000000000, -0.954321384429932, 0.051921844482422, -0.653647959232330, 0.188231959939003, 0.363056838512421, 0.000000000000000, 0.544288277626038, -0.076480746269226, 0.519999980926514, -0.317443460226059, 0.090409308671951, -0.161792486906052, 0.374374479055405, -0.017650496214628, 0.112792864441872, -0.049609404057264, -1.262654185295105
-1.441824555397034, 0.169791445136070, -0.160275548696518, 0.198558539152145, 0.454965323209763, 0.000000000000000, -0.953363418579102, 0.052910588681698, -0.655412375926971, 0.187359571456909, 0.363690197467804, 0.000000000000000, 0.542156755924225, -0.077996432781219, 0.519999980926514, -0.316952407360077, 0.091312237083912, -0.157799586653709, 0.373998939990997, -0.017216257750988, 0.112883731722832, -0.048351787030697, -1.265786290168762
-1.442779660224915, 0.168881148099899, -0.162343680858612, 0.198633983731270, 0.453614145517349, 0.000000000000000, -0.952826142311096, 0.054076012223959, -0.657004892826080, 0.186490759253502, 0.363653272390366, 0.000000000000000, 0.540611565113068, -0.079648226499557, 0.519999980926514, -0.316165566444397, 0.091176770627499, -0.154765650629997, 0.374278217554092, -0.016818474978209, 0.113077946007252, -0.047374520450830, -1.268032670021057
-1.444174289703369, 0.168157339096069, -0.163825169205666, 0.198424071073532, 0.451710879802704, 0.000000000000000, -0.952869415283203, 0.055314715951681, -0.658383071422577, 0.185565307736397, 0.362936913967133, 0.000000000000000, 0.539419353008270, -0.081209056079388, 0.519999980926514, -0.315517216920853, 0.090188272297382, -0.152558162808418, 0.374942064285278, -0.016453204676509, 0.113257467746735, -0.046643484383821, -1.269452452659607
-1.445650339126587, 0.167723074555397, -0.164710775017738, 0.198071509599686, 0.449242949485779, 0.000000000000000, -0.953245282173157, 0.056501992046833, -0.659427344799042, 0.184645980596542, 0.361532032489777, 0.000000000000000, 0.538429141044617, -0.082722753286362, 0.519999980926514, -0.315285831689835, 0.088689886033535, -0.150878623127937, 0.375790238380432, -0.016106946393847, 0.113334193825722, -0.046082258224487, -1.270529270172119
-1.446899414062500, 0.167387276887894, -0.164898991584778, 0.197662010788918, 0.446179747581482, 0.000000000000000, -0.953720390796661, 0.057429503649473, -0.659999608993530, 0.183744564652443, 0.359409093856812, 0.000000000000000, 0.537847399711609, -0.084163829684258, 0.519999980926514, -0.315443664789200, 0.087064385414124, -0.149390995502472, 0.376755923032761, -0.015762500464916, 0.113278947770596, -0.045605253428221, -1.271783471107483
-1.447749972343445, 0.166966870427132, -0.164292588829994, 0.197195574641228, 0.442474603652954, 0.000000000000000, -0.954132080078125, 0.058057308197021, -0.660015285015106, 0.182863995432854, 0.356534391641617, 0.000000000000000, 0.537872254848480, -0.085583731532097, 0.519999980926514, -0.315929919481277, 0.085565872490406, -0.147838205099106, 0.377903252840042, -0.015404625795782, 0.113117285072803, -0.045143812894821, -1.273768186569214
-1.448073625564575, 0.166370287537575, -0.162814557552338, 0.196654945611954, 0.438090294599533, 0.000000000000000, -0.954420924186707, 0.058217287063599, -0.659365415573120, 0.182007342576981, 0.352885484695435, 0.000000000000000, 0.538803994655609, -0.087007828056812, 0.519999980926514, -0.316718548536301, 0.084189876914024, -0.146134585142136, 0.379353463649750, -0.015025586821139, 0.112898461520672, -0.044670198112726, -1.276861548423767
-1.448047757148743, 0.165465921163559, -0.160388827323914, 0.195914089679718, 0.432977974414825, 0.000000000000000, -0.954662740230560, 0.057869028300047, -0.657989084720612, 0.181191220879555, 0.348454982042313, 0.000000000000000, 0.540804862976074, -0.088589265942574, 0.519999980926514, -0.317886352539062, 0.082783624529839, -0.144272610545158, 0.381348758935928, -0.014619686640799, 0.112720437347889, -0.044171549379826, -1.281392693519592
-1.448059439659119, 0.164271935820580, -0.156992942094803, 0.194758549332619, 0.427061766386032, 0.000000000000000, -0.954901576042175, 0.057432085275650, -0.655927538871765, 0.180501669645309, 0.343253374099731, 0.000000000000000, 0.543305933475494, -0.090792715549469, 0.519999980926514, -0.319624245166779, 0.081244952976704, -0.142180964350700, 0.384281218051910, -0.014175796881318, 0.112740747630596, -0.043613314628601, -1.287986755371094
-1.448102712631226, 0.162890255451202, -0.152600929141045, 0.193140015006065, 0.420284867286682, 0.000000000000000, -0.955127537250519, 0.057149298489094, -0.653126180171967, 0.180175006389618, 0.337322533130646, 0.000000000000000, 0.545795559883118, -0.093376345932484, 0.519999980926514, -0.321863800287247, 0.079366311430931, -0.139911681413651, 0.388090580701828, -0.013694285415113, 0.112933225929737, -0.043005391955376, -1.295689582824707
-1.447513103485107, 0.161624357104301, -0.147199645638466, 0.191457629203796, 0.412665724754333, 0.000000000000000, -0.955735325813293, 0.055997610092163, -0.649204969406128, 0.180534854531288, 0.330757737159729, 0.000000000000000, 0.549323737621307, -0.094698905944824, 0.519999980926514, -0.324260860681534, 0.076077915728092, -0.138193204998970, 0.391651272773743, -0.013222395442426, 0.112836435437202, -0.042555604130030, -1.299568414688110
-1.445752501487732, 0.160022735595703, -0.140558063983917, 0.190085142850876, 0.404118627309799, 0.000000000000000, -0.956069290637970, 0.053705256432295, -0.643866002559662, 0.181978642940521, 0.323666036128998, 0.000000000000000, 0.554558575153351, -0.094559863209724, 0.519999980926514, -0.326602607965469, 0.070533402264118, -0.137510940432549, 0.394416570663452, -0.012787590734661, 0.112225025892258, -0.042394332587719, -1.298783779144287
-1.442138671875000, 0.158211886882782, -0.132645100355148, 0.189353033900261, 0.394505500793457, 0.000000000000000, -0.955122470855713, 0.050181128084660, -0.636885702610016, 0.184865891933441, 0.316136986017227, 0.000000000000000, 0.561456382274628, -0.093959055840969, 0.519912302494049, -0.328920096158981, 0.063174873590469, -0.137466460466385, 0.396830230951309, -0.012361541390419, 0.111276090145111, -0.042406402528286, -1.293749809265137
-1.436049222946167, 0.157715722918510, -0.123912818729877, 0.189989343285561, 0.383699983358383, 0.000000000000000, -0.952027082443237, 0.046120665967464, -0.628324389457703, 0.190036937594414, 0.308316379785538, 0.000000000000000, 0.565917372703552, -0.092776775360107, 0.518471837043762, -0.330261558294296, 0.056319437921047, -0.136592194437981, 0.400526434183121, -0.011851588264108, 0.110669784247875, -0.042201049625874, -1.280854940414429
-1.427029728889465, 0.157733321189880, -0.114110320806503, 0.192628696560860, 0.371592789888382, 0.000000000000000, -0.946257054805756, 0.041467308998108, -0.618160367012024, 0.198194324970245, 0.300160944461823, 0.000000000000000, 0.566033065319061, -0.090538665652275, 0.512612044811249, -0.328142434358597, 0.051163449883461, -0.134133934974670, 0.406685173511505, -0.011206953786314, 0.110922016203403, -0.041591044515371, -1.258916974067688
-1.415381431579590, 0.158622920513153, -0.103360861539841, 0.197435379028320, 0.358125925064087, 0.000000000000000, -0.938956439495087, 0.036703672260046, -0.606833934783936, 0.209166333079338, 0.291727423667908, 0.000000000000000, 0.560666978359222, -0.087391413748264, 0.501639842987061, -0.324927210807800, 0.048210620880127, -0.129330500960350, 0.414912998676300, -0.010388964787126, 0.111835479736328, -0.040354650467634, -1.227798461914062
-1.400851726531982, 0.160517916083336, -0.091704010963440, 0.204106584191322, 0.343172013759613, 0.000000000000000, -0.930076897144318, 0.032099653035402, -0.594553709030151, 0.222903624176979, 0.283129274845123, 0.000000000000000, 0.549059271812439, -0.083623133599758, 0.486868411302567, -0.321714580059052, 0.047968931496143, -0.121655724942684, 0.425374776124954, -0.009364381432533, 0.113461665809155, -0.038334280252457, -1.187120437622070
-1.383013725280762, 0.163173854351044, -0.079066380858421, 0.212583929300308, 0.326614528894424, 0.000000000000000, -0.918989598751068, 0.027166640385985, -0.581209003925323, 0.239441096782684, 0.274378448724747, 0.000000000000000, 0.531659066677094, -0.079192914068699, 0.468481510877609, -0.317490786314011, 0.050059985369444, -0.111440233886242, 0.438349604606628, -0.008142901584506, 0.115932211279869, -0.035615697503090, -1.136870861053467
-1.361450433731079, 0.166486233472824, -0.065433926880360, 0.222963124513626, 0.308402121067047, 0.000000000000000, -0.905657708644867, 0.021815193817019, -0.566887319087982, 0.258449673652649, 0.265409618616104, 0.000000000000000, 0.508699774742126, -0.074123606085777, 0.446578770875931, -0.311584830284119, 0.054494395852089, -0.098674409091473, 0.453949213027954, -0.006717200390995, 0.119305834174156, -0.032191824167967, -1.076784849166870
-1.336340546607971, 0.170257925987244, -0.050797645002604, 0.235147610306740, 0.288503140211105, 0.000000000000000, -0.890201807022095, 0.016093254089355, -0.551746308803558, 0.279342770576477, 0.256119191646576, 0.000000000000000, 0.479937762022018, -0.068755730986595, 0.421497285366058, -0.303767591714859, 0.061220694333315, -0.083375677466393, 0.472032278776169, -0.005083607509732, 0.123534247279167, -0.028061386197805, -1.006625533103943
-1.308138966560364, 0.174291968345642, -0.035171195864677, 0.248897165060043, 0.266905516386032, 0.000000000000000, -0.872430026531219, 0.009943788871169, -0.535882830619812, 0.301484316587448, 0.246375799179077, 0.000000000000000, 0.445624321699142, -0.063723616302013, 0.393880367279053, -0.293379366397858, 0.070088237524033, -0.065701186656952, 0.492638081312180, -0.003244650317356, 0.128655806183815, -0.023261100053787, -0.927456974983215
-1.276221990585327, 0.178643763065338, -0.018639985471964, 0.263958275318146, 0.243635982275009, 0.000000000000000, -0.851725935935974, 0.003474824130535, -0.519392073154449, 0.324045926332474, 0.236115366220474, 0.000000000000000, 0.406311690807343, -0.060164015740156, 0.364540398120880, -0.280621677637100, 0.081814378499985, -0.045260950922966, 0.515777826309204, -0.001169904600829, 0.134686961770058, -0.017673375084996, -0.841862916946411
-1.239251375198364, 0.183710142970085, -0.001431054086424, 0.280030816793442, 0.218710407614708, 0.000000000000000, -0.826906204223633, -0.003691327059641, -0.502118587493896, 0.346136391162872, 0.225309297442436, 0.000000000000000, 0.362513095140457, -0.059278409928083, 0.334607809782028, -0.266887456178665, 0.096826121211052, -0.021949041634798, 0.540918588638306, 0.001151687465608, 0.141409069299698, -0.011256282217801, -0.753055870532990
-1.195673942565918, 0.190352112054825, 0.016036221757531, 0.296962618827820, 0.192136555910110, 0.000000000000000, -0.797433257102966, -0.012332099489868, -0.483873575925827, 0.367096334695816, 0.213851749897003, 0.000000000000000, 0.316073060035706, -0.061138588935137, 0.305841743946075, -0.250982254743576, 0.114364556968212, 0.003506750101224, 0.568166136741638, 0.003676515538245, 0.148924171924591, -0.004207712132484, -0.663457870483398
-1.144685745239258, 0.199979767203331, 0.033213492482901, 0.314050555229187, 0.163929730653763, 0.000000000000000, -0.762936532497406, -0.022493164986372, -0.464644491672516, 0.386791527271271, 0.201707452535629, 0.000000000000000, 0.268652051687241, -0.065852649509907, 0.278185307979584, -0.230223253369331, 0.133897930383682, 0.030524685978889, 0.598226726055145, 0.006372792180628, 0.157617285847664, 0.003319795243442, -0.575468003749847
-1.089373111724854, 0.212779983878136, 0.050149347633123, 0.330450147390366, 0.134049475193024, 0.000000000000000, -0.723437488079071, -0.032021850347519, -0.445309013128281, 0.405420243740082, 0.188907667994499, 0.000000000000000, 0.220566228032112, -0.072808481752872, 0.250905156135559, -0.206092208623886, 0.156576514244080, 0.059390280395746, 0.629870593547821, 0.009269293397665, 0.167015522718430, 0.011428260244429, -0.491049051284790
-1.034235596656799, 0.227304607629776, 0.067629858851433, 0.346423268318176, 0.102468423545361, 0.000000000000000, -0.682231068611145, -0.037551421672106, -0.427819311618805, 0.422037988901138, 0.175249963998795, 0.000000000000000, 0.172635644674301, -0.080215014517307, 0.226546779274940, -0.181005850434303, 0.180276885628700, 0.088723599910736, 0.661229670047760, 0.012257908470929, 0.176377981901169, 0.019738197326660, -0.411657869815826
-0.980336010456085, 0.243866071105003, 0.085633769631386, 0.362764567136765, 0.069377727806568, 0.000000000000000, -0.641435801982880, -0.039801776409149, -0.412366777658463, 0.435875773429871, 0.160577416419983, 0.000000000000000, 0.125646188855171, -0.088124282658100, 0.203748762607574, -0.155160561203957, 0.203633382916451, 0.117604330182076, 0.691861510276794, 0.015256478451192, 0.185569941997528, 0.027990292757750, -0.340012818574905
-0.927942633628845, 0.262498497962952, 0.104062385857105, 0.379879117012024, 0.035006877034903, 0.000000000000000, -0.602671444416046, -0.040794260799885, -0.398612946271896, 0.446234136819839, 0.144776895642281, 0.000000000000000, 0.080576471984386, -0.096369199454784, 0.181775763630867, -0.128236159682274, 0.226348564028740, 0.145649522542953, 0.721832454204559, 0.018214942887425, 0.194659277796745, 0.036064304411411, -0.277080833911896
-0.877746939659119, 0.282940208911896, 0.122826747596264, 0.397567898035049, -0.000259261374595, 0.000000000000000, -0.568014442920685, -0.041714020073414, -0.386645436286926, 0.452378064393997, 0.127750322222710, 0.000000000000000, 0.038143809884787, -0.104071393609047, 0.161874473094940, -0.100562199950218, 0.248406335711479, 0.172514393925667, 0.750950455665588, 0.021081479266286, 0.203592777252197, 0.043838448822498, -0.222276791930199
-0.830170094966888, 0.305033981800079, 0.141712874174118, 0.415300101041794, -0.035576440393925, 0.000000000000000, -0.537990391254425, -0.043004561215639, -0.376606374979019, 0.454326361417770, 0.109650760889053, 0.000000000000000, -0.000326795357978, -0.110468171536922, 0.144569084048271, -0.073282934725285, 0.269707977771759, 0.197844192385674, 0.778492510318756, 0.023806618526578, 0.212081059813499, 0.051189336925745, -0.175339221954346
-0.784856021404266, 0.328165829181671, 0.160565480589867, 0.432689845561981, -0.069738961756229, 0.000000000000000, -0.511779129505157, -0.044668152928352, -0.368533521890640, 0.452484697103500, 0.091178990900517, 0.000000000000000, -0.033559069037437, -0.115298628807068, 0.129310235381126, -0.047272708266973, 0.290145754814148, 0.221377998590469, 0.803737282752991, 0.026350578293204, 0.219831451773643, 0.058022685348988, -0.136448159813881
-0.741354465484619, 0.351292461156845, 0.179367914795876, 0.449443519115448, -0.101587399840355, 0.000000000000000, -0.488279521465302, -0.046523872762918, -0.362320035696030, 0.447172671556473, 0.073716461658478, 0.000000000000000, -0.061110179871321, -0.118576012551785, 0.115531668066978, -0.023217100650072, 0.309579312801361, 0.242858052253723, 0.826009929180145, 0.028670305386186, 0.226564392447472, 0.064235456287861, -0.105687566101551
-0.699659287929535, 0.373155087232590, 0.198245614767075, 0.465253144502640, -0.130274206399918, 0.000000000000000, -0.466483861207962, -0.048518877476454, -0.357561022043228, 0.438828170299530, 0.058756496757269, 0.000000000000000, -0.083255618810654, -0.120518378913403, 0.103025868535042, -0.001994334394112, 0.327838867902756, 0.261977344751358, 0.844607174396515, 0.030713248997927, 0.231977492570877, 0.069695651531219, -0.083063982427120
-0.660125017166138, 0.392544806003571, 0.217390239238739, 0.479853898286819, -0.155312508344650, 0.000000000000000, -0.445863127708435, -0.049793519079685, -0.353847265243530, 0.428405195474625, 0.047040954232216, 0.000000000000000, -0.100746035575867, -0.121393650770187, 0.092063471674919, 0.015269966796041, 0.344712972640991, 0.278392910957336, 0.858876883983612, 0.032419081777334, 0.235780224204063, 0.074248865246773, -0.068626776337624
-0.623426556587219, 0.409056752920151, 0.236808449029922, 0.492886662483215, -0.176500961184502, 0.000000000000000, -0.426333308219910, -0.048863030970097, -0.350833892822266, 0.417266249656677, 0.038257755339146, 0.000000000000000, -0.114314749836922, -0.121126599609852, 0.083255484700203, 0.027564583346248, 0.359886467456818, 0.291774868965149, 0.868406713008881, 0.033726297318935, 0.237778976559639, 0.077741608023643, -0.062461294233799
-0.590293228626251, 0.423498272895813, 0.256157338619232, 0.503873825073242, -0.193814188241959, 0.000000000000000, -0.407710522413254, -0.045372072607279, -0.347911536693573, 0.406679332256317, 0.031326822936535, 0.000000000000000, -0.124220781028271, -0.119061157107353, 0.077144250273705, 0.034501902759075, 0.372888416051865, 0.301859319210052, 0.873197138309479, 0.034579906612635, 0.237958580255508, 0.080046869814396, -0.064560182392597
-0.560803651809692, 0.437315553426743, 0.274862676858902, 0.512625277042389, -0.207373425364494, 0.000000000000000, -0.389774531126022, -0.040576007217169, -0.344289720058441, 0.397223889827728, 0.025130154564977, 0.000000000000000, -0.130292937159538, -0.114712797105312, 0.073821149766445, 0.036273211240768, 0.383103936910629, 0.308446198701859, 0.873548924922943, 0.034936077892780, 0.236433982849121, 0.081069029867649, -0.074780799448490
-0.534335911273956, 0.451248973608017, 0.292556256055832, 0.519467294216156, -0.217382133007050, 0.000000000000000, -0.372618407011032, -0.035596456378698, -0.339565575122833, 0.388836830854416, 0.019164487719536, 0.000000000000000, -0.132403880357742, -0.108940213918686, 0.072673842310905, 0.033367257565260, 0.389641731977463, 0.311310738325119, 0.869867742061615, 0.034753534942865, 0.233360752463341, 0.080711506307125, -0.092611856758595
-0.510164499282837, 0.465088665485382, 0.309204459190369, 0.525024712085724, -0.224105864763260, 0.000000000000000, -0.356641680002213, -0.030588090419769, -0.333848834037781, 0.381222039461136, 0.013445449993014, 0.000000000000000, -0.131016150116920, -0.102353781461716, 0.073470845818520, 0.026156188920140, 0.391627252101898, 0.310229599475861, 0.862454533576965, 0.034003704786301, 0.228844746947289, 0.078890025615692, -0.116519242525101
-0.487958759069443, 0.478231161832809, 0.324954003095627, 0.529924511909485, -0.227899536490440, 0.000000000000000, -0.342226594686508, -0.025193791836500, -0.327486902475357, 0.374026834964752, 0.008164965547621, 0.000000000000000, -0.126564517617226, -0.095178395509720, 0.076569952070713, 0.014557261951268, 0.388649761676788, 0.305074393749237, 0.851423442363739, 0.032687373459339, 0.222912192344666, 0.075570456683636, -0.144801542162895
-0.467800945043564, 0.490506052970886, 0.339854508638382, 0.534617781639099, -0.229213029146194, 0.000000000000000, -0.329125463962555, -0.018830703571439, -0.320854932069778, 0.367050647735596, 0.003603592049330, 0.000000000000000, -0.119293265044689, -0.088749095797539, 0.081737227737904, -0.001564454170875, 0.380786597728729, 0.295875251293182, 0.836909770965576, 0.030837114900351, 0.215603992342949, 0.070788487792015, -0.175519004464149
-0.449849724769592, 0.502720177173615, 0.353662908077240, 0.539331316947937, -0.228519514203072, 0.000000000000000, -0.316394567489624, -0.010910504497588, -0.314237475395203, 0.360387563705444, 0.000117990828585, 0.000000000000000, -0.110057517886162, -0.083666741847992, 0.088508524000645, -0.021814182400703, 0.368398308753967, 0.282866179943085, 0.819329619407654, 0.028514888137579, 0.207089439034462, 0.064661309123039, -0.205458819866180
-0.433984190225601, 0.515805125236511, 0.366113305091858, 0.544315218925476, -0.226227954030037, 0.000000000000000, -0.303628176450729, -0.001380206434987, -0.307727783918381, 0.353966683149338, -0.001948790391907, 0.000000000000000, -0.100045509636402, -0.079291649162769, 0.096402257680893, -0.044769875705242, 0.351729959249496, 0.266474515199661, 0.799726963043213, 0.025799520313740, 0.197812423110008, 0.057375557720661, -0.232081443071365
-0.420046329498291, 0.529979288578033, 0.377227902412415, 0.549862504005432, -0.222633436322212, 0.000000000000000, -0.291296601295471, 0.009263662621379, -0.301253497600555, 0.347373336553574, -0.002319289371371, 0.000000000000000, -0.089622639119625, -0.076121650636196, 0.104696527123451, -0.068335346877575, 0.330695092678070, 0.247274428606033, 0.779729545116425, 0.022779276594520, 0.188465416431427, 0.049168251454830, -0.254791110754013
-0.408071905374527, 0.545023441314697, 0.387233912944794, 0.556126296520233, -0.217924922704697, 0.000000000000000, -0.279991239309311, 0.020473735406995, -0.294714421033859, 0.340161919593811, -0.000782021088526, 0.000000000000000, -0.078810214996338, -0.074456520378590, 0.113277792930603, -0.090268820524216, 0.305279046297073, 0.226091936230659, 0.761161565780640, 0.019568847492337, 0.179820194840431, 0.040364384651184, -0.273326933383942
-0.398178577423096, 0.560519874095917, 0.396448761224747, 0.563113808631897, -0.212216913700104, 0.000000000000000, -0.269822269678116, 0.031900249421597, -0.288040369749069, 0.332140177488327, 0.002818415407091, 0.000000000000000, -0.067583292722702, -0.074048109352589, 0.122366577386856, -0.108372777700424, 0.275975704193115, 0.204052880406380, 0.745704054832458, 0.016312282532454, 0.172577947378159, 0.031382605433464, -0.287268728017807
-0.390327632427216, 0.575919568538666, 0.405220359563828, 0.570754051208496, -0.205578327178955, 0.000000000000000, -0.260451763868332, 0.043377354741096, -0.281183719635010, 0.323397397994995, 0.008589362725616, 0.000000000000000, -0.056080825626850, -0.074549667537212, 0.132000625133514, -0.121083617210388, 0.243984401226044, 0.182441860437393, 0.734550952911377, 0.013161632232368, 0.167211294174194, 0.022671617567539, -0.296229958534241
-0.383888095617294, 0.590852439403534, 0.413728624582291, 0.579048454761505, -0.198107242584229, 0.000000000000000, -0.251591145992279, 0.054844193160534, -0.274080723524094, 0.314164966344833, 0.016287911683321, 0.000000000000000, -0.044903203845024, -0.075850084424019, 0.141865015029907, -0.127574160695076, 0.210521489381790, 0.162289708852768, 0.728521287441254, 0.010233631357551, 0.164009615778923, 0.014570160768926, -0.299906641244888
-0.377468079328537, 0.605677306652069, 0.421720951795578, 0.588124930858612, -0.190025657415390, 0.000000000000000, -0.243417620658875, 0.066417671740055, -0.266662746667862, 0.304647773504257, 0.024987254291773, 0.000000000000000, -0.035091515630484, -0.078456580638885, 0.151332780718803, -0.126594707369804, 0.175869122147560, 0.144072487950325, 0.728721261024475, 0.007582151331007, 0.163385733962059, 0.007219215855002, -0.298088818788528
-0.370029538869858, 0.620745122432709, 0.429031610488892, 0.597815632820129, -0.181368604302406, 0.000000000000000, -0.236072361469269, 0.078599207103252, -0.259036242961884, 0.294979274272919, 0.034043028950691, 0.000000000000000, -0.028255002573133, -0.082114033401012, 0.159388408064842, -0.118948474526405, 0.142628580331802, 0.128999352455139, 0.734781980514526, 0.005338839720935, 0.165135547518730, 0.001013638102449, -0.290819257497787
-0.360905587673187, 0.636263191699982, 0.435576796531677, 0.607826828956604, -0.172073721885681, 0.000000000000000, -0.228911280632019, 0.091619096696377, -0.251242727041245, 0.285462737083435, 0.043129757046700, 0.000000000000000, -0.025120226666331, -0.086178213357925, 0.164193689823151, -0.106626130640507, 0.115252561867237, 0.118887230753899, 0.745003759860992, 0.003704983042553, 0.168525546789169, -0.003429288975894, -0.278998136520386
-0.349716544151306, 0.651674687862396, 0.441512107849121, 0.618048369884491, -0.162077844142914, 0.000000000000000, -0.220836803317070, 0.104752391576767, -0.243064492940903, 0.276458412408829, 0.051970504224300, 0.000000000000000, -0.023724751546979, -0.091665104031563, 0.163476690649986, -0.093147173523903, 0.098921693861485, 0.115636736154556, 0.756636500358582, 0.002899641869590, 0.172378271818161, -0.005445957649499, -0.266789257526398
-0.337129920721054, 0.665999352931976, 0.447263956069946, 0.628151237964630, -0.151383116841316, 0.000000000000000, -0.212535336613655, 0.116993002593517, -0.234356194734573, 0.267489343881607, 0.060271631926298, 0.000000000000000, -0.022938271984458, -0.096033647656441, 0.156839177012444, -0.084067121148109, 0.097020089626312, 0.120111621916294, 0.765990316867828, 0.003034919267520, 0.175108402967453, -0.004720215220004, -0.259474188089371
-0.324174314737320, 0.678276956081390, 0.453247129917145, 0.637750089168549, -0.140021651983261, 0.000000000000000, -0.204809769988060, 0.127494081854820, -0.225062027573586, 0.258054912090302, 0.067842639982700, 0.000000000000000, -0.023098878562450, -0.095017239451408, 0.148612141609192, -0.080191999673843, 0.107915908098221, 0.131325051188469, 0.772703588008881, 0.004021992441267, 0.176581636071205, -0.001580441952683, -0.258043199777603
-0.311689764261246, 0.687967121601105, 0.459621638059616, 0.646591901779175, -0.128087967634201, 0.000000000000000, -0.197985276579857, 0.136199966073036, -0.215320393443108, 0.247944191098213, 0.074586935341358, 0.000000000000000, -0.023318242281675, -0.090317383408546, 0.142854943871498, -0.078735776245594, 0.125663295388222, 0.146807432174683, 0.779115080833435, 0.005601963493973, 0.177821502089500, 0.003120499663055, -0.262989401817322
-0.300467580556870, 0.695158779621124, 0.466263353824615, 0.654533147811890, -0.115854963660240, 0.000000000000000, -0.192247271537781, 0.143638700246811, -0.205414816737175, 0.237073346972466, 0.080416157841682, 0.000000000000000, -0.021574901416898, -0.085891686379910, 0.142030373215675, -0.078482322394848, 0.144262358546257, 0.164066508412361, 0.786773383617401, 0.007501577027142, 0.179490149021149, 0.008515776135027, -0.274897813796997
-0.291428387165070, 0.700112640857697, 0.473013013601303, 0.661556065082550, -0.103740982711315, 0.000000000000000, -0.187102511525154, 0.149824246764183, -0.195470854640007, 0.225669741630554, 0.085244715213776, 0.000000000000000, -0.015575340017676, -0.084791474044323, 0.146325051784515, -0.079737611114979, 0.160796135663986, 0.181830585002899, 0.795731425285339, 0.009576464071870, 0.181628286838531, 0.014166835695505, -0.293037682771683
-0.285213559865952, 0.702886939048767, 0.479799568653107, 0.667838513851166, -0.092100627720356, 0.000000000000000, -0.182049661874771, 0.154108092188835, -0.185428157448769, 0.213983774185181, 0.089002326130867, 0.000000000000000, -0.005321048200130, -0.087809219956398, 0.153261706233025, -0.083135277032852, 0.175013631582260, 0.199885636568069, 0.805161595344543, 0.011800571344793, 0.183936551213264, 0.020012600347400, -0.314204961061478
-0.281253755092621, 0.704590618610382, 0.486025512218475, 0.673699080944061, -0.081182330846786, 0.000000000000000, -0.176180526614189, 0.156647145748138, -0.175387799739838, 0.202551305294037, 0.091800369322300, 0.000000000000000, 0.007970931008458, -0.094040840864182, 0.160742312669754, -0.089409351348877, 0.187402069568634, 0.218234837055206, 0.814062476158142, 0.014173367992043, 0.186035618185997, 0.026067808270454, -0.333901911973953
-0.278694748878479, 0.705955326557159, 0.491304397583008, 0.679480254650116, -0.071065187454224, 0.000000000000000, -0.169604599475861, 0.158017411828041, -0.165538266301155, 0.191571637988091, 0.093778416514397, 0.000000000000000, 0.023102620616555, -0.101102016866207, 0.168627515435219, -0.098104089498520, 0.198388099670410, 0.236844331026077, 0.822171390056610, 0.016684068366885, 0.187836393713951, 0.032319787889719, -0.348056912422180
-0.277078211307526, 0.707066297531128, 0.495697915554047, 0.685329794883728, -0.061733391135931, 0.000000000000000, -0.162973910570145, 0.158700883388519, -0.156020939350128, 0.181107163429260, 0.095074757933617, 0.000000000000000, 0.039021898061037, -0.106890343129635, 0.176827132701874, -0.107807733118534, 0.208291307091713, 0.255586534738541, 0.829612910747528, 0.019302543252707, 0.189401030540466, 0.038702692836523, -0.354327797889709
-0.275956630706787, 0.708326101303101, 0.499243289232254, 0.691155970096588, -0.053151644766331, 0.000000000000000, -0.156427070498466, 0.159412220120430, -0.146986156702042, 0.171519011259079, 0.095887221395969, 0.000000000000000, 0.054938875138760, -0.110726416110992, 0.184657692909241, -0.116632819175720, 0.217337355017662, 0.274206548929214, 0.836542010307312, 0.021974880248308, 0.190797716379166, 0.045083250850439, -0.351234406232834
-0.274317115545273, 0.710474908351898, 0.501758277416229, 0.696945071220398, -0.045244619250298, 0.000000000000000, -0.149561285972595, 0.160999476909637, -0.138576373457909, 0.163389623165131, 0.096437700092793, 0.000000000000000, 0.069731548428535, -0.113893486559391, 0.189772799611092, -0.122273914515972, 0.225644469261169, 0.292376369237900, 0.843253850936890, 0.024629112333059, 0.192150309681892, 0.051282640546560, -0.338192969560623
-0.270847082138062, 0.713910222053528, 0.503095865249634, 0.702933013439178, -0.037906218320131, 0.000000000000000, -0.142484873533249, 0.163806229829788, -0.130829140543938, 0.156925737857819, 0.096818715333939, 0.000000000000000, 0.081188686192036, -0.117552995681763, 0.189171701669693, -0.122824974358082, 0.233152106404305, 0.309740692377090, 0.850059390068054, 0.027188282459974, 0.193585172295570, 0.057110562920570, -0.317075014114380
-0.266078799962997, 0.717918694019318, 0.503878355026245, 0.709005475044250, -0.031152332201600, 0.000000000000000, -0.136037006974220, 0.167439028620720, -0.123657181859016, 0.151814073324203, 0.096971325576305, 0.000000000000000, 0.089188180863857, -0.118732921779156, 0.186217010021210, -0.118104696273804, 0.239700645208359, 0.325982540845871, 0.856919109821320, 0.029593277722597, 0.195075601339340, 0.062417641282082, -0.291640579700470
-0.260642141103745, 0.722015261650085, 0.504561960697174, 0.715007126331329, -0.025039274245501, 0.000000000000000, -0.130395859479904, 0.171411469578743, -0.116972438991070, 0.147940903902054, 0.096820339560509, 0.000000000000000, 0.094491489231586, -0.117197498679161, 0.182858303189278, -0.109254322946072, 0.245071336627007, 0.340984910726547, 0.863780975341797, 0.031823895871639, 0.196595862507820, 0.067168712615967, -0.265641003847122
-0.254505246877670, 0.725477278232574, 0.505443751811981, 0.721063196659088, -0.019468896090984, 0.000000000000000, -0.125868484377861, 0.175072878599167, -0.110669143497944, 0.145088374614716, 0.096249163150787, 0.000000000000000, 0.097367890179157, -0.113501772284508, 0.179231673479080, -0.097203224897385, 0.249101668596268, 0.354960650205612, 0.871063053607941, 0.033904921263456, 0.198335662484169, 0.071480512619019, -0.243012398481369
-0.247743487358093, 0.727452933788300, 0.506804764270782, 0.727243065834045, -0.014274233952165, 0.000000000000000, -0.122757717967033, 0.177789017558098, -0.104665718972683, 0.142989203333855, 0.095174424350262, 0.000000000000000, 0.098235592246056, -0.108160257339478, 0.175726458430290, -0.082793533802032, 0.251610279083252, 0.368226826190948, 0.879271805286407, 0.035878323018551, 0.200528800487518, 0.075522817671299, -0.227191522717476
-0.240682631731033, 0.727533996105194, 0.508741557598114, 0.733380615711212, -0.009295973926783, 0.000000000000000, -0.120797954499722, 0.179282113909721, -0.098963461816311, 0.141575351357460, 0.093630529940128, 0.000000000000000, 0.097885891795158, -0.102612487971783, 0.172666311264038, -0.067108176648617, 0.252454996109009, 0.381005764007568, 0.888562679290771, 0.037780173122883, 0.203257575631142, 0.079429410398006, -0.220351547002792
-0.233863607048988, 0.725743055343628, 0.511198520660400, 0.739143311977386, -0.004401636309922, 0.000000000000000, -0.119403421878815, 0.179413035511971, -0.093593545258045, 0.140901595354080, 0.091739840805531, 0.000000000000000, 0.097474478185177, -0.098143450915813, 0.170542210340500, -0.051384285092354, 0.251790434122086, 0.393437534570694, 0.898651719093323, 0.039642263203859, 0.206414207816124, 0.083296298980713, -0.223231315612793
-0.228240147233009, 0.722575962543488, 0.514022588729858, 0.744110763072968, 0.000376215844881, 0.000000000000000, -0.118371166288853, 0.178090035915375, -0.088591977953911, 0.140917822718620, 0.089608602225780, 0.000000000000000, 0.098609030246735, -0.095508120954037, 0.170124799013138, -0.037101991474628, 0.250142902135849, 0.405597597360611, 0.908818423748016, 0.041495326906443, 0.209701791405678, 0.087189048528671, -0.235522806644440
-0.224990308284760, 0.718967914581299, 0.516974806785583, 0.747889637947083, 0.004809096921235, 0.000000000000000, -0.117974892258644, 0.175482407212257, -0.084023907780647, 0.141462892293930, 0.087287425994873, 0.000000000000000, 0.102046296000481, -0.096074201166630, 0.170893445611000, -0.025775069370866, 0.248047485947609, 0.417426437139511, 0.918145716190338, 0.043351873755455, 0.212732315063477, 0.091107167303562, -0.255660206079483
-0.224497497081757, 0.715698122978210, 0.519783198833466, 0.750405609607697, 0.008748366497457, 0.000000000000000, -0.118389084935188, 0.172102928161621, -0.079981580376625, 0.142462894320488, 0.084842272102833, 0.000000000000000, 0.106404460966587, -0.100402086973190, 0.171227380633354, -0.017989158630371, 0.245827034115791, 0.428798437118530, 0.926045000553131, 0.045199263840914, 0.215252801775932, 0.094996273517609, -0.279448658227921
-0.225417360663414, 0.713070631027222, 0.522045254707336, 0.752252161502838, 0.012278998270631, 0.000000000000000, -0.119343183934689, 0.168576240539551, -0.076549313962460, 0.144014120101929, 0.082394436001778, 0.000000000000000, 0.110801309347153, -0.106423228979111, 0.171385139226913, -0.012983216904104, 0.243578642606735, 0.439594805240631, 0.932478427886963, 0.047002114355564, 0.217245087027550, 0.098772227764130, -0.301733404397964
-0.226334869861603, 0.711110532283783, 0.523536503314972, 0.753937900066376, 0.015557200647891, 0.000000000000000, -0.120540790259838, 0.165321201086044, -0.073762163519859, 0.146175995469093, 0.080069996416569, 0.000000000000000, 0.114653944969177, -0.111957974731922, 0.171985059976578, -0.009804181754589, 0.241005033254623, 0.449527919292450, 0.937554955482483, 0.048685997724533, 0.218741670250893, 0.102255232632160, -0.318885564804077
-0.226925194263458, 0.709813416004181, 0.524348735809326, 0.755487978458405, 0.018637938424945, 0.000000000000000, -0.121854260563850, 0.162744596600533, -0.071660205721855, 0.148926898837090, 0.077975519001484, 0.000000000000000, 0.117881402373314, -0.117050066590309, 0.172663643956184, -0.008073179982603, 0.237571626901627, 0.458132147789001, 0.941253960132599, 0.050147172063589, 0.219703197479248, 0.105178110301495, -0.329143822193146
-0.227313175797462, 0.709245502948761, 0.524638712406158, 0.756833434104919, 0.021480968222022, 0.000000000000000, -0.123112671077251, 0.161197304725647, -0.070286765694618, 0.152258098125458, 0.076211608946323, 0.000000000000000, 0.121802054345608, -0.122881166636944, 0.173156067728996, -0.007672218605876, 0.233045816421509, 0.465028673410416, 0.943504631519318, 0.051299586892128, 0.220067515969276, 0.107314780354500, -0.332617282867432
-0.227610096335411, 0.709183156490326, 0.524642109870911, 0.758029758930206, 0.024080162867904, 0.000000000000000, -0.124543949961662, 0.160511374473572, -0.069572396576405, 0.155947133898735, 0.074835047125816, 0.000000000000000, 0.125952556729317, -0.126489341259003, 0.175023317337036, -0.008257701061666, 0.227707520127296, 0.470107227563858, 0.944358587265015, 0.052105594426394, 0.219840526580811, 0.108572244644165, -0.329784691333771
-0.227223038673401, 0.709545671939850, 0.524288952350616, 0.759471952915192, 0.026454059407115, 0.000000000000000, -0.126095846295357, 0.160699352622032, -0.069472104310989, 0.159905642271042, 0.073915816843510, 0.000000000000000, 0.127739027142525, -0.126253962516785, 0.177013635635376, -0.009450389072299, 0.222202748060226, 0.473508417606354, 0.943922162055969, 0.052579682320356, 0.219069480895996, 0.108995117247105, -0.321037232875824
-0.226482495665550, 0.710323750972748, 0.523653864860535, 0.761176049709320, 0.028537251055241, 0.000000000000000, -0.127454936504364, 0.161841973662376, -0.069964095950127, 0.164189025759697, 0.073512718081474, 0.000000000000000, 0.127570658922195, -0.123773269355297, 0.178205296397209, -0.011402004398406, 0.217074811458588, 0.475416183471680, 0.942199707031250, 0.052758425474167, 0.217761799693108, 0.108674570918083, -0.308975547552109
-0.226147428154945, 0.711287498474121, 0.522972583770752, 0.762975513935089, 0.030285749584436, 0.000000000000000, -0.128894850611687, 0.163671046495438, -0.070974171161652, 0.168612867593765, 0.073596164584160, 0.000000000000000, 0.126611679792404, -0.119951747357845, 0.179334744811058, -0.014377604238689, 0.212592035531998, 0.476036638021469, 0.939257383346558, 0.052687644958496, 0.215952888131142, 0.107726626098156, -0.297225385904312
-0.226826250553131, 0.712031841278076, 0.522499799728394, 0.764728188514709, 0.031721200793982, 0.000000000000000, -0.130954802036285, 0.165523245930672, -0.072359539568424, 0.172901377081871, 0.074040539562702, 0.000000000000000, 0.125567853450775, -0.114692434668541, 0.181676641106606, -0.018540367484093, 0.208687528967857, 0.475583076477051, 0.935293853282928, 0.052414815872908, 0.213735342025757, 0.106277994811535, -0.289577752351761
-0.228984430432320, 0.712309777736664, 0.522388696670532, 0.766276478767395, 0.032876171171665, 0.000000000000000, -0.134164586663246, 0.166706889867783, -0.073977582156658, 0.176827251911163, 0.074674263596535, 0.000000000000000, 0.124853961169720, -0.108181297779083, 0.186072260141373, -0.024064006283879, 0.205279886722565, 0.474321931600571, 0.930502414703369, 0.051999308168888, 0.211200639605522, 0.104486204683781, -0.289492070674896
-0.233092516660690, 0.712253868579865, 0.522655606269836, 0.767357707023621, 0.033747732639313, 0.000000000000000, -0.138708218932152, 0.166704475879669, -0.075715862214565, 0.180353015661240, 0.075361222028732, 0.000000000000000, 0.124201357364655, -0.101668208837509, 0.191672608256340, -0.031005484983325, 0.202725186944008, 0.472680717706680, 0.924964666366577, 0.051530312746763, 0.208396956324577, 0.102583393454552, -0.299376785755157
-0.239390626549721, 0.712349176406860, 0.523146331310272, 0.767713069915771, 0.034319031983614, 0.000000000000000, -0.144046366214752, 0.165669456124306, -0.077577427029610, 0.183816701173782, 0.076091252267361, 0.000000000000000, 0.124360054731369, -0.097237288951874, 0.196892574429512, -0.038668863475323, 0.201880052685738, 0.471329212188721, 0.918876171112061, 0.051126357167959, 0.205426231026649, 0.100894272327423, -0.318978905677795
-0.246343940496445, 0.713120520114899, 0.523252844810486, 0.767856299877167, 0.034698665142059, 0.000000000000000, -0.149182289838791, 0.164764970541000, -0.079759061336517, 0.187847167253494, 0.076978690922260, 0.000000000000000, 0.127208799123764, -0.096320055425167, 0.200616151094437, -0.045293554663658, 0.203725352883339, 0.471079111099243, 0.912768185138702, 0.050907358527184, 0.202534690499306, 0.099777184426785, -0.343022763729095
-0.252766817808151, 0.714589893817902, 0.522710859775543, 0.768093407154083, 0.035098511725664, 0.000000000000000, -0.153969407081604, 0.164439648389816, -0.082294285297394, 0.192726060748100, 0.078047677874565, 0.000000000000000, 0.128595650196075, -0.098794601857662, 0.199858635663986, -0.049415398389101, 0.208290129899979, 0.472321003675461, 0.907206833362579, 0.050918124616146, 0.199967607855797, 0.099391452968121, -0.364908903837204
-0.257914006710052, 0.716639041900635, 0.521434724330902, 0.768519878387451, 0.035731494426727, 0.000000000000000, -0.158467322587967, 0.164698228240013, -0.085145398974419, 0.198638305068016, 0.079278826713562, 0.000000000000000, 0.127130419015884, -0.103305369615555, 0.194508224725723, -0.050094548612833, 0.214792802929878, 0.475019931793213, 0.902744233608246, 0.051133900880814, 0.197949081659317, 0.099703066051006, -0.381529450416565
-0.261593490839005, 0.719318926334381, 0.519384086132050, 0.769065082073212, 0.036689545959234, 0.000000000000000, -0.162835955619812, 0.165870159864426, -0.088369451463223, 0.205708578228951, 0.080660730600357, 0.000000000000000, 0.123071640729904, -0.108599126338959, 0.185977503657341, -0.047194767743349, 0.222246870398521, 0.478857874870300, 0.899749815464020, 0.051491532474756, 0.196615114808083, 0.100555956363678, -0.391341090202332
-0.263902753591537, 0.722904860973358, 0.516448259353638, 0.769697070121765, 0.037910114973783, 0.000000000000000, -0.167093738913536, 0.168396234512329, -0.092057414352894, 0.214077264070511, 0.082193754613400, 0.000000000000000, 0.116080328822136, -0.113577917218208, 0.175621867179871, -0.041545066982508, 0.229883566498756, 0.483365774154663, 0.898296415805817, 0.051915384829044, 0.195969387888908, 0.101736359298229, -0.392687320709229
-0.264964878559113, 0.727707147598267, 0.512447774410248, 0.770546674728394, 0.039252907037735, 0.000000000000000, -0.171010509133339, 0.172465160489082, -0.096242815256119, 0.223909869790077, 0.083865135908127, 0.000000000000000, 0.106712058186531, -0.118111357092857, 0.164583787322044, -0.034320890903473, 0.237112879753113, 0.488041073083878, 0.898373007774353, 0.052327971905470, 0.195977315306664, 0.103016957640648, -0.384504675865173
-0.265790313482285, 0.733464539051056, 0.507629394531250, 0.771502792835236, 0.040596544742584, 0.000000000000000, -0.174625590443611, 0.177684634923935, -0.100820846855640, 0.235133275389671, 0.085565567016602, 0.000000000000000, 0.098332159221172, -0.122881777584553, 0.155146017670631, -0.026611497625709, 0.242963850498199, 0.492263823747635, 0.900002360343933, 0.052633736282587, 0.196612954139709, 0.104118235409260, -0.368385285139084
-0.267547667026520, 0.739317476749420, 0.502502024173737, 0.772473037242889, 0.041920110583305, 0.000000000000000, -0.178494021296501, 0.183308064937592, -0.105581939220428, 0.247396141290665, 0.087056301534176, 0.000000000000000, 0.092141546308994, -0.125109285116196, 0.150290399789810, -0.019540011882782, 0.246421575546265, 0.495430111885071, 0.902973532676697, 0.052748546004295, 0.197756886482239, 0.104780204594135, -0.347872555255890
-0.269928187131882, 0.744558990001678, 0.497094750404358, 0.774013936519623, 0.043297994881868, 0.000000000000000, -0.182525262236595, 0.188903927803040, -0.110351607203484, 0.260697573423386, 0.088114298880100, 0.000000000000000, 0.085987597703934, -0.123115181922913, 0.149287283420563, -0.014068396762013, 0.246965318918228, 0.497209727764130, 0.906851768493652, 0.052638027817011, 0.199213460087776, 0.104875728487968, -0.325503647327423
-0.272891342639923, 0.748517811298370, 0.491488426923752, 0.776505172252655, 0.044808052480221, 0.000000000000000, -0.186727449297905, 0.193893715739250, -0.114892162382603, 0.275019705295563, 0.088513925671577, 0.000000000000000, 0.080444552004337, -0.117474451661110, 0.152033075690269, -0.010892990976572, 0.244187116622925, 0.497440367937088, 0.911229968070984, 0.052293114364147, 0.200807869434357, 0.104352742433548, -0.304088115692139
-0.277096599340439, 0.750622570514679, 0.485921710729599, 0.779926002025604, 0.046491637825966, 0.000000000000000, -0.191891565918922, 0.197416856884956, -0.118891641497612, 0.289963692426682, 0.088018044829369, 0.000000000000000, 0.077212296426296, -0.108757145702839, 0.159653946757317, -0.010664365254343, 0.237881958484650, 0.496072560548782, 0.915628194808960, 0.051724836230278, 0.202338591217995, 0.103209674358368, -0.286547333002090
-0.283315509557724, 0.750806868076324, 0.480475574731827, 0.784111142158508, 0.048313267529011, 0.000000000000000, -0.198495060205460, 0.198723867535591, -0.122044727206230, 0.305225640535355, 0.086476050317287, 0.000000000000000, 0.079471535980701, -0.098985426127911, 0.172803342342377, -0.013955233618617, 0.228475868701935, 0.493267863988876, 0.919421672821045, 0.050981629639864, 0.203551173210144, 0.101539626717567, -0.276381224393845
-0.292425483465195, 0.749605417251587, 0.475062012672424, 0.788737297058105, 0.050149410963058, 0.000000000000000, -0.206259235739708, 0.197594895958900, -0.124157004058361, 0.320755332708359, 0.083872981369495, 0.000000000000000, 0.086902052164078, -0.090590961277485, 0.189339518547058, -0.020797027274966, 0.217233806848526, 0.489503413438797, 0.922010838985443, 0.050159458070993, 0.204214423894882, 0.099569700658321, -0.275455921888351
-0.304105848073959, 0.747835278511047, 0.469260215759277, 0.793946921825409, 0.051935438066721, 0.000000000000000, -0.215135589241982, 0.194367602467537, -0.125194936990738, 0.336254686117172, 0.080298781394958, 0.000000000000000, 0.091202765703201, -0.082859583199024, 0.204442396759987, -0.029744245111942, 0.205959707498550, 0.485600233078003, 0.923312008380890, 0.049388673156500, 0.204329982399940, 0.097656168043613, -0.279213994741440
-0.316240966320038, 0.746574342250824, 0.462188571691513, 0.800618052482605, 0.053698986768723, 0.000000000000000, -0.223799973726273, 0.190226033329964, -0.125358641147614, 0.351782888174057, 0.076103851199150, 0.000000000000000, 0.099408678710461, -0.080419316887856, 0.216450914740562, -0.038442101329565, 0.196147263050079, 0.482381343841553, 0.923770070075989, 0.048781134188175, 0.204122424125671, 0.096135810017586, -0.286561161279678
-0.328121393918991, 0.746267735958099, 0.453747570514679, 0.808763444423676, 0.055500172078609, 0.000000000000000, -0.231685355305672, 0.185678705573082, -0.124705038964748, 0.366839230060577, 0.071579948067665, 0.000000000000000, 0.111450351774693, -0.084176123142242, 0.223457217216492, -0.045499231666327, 0.188424959778786, 0.480220615863800, 0.923725247383118, 0.048381961882114, 0.203750088810921, 0.095150075852871, -0.296872913837433
-0.340143740177155, 0.746766269207001, 0.444509953260422, 0.817662656307220, 0.057435680180788, 0.000000000000000, -0.238986939191818, 0.181232169270515, -0.123397089540958, 0.380435019731522, 0.066987231373787, 0.000000000000000, 0.124291621148586, -0.090935699641705, 0.225841805338860, -0.050624430179596, 0.182729512453079, 0.479085683822632, 0.923311650753021, 0.048179075121880, 0.203266009688377, 0.094667911529541, -0.307752400636673
-0.352174639701843, 0.747795879840851, 0.435054153203964, 0.826568663120270, 0.059706345200539, 0.000000000000000, -0.245764270424843, 0.177616938948631, -0.121732808649540, 0.391716599464417, 0.062582224607468, 0.000000000000000, 0.137116193771362, -0.098232753574848, 0.225015372037888, -0.053792208433151, 0.178605169057846, 0.478770285844803, 0.922745704650879, 0.048129737377167, 0.202751815319061, 0.094579480588436, -0.317137986421585
-0.363642781972885, 0.749162197113037, 0.425847828388214, 0.834658324718475, 0.062589697539806, 0.000000000000000, -0.252114683389664, 0.175635293126106, -0.120067499577999, 0.400114089250565, 0.058500949293375, 0.000000000000000, 0.149329677224159, -0.104530893266201, 0.222108125686646, -0.054833766072989, 0.175511896610260, 0.479069530963898, 0.922416329383850, 0.048185691237450, 0.202363342046738, 0.094771981239319, -0.323544770479202
-0.373990327119827, 0.750684976577759, 0.417344152927399, 0.841135323047638, 0.066206268966198, 0.000000000000000, -0.257835596799850, 0.175588831305504, -0.118628628551960, 0.405538737773895, 0.055018950253725, 0.000000000000000, 0.160014778375626, -0.108621694147587, 0.218103408813477, -0.053494703024626, 0.173006609082222, 0.479832708835602, 0.922790348529816, 0.048304859548807, 0.202292323112488, 0.095156222581863, -0.325742959976196
-0.381905496120453, 0.752557992935181, 0.409559071063995, 0.845988035202026, 0.070286005735397, 0.000000000000000, -0.261624187231064, 0.176766321063042, -0.117318257689476, 0.408680081367493, 0.052865426987410, 0.000000000000000, 0.167924404144287, -0.110102124512196, 0.213456422090530, -0.049696128815413, 0.170769661664963, 0.480923533439636, 0.924252927303314, 0.048450030386448, 0.202697068452835, 0.095652736723423, -0.323091506958008
-0.386956185102463, 0.754403948783875, 0.402785092592239, 0.849265813827515, 0.074607156217098, 0.000000000000000, -0.263768762350082, 0.178825050592422, -0.116111196577549, 0.409664988517761, 0.052096195518970, 0.000000000000000, 0.172761872410774, -0.109021283686161, 0.209031894803047, -0.043851450085640, 0.168645948171616, 0.482221990823746, 0.926866233348846, 0.048599105328321, 0.203600034117699, 0.096205629408360, -0.316123008728027
-0.389410227537155, 0.755589127540588, 0.397409707307816, 0.851042032241821, 0.078981205821037, 0.000000000000000, -0.264899462461472, 0.181574657559395, -0.114981330931187, 0.408614307641983, 0.052358757704496, 0.000000000000000, 0.174869865179062, -0.106334917247295, 0.205368801951408, -0.036808304488659, 0.166564658284187, 0.483596503734589, 0.930406033992767, 0.048738840967417, 0.204902574419975, 0.096766971051693, -0.307172030210495
-0.390064924955368, 0.755489826202393, 0.393793791532516, 0.851445615291595, 0.083166152238846, 0.000000000000000, -0.265559852123260, 0.184484943747520, -0.113761842250824, 0.405775368213654, 0.053239725530148, 0.000000000000000, 0.175205945968628, -0.102404385805130, 0.203634366393089, -0.029345283284783, 0.164530038833618, 0.484962344169617, 0.934596657752991, 0.048865094780922, 0.206487700343132, 0.097312338650227, -0.298577487468719
-0.389490634202957, 0.753635168075562, 0.392075836658478, 0.850801885128021, 0.087024889886379, 0.000000000000000, -0.266421586275101, 0.187033295631409, -0.112271457910538, 0.401324927806854, 0.054349467158318, 0.000000000000000, 0.175328448414803, -0.098110683262348, 0.204426616430283, -0.021773900836706, 0.162789374589920, 0.486387968063354, 0.939226746559143, 0.048996254801750, 0.208274200558662, 0.097885139286518, -0.291559368371964
-0.387540519237518, 0.750385880470276, 0.391774296760559, 0.849638283252716, 0.090510815382004, 0.000000000000000, -0.267021864652634, 0.188948526978493, -0.110412009060383, 0.395824551582336, 0.055524352937937, 0.000000000000000, 0.175787031650543, -0.095156893134117, 0.206391513347626, -0.014358834363520, 0.161911234259605, 0.488053858280182, 0.943955063819885, 0.049174483865499, 0.210130617022514, 0.098586380481720, -0.286464899778366
-0.385088562965393, 0.746246695518494, 0.392601668834686, 0.847955942153931, 0.093530975282192, 0.000000000000000, -0.266760945320129, 0.190263956785202, -0.108205839991570, 0.389817267656326, 0.056757632642984, 0.000000000000000, 0.175919070839882, -0.093852341175079, 0.208080738782883, -0.007627070881426, 0.162383154034615, 0.490067511796951, 0.948304057121277, 0.049435514956713, 0.211864039301872, 0.099489733576775, -0.283192366361618
-0.383375942707062, 0.741556704044342, 0.394525289535522, 0.845513939857483, 0.096019446849823, 0.000000000000000, -0.266034305095673, 0.190964236855507, -0.105635404586792, 0.383466482162476, 0.058039709925652, 0.000000000000000, 0.176248401403427, -0.094725593924522, 0.208550512790680, -0.001808131230064, 0.164361163973808, 0.492436021566391, 0.951979935169220, 0.049790088087320, 0.213355317711830, 0.100611776113510, -0.282438039779663
-0.382561445236206, 0.737264096736908, 0.397038996219635, 0.842484295368195, 0.097903184592724, 0.000000000000000, -0.265115290880203, 0.191055387258530, -0.102653309702873, 0.377046704292297, 0.059406545013189, 0.000000000000000, 0.176922410726547, -0.097916148602962, 0.206937834620476, 0.003304895479232, 0.167949423193932, 0.495149850845337, 0.954879164695740, 0.050235480070114, 0.214564785361290, 0.101945586502552, -0.284399658441544
-0.382101953029633, 0.734354734420776, 0.399510085582733, 0.839298546314240, 0.099139504134655, 0.000000000000000, -0.264334887266159, 0.190880089998245, -0.099306605756283, 0.370850354433060, 0.060872521251440, 0.000000000000000, 0.177170485258102, -0.102974332869053, 0.202522933483124, 0.008176775649190, 0.173109948635101, 0.498158752918243, 0.957054257392883, 0.050753645598888, 0.215516865253448, 0.103454448282719, -0.288318336009979
-0.381329745054245, 0.733315885066986, 0.401573777198792, 0.836360633373260, 0.099740400910378, 0.000000000000000, -0.263928383588791, 0.191196799278259, -0.095763452351093, 0.365171194076538, 0.062511809170246, 0.000000000000000, 0.175861448049545, -0.109218791127205, 0.194639146327972, 0.013526396825910, 0.179585546255112, 0.501369595527649, 0.958720147609711, 0.051311444491148, 0.216302618384361, 0.105073191225529, -0.292685955762863
-0.379364430904388, 0.734352588653564, 0.402971148490906, 0.834113717079163, 0.099744513630867, 0.000000000000000, -0.263446867465973, 0.192755669355392, -0.092190049588680, 0.360483109951019, 0.064526475965977, 0.000000000000000, 0.171693980693817, -0.115192770957947, 0.183038532733917, 0.020173266530037, 0.187016040086746, 0.504663348197937, 0.960159718990326, 0.051867410540581, 0.217040166258812, 0.106720201671124, -0.295045137405396
-0.375629603862762, 0.737690746784210, 0.403460353612900, 0.832875907421112, 0.099123291671276, 0.000000000000000, -0.262294679880142, 0.195498526096344, -0.088507711887360, 0.357269316911697, 0.067171901464462, 0.000000000000000, 0.164095580577850, -0.120278544723988, 0.167418882250786, 0.028436934575438, 0.194840744137764, 0.507802367210388, 0.961532652378082, 0.052364133298397, 0.217787891626358, 0.108263880014420, -0.293241888284683
-0.371234267950058, 0.742621362209320, 0.403575181961060, 0.832228839397430, 0.097881920635700, 0.000000000000000, -0.261763453483582, 0.198662355542183, -0.084443747997284, 0.355257868766785, 0.070390760898590, 0.000000000000000, 0.154362320899963, -0.125538602471352, 0.148390918970108, 0.037464868277311, 0.201767981052399, 0.510224461555481, 0.962784767150879, 0.052697632461786, 0.218494266271591, 0.109433420002460, -0.288367867469788
-0.367140889167786, 0.746954083442688, 0.404475510120392, 0.831731081008911, 0.096438631415367, 0.000000000000000, -0.263556152582169, 0.202247217297554, -0.080091461539268, 0.353889316320419, 0.073622979223728, 0.000000000000000, 0.143332496285439, -0.126460015773773, 0.131984561681747, 0.045878853648901, 0.206221967935562, 0.511256992816925, 0.963828563690186, 0.052747458219528, 0.219085797667503, 0.109910055994987, -0.282539963722229
-0.363389372825623, 0.750107705593109, 0.406229287385941, 0.831301331520081, 0.095039501786232, 0.000000000000000, -0.266792297363281, 0.206324115395546, -0.075589418411255, 0.353562772274017, 0.076599888503551, 0.000000000000000, 0.131617590785027, -0.122596003115177, 0.119864538311958, 0.052488576620817, 0.208339765667915, 0.510762870311737, 0.964306771755219, 0.052501898258924, 0.219404175877571, 0.109644703567028, -0.277020394802094
-0.359506130218506, 0.752335786819458, 0.408325701951981, 0.831192553043365, 0.093772783875465, 0.000000000000000, -0.270341306924820, 0.210517317056656, -0.070896342396736, 0.354699194431305, 0.079209879040718, 0.000000000000000, 0.119824290275574, -0.116190172731876, 0.110870726406574, 0.056796304881573, 0.208939701318741, 0.508966028690338, 0.964075922966003, 0.052010398358107, 0.219405442476273, 0.108763091266155, -0.273407191038132
-0.355150401592255, 0.753566026687622, 0.410442113876343, 0.831718206405640, 0.092720068991184, 0.000000000000000, -0.273895502090454, 0.214235827326775, -0.065873026847839, 0.357289254665375, 0.081333883106709, 0.000000000000000, 0.108556725084782, -0.108408719301224, 0.104805856943130, 0.058697868138552, 0.208565384149551, 0.506122827529907, 0.963242053985596, 0.051322441548109, 0.219154611229897, 0.107404306530952, -0.273062556982040
-0.350349217653275, 0.753428161144257, 0.412512600421906, 0.833069562911987, 0.091955043375492, 0.000000000000000, -0.277689725160599, 0.216747626662254, -0.060319472104311, 0.361012190580368, 0.082850083708763, 0.000000000000000, 0.098583854734898, -0.099610321223736, 0.102328829467297, 0.058061454445124, 0.207391291856766, 0.502397656440735, 0.961905717849731, 0.050472889095545, 0.218708470463753, 0.105664886534214, -0.276794701814651
-0.345584332942963, 0.751569092273712, 0.414620101451874, 0.835190892219543, 0.091512687504292, 0.000000000000000, -0.282375544309616, 0.217392727732658, -0.054057352244854, 0.365287274122238, 0.083627499639988, 0.000000000000000, 0.090881504118443, -0.089691594243050, 0.104771770536900, 0.054427739232779, 0.205411627888680, 0.497859269380569, 0.959960579872131, 0.049488201737404, 0.218028143048286, 0.103602737188339, -0.284859091043472
-0.342399299144745, 0.747976005077362, 0.417019903659821, 0.837424814701080, 0.091298624873161, 0.000000000000000, -0.288561850786209, 0.215773344039917, -0.047000627964735, 0.369467616081238, 0.083563245832920, 0.000000000000000, 0.087156824767590, -0.079610101878643, 0.113565906882286, 0.046932298690081, 0.202638491988182, 0.492517471313477, 0.957010090351105, 0.048395384103060, 0.216945126652718, 0.101256251335144, -0.297357678413391
-0.342746764421463, 0.743155717849731, 0.419929981231689, 0.838812112808228, 0.091101408004761, 0.000000000000000, -0.295669436454773, 0.212047144770622, -0.039239324629307, 0.373384445905685, 0.082744553685188, 0.000000000000000, 0.089080199599266, -0.073695987462997, 0.127326905727386, 0.035037431865931, 0.199292644858360, 0.486464619636536, 0.952633917331696, 0.047235190868378, 0.215282008051872, 0.098698258399963, -0.313623040914536
-0.345162510871887, 0.737877428531647, 0.422737032175064, 0.839959859848022, 0.090938009321690, 0.000000000000000, -0.302136451005936, 0.207660794258118, -0.031248284503818, 0.377352654933929, 0.081545397639275, 0.000000000000000, 0.094464100897312, -0.073606394231319, 0.142085388302803, 0.019961774349213, 0.195979058742523, 0.480102360248566, 0.946972668170929, 0.046077571809292, 0.213114470243454, 0.096116282045841, -0.329420715570450
-0.347519814968109, 0.732576310634613, 0.424942255020142, 0.841600179672241, 0.090942747890949, 0.000000000000000, -0.307853400707245, 0.203551530838013, -0.023312451317906, 0.381278842687607, 0.080222941935062, 0.000000000000000, 0.101131133735180, -0.077550560235977, 0.155536815524101, 0.003715906525031, 0.193214759230614, 0.473851919174194, 0.940523684024811, 0.044977460056543, 0.210668399930000, 0.093681178987026, -0.342742562294006
-0.349507600069046, 0.727464020252228, 0.426638901233673, 0.843508720397949, 0.091103099286556, 0.000000000000000, -0.313333779573441, 0.199769705533981, -0.015449051745236, 0.384983599185944, 0.078894093632698, 0.000000000000000, 0.108157433569431, -0.084181070327759, 0.166398257017136, -0.012378083541989, 0.191148668527603, 0.467874437570572, 0.933642148971558, 0.043946467339993, 0.208094432950020, 0.091438777744770, -0.353766620159149
-0.351171046495438, 0.722741305828094, 0.427992373704910, 0.845308721065521, 0.091344796121120, 0.000000000000000, -0.318822324275970, 0.196476459503174, -0.007729211356491, 0.388433575630188, 0.077688418328762, 0.000000000000000, 0.114691764116287, -0.092325687408447, 0.173907607793808, -0.027506517246366, 0.189729630947113, 0.462166965007782, 0.926579594612122, 0.042970936745405, 0.205490738153458, 0.089359849691391, -0.362343460321426
-0.351982384920120, 0.718579769134521, 0.428997159004211, 0.846969604492188, 0.091624021530151, 0.000000000000000, -0.324172437191010, 0.194162845611572, -0.000332713883836, 0.391720503568649, 0.076802708208561, 0.000000000000000, 0.119534373283386, -0.100355044007301, 0.177709370851517, -0.040739234536886, 0.188966423273087, 0.456747174263000, 0.919690430164337, 0.042036958038807, 0.203000411391258, 0.087420664727688, -0.367445349693298
-0.351166844367981, 0.715058207511902, 0.429570734500885, 0.848740398883820, 0.091903477907181, 0.000000000000000, -0.329290181398392, 0.193350076675415, 0.006555349566042, 0.394918233156204, 0.076402187347412, 0.000000000000000, 0.121724739670753, -0.106835573911667, 0.177751466631889, -0.050912164151669, 0.188994616270065, 0.451703518629074, 0.913485169410706, 0.041137464344501, 0.200836896896362, 0.085625544190407, -0.367739826440811
-0.348797917366028, 0.712021052837372, 0.429894089698792, 0.850610435009003, 0.092122472822666, 0.000000000000000, -0.334506779909134, 0.194199949502945, 0.012854411266744, 0.397966474294662, 0.076517529785633, 0.000000000000000, 0.121136151254177, -0.112862393260002, 0.172619104385376, -0.057239100337029, 0.189821258187294, 0.447048783302307, 0.908403098583221, 0.040257990360260, 0.199182122945786, 0.083953045308590, -0.364402115345001
-0.345691353082657, 0.709399461746216, 0.430238008499146, 0.852250635623932, 0.092188529670238, 0.000000000000000, -0.339948236942291, 0.196377113461494, 0.018566019833088, 0.400863617658615, 0.077131122350693, 0.000000000000000, 0.117512241005898, -0.118160389363766, 0.162540361285210, -0.060075204819441, 0.191188275814056, 0.442599415779114, 0.904453694820404, 0.039371103048325, 0.198029726743698, 0.082319319248199, -0.360397279262543
-0.342988371849060, 0.707109332084656, 0.430917412042618, 0.853145658969879, 0.092049233615398, 0.000000000000000, -0.346499115228653, 0.199505433440208, 0.023670434951782, 0.403212696313858, 0.078114315867424, 0.000000000000000, 0.112056024372578, -0.118212774395943, 0.154399186372757, -0.060465581715107, 0.192759245634079, 0.438122093677521, 0.901382863521576, 0.038453370332718, 0.197261035442352, 0.080637164413929, -0.355184525251389
-0.340843081474304, 0.705164015293121, 0.431884258985519, 0.853272378444672, 0.091738484799862, 0.000000000000000, -0.353475213050842, 0.203208014369011, 0.028116168454289, 0.405278384685516, 0.079383887350559, 0.000000000000000, 0.105348348617554, -0.113858990371227, 0.149179533123970, -0.059444501996040, 0.194366380572319, 0.433529824018478, 0.898966491222382, 0.037505298852921, 0.196777939796448, 0.078891113400459, -0.349784493446350
-0.338954240083694, 0.703498780727386, 0.432955652475357, 0.852848887443542, 0.091332688927650, 0.000000000000000, -0.359998971223831, 0.207083329558372, 0.031883936375380, 0.407391339540482, 0.080789379775524, 0.000000000000000, 0.097756892442703, -0.107502132654190, 0.145578607916832, -0.057622488588095, 0.196093544363976, 0.428935676813126, 0.897128582000732, 0.036554001271725, 0.196554005146027, 0.077151954174042, -0.346401840448380
-0.337115079164505, 0.701847612857819, 0.434023618698120, 0.852088987827301, 0.090901643037796, 0.000000000000000, -0.365761309862137, 0.210477709770203, 0.035070836544037, 0.409619748592377, 0.082103051245213, 0.000000000000000, 0.089967504143715, -0.100443594157696, 0.143463537096977, -0.055474124848843, 0.198040261864662, 0.424490600824356, 0.895795643329620, 0.035631991922855, 0.196566209197044, 0.075507119297981, -0.346841275691986
-0.335341662168503, 0.699827492237091, 0.435056895017624, 0.851163029670715, 0.090475082397461, 0.000000000000000, -0.370838254690170, 0.212618395686150, 0.037840045988560, 0.411861300468445, 0.083096176385880, 0.000000000000000, 0.082850731909275, -0.093595787882805, 0.143343582749367, -0.053619418293238, 0.200117066502571, 0.420246571302414, 0.894778668880463, 0.034759547561407, 0.196739688515663, 0.074003309011459, -0.352314323186874
-0.333989202976227, 0.697077453136444, 0.436089485883713, 0.850111067295074, 0.090026341378689, 0.000000000000000, -0.375583708286285, 0.212841510772705, 0.040345549583435, 0.413900613784790, 0.083593495190144, 0.000000000000000, 0.077376812696457, -0.087601244449615, 0.146126747131348, -0.052842009812593, 0.202130451798439, 0.416163772344589, 0.893736600875854, 0.033945910632610, 0.196931391954422, 0.072648324072361, -0.363261252641678
-0.333917468786240, 0.693400561809540, 0.437241554260254, 0.848674535751343, 0.089464701712132, 0.000000000000000, -0.380456238985062, 0.210779771208763, 0.042670503258705, 0.415495514869690, 0.083493351936340, 0.000000000000000, 0.074714444577694, -0.082491457462311, 0.153356805443764, -0.054091241210699, 0.203997164964676, 0.412165969610214, 0.892133474349976, 0.033197481185198, 0.196912512183189, 0.071433290839195, -0.379188805818558
-0.336420178413391, 0.689023375511169, 0.438625305891037, 0.846267998218536, 0.088619053363800, 0.000000000000000, -0.385533899068832, 0.206471487879753, 0.044791750609875, 0.416644990444183, 0.082769736647606, 0.000000000000000, 0.075754910707474, -0.079826876521111, 0.164685070514679, -0.058108199387789, 0.205676168203354, 0.408168673515320, 0.889470815658569, 0.032515663653612, 0.196468949317932, 0.070338338613510, -0.398709952831268
-0.341495662927628, 0.684325695037842, 0.440080255270004, 0.842833459377289, 0.087392598390579, 0.000000000000000, -0.390270918607712, 0.200607001781464, 0.046505581587553, 0.417730182409286, 0.081520229578018, 0.000000000000000, 0.079237028956413, -0.082966774702072, 0.174900367856026, -0.064204767346382, 0.207363322377205, 0.404310226440430, 0.885846197605133, 0.031915865838528, 0.195648059248924, 0.069415323436260, -0.418842107057571
-0.346936166286469, 0.679411411285400, 0.441140562295914, 0.839324653148651, 0.085873059928417, 0.000000000000000, -0.394418537616730, 0.194544807076454, 0.047417219728231, 0.419066369533539, 0.079932287335396, 0.000000000000000, 0.083055809140205, -0.088454857468605, 0.183141008019447, -0.069949924945831, 0.209583222866058, 0.401017844676971, 0.882089316844940, 0.031433325260878, 0.194819226861000, 0.068811215460300, -0.435054510831833
-0.351860135793686, 0.674405395984650, 0.441719144582748, 0.835901677608490, 0.084066383540630, 0.000000000000000, -0.398494422435760, 0.188740223646164, 0.047445170581341, 0.420733779668808, 0.078096754848957, 0.000000000000000, 0.085870668292046, -0.094535604119301, 0.188123315572739, -0.073654942214489, 0.212397992610931, 0.398406535387039, 0.878805458545685, 0.031062364578247, 0.194246426224709, 0.068543612957001, -0.446659654378891
-0.356343597173691, 0.669496655464172, 0.441920638084412, 0.832234263420105, 0.081888981163502, 0.000000000000000, -0.402995735406876, 0.183203488588333, 0.046632722020149, 0.422776043415070, 0.076061598956585, 0.000000000000000, 0.086912609636784, -0.100706771016121, 0.189013794064522, -0.074749082326889, 0.215412825345993, 0.396252542734146, 0.876212894916534, 0.030758574604988, 0.194019630551338, 0.068498909473419, -0.453888446092606
-0.360436052083969, 0.664820909500122, 0.441818267107010, 0.828070640563965, 0.079245820641518, 0.000000000000000, -0.408247143030167, 0.178052932024002, 0.044957056641579, 0.425193190574646, 0.073877394199371, 0.000000000000000, 0.085603587329388, -0.105991311371326, 0.186290726065636, -0.073009282350540, 0.218165308237076, 0.394255757331848, 0.874433040618896, 0.030469736084342, 0.194186806678772, 0.068536415696144, -0.455944180488586
-0.363971978425980, 0.660426259040833, 0.441412866115570, 0.823343455791473, 0.076065890491009, 0.000000000000000, -0.414400011301041, 0.173455581068993, 0.042340401560068, 0.427963316440582, 0.071612924337387, 0.000000000000000, 0.081408679485321, -0.109069496393204, 0.180913642048836, -0.068147718906403, 0.220414072275162, 0.392220646142960, 0.873627781867981, 0.030158193781972, 0.194817662239075, 0.068560741841793, -0.451305985450745
-0.366601526737213, 0.656286776065826, 0.440629869699478, 0.818152189254761, 0.072314701974392, 0.000000000000000, -0.421330809593201, 0.169436499476433, 0.038711957633495, 0.431108564138412, 0.069342516362667, 0.000000000000000, 0.073972843587399, -0.108833849430084, 0.173593148589134, -0.059879500418901, 0.222181290388107, 0.390089422464371, 0.873942017555237, 0.029807545244694, 0.195980221033096, 0.068538814783096, -0.438583403825760
-0.368365854024887, 0.652303457260132, 0.439459860324860, 0.812477052211761, 0.067972429096699, 0.000000000000000, -0.428857594728470, 0.165733650326729, 0.034065667539835, 0.434616029262543, 0.067079834640026, 0.000000000000000, 0.063680000603199, -0.105891607701778, 0.164183333516121, -0.048465274274349, 0.223484098911285, 0.387793093919754, 0.875277400016785, 0.029407935217023, 0.197640284895897, 0.068445801734924, -0.418173611164093
-0.370073199272156, 0.648298382759094, 0.438056558370590, 0.805995464324951, 0.063020795583725, 0.000000000000000, -0.436942279338837, 0.161839842796326, 0.028441617265344, 0.438332706689835, 0.064756602048874, 0.000000000000000, 0.051696497946978, -0.101957745850086, 0.152815893292427, -0.035140033811331, 0.224288612604141, 0.385174423456192, 0.877093672752380, 0.028949592262506, 0.199573189020157, 0.068236887454987, -0.392636150121689
-0.372671812772751, 0.643969476222992, 0.436614185571671, 0.798379600048065, 0.057490110397339, 0.000000000000000, -0.445692777633667, 0.157300770282745, 0.021826084703207, 0.441912412643433, 0.062279470264912, 0.000000000000000, 0.039356388151646, -0.098106145858765, 0.140959605574608, -0.021728904917836, 0.224732384085655, 0.382090687751770, 0.878553688526154, 0.028432510793209, 0.201426938176155, 0.067882023751736, -0.365091472864151
-0.376916557550430, 0.639006853103638, 0.435236483812332, 0.789382696151733, 0.051458079367876, 0.000000000000000, -0.455088645219803, 0.151850596070290, 0.014128118753433, 0.444952726364136, 0.059584844857454, 0.000000000000000, 0.027727419510484, -0.094890549778938, 0.130389481782913, -0.010036867111921, 0.225147962570190, 0.378469705581665, 0.878797948360443, 0.027866860851645, 0.202840179204941, 0.067378938198090, -0.338160693645477
-0.382940560579300, 0.633293330669403, 0.433745622634888, 0.778950452804565, 0.045035220682621, 0.000000000000000, -0.464605122804642, 0.145268321037292, 0.005263909231871, 0.447270184755325, 0.056656964123249, 0.000000000000000, 0.017602851614356, -0.092711903154850, 0.122217841446400, -0.001277206232771, 0.225907653570175, 0.374313473701477, 0.877219796180725, 0.027266891673207, 0.203560084104538, 0.066747672855854, -0.313211023807526
-0.390463769435883, 0.626798570156097, 0.431803137063980, 0.767128229141235, 0.038330428302288, 0.000000000000000, -0.473633766174316, 0.137318119406700, -0.004781614989042, 0.448844939470291, 0.053482789546251, 0.000000000000000, 0.009737597778440, -0.092254586517811, 0.116352528333664, 0.004116530530155, 0.227197811007500, 0.369644492864609, 0.873581707477570, 0.026640819385648, 0.203491538763046, 0.066007100045681, -0.290546178817749
-0.399434357881546, 0.619389057159424, 0.429183065891266, 0.753910064697266, 0.031386133283377, 0.000000000000000, -0.481877714395523, 0.127984061837196, -0.016032153740525, 0.449698477983475, 0.050037611275911, 0.000000000000000, 0.004734082147479, -0.093755654990673, 0.112681157886982, 0.006131191272289, 0.228938356041908, 0.364430546760559, 0.867860913276672, 0.025983728468418, 0.202628195285797, 0.065147899091244, -0.269783616065979
-0.409841746091843, 0.610924065113068, 0.425735414028168, 0.739376604557037, 0.024183740839362, 0.000000000000000, -0.489211082458496, 0.117407783865929, -0.028518052771688, 0.449941068887711, 0.046286776661873, 0.000000000000000, 0.002828110242262, -0.096767604351044, 0.111260861158371, 0.005004419945180, 0.230846613645554, 0.358572334051132, 0.860149383544922, 0.025278173387051, 0.201008513569832, 0.064128980040550, -0.250356316566467
-0.421406984329224, 0.601434528827667, 0.421282917261124, 0.723718047142029, 0.016718454658985, 0.000000000000000, -0.495531678199768, 0.105701111257076, -0.042223654687405, 0.449759364128113, 0.042199637740850, 0.000000000000000, 0.003867951920256, -0.100455105304718, 0.111950583755970, 0.001175267971121, 0.232544273138046, 0.351919770240784, 0.850617766380310, 0.024497518315911, 0.198700547218323, 0.062884360551834, -0.231766134500504
-0.433696299791336, 0.591079175472260, 0.415682554244995, 0.707075655460358, 0.009065098129213, 0.000000000000000, -0.500941514968872, 0.093038350343704, -0.057131014764309, 0.449240744113922, 0.037782873958349, 0.000000000000000, 0.007423853036016, -0.103927567601204, 0.114473007619381, -0.004850686062127, 0.233670830726624, 0.344300091266632, 0.839469134807587, 0.023611903190613, 0.195782601833344, 0.061336781829596, -0.213508769869804
-0.446350842714310, 0.579983711242676, 0.408916413784027, 0.689480304718018, 0.001363571849652, 0.000000000000000, -0.505649507045746, 0.079662464559078, -0.073236674070358, 0.448353976011276, 0.033120244741440, 0.000000000000000, 0.012960910797119, -0.106545336544514, 0.118429861962795, -0.012603625655174, 0.233973458409309, 0.335575580596924, 0.826907277107239, 0.022598614916205, 0.192331284284592, 0.059425428509712, -0.195108711719513
-0.459222197532654, 0.568178296089172, 0.401080667972565, 0.670923352241516, -0.006260741036385, 0.000000000000000, -0.509729564189911, 0.065723694860935, -0.090497389435768, 0.447038710117340, 0.028378808870912, 0.000000000000000, 0.020008115097880, -0.108015894889832, 0.123279407620430, -0.021585088223219, 0.233322530984879, 0.325697481632233, 0.813175678253174, 0.021449198946357, 0.188440114259720, 0.057128906250000, -0.176257029175758
-0.472403228282928, 0.555558562278748, 0.392347961664200, 0.651392281055450, -0.013708700425923, 0.000000000000000, -0.513182222843170, 0.051253747195005, -0.108818538486958, 0.445203840732574, 0.023785719648004, 0.000000000000000, 0.028266157954931, -0.108273178339005, 0.128506451845169, -0.031128501519561, 0.231673359870911, 0.314720004796982, 0.798626422882080, 0.020168831571937, 0.184249594807625, 0.054467778652906, -0.156875565648079
-0.486141592264175, 0.541885077953339, 0.382925629615784, 0.630860984325409, -0.020846540108323, 0.000000000000000, -0.516177237033844, 0.036283120512962, -0.128097191452980, 0.442667365074158, 0.019614391028881, 0.000000000000000, 0.037538811564445, -0.107298068702221, 0.133736684918404, -0.040499355643988, 0.229083746671677, 0.302788585424423, 0.783667206764221, 0.018773766234517, 0.179923415184021, 0.051496878266335, -0.137217879295349
-0.500755786895752, 0.526917338371277, 0.372980028390884, 0.609292745590210, -0.027491718530655, 0.000000000000000, -0.519104957580566, 0.020910982042551, -0.148247286677361, 0.439176678657532, 0.016177786514163, 0.000000000000000, 0.047517187893391, -0.105002991855145, 0.138697206974030, -0.049149252474308, 0.225834101438522, 0.290149718523026, 0.768622100353241, 0.017293021082878, 0.175587624311447, 0.048307266086340, -0.118080623447895
-0.516585469245911, 0.510568857192993, 0.362563550472260, 0.586643934249878, -0.033394873142242, 0.000000000000000, -0.522309124469757, 0.005347267258912, -0.169204905629158, 0.434575557708740, 0.013789615593851, 0.000000000000000, 0.057961460202932, -0.101599253714085, 0.143108725547791, -0.056582562625408, 0.222274005413055, 0.277119815349579, 0.753851473331451, 0.015761755406857, 0.171379595994949, 0.045011840760708, -0.100851789116859
-0.533757925033569, 0.493000447750092, 0.351548165082932, 0.562925517559052, -0.038175471127033, 0.000000000000000, -0.525746464729309, -0.010083911940455, -0.190915852785110, 0.428975105285645, 0.012746609747410, 0.000000000000000, 0.069296851754189, -0.098158337175846, 0.146227434277534, -0.062302049249411, 0.218796774744987, 0.264075785875320, 0.739810943603516, 0.014218509197235, 0.167471349239349, 0.041739359498024, -0.086730614304543
-0.552103877067566, 0.474639505147934, 0.339629948139191, 0.538201630115509, -0.041293293237686, 0.000000000000000, -0.529533505439758, -0.025030188262463, -0.213338881731033, 0.422488212585449, 0.013302302919328, 0.000000000000000, 0.081966780126095, -0.095691107213497, 0.147506728768349, -0.065941490232944, 0.215861171483994, 0.251416742801666, 0.726998567581177, 0.012701093219221, 0.164046466350555, 0.038619834929705, -0.075119100511074
-0.571808755397797, 0.455961614847183, 0.326525598764420, 0.512410759925842, -0.042183216661215, 0.000000000000000, -0.534511744976044, -0.039137024432421, -0.236481398344040, 0.414981931447983, 0.015615240670741, 0.000000000000000, 0.095681279897690, -0.094175629317760, 0.147937759757042, -0.067795895040035, 0.214022174477577, 0.239496737718582, 0.715700089931488, 0.011242794804275, 0.161189943552017, 0.035764176398516, -0.064972758293152
-0.593627631664276, 0.437428683042526, 0.312042921781540, 0.485425949096680, -0.040474046021700, 0.000000000000000, -0.541046380996704, -0.052132636308670, -0.260313272476196, 0.406636863946915, 0.019750922918320, 0.000000000000000, 0.110029034316540, -0.093368671834469, 0.149092242121696, -0.069075614213943, 0.213667929172516, 0.228496447205544, 0.705857634544373, 0.009861949831247, 0.158832579851151, 0.033225107938051, -0.056376047432423
