isaac-sim2real/sage/motion_files/g1/amass/0-KIT_3_kneel_up_hold02_poses.txt
left_hip_yaw_joint, left_hip_pitch_joint, left_hip_roll_joint, left_knee_joint, left_ankle_pitch_joint, left_ankle_roll_joint, right_hip_yaw_joint, right_hip_pitch_joint, right_hip_roll_joint, right_knee_joint, right_ankle_pitch_joint, right_ankle_roll_joint, torso_joint, left_shoulder_pitch_joint, left_shoulder_roll_joint, left_shoulder_yaw_joint, left_elbow_joint, left_wrist_roll_joint, right_shoulder_pitch_joint, right_shoulder_roll_joint, right_shoulder_yaw_joint, right_elbow_joint, right_wrist_roll_joint
0.143201813101768, 0.222549259662628, 0.692041277885437, 0.025370974093676, -0.031538933515549, 0.000000000000000, -0.115730948746204, -0.089604400098324, -0.272801488637924, 0.273728609085083, -0.174411386251450, 0.000000000000000, -0.046826917678118, 0.134328991174698, 0.029168259352446, -0.046058777719736, 0.124028325080872, -0.324975430965424, 0.337752103805542, -0.018119143322110, 0.074034191668034, -0.091070316731930, -0.084844544529915
0.144044607877731, 0.223738789558411, 0.691667199134827, 0.025361092761159, -0.031725227832794, 0.000000000000000, -0.114644430577755, -0.087793327867985, -0.273187220096588, 0.274278163909912, -0.174507498741150, 0.000000000000000, -0.045742239803076, 0.129236325621605, 0.027194295078516, -0.049361027777195, 0.116988725960255, -0.328346520662308, 0.342888593673706, -0.018071681261063, 0.075798690319061, -0.091586247086525, -0.097302541136742
0.144579052925110, 0.225862801074982, 0.691047966480255, 0.024982573464513, -0.032201442867517, 0.000000000000000, -0.113564401865005, -0.085217557847500, -0.273762553930283, 0.274823546409607, -0.174222916364670, 0.000000000000000, -0.044946741312742, 0.121207609772682, 0.027710758149624, -0.054579142481089, 0.106967911124229, -0.331959754228592, 0.353857338428497, -0.017859056591988, 0.079630397260189, -0.091855436563492, -0.115744106471539
0.144359260797501, 0.228339463472366, 0.690288305282593, 0.024238014593720, -0.032920364290476, 0.000000000000000, -0.113168805837631, -0.082605198025703, -0.274384826421738, 0.275067567825317, -0.173453688621521, 0.000000000000000, -0.044160325080156, 0.113338567316532, 0.034750450402498, -0.061816319823265, 0.097010746598244, -0.332975924015045, 0.370640814304352, -0.017380060628057, 0.085490144789219, -0.091167367994785, -0.135309934616089
0.143441647291183, 0.230760082602501, 0.689444184303284, 0.023221738636494, -0.033800259232521, 0.000000000000000, -0.113654047250748, -0.080073840916157, -0.275021523237228, 0.275015592575073, -0.172299787402153, 0.000000000000000, -0.042938232421875, 0.107132166624069, 0.050063289701939, -0.071254923939705, 0.088880114257336, -0.329726994037628, 0.392956376075745, -0.016569495201111, 0.093233190476894, -0.089101143181324, -0.153823778033257
0.142065405845642, 0.233027428388596, 0.688528895378113, 0.021969065070152, -0.034821886569262, 0.000000000000000, -0.115015342831612, -0.077502816915512, -0.275682568550110, 0.274780541658401, -0.170854076743126, 0.000000000000000, -0.041585076600313, 0.102476507425308, 0.072930872440338, -0.082900486886501, 0.083097226917744, -0.321798413991928, 0.420159876346588, -0.015409333631396, 0.102572716772556, -0.085564181208611, -0.170799911022186
0.140657693147659, 0.235154315829277, 0.687529504299164, 0.020560780540109, -0.036005951464176, 0.000000000000000, -0.117010764777660, -0.074882715940475, -0.276346236467361, 0.274547517299652, -0.169210046529770, 0.000000000000000, -0.040872108191252, 0.098611436784267, 0.100035727024078, -0.096544936299324, 0.079421669244766, -0.309616982936859, 0.450780183076859, -0.013935193419456, 0.112890735268593, -0.080722376704216, -0.185959830880165
0.139846518635750, 0.237100556492805, 0.686417102813721, 0.019218584522605, -0.037361212074757, 0.000000000000000, -0.118946984410286, -0.072310104966164, -0.276948302984238, 0.274672240018845, -0.167505234479904, 0.000000000000000, -0.041554763913155, 0.094950839877129, 0.127082586288452, -0.110500290989876, 0.077837146818638, -0.293924689292908, 0.483217388391495, -0.012206960469484, 0.123560912907124, -0.074877277016640, -0.197226062417030
0.139950096607208, 0.238823190331459, 0.685180127620697, 0.018103336915374, -0.038875117897987, 0.000000000000000, -0.120269931852818, -0.069873012602329, -0.277442246675491, 0.275446265935898, -0.165895164012909, 0.000000000000000, -0.042483381927013, 0.091782115399837, 0.151667416095734, -0.120702520012856, 0.079010181128979, -0.275514245033264, 0.517203927040100, -0.010266033001244, 0.134578093886375, -0.068351298570633, -0.202137425541878
0.140592575073242, 0.240324422717094, 0.683853626251221, 0.017137855291367, -0.040518227964640, 0.000000000000000, -0.120977468788624, -0.067781999707222, -0.277784526348114, 0.276899814605713, -0.164531275629997, 0.000000000000000, -0.042820233851671, 0.088997408747673, 0.173179715871811, -0.124907344579697, 0.082753390073776, -0.255267977714539, 0.552999854087830, -0.008150119334459, 0.146144181489944, -0.061413604766130, -0.200795456767082
0.141359969973564, 0.241505742073059, 0.682488441467285, 0.016261285170913, -0.042240250855684, 0.000000000000000, -0.121472164988518, -0.066219069063663, -0.277952581644058, 0.278896421194077, -0.163519665598869, 0.000000000000000, -0.042807608842850, 0.086298212409019, 0.191036596894264, -0.123745568096638, 0.088190622627735, -0.233871608972549, 0.590068578720093, -0.005903820041567, 0.158085420727730, -0.054239165037870, -0.194420784711838
0.142059609293938, 0.242216750979424, 0.681126892566681, 0.015489156357944, -0.043989229947329, 0.000000000000000, -0.122133277356625, -0.065248966217041, -0.277940779924393, 0.281324714422226, -0.162900179624557, 0.000000000000000, -0.042704991996288, 0.083462618291378, 0.205134138464928, -0.118043541908264, 0.094620883464813, -0.211828440427780, 0.627948880195618, -0.003565279068425, 0.170251503586769, -0.046951122581959, -0.183930397033691
0.142685711383820, 0.242304727435112, 0.679797172546387, 0.014890890568495, -0.045723658055067, 0.000000000000000, -0.123139224946499, -0.064859226346016, -0.277748197317123, 0.284164845943451, -0.162661358714104, 0.000000000000000, -0.042595304548740, 0.080332122743130, 0.215780451893806, -0.108269885182381, 0.101537473499775, -0.189572274684906, 0.666419029235840, -0.001170268049464, 0.182593211531639, -0.039659056812525, -0.169926419854164
0.143248498439789, 0.241734191775322, 0.678515434265137, 0.014513643458486, -0.047412168234587, 0.000000000000000, -0.124561272561550, -0.065079554915428, -0.277362376451492, 0.287438988685608, -0.162777274847031, 0.000000000000000, -0.042484316974878, 0.076875589787960, 0.223314747214317, -0.094827115535736, 0.108511671423912, -0.167498409748077, 0.705240547657013, 0.001241234829649, 0.195051789283752, -0.032470490783453, -0.152827337384224
0.143698617815971, 0.240558654069901, 0.677295029163361, 0.014376581646502, -0.049034234136343, 0.000000000000000, -0.126429677009583, -0.065938495099545, -0.276773422956467, 0.291200757026672, -0.163210853934288, 0.000000000000000, -0.042325552552938, 0.073217943310738, 0.227982029318810, -0.078176267445087, 0.115155324339867, -0.145975261926651, 0.744053840637207, 0.003622445976362, 0.207513734698296, -0.025496847927570, -0.133025854825974
0.143944710493088, 0.238799080252647, 0.676157653331757, 0.014517356641591, -0.050574135035276, 0.000000000000000, -0.128775730729103, -0.067354612052441, -0.275998502969742, 0.295542150735855, -0.163918688893318, 0.000000000000000, -0.042061761021614, 0.069612085819244, 0.229928091168404, -0.058967649936676, 0.121091455221176, -0.125344887375832, 0.782315492630005, 0.005919519811869, 0.219782426953316, -0.018854564055800, -0.111042372882366
0.143769249320030, 0.236476212739944, 0.675132811069489, 0.014936039224267, -0.052036859095097, 0.000000000000000, -0.131744191050529, -0.069323308765888, -0.275041222572327, 0.300512224435806, -0.164848417043686, 0.000000000000000, -0.041606891900301, 0.066396415233612, 0.229270547628403, -0.037948537617922, 0.126021638512611, -0.105888910591602, 0.819374084472656, 0.008077429607511, 0.231609880924225, -0.012652755714953, -0.087520264089108
0.142885521054268, 0.233589798212051, 0.674251019954681, 0.015601557679474, -0.053457800298929, 0.000000000000000, -0.135533526539803, -0.071949176490307, -0.273878455162048, 0.306116759777069, -0.165914312005043, 0.000000000000000, -0.040864206850529, 0.063902497291565, 0.226137086749077, -0.015914920717478, 0.129721477627754, -0.087818354368210, 0.854542374610901, 0.010044147260487, 0.242727503180504, -0.006986603606492, -0.063213117420673
0.140997976064682, 0.230128288269043, 0.673532903194427, 0.016466615721583, -0.054882794618607, 0.000000000000000, -0.140361860394478, -0.075402617454529, -0.272467166185379, 0.312327742576599, -0.166995227336884, 0.000000000000000, -0.039755288511515, 0.062340896576643, 0.220699355006218, 0.006311905104667, 0.132017791271210, -0.071270145475864, 0.887172043323517, 0.011775105260313, 0.252878487110138, -0.001930692698807, -0.038961835205555
0.137829035520554, 0.226107999682426, 0.672980904579163, 0.017472013831139, -0.056335229426622, 0.000000000000000, -0.146462976932526, -0.079800769686699, -0.270774930715561, 0.319109171628952, -0.167958974838257, 0.000000000000000, -0.038246527314186, 0.061736125499010, 0.213217779994011, 0.027896240353584, 0.132800936698914, -0.056296944618225, 0.916721880435944, 0.013239570893347, 0.261848658323288, 0.002471940824762, -0.015647932887077
0.133151695132256, 0.221591234207153, 0.672575414180756, 0.018552165478468, -0.057795707136393, 0.000000000000000, -0.154038175940514, -0.085090607404709, -0.268808782100677, 0.326462894678116, -0.168679594993591, 0.000000000000000, -0.036366444081068, 0.061949644237757, 0.204090520739555, 0.048014629632235, 0.132059425115585, -0.042862821370363, 0.942811071872711, 0.014426446519792, 0.269491493701935, 0.006219217088073, 0.005879541859031
0.126845493912697, 0.216672614216805, 0.672277808189392, 0.019646201282740, -0.059205692261457, 0.000000000000000, -0.163182765245438, -0.091080069541931, -0.266605377197266, 0.334453910589218, -0.169036909937859, 0.000000000000000, -0.034202504903078, 0.062760397791862, 0.193878829479218, 0.065917521715164, 0.129896342754364, -0.030858715996146, 0.965250670909882, 0.015345165506005, 0.275743395090103, 0.009349111467600, 0.024880085140467
0.118994273245335, 0.211428731679916, 0.672034442424774, 0.020728608593345, -0.060500912368298, 0.000000000000000, -0.173840567469597, -0.097622938454151, -0.264178454875946, 0.343199342489243, -0.168913483619690, 0.000000000000000, -0.031889110803604, 0.063944697380066, 0.183266997337341, 0.081003934144974, 0.126507863402367, -0.020135585218668, 0.984041571617126, 0.016020236536860, 0.280622929334641, 0.011926602572203, 0.040786035358906
0.109954215586185, 0.205864220857620, 0.671781063079834, 0.021847283467650, -0.061656124889851, 0.000000000000000, -0.185771882534027, -0.104714430868626, -0.261487334966660, 0.352868497371674, -0.168192908167839, 0.000000000000000, -0.029594086110592, 0.065302312374115, 0.172962084412575, 0.092872828245163, 0.122134439647198, -0.010541344992816, 0.999339699745178, 0.016481906175613, 0.284214049577713, 0.014024205505848, 0.053235359489918
0.100216321647167, 0.199918031692505, 0.671454727649689, 0.023115118965507, -0.062693014740944, 0.000000000000000, -0.198652535676956, -0.112428151071072, -0.258455634117126, 0.363654583692551, -0.166759803891182, 0.000000000000000, -0.027482446283102, 0.066631898283958, 0.163600742816925, 0.101302124559879, 0.117008768022060, -0.001947851618752, 1.011387944221497, 0.016757488250732, 0.286634892225266, 0.015704931691289, 0.062010299414396
0.090042032301426, 0.193544998764992, 0.671014964580536, 0.024622645229101, -0.063636407256126, 0.000000000000000, -0.212333112955093, -0.120835140347481, -0.255009382963181, 0.375685751438141, -0.164513096213341, 0.000000000000000, -0.025670951232314, 0.067718006670475, 0.155707269906998, 0.106160968542099, 0.111332893371582, 0.005741404369473, 1.020434617996216, 0.016867781057954, 0.288001090288162, 0.017015740275383, 0.066918812692165
0.079300515353680, 0.186771139502525, 0.670452594757080, 0.026380555704236, -0.064471773803234, 0.000000000000000, -0.226948991417885, -0.129942998290062, -0.251102954149246, 0.388996809720993, -0.161389052867889, 0.000000000000000, -0.024229308590293, 0.068359315395355, 0.149658635258675, 0.107353709638119, 0.105304077267647, 0.012602982111275, 1.026681542396545, 0.016829522326589, 0.288403332233429, 0.017992964014411, 0.067775979638100
0.067789979279041, 0.179672732949257, 0.669766843318939, 0.028379797935486, -0.065153092145920, 0.000000000000000, -0.242703065276146, -0.139668002724648, -0.246715366840363, 0.403621882200241, -0.157367944717407, 0.000000000000000, -0.023238793015480, 0.068406701087952, 0.145616739988327, 0.104859009385109, 0.099162243306637, 0.018712386488914, 1.030286073684692, 0.016660397872329, 0.287909239530563, 0.018672814592719, 0.064533881843090
0.055604089051485, 0.172347933053970, 0.668940365314484, 0.030660407617688, -0.065632611513138, 0.000000000000000, -0.259607881307602, -0.149852678179741, -0.241830363869667, 0.419680207967758, -0.152451500296593, 0.000000000000000, -0.022836389020085, 0.067778646945953, 0.143489226698875, 0.098799303174019, 0.093203864991665, 0.024154607206583, 1.031397819519043, 0.016381863504648, 0.286580234766006, 0.019097704440355, 0.057404462248087
0.043123144656420, 0.164921969175339, 0.667939245700836, 0.033288951963186, -0.065870828926563, 0.000000000000000, -0.277462869882584, -0.160285890102386, -0.236431419849396, 0.437355041503906, -0.146633878350258, 0.000000000000000, -0.023199059069157, 0.066444352269173, 0.142978638410568, 0.089451551437378, 0.087748117744923, 0.029021510854363, 1.030187487602234, 0.016018217429519, 0.284484118223190, 0.019315093755722, 0.046851504594088
0.030757846310735, 0.157553851604462, 0.666733503341675, 0.036282137036324, -0.065841794013977, 0.000000000000000, -0.296008855104446, -0.170715406537056, -0.230510711669922, 0.456807345151901, -0.139896854758263, 0.000000000000000, -0.024499211460352, 0.064386695623398, 0.143691495060921, 0.077196411788464, 0.083079792559147, 0.033401343971491, 1.026856064796448, 0.015593321062624, 0.281699746847153, 0.019371490925550, 0.033496100455523
0.018772639334202, 0.150402754545212, 0.665313780307770, 0.039565991610289, -0.065557681024075, 0.000000000000000, -0.315077692270279, -0.180900976061821, -0.224065870046616, 0.478097200393677, -0.132237181067467, 0.000000000000000, -0.026864724233747, 0.061577733606100, 0.145241916179657, 0.062465835362673, 0.079392574727535, 0.037367023527622, 1.021641135215759, 0.015127079561353, 0.278318971395493, 0.019305752590299, 0.018023675307631
0.007291349582374, 0.143601387739182, 0.663693368434906, 0.042986135929823, -0.065099552273750, 0.000000000000000, -0.334626019001007, -0.190637588500977, -0.217101171612740, 0.501161754131317, -0.123719967901707, 0.000000000000000, -0.030351921916008, 0.057989146560431, 0.147308602929115, 0.045725557953119, 0.076761245727539, 0.040970988571644, 1.014822363853455, 0.014633964747190, 0.274449676275253, 0.019146272912621, 0.001127718714997
-0.003561473451555, 0.137324795126915, 0.661887824535370, 0.046345993876457, -0.064622752368450, 0.000000000000000, -0.354677557945251, -0.199757039546967, -0.209637120366096, 0.525816798210144, -0.114541552960873, 0.000000000000000, -0.034933801740408, 0.053625058382750, 0.149646028876305, 0.027482142671943, 0.075164422392845, 0.044251084327698, 1.006723761558533, 0.014124589040875, 0.270217061042786, 0.018914202228189, -0.016511272639036
-0.013547603040934, 0.131899371743202, 0.659888803958893, 0.049441426992416, -0.064332626760006, 0.000000000000000, -0.375059545040131, -0.208243593573570, -0.201665893197060, 0.551788628101349, -0.105042278766632, 0.000000000000000, -0.040481518954039, 0.048553973436356, 0.152071237564087, 0.008298378437757, 0.074544943869114, 0.047244280576706, 0.997708022594452, 0.013609020039439, 0.265761792659760, 0.018630355596542, -0.034247186034918
-0.022476475685835, 0.127635180950165, 0.657687485218048, 0.052088040858507, -0.064423270523548, 0.000000000000000, -0.394814789295197, -0.215778365731239, -0.193292483687401, 0.578944683074951, -0.095644354820251, 0.000000000000000, -0.046752337366343, 0.042908821254969, 0.154438868165016, -0.011208656243980, 0.074861548841000, 0.049997400492430, 0.988161981105804, 0.013099084608257, 0.261234164237976, 0.018320092931390, -0.051504813134670
-0.030340299010277, 0.124515585601330, 0.655312895774841, 0.054195985198021, -0.064997404813766, 0.000000000000000, -0.413764923810959, -0.220262184739113, -0.185464054346085, 0.606492936611176, -0.086731135845184, 0.000000000000000, -0.053506836295128, 0.036843977868557, 0.156647235155106, -0.030432453379035, 0.076080448925495, 0.052562534809113, 0.978462576866150, 0.012607188895345, 0.256779670715332, 0.018010748550296, -0.067700952291489
-0.036832571029663, 0.122364245355129, 0.652768015861511, 0.055909413844347, -0.066046662628651, 0.000000000000000, -0.434719592332840, -0.219347760081291, -0.179625824093819, 0.631315290927887, -0.078334622085094, 0.000000000000000, -0.060660425573587, 0.030542310327291, 0.158708363771439, -0.048852745443583, 0.078133627772331, 0.054985817521811, 0.968942999839783, 0.012144156731665, 0.252524703741074, 0.017726726830006, -0.082089275121689
-0.041598219424486, 0.120922587811947, 0.650064766407013, 0.057479768991470, -0.067501261830330, 0.000000000000000, -0.458307683467865, -0.213276714086533, -0.176142990589142, 0.650496959686279, -0.069961473345757, 0.000000000000000, -0.068165481090546, 0.024249026551843, 0.160712257027626, -0.066006146371365, 0.080896444618702, 0.057302139699459, 0.959900498390198, 0.011718299239874, 0.248580679297447, 0.017487419769168, -0.093913421034813
-0.044478002935648, 0.119906514883041, 0.647249877452850, 0.059134788811207, -0.069316022098064, 0.000000000000000, -0.483785837888718, -0.202812984585762, -0.175036817789078, 0.662023425102234, -0.060983497649431, 0.000000000000000, -0.075910672545433, 0.018276518210769, 0.162775158882141, -0.081479623913765, 0.084189467132092, 0.059532806277275, 0.951589941978455, 0.011335095390677, 0.245041713118553, 0.017306234687567, -0.102557495236397
-0.045483000576496, 0.119229309260845, 0.644373238086700, 0.060995504260063, -0.071523353457451, 0.000000000000000, -0.511171102523804, -0.189292669296265, -0.176032975316048, 0.664158701896667, -0.050890613347292, 0.000000000000000, -0.083627186715603, 0.012999756261706, 0.164976671338081, -0.094893559813499, 0.087820217013359, 0.061692509800196, 0.944218993186951, 0.010998551733792, 0.241983026266098, 0.017193475738168, -0.107670910656452
-0.044743198901415, 0.118880875408649, 0.641488671302795, 0.063138075172901, -0.074195854365826, 0.000000000000000, -0.541119396686554, -0.174578726291656, -0.178520336747169, 0.655620872974396, -0.039282996207476, 0.000000000000000, -0.090967409312725, 0.008740902878344, 0.167302533984184, -0.105934545397758, 0.091572746634483, 0.063778012990952, 0.937929034233093, 0.010708903893828, 0.239453002810478, 0.017150510102510, -0.109182462096214
-0.042599685490131, 0.118647806346416, 0.638682126998901, 0.065665975213051, -0.077384151518345, 0.000000000000000, -0.572347640991211, -0.159832194447517, -0.181842088699341, 0.637200534343719, -0.025900470092893, 0.000000000000000, -0.097679086029530, 0.005619461648166, 0.169620901346207, -0.114415459334850, 0.095172122120857, 0.065748788416386, 0.932776629924774, 0.010458871722221, 0.237465292215347, 0.017160436138511, -0.107223369181156
-0.039491605013609, 0.118307083845139, 0.636028945446014, 0.068691983819008, -0.081109680235386, 0.000000000000000, -0.600410819053650, -0.145185023546219, -0.185353264212608, 0.612880945205688, -0.011201578192413, 0.000000000000000, -0.103583529591560, 0.003564420854673, 0.171709612011909, -0.120243549346924, 0.098351113498211, 0.067544482648373, 0.928759276866913, 0.010236901231110, 0.236010164022446, 0.017195627093315, -0.102080486714840
-0.035617072135210, 0.117857806384563, 0.633538007736206, 0.072393365204334, -0.085351191461086, 0.000000000000000, -0.624733865261078, -0.130108684301376, -0.188876464962959, 0.585721015930176, 0.003473535180092, 0.000000000000000, -0.108600191771984, 0.002367519307882, 0.173357203602791, -0.123404070734978, 0.100901149213314, 0.069102935492992, 0.925841450691223, 0.010030551813543, 0.235065788030624, 0.017225954681635, -0.094048947095871
-0.030984718352556, 0.117460258305073, 0.631178855895996, 0.077025853097439, -0.090007133781910, 0.000000000000000, -0.646456897258759, -0.114162422716618, -0.192378088831902, 0.557529091835022, 0.017086984589696, 0.000000000000000, -0.112643137574196, 0.001763504347764, 0.174385368824005, -0.123892076313496, 0.102716058492661, 0.070383340120316, 0.923990249633789, 0.009830851107836, 0.234614029526711, 0.017229706048965, -0.083425298333168
-0.025247976183891, 0.117370396852493, 0.628889322280884, 0.083032086491585, -0.094860680401325, 0.000000000000000, -0.664469718933105, -0.098000131547451, -0.195417091250420, 0.530276775360107, 0.029405999928713, 0.000000000000000, -0.115497484803200, 0.001526297652163, 0.174646973609924, -0.121641866862774, 0.103816688060760, 0.071385748684406, 0.923202931880951, 0.009636091999710, 0.234652176499367, 0.017203185707331, -0.070545852184296
-0.018093295395374, 0.117779478430748, 0.626624584197998, 0.090959839522839, -0.099562324583530, 0.000000000000000, -0.676373302936554, -0.082831948995590, -0.197522595524788, 0.505972206592560, 0.040603771805763, 0.000000000000000, -0.116827897727489, 0.001507450593635, 0.174023047089577, -0.116557262837887, 0.104337036609650, 0.072152025997639, 0.923489809036255, 0.009452400729060, 0.235185652971268, 0.017162052914500, -0.055796649307013
-0.009322542697191, 0.118766330182552, 0.624353289604187, 0.101436406373978, -0.103630900382996, 0.000000000000000, -0.680163562297821, -0.069837212562561, -0.198513314127922, 0.486105799674988, 0.050950013101101, 0.000000000000000, -0.116210050880909, 0.001662814873271, 0.172447398304939, -0.108586013317108, 0.104520916938782, 0.072763793170452, 0.924843013286591, 0.009293733164668, 0.236214756965637, 0.017140913754702, -0.039649136364460
0.001290357788093, 0.120408073067665, 0.622013807296753, 0.115146361291409, -0.106495536863804, 0.000000000000000, -0.675000548362732, -0.059902109205723, -0.198461726307869, 0.471391469240189, 0.060666110366583, 0.000000000000000, -0.113240644335747, 0.002029587980360, 0.169964835047722, -0.097839564085007, 0.104682654142380, 0.073322772979736, 0.927193224430084, 0.009178601205349, 0.237715438008308, 0.017184792086482, -0.022663891315460
0.013902014121413, 0.122845195233822, 0.619498312473297, 0.132685929536819, -0.107641108334064, 0.000000000000000, -0.661472201347351, -0.053385552018881, -0.197581186890602, 0.461746931076050, 0.069760337471962, 0.000000000000000, -0.107664778828621, 0.002651524264365, 0.166782453656197, -0.084671087563038, 0.105130374431610, 0.073916919529438, 0.930387794971466, 0.009123729541898, 0.239629283547401, 0.017333496361971, -0.005462201777846
0.028155423700809, 0.126007094979286, 0.616716921329498, 0.154403999447823, -0.106788508594036, 0.000000000000000, -0.641535878181458, -0.050006810575724, -0.196170389652252, 0.456357359886169, 0.077880270779133, 0.000000000000000, -0.099451571702957, 0.003493022173643, 0.163264423608780, -0.069668777287006, 0.106018044054508, 0.074568785727024, 0.934202611446381, 0.009133971296251, 0.241868466138840, 0.017597697675228, 0.011295592412353
0.043042276054621, 0.129737570881844, 0.613612294197083, 0.180362343788147, -0.103861354291439, 0.000000000000000, -0.618300795555115, -0.048831779509783, -0.194653019309044, 0.453735947608948, 0.084300965070724, 0.000000000000000, -0.088760793209076, 0.004444743506610, 0.159878090023994, -0.053646843880415, 0.107329189777374, 0.075226396322250, 0.938331067562103, 0.009199910797179, 0.244310021400452, 0.017953641712666, 0.026885684579611
0.057000957429409, 0.134116873145103, 0.610149264335632, 0.210323974490166, -0.098895892500877, 0.000000000000000, -0.594641804695129, -0.048539113253355, -0.193507254123688, 0.452283233404160, 0.088288374245167, 0.000000000000000, -0.075724698603153, 0.005472972523421, 0.157082930207253, -0.037503220140934, 0.109049476683140, 0.075819581747055, 0.942412734031677, 0.009307730011642, 0.246808350086212, 0.018367273733020, 0.040447268635035
0.068197377026081, 0.139344498515129, 0.606355547904968, 0.243834421038628, -0.092020101845264, 0.000000000000000, -0.572185993194580, -0.048036292195320, -0.193071290850639, 0.450866460800171, 0.089401982724667, 0.000000000000000, -0.060307104140520, 0.006738551892340, 0.155279546976089, -0.022059809416533, 0.111210353672504, 0.076288498938084, 0.946090936660767, 0.009444868192077, 0.249219611287117, 0.018808182328939, 0.050970550626516
0.075030095875263, 0.145428940653801, 0.602350413799286, 0.280421286821365, -0.083474308252335, 0.000000000000000, -0.551501989364624, -0.046931296586990, -0.193425565958023, 0.448954939842224, 0.087553396821022, 0.000000000000000, -0.042401503771544, 0.008568010292947, 0.154809281229973, -0.008000852540135, 0.113785870373249, 0.076570183038712, 0.949042499065399, 0.009598395787179, 0.251414090394974, 0.019245974719524, 0.057464141398668
0.076481893658638, 0.152191057801247, 0.598305940628052, 0.319703847169876, -0.073623433709145, 0.000000000000000, -0.532698512077332, -0.045688454061747, -0.194385334849358, 0.446454912424088, 0.082964606583118, 0.000000000000000, -0.022001329809427, 0.011328143067658, 0.155950248241425, 0.004121627658606, 0.116625659167767, 0.076586887240410, 0.950977742671967, 0.009753414429724, 0.253276020288467, 0.019646432250738, 0.059167377650738
0.072111345827579, 0.159589692950249, 0.594368457794189, 0.361291319131851, -0.062933884561062, 0.000000000000000, -0.516110360622406, -0.045016415417194, -0.195747166872025, 0.443412184715271, 0.076001159846783, 0.000000000000000, 0.000699399504811, 0.015280133113265, 0.158910676836967, 0.013844356872141, 0.119484469294548, 0.076248683035374, 0.951631665229797, 0.009893305599689, 0.254698961973190, 0.019971854984760, 0.055652908980846
0.061909791082144, 0.167961001396179, 0.590611100196838, 0.404590457677841, -0.051938962191343, 0.000000000000000, -0.502471208572388, -0.045144956558943, -0.197535827755928, 0.439880788326263, 0.066939182579517, 0.000000000000000, 0.025279819965363, 0.020463487133384, 0.163820996880531, 0.020752951502800, 0.122076220810413, 0.075455754995346, 0.950766921043396, 0.009999240748584, 0.255586951971054, 0.020179772749543, 0.046830225735903
0.046277523040771, 0.177880451083183, 0.587065339088440, 0.448648542165756, -0.041233792901039, 0.000000000000000, -0.492249757051468, -0.046014714986086, -0.199897512793541, 0.436013817787170, 0.055947214365005, 0.000000000000000, 0.051113896071911, 0.026666626334190, 0.170724421739578, 0.024496288970113, 0.124097719788551, 0.074097350239754, 0.948201537132263, 0.010049228556454, 0.255866318941116, 0.020220819860697, 0.032931234687567
0.026066808030009, 0.189639866352081, 0.583847045898438, 0.492023795843124, -0.031442031264305, 0.000000000000000, -0.485381573438644, -0.047867666929960, -0.202882513403893, 0.431946367025375, 0.043199084699154, 0.000000000000000, 0.077325157821178, 0.033459078520536, 0.179550603032112, 0.024811435490847, 0.125217765569687, 0.072049774229527, 0.943826019763947, 0.010017987340689, 0.255492925643921, 0.020038247108459, 0.014595219865441
0.001720224623568, 0.202549219131470, 0.581502199172974, 0.532486677169800, -0.023012122139335, 0.000000000000000, -0.480851978063583, -0.051073025912046, -0.206456482410431, 0.427951574325562, 0.028999553993344, 0.000000000000000, 0.102884449064732, 0.040332447737455, 0.190138056874275, 0.021608226001263, 0.125098735094070, 0.069190539419651, 0.937632739543915, 0.009880560450256, 0.254465430974960, 0.019575880840421, -0.007166559807956
-0.027639120817184, 0.215249955654144, 0.581106960773468, 0.566765546798706, -0.015741763636470, 0.000000000000000, -0.476444333791733, -0.055369723588228, -0.210697576403618, 0.424734175205231, 0.013802477158606, 0.000000000000000, 0.126910597085953, 0.046875346451998, 0.202301532030106, 0.015079366043210, 0.123452693223953, 0.065422087907791, 0.929752647876740, 0.009617579169571, 0.252841979265213, 0.018789822235703, -0.031249394640326
-0.062643572688103, 0.227541357278824, 0.583402276039124, 0.591313540935516, -0.008735049515963, 0.000000000000000, -0.470571339130402, -0.060595970600843, -0.215639799833298, 0.422693461179733, -0.002016584156081, 0.000000000000000, 0.148894950747490, 0.052818827331066, 0.215824663639069, 0.005683544091880, 0.120088480412960, 0.060685154050589, 0.920432746410370, 0.009218132123351, 0.250730514526367, 0.017654441297054, -0.056772135198116
-0.102249108254910, 0.240180447697639, 0.588377952575684, 0.603985726833344, -0.001242435420863, 0.000000000000000, -0.463152527809143, -0.067223817110062, -0.221152767539024, 0.421602904796600, -0.018290661275387, 0.000000000000000, 0.168621554970741, 0.058017279952765, 0.230414569377899, -0.006043431349099, 0.114972971379757, 0.054971478879452, 0.909932017326355, 0.008682467974722, 0.248243570327759, 0.016167592257261, -0.083112604916096
-0.144888356328011, 0.253261148929596, 0.595881521701813, 0.604316115379333, 0.007089224644005, 0.000000000000000, -0.454367816448212, -0.075290277600288, -0.227205216884613, 0.421327948570251, -0.034924935549498, 0.000000000000000, 0.186079278588295, 0.062464799731970, 0.245744019746780, -0.019581647589803, 0.108291350305080, 0.048342447727919, 0.898470163345337, 0.008025018498302, 0.245476379990578, 0.014357673004270, -0.109819434583187
-0.189230069518089, 0.266199976205826, 0.605785608291626, 0.592926025390625, 0.016413601115346, 0.000000000000000, -0.444370985031128, -0.084390051662922, -0.233834087848663, 0.421915620565414, -0.051782540977001, 0.000000000000000, 0.201445013284683, 0.066226743161678, 0.261478006839752, -0.034415472298861, 0.100418798625469, 0.040925823152065, 0.886238038539886, 0.007272536866367, 0.242511332035065, 0.012280553579330, -0.136604279279709
-0.234191253781319, 0.278211653232574, 0.617873966693878, 0.571151018142700, 0.026789663359523, 0.000000000000000, -0.433404266834259, -0.094041042029858, -0.241026833653450, 0.423438161611557, -0.068613149225712, 0.000000000000000, 0.215046167373657, 0.069313265383244, 0.277236163616180, -0.050016678869724, 0.091833308339119, 0.032893214374781, 0.873415112495422, 0.006458839401603, 0.239425435662270, 0.010008583776653, -0.163373097777367
-0.278854310512543, 0.288568258285522, 0.631769537925720, 0.540874481201172, 0.038213476538658, 0.000000000000000, -0.421780139207840, -0.103744201362133, -0.248705625534058, 0.425953477621078, -0.085034772753716, 0.000000000000000, 0.227306142449379, 0.071598857641220, 0.292549133300781, -0.065845131874084, 0.083043009042740, 0.024436796084046, 0.860175430774689, 0.005619809497148, 0.236292630434036, 0.007619729265571, -0.190229550004005
-0.322406083345413, 0.296756893396378, 0.646908164024353, 0.504395663738251, 0.050642821937799, 0.000000000000000, -0.409840464591980, -0.112949796020985, -0.256750315427780, 0.429527401924133, -0.100590460002422, 0.000000000000000, 0.238691136240959, 0.072854824364185, 0.306874305009842, -0.081385277211666, 0.074549436569214, 0.015751510858536, 0.846671700477600, 0.004789850208908, 0.233176976442337, 0.005189520772547, -0.217392578721046
-0.364104807376862, 0.302455335855484, 0.662593007087708, 0.464321732521057, 0.064005821943283, 0.000000000000000, -0.397950917482376, -0.121098816394806, -0.265009254217148, 0.434250056743622, -0.114835180342197, 0.000000000000000, 0.249678343534470, 0.072865091264248, 0.319664210081100, -0.096218787133694, 0.066820442676544, 0.007020114921033, 0.833001196384430, 0.003999365493655, 0.230117827653885, 0.002785069867969, -0.245059564709663
-0.403179913759232, 0.305353879928589, 0.678092479705811, 0.423501610755920, 0.078170835971832, 0.000000000000000, -0.386561810970306, -0.127744972705841, -0.273293256759644, 0.440205693244934, -0.127405494451523, 0.000000000000000, 0.260737687349319, 0.071508325636387, 0.330440759658813, -0.110100746154785, 0.060242198407650, -0.001603404991329, 0.819170594215393, 0.003272598376498, 0.227115198969841, 0.000459730974399, -0.273294061422348
-0.438718289136887, 0.305157721042633, 0.692693173885345, 0.384846836328506, 0.092909760773182, 0.000000000000000, -0.376245498657227, -0.132801190018654, -0.281326234340668, 0.447419017553329, -0.138050809502602, 0.000000000000000, 0.272258251905441, 0.068724386394024, 0.338875323534012, -0.123002387583256, 0.055056609213352, -0.010011378675699, 0.805083274841309, 0.002625679597259, 0.224124029278755, -0.001751842442900, -0.301935583353043
-0.469806075096130, 0.301856040954590, 0.705733895301819, 0.350888222455978, 0.107964806258678, 0.000000000000000, -0.367684453725815, -0.136640250682831, -0.288729578256607, 0.455819934606552, -0.146607935428619, 0.000000000000000, 0.284411936998367, 0.064441822469234, 0.344918072223663, -0.135081544518471, 0.051340356469154, -0.018145883455873, 0.790564477443695, 0.002066795015708, 0.221065357327461, -0.003833482507616, -0.330490916967392
-0.495897799730301, 0.295805305242538, 0.716699898242950, 0.323355168104172, 0.123198740184307, 0.000000000000000, -0.361845314502716, -0.139657273888588, -0.295183211565018, 0.465183675289154, -0.152947038412094, 0.000000000000000, 0.297018885612488, 0.058606795966625, 0.348951756954193, -0.146582379937172, 0.049075964838266, -0.025971323251724, 0.775418102741241, 0.001600518007763, 0.217850506305695, -0.005776754580438, -0.357996433973312
-0.517237603664398, 0.287715047597885, 0.725300192832947, 0.302960813045502, 0.138585448265076, 0.000000000000000, -0.360174894332886, -0.141905039548874, -0.300564855337143, 0.475065797567368, -0.156959369778633, 0.000000000000000, 0.309287071228027, 0.051209766417742, 0.351794600486755, -0.157752633094788, 0.048246733844280, -0.033442210406065, 0.759465992450714, 0.001232240814716, 0.214398384094238, -0.007569675799459, -0.383099138736725
-0.535470604896545, 0.278674483299255, 0.731552958488464, 0.289197713136673, 0.153994679450989, 0.000000000000000, -0.364149451255798, -0.143376529216766, -0.304820924997330, 0.484980583190918, -0.158597722649574, 0.000000000000000, 0.320228546857834, 0.042632024735212, 0.354652166366577, -0.168872445821762, 0.048792757093906, -0.040532227605581, 0.742528259754181, 0.000963960832451, 0.210626110434532, -0.009207789786160, -0.405080974102020
-0.553738355636597, 0.269832909107208, 0.735871613025665, 0.280362308025360, 0.169020742177963, 0.000000000000000, -0.374357491731644, -0.144366472959518, -0.307753920555115, 0.494816750288010, -0.157930269837379, 0.000000000000000, 0.330148488283157, 0.034305803477764, 0.359083324670792, -0.180297493934631, 0.050466988235712, -0.047307487577200, 0.724389493465424, 0.000784938398283, 0.206434115767479, -0.010719609446824, -0.424494683742523
-0.574765563011169, 0.261830627918243, 0.738839805126190, 0.274354487657547, 0.183074414730072, 0.000000000000000, -0.390341669321060, -0.145114734768867, -0.309104293584824, 0.505003154277802, -0.155190706253052, 0.000000000000000, 0.339495480060577, 0.027217146009207, 0.365716814994812, -0.192222863435745, 0.052932765334845, -0.053891371935606, 0.704903185367584, 0.000677387812175, 0.201751455664635, -0.012153229676187, -0.441747009754181
-0.599049150943756, 0.254463851451874, 0.740885019302368, 0.269597798585892, 0.195613130927086, 0.000000000000000, -0.411478012800217, -0.145537570118904, -0.308716803789139, 0.516114354133606, -0.150735676288605, 0.000000000000000, 0.348015457391739, 0.021141892299056, 0.373590975999832, -0.204464033246040, 0.055994067341089, -0.060363531112671, 0.684104263782501, 0.000629637041129, 0.196585014462471, -0.013541763648391, -0.456937611103058
-0.625501215457916, 0.247119024395943, 0.742171347141266, 0.265240877866745, 0.206282690167427, 0.000000000000000, -0.437450885772705, -0.145455852150917, -0.306514322757721, 0.528544664382935, -0.144924044609070, 0.000000000000000, 0.355010032653809, 0.015687402337790, 0.381340384483337, -0.216594159603119, 0.059617467224598, -0.066751167178154, 0.662168741226196, 0.000636731507257, 0.191001787781715, -0.014901333488524, -0.469741284847260
-0.653152525424957, 0.239337936043739, 0.742723226547241, 0.260902523994446, 0.214941248297691, 0.000000000000000, -0.467857152223587, -0.144838809967041, -0.302377730607986, 0.542612791061401, -0.138046190142632, 0.000000000000000, 0.359767764806747, 0.010610106401145, 0.387832611799240, -0.228228077292442, 0.063728049397469, -0.073127448558807, 0.639300525188446, 0.000688981614076, 0.185079291462898, -0.016263309866190, -0.479434400796890
-0.681490361690521, 0.231004983186722, 0.742478787899017, 0.256475538015366, 0.221588432788849, 0.000000000000000, -0.502038836479187, -0.143722921609879, -0.296159178018570, 0.558653712272644, -0.130336076021194, 0.000000000000000, 0.362482994794846, 0.005830864887685, 0.392334669828415, -0.239027276635170, 0.068119771778584, -0.079653106629848, 0.615725100040436, 0.000768579018768, 0.178902462124825, -0.017685940489173, -0.485582768917084
-0.710034847259521, 0.222103744745255, 0.741332352161407, 0.251992940902710, 0.226264685392380, 0.000000000000000, -0.539268076419830, -0.142162799835205, -0.287732094526291, 0.576944649219513, -0.122007973492146, 0.000000000000000, 0.364035844802856, 0.001800869824365, 0.394949972629547, -0.248642414808273, 0.072479017078876, -0.086556345224380, 0.591681361198425, 0.000853151257616, 0.172560468316078, -0.019245693460107, -0.488033771514893
-0.738134562969208, 0.212592869997025, 0.739156603813171, 0.247506111860275, 0.228985473513603, 0.000000000000000, -0.578822076320648, -0.140284761786461, -0.277015805244446, 0.597613573074341, -0.113276101648808, 0.000000000000000, 0.365113079547882, -0.000836199033074, 0.396195054054260, -0.256751567125320, 0.076479308307171, -0.094069018959999, 0.567371010780334, 0.000922364881262, 0.166124165058136, -0.021016689017415, -0.486834019422531
-0.765179991722107, 0.202567309141159, 0.735797226428986, 0.243008226156235, 0.229727670550346, 0.000000000000000, -0.619948327541351, -0.138261020183563, -0.264045357704163, 0.620543658733368, -0.104359365999699, 0.000000000000000, 0.366031676530838, -0.001800148515031, 0.396288752555847, -0.263103872537613, 0.079931966960430, -0.102323822677135, 0.542941451072693, 0.000966672727372, 0.159637734293938, -0.023040248081088, -0.482506245374680
-0.791016161441803, 0.192400425672531, 0.731093585491180, 0.238387599587440, 0.228442847728729, 0.000000000000000, -0.662039816379547, -0.136182263493538, -0.249112203717232, 0.645166039466858, -0.095490977168083, 0.000000000000000, 0.366904288530350, -0.001343304873444, 0.394980639219284, -0.267514169216156, 0.082910746335983, -0.111253753304482, 0.518524229526520, 0.000994397560135, 0.153134241700172, -0.025296742096543, -0.475962072610855
-0.815833926200867, 0.182840168476105, 0.724816560745239, 0.233469024300575, 0.225066825747490, 0.000000000000000, -0.704897582530975, -0.133927688002586, -0.232870981097221, 0.670250952243805, -0.086928553879261, 0.000000000000000, 0.367764800786972, -0.000255734135862, 0.391682893037796, -0.269701421260834, 0.085886135697365, -0.120489336550236, 0.494345307350159, 0.001037516631186, 0.146684408187866, -0.027679389342666, -0.467932373285294
-0.839148819446564, 0.174890667200089, 0.716490566730499, 0.228412583470345, 0.219539269804955, 0.000000000000000, -0.748663902282715, -0.131111815571785, -0.216284722089767, 0.693991899490356, -0.078944399952888, 0.000000000000000, 0.368270963430405, 0.000332200870616, 0.385793775320053, -0.269184529781342, 0.089693434536457, -0.129386126995087, 0.470771640539169, 0.001146030495875, 0.140420362353325, -0.030007274821401, -0.458378195762634
-0.859791815280914, 0.169214144349098, 0.705559134483337, 0.224013656377792, 0.211821973323822, 0.000000000000000, -0.793581783771515, -0.127141028642654, -0.200433909893036, 0.714394927024841, -0.071796700358391, 0.000000000000000, 0.367372512817383, -0.000272620469332, 0.377414882183075, -0.265899389982224, 0.094909526407719, -0.137450128793716, 0.448002934455872, 0.001353999483399, 0.134400472044945, -0.032144527882338, -0.446624100208282
-0.877699255943298, 0.166084811091423, 0.691802382469177, 0.221079975366592, 0.201867476105690, 0.000000000000000, -0.839810729026794, -0.121421299874783, -0.186276584863663, 0.729755520820618, -0.065697267651558, 0.000000000000000, 0.363568663597107, -0.001872322754934, 0.367721587419510, -0.261037915945053, 0.101133793592453, -0.144853502511978, 0.425729483366013, 0.001645656651817, 0.128455013036728, -0.034134361892939, -0.432280957698822
-0.893644392490387, 0.165799662470818, 0.675201714038849, 0.220264941453934, 0.189617082476616, 0.000000000000000, -0.887141823768616, -0.113592483103275, -0.174455359578133, 0.739038765430450, -0.060785915702581, 0.000000000000000, 0.355693727731705, -0.004297047387809, 0.358336269855499, -0.256875842809677, 0.107233233749866, -0.152330845594406, 0.403432697057724, 0.001970482058823, 0.122313618659973, -0.036161471158266, -0.416457056999207
-0.908311665058136, 0.167855411767960, 0.655943214893341, 0.222718283534050, 0.175056830048561, 0.000000000000000, -0.935005247592926, -0.103769086301327, -0.165159389376640, 0.741918742656708, -0.057136032730341, 0.000000000000000, 0.344002366065979, -0.007297688163817, 0.351348578929901, -0.255703747272491, 0.112350568175316, -0.160525888204575, 0.380959302186966, 0.002290218137205, 0.115863554179668, -0.038378328084946, -0.401839375495911
-0.922417700290680, 0.171214416623116, 0.634364902973175, 0.230228245258331, 0.158223927021027, 0.000000000000000, -0.982961356639862, -0.092829093337059, -0.157976269721985, 0.738585174083710, -0.054789628833532, 0.000000000000000, 0.329016476869583, -0.009539945982397, 0.349300175905228, -0.258455425500870, 0.116578556597233, -0.169576227664948, 0.358627647161484, 0.002600828651339, 0.109218373894691, -0.040812991559505, -0.389699995517731
-0.937259376049042, 0.175615519285202, 0.610686361789703, 0.244643673300743, 0.139146357774734, 0.000000000000000, -1.030064702033997, -0.082508273422718, -0.151764035224915, 0.730564653873444, -0.053742561489344, 0.000000000000000, 0.309996575117111, -0.010311552323401, 0.353315263986588, -0.265249073505402, 0.120365492999554, -0.179458171129227, 0.336650043725967, 0.002905460773036, 0.102465227246284, -0.043463401496410, -0.379430532455444
-0.954861283302307, 0.181281298398972, 0.585093796253204, 0.267158001661301, 0.117779180407524, 0.000000000000000, -1.074600219726562, -0.074286833405495, -0.145408183336258, 0.721745967864990, -0.053929030895233, 0.000000000000000, 0.286791801452637, -0.009806268848479, 0.362928420305252, -0.276158928871155, 0.124197326600552, -0.190096646547318, 0.314803451299667, 0.003204102395102, 0.095511145889759, -0.046321917325258, -0.370421350002289
-0.977211117744446, 0.188822388648987, 0.557733118534088, 0.298005402088165, 0.093988113105297, 0.000000000000000, -1.116802692413330, -0.067949883639812, -0.139094591140747, 0.716289937496185, -0.055355768650770, 0.000000000000000, 0.260267734527588, -0.008338515646756, 0.376975506544113, -0.291287750005722, 0.128563165664673, -0.201349601149559, 0.292537689208984, 0.003495390759781, 0.088124141097069, -0.049367848783731, -0.362362027168274
-1.005527257919312, 0.198560610413551, 0.528850436210632, 0.337168127298355, 0.067616648972034, 0.000000000000000, -1.158247709274292, -0.062872894108295, -0.133489906787872, 0.717014610767365, -0.058177843689919, 0.000000000000000, 0.231613740324974, -0.006702255923301, 0.393639504909515, -0.310458421707153, 0.133908465504646, -0.213079437613487, 0.269334465265274, 0.003778055310249, 0.080085277557373, -0.052582368254662, -0.355155616998672
-1.040515780448914, 0.210406139492989, 0.498869031667709, 0.384592354297638, 0.038516286760569, 0.000000000000000, -1.199117779731750, -0.058794733136892, -0.129032045602798, 0.726047277450562, -0.062616512179375, 0.000000000000000, 0.202266216278076, -0.006159971002489, 0.410247087478638, -0.332888841629028, 0.140908896923065, -0.224938139319420, 0.244900777935982, 0.004058331251144, 0.071269817650318, -0.055899117141962, -0.348808646202087
-1.082626223564148, 0.224788904190063, 0.468167066574097, 0.439765244722366, 0.006520169787109, 0.000000000000000, -1.238570809364319, -0.055237844586372, -0.126255661249161, 0.745229780673981, -0.068874083459377, 0.000000000000000, 0.173535421490669, -0.007005770225078, 0.424328118562698, -0.357231676578522, 0.150581672787666, -0.236243247985840, 0.219105497002602, 0.004351159557700, 0.061617963016033, -0.059176933020353, -0.342449635267258
-1.130567431449890, 0.240584433078766, 0.437482625246048, 0.502774178981781, -0.028449440374970, 0.000000000000000, -1.275972008705139, -0.052996829152107, -0.124853134155273, 0.775690138339996, -0.077146790921688, 0.000000000000000, 0.145533323287964, -0.009773304685950, 0.434295415878296, -0.382003426551819, 0.163236841559410, -0.246918737888336, 0.192179173231125, 0.004655320197344, 0.051220327615738, -0.062415100634098, -0.334826439619064
-1.183367252349854, 0.258277356624603, 0.406941711902618, 0.572821438312531, -0.066504754126072, 0.000000000000000, -1.311767697334290, -0.050977542996407, -0.125605285167694, 0.817749619483948, -0.087537705898285, 0.000000000000000, 0.116504237055779, -0.014546025544405, 0.438464045524597, -0.405927836894989, 0.178955435752869, -0.257020145654678, 0.164053052663803, 0.004962659906596, 0.040031779557467, -0.065644025802612, -0.324057698249817
-1.240144133567810, 0.277658641338348, 0.376729071140289, 0.649232447147369, -0.107655093073845, 0.000000000000000, -1.347724437713623, -0.048691473901272, -0.128766506910324, 0.870625257492065, -0.100101411342621, 0.000000000000000, 0.085424728691578, -0.021227428689599, 0.436305344104767, -0.427624672651291, 0.197790950536728, -0.266664385795593, 0.134803041815758, 0.005267929751426, 0.028063746169209, -0.068907052278519, -0.308649241924286
-1.299684882164001, 0.298429608345032, 0.346706360578537, 0.731721103191376, -0.151767626404762, 0.000000000000000, -1.385981559753418, -0.046172630041838, -0.133976221084595, 0.932923853397369, -0.114804498851299, 0.000000000000000, 0.052844036370516, -0.029551323503256, 0.428484618663788, -0.446504533290863, 0.219659894704819, -0.275847703218460, 0.104510627686977, 0.005568298045546, 0.015333769842982, -0.072204999625683, -0.288764953613281
-1.361274123191833, 0.321715712547302, 0.315995633602142, 0.817584633827209, -0.198699414730072, 0.000000000000000, -1.427970290184021, -0.043686643242836, -0.140285953879356, 1.003211975097656, -0.131480917334557, 0.000000000000000, 0.018713917583227, -0.039239104837179, 0.417045831680298, -0.462920933961868, 0.243458226323128, -0.285341262817383, 0.073396153748035, 0.005862568970770, 0.001938701956533, -0.075692482292652, -0.265896141529083
-1.423441767692566, 0.350356608629227, 0.282835930585861, 0.900088131427765, -0.248462617397308, 0.000000000000000, -1.473804950714111, -0.041473627090454, -0.146256655454636, 1.079992055892944, -0.149799212813377, 0.000000000000000, -0.016016976907849, -0.049923624843359, 0.404677838087082, -0.476413428783417, 0.268250912427902, -0.295904487371445, 0.042204611003399, 0.006165541242808, -0.011795106343925, -0.079521425068378, -0.241738289594650
-1.482460141181946, 0.383230745792389, 0.247501224279404, 0.978080153465271, -0.300987303256989, 0.000000000000000, -1.522874474525452, -0.039548892527819, -0.150317147374153, 1.160248756408691, -0.169374957680702, 0.000000000000000, -0.045538552105427, -0.059713769704103, 0.391604721546173, -0.486775636672974, 0.294972240924835, -0.305881053209305, 0.010404581204057, 0.006454468704760, -0.026131287217140, -0.083317540585995, -0.217609703540802
-1.537979722023010, 0.418142974376678, 0.211688876152039, 1.051772356033325, -0.356209307909012, 0.000000000000000, -1.573525309562683, -0.037757530808449, -0.151342302560806, 1.239812850952148, -0.189989924430847, 0.000000000000000, -0.066638819873333, -0.067839793860912, 0.376443177461624, -0.494364321231842, 0.324248284101486, -0.313668578863144, -0.022509053349495, 0.006692094262689, -0.041306532919407, -0.086707137525082, -0.194503352046013
-1.590055108070374, 0.452728599309921, 0.177377402782440, 1.121287465095520, -0.413846313953400, 0.000000000000000, -1.623565554618835, -0.035299815237522, -0.149562910199165, 1.316853046417236, -0.211558103561401, 0.000000000000000, -0.087726622819901, -0.074111454188824, 0.359931081533432, -0.501234114170074, 0.353548079729080, -0.320956856012344, -0.056024532765150, 0.006901587825269, -0.056997105479240, -0.089993424713612, -0.171618655323982
-1.638643026351929, 0.484899610280991, 0.146362483501434, 1.186168551445007, -0.473156064748764, 0.000000000000000, -1.671736001968384, -0.030552417039871, -0.146599799394608, 1.390564680099487, -0.233977839350700, 0.000000000000000, -0.107722677290440, -0.078978784382343, 0.343470305204391, -0.506484687328339, 0.383503049612045, -0.326652526855469, -0.088450931012630, 0.007091739680618, -0.072433590888977, -0.092901140451431, -0.149400830268860
-1.684065580368042, 0.513944089412689, 0.119707621634007, 1.243061065673828, -0.532133579254150, 0.000000000000000, -1.717116475105286, -0.021598907187581, -0.144797891378403, 1.460205316543579, -0.257062941789627, 0.000000000000000, -0.120643995702267, -0.083205454051495, 0.329741328954697, -0.508057236671448, 0.415760159492493, -0.328929632902145, -0.117455333471298, 0.007262193132192, -0.086594864726067, -0.095011524856091, -0.129199415445328
-1.723978161811829, 0.543105244636536, 0.095452591776848, 1.286930799484253, -0.587797403335571, 0.000000000000000, -1.759461879730225, -0.008405347354710, -0.145096406340599, 1.525639653205872, -0.280762463808060, 0.000000000000000, -0.127303302288055, -0.087037272751331, 0.318507760763168, -0.506158292293549, 0.449743360280991, -0.327998757362366, -0.142781198024750, 0.007407213095576, -0.099335029721260, -0.096350900828838, -0.111003153026104
-1.756728410720825, 0.574806630611420, 0.072052575647831, 1.315943956375122, -0.638906002044678, 0.000000000000000, -1.798706173896790, 0.008125077001750, -0.147561267018318, 1.587166428565979, -0.305093973875046, 0.000000000000000, -0.128939360380173, -0.090816803276539, 0.309294641017914, -0.500845849514008, 0.484465301036835, -0.324795931577682, -0.164623662829399, 0.007538059726357, -0.110721558332443, -0.097121901810169, -0.094660177826881
-1.782073616981506, 0.609807312488556, 0.049050249159336, 1.330115437507629, -0.685241460800171, 0.000000000000000, -1.834798574447632, 0.027061993256211, -0.152064785361290, 1.645219802856445, -0.330069452524185, 0.000000000000000, -0.125262126326561, -0.094952136278152, 0.301949948072433, -0.492076575756073, 0.519101560115814, -0.320201814174652, -0.183443516492844, 0.007668807171285, -0.120952166616917, -0.097523771226406, -0.080310642719269
-1.799847602844238, 0.648526310920715, 0.026035873219371, 1.329926013946533, -0.726686179637909, 0.000000000000000, -1.867821216583252, 0.047593366354704, -0.158398970961571, 1.700261354446411, -0.355681687593460, 0.000000000000000, -0.115785837173462, -0.099799156188965, 0.295962482690811, -0.480156511068344, 0.552924335002899, -0.314889073371887, -0.200202926993370, 0.007800230290741, -0.130450516939163, -0.097710959613323, -0.067958563566208
-1.809611320495605, 0.691326558589935, 0.002474164590240, 1.316216707229614, -0.763122558593750, 0.000000000000000, -1.897846937179565, 0.069179266691208, -0.166423708200455, 1.752782106399536, -0.381872415542603, 0.000000000000000, -0.100341327488422, -0.105608306825161, 0.290521234273911, -0.465576827526093, 0.585417985916138, -0.309148460626602, -0.216031014919281, 0.007913377135992, -0.139718532562256, -0.097750216722488, -0.057326186448336
-1.810778379440308, 0.738484501838684, -0.022174896672368, 1.290114521980286, -0.794434428215027, 0.000000000000000, -1.924958825111389, 0.091615632176399, -0.176179721951485, 1.803215026855469, -0.408525854349136, 0.000000000000000, -0.079200394451618, -0.112487398087978, 0.284808367490768, -0.449016630649567, 0.616337239742279, -0.302716761827469, -0.231738209724426, 0.007966462522745, -0.149105802178383, -0.097572676837444, -0.048066616058350
-1.802745580673218, 0.790206193923950, -0.048396054655313, 1.252964496612549, -0.820515215396881, 0.000000000000000, -1.949543356895447, 0.114924207329750, -0.187880009412766, 1.851736903190613, -0.435505509376526, 0.000000000000000, -0.053064987063408, -0.120424464344978, 0.278419226408005, -0.431129813194275, 0.645625233650208, -0.295007139444351, -0.247426226735115, 0.007913420908153, -0.158628150820732, -0.097025386989117, -0.039994712918997
-1.784995198249817, 0.846655845642090, -0.076604805886745, 1.206264615058899, -0.841277897357941, 0.000000000000000, -1.972394227981567, 0.139160737395287, -0.201796442270279, 1.898229718208313, -0.462693423032761, 0.000000000000000, -0.022907977923751, -0.129265666007996, 0.271470069885254, -0.412149369716644, 0.673233330249786, -0.285644412040710, -0.262564897537231, 0.007733982056379, -0.168016076087952, -0.096005052328110, -0.033148799091578
-1.757190942764282, 0.907936632633209, -0.107112012803555, 1.151613473892212, -0.856662333011627, 0.000000000000000, -1.994382023811340, 0.164293751120567, -0.218133136630058, 1.942529439926147, -0.489994436502457, 0.000000000000000, 0.010269124992192, -0.138651564717293, 0.264271110296249, -0.391867429018021, 0.699000060558319, -0.274680942296982, -0.276436746120453, 0.007439421489835, -0.176925763487816, -0.094514884054661, -0.027718923985958
-1.719273805618286, 0.974031448364258, -0.140065208077431, 1.090663552284241, -0.866643011569977, 0.000000000000000, -2.016070365905762, 0.190168231725693, -0.236917510628700, 1.984706759452820, -0.517324030399323, 0.000000000000000, 0.045611359179020, -0.147994041442871, 0.256947189569473, -0.369979113340378, 0.722655594348907, -0.262395888566971, -0.288528323173523, 0.007052505388856, -0.185112074017525, -0.092615932226181, -0.023931181058288
-1.671537399291992, 1.044748663902283, -0.175408512353897, 1.025076508522034, -0.871462166309357, 0.000000000000000, -2.037729263305664, 0.216457039117813, -0.257916182279587, 2.024992942810059, -0.544596433639526, 0.000000000000000, 0.082432694733143, -0.156539022922516, 0.249362558126450, -0.346336930990219, 0.743884921073914, -0.249119058251381, -0.298618972301483, 0.006594978738576, -0.192459896206856, -0.090382821857929, -0.021998431533575
-1.614661812782288, 1.119689702987671, -0.212879076600075, 0.956484138965607, -0.872601330280304, 0.000000000000000, -2.059704542160034, 0.242637187242508, -0.280733346939087, 2.063315391540527, -0.571708083152771, 0.000000000000000, 0.120050534605980, -0.163578689098358, 0.241494104266167, -0.320989131927490, 0.762395977973938, -0.235257819294930, -0.306548893451691, 0.006096903234720, -0.198865145444870, -0.087908200919628, -0.022159153595567
-1.549712181091309, 1.198227524757385, -0.252029001712799, 0.886447310447693, -0.872669935226440, 0.000000000000000, -2.082502603530884, 0.268159031867981, -0.305126845836639, 2.099166870117188, -0.598526597023010, 0.000000000000000, 0.157608747482300, -0.168656051158905, 0.233803957700729, -0.294234901666641, 0.778019607067108, -0.221294790506363, -0.312000602483749, 0.005602481774986, -0.204119905829430, -0.085300460457802, -0.024679159745574
-1.478116750717163, 1.279486060142517, -0.292261004447937, 0.816403508186340, -0.872669935226440, 0.000000000000000, -2.106509208679199, 0.292624235153198, -0.331083834171295, 2.132041692733765, -0.624906241893768, 0.000000000000000, 0.194208964705467, -0.171452209353447, 0.226946413516998, -0.266834229230881, 0.790866553783417, -0.207588374614716, -0.314723759889603, 0.005147940479219, -0.208013162016869, -0.082637146115303, -0.029756780713797
-1.401603102684021, 1.362337350845337, -0.332875818014145, 0.747620165348053, -0.872669935226440, 0.000000000000000, -2.131693601608276, 0.315721273422241, -0.358350425958633, 2.161680221557617, -0.650645971298218, 0.000000000000000, 0.229201465845108, -0.171451732516289, 0.220995292067528, -0.240289941430092, 0.801394402980804, -0.194146871566772, -0.315153688192368, 0.004727251827717, -0.210620611906052, -0.079911671578884, -0.037445396184921
-1.322086811065674, 1.445447087287903, -0.373138934373856, 0.681154906749725, -0.872669935226440, 0.000000000000000, -2.157342910766602, 0.337080955505371, -0.385805934667587, 2.188209533691406, -0.675423860549927, 0.000000000000000, 0.262148439884186, -0.167872279882431, 0.215302377939224, -0.216463565826416, 0.810107767581940, -0.181028380990028, -0.314716756343842, 0.004321238957345, -0.212470307946205, -0.077134624123573, -0.047621142119169
-1.241527557373047, 1.527363657951355, -0.412364512681961, 0.617802441120148, -0.872669935226440, 0.000000000000000, -2.181809902191162, 0.356531083583832, -0.411534786224365, 2.212653160095215, -0.698811531066895, 0.000000000000000, 0.292608410120010, -0.160197466611862, 0.209484890103340, -0.196142926812172, 0.817010164260864, -0.169357746839523, -0.315116524696350, 0.004004753194749, -0.214273065328598, -0.074591025710106, -0.059964369982481
-1.161747932434082, 1.606683135032654, -0.449999958276749, 0.558078169822693, -0.872669935226440, 0.000000000000000, -2.203330516815186, 0.374132007360458, -0.433640837669373, 2.236410379409790, -0.720418632030487, 0.000000000000000, 0.320612072944641, -0.148657351732254, 0.203544393181801, -0.179389476776123, 0.821910321712494, -0.160059630870819, -0.317043840885162, 0.003853137139231, -0.216303735971451, -0.072513304650784, -0.074085116386414
-1.084280371665955, 1.682216167449951, -0.485672801733017, 0.502249836921692, -0.872669935226440, 0.000000000000000, -2.222395658493042, 0.390009284019470, -0.452593624591827, 2.258656978607178, -0.740133047103882, 0.000000000000000, 0.347113937139511, -0.133934080600739, 0.196547612547874, -0.167055293917656, 0.824991166591644, -0.152129679918289, -0.320024162530899, 0.003780600382015, -0.218259587883949, -0.070636190474033, -0.089686989784241
-1.010335087776184, 1.752882719039917, -0.519128143787384, 0.450364381074905, -0.872669935226440, 0.000000000000000, -2.238750457763672, 0.404398620128632, -0.468255490064621, 2.279073953628540, -0.757725298404694, 0.000000000000000, 0.371541261672974, -0.118131525814533, 0.190692007541656, -0.158299580216408, 0.825984835624695, -0.145660504698753, -0.321304380893707, 0.003843327052891, -0.218824833631516, -0.068966351449490, -0.106330111622810
-0.940782308578491, 1.817739009857178, -0.550206661224365, 0.402298152446747, -0.872669935226440, 0.000000000000000, -2.252190351486206, 0.417484790086746, -0.480613172054291, 2.296507358551025, -0.772844791412354, 0.000000000000000, 0.393437385559082, -0.102856531739235, 0.187466934323311, -0.152279421687126, 0.824699640274048, -0.140670835971832, -0.318714141845703, 0.004077299963683, -0.216996088624001, -0.067501664161682, -0.123513467609882
-0.876173436641693, 1.875991225242615, -0.578821003437042, 0.357815891504288, -0.872669935226440, 0.000000000000000, -2.262312889099121, 0.429678171873093, -0.489863693714142, 2.310141801834106, -0.785183191299438, 0.000000000000000, 0.412715882062912, -0.089113749563694, 0.187280967831612, -0.148725405335426, 0.821257412433624, -0.136730909347534, -0.311181277036667, 0.004456528462470, -0.212299659848213, -0.066137090325356, -0.140900984406471
-0.816759109497070, 1.927085280418396, -0.604963064193726, 0.316618621349335, -0.872669935226440, 0.000000000000000, -2.268730640411377, 0.441418915987015, -0.496325492858887, 2.319629192352295, -0.794576346874237, 0.000000000000000, 0.429423421621323, -0.077499985694885, 0.190320894122124, -0.147843390703201, 0.816136598587036, -0.132977232336998, -0.298285722732544, 0.004906605463475, -0.204576417803764, -0.064666971564293, -0.158317893743515
-0.762528836727142, 1.970802664756775, -0.628708302974701, 0.278394520282745, -0.872669935226440, 0.000000000000000, -2.271567583084106, 0.452906966209412, -0.500539064407349, 2.324988603591919, -0.801146626472473, 0.000000000000000, 0.443653553724289, -0.068275474011898, 0.196392685174942, -0.150242418050766, 0.810069978237152, -0.128293916583061, -0.280308067798615, 0.005325892940164, -0.194003701210022, -0.062831185758114, -0.175788924098015
-0.713268220424652, 2.007304430007935, -0.650205910205841, 0.242856159806252, -0.872669935226440, 0.000000000000000, -2.271295785903931, 0.464117527008057, -0.503098726272583, 2.326760053634644, -0.805270254611969, 0.000000000000000, 0.455680817365646, -0.061513166874647, 0.204852551221848, -0.156511187553406, 0.803844094276428, -0.121773920953274, -0.258258730173111, 0.005630425643176, -0.181127220392227, -0.060433682054281, -0.193425968289375
-0.668620049953461, 2.037090778350830, -0.669656872749329, 0.209749788045883, -0.872669935226440, 0.000000000000000, -2.268601894378662, 0.474839866161346, -0.504472792148590, 2.326060771942139, -0.807521581649780, 0.000000000000000, 0.466138482093811, -0.056958362460136, 0.215156823396683, -0.166525185108185, 0.798156261444092, -0.113042779266834, -0.233497962355614, 0.005784161388874, -0.166713461279869, -0.057425208389759, -0.210894078016281
-0.628160774707794, 2.060920476913452, -0.687283277511597, 0.178870841860771, -0.872669935226440, 0.000000000000000, -2.263932704925537, 0.484892100095749, -0.504719495773315, 2.324117898941040, -0.808391392230988, 0.000000000000000, 0.475159108638763, -0.053598478436470, 0.227499470114708, -0.178831130266190, 0.793486952781677, -0.102392852306366, -0.206967025995255, 0.005807868670672, -0.151398107409477, -0.053929876536131, -0.227154403924942
-0.591459453105927, 2.079747915267944, -0.703309297561646, 0.150074675679207, -0.872669935226440, 0.000000000000000, -2.257792234420776, 0.494123935699463, -0.503899157047272, 2.321917533874512, -0.808325946331024, 0.000000000000000, 0.482474625110626, -0.050444379448891, 0.241407826542854, -0.191283911466599, 0.789896786212921, -0.090827241539955, -0.179642468690872, 0.005763608496636, -0.135832369327545, -0.050239268690348, -0.241293311119080
-0.558101475238800, 2.094582557678223, -0.717941343784332, 0.123249813914299, -0.872669935226440, 0.000000000000000, -2.251002311706543, 0.502279818058014, -0.502277553081512, 2.320128202438354, -0.807813763618469, 0.000000000000000, 0.488170653581619, -0.047262538224459, 0.255406051874161, -0.202373072504997, 0.787113487720490, -0.079571627080441, -0.152973636984825, 0.005711457226425, -0.120811477303505, -0.046680174767971, -0.253679454326630
-0.527699172496796, 2.106338500976562, -0.731351196765900, 0.098287791013718, -0.872669935226440, 0.000000000000000, -2.244442939758301, 0.509068727493286, -0.500112295150757, 2.319515466690063, -0.807374238967896, 0.000000000000000, 0.492609202861786, -0.043827500194311, 0.268194586038589, -0.211271703243256, 0.784775376319885, -0.069609433412552, -0.128454372286797, 0.005686672404408, -0.107093013823032, -0.043506298214197, -0.264893770217896
-0.499918580055237, 2.115767717361450, -0.743667066097260, 0.075083792209625, -0.872669935226440, 0.000000000000000, -2.238891839981079, 0.514259219169617, -0.497672706842422, 2.320606946945190, -0.807431995868683, 0.000000000000000, 0.496273964643478, -0.040005531162024, 0.278929620981216, -0.217653736472130, 0.782576918601990, -0.061545658856630, -0.107251398265362, 0.005701903719455, -0.095245815813541, -0.040870681405067, -0.275517761707306
-0.474504321813583, 2.123456001281738, -0.754975080490112, 0.053549241274595, -0.872669935226440, 0.000000000000000, -2.234879255294800, 0.517721593379974, -0.495101183652878, 2.323337316513062, -0.808175802230835, 0.000000000000000, 0.499644815921783, -0.035954885184765, 0.287045717239380, -0.221755266189575, 0.780269861221313, -0.055723011493683, -0.090325534343719, 0.005756710190326, -0.085708007216454, -0.038855396211147, -0.286211013793945
-0.451279073953629, 2.129846811294556, -0.765326797962189, 0.033614959567785, -0.872669935226440, 0.000000000000000, -2.232668399810791, 0.519431531429291, -0.492422640323639, 2.327180147171021, -0.809577643871307, 0.000000000000000, 0.502607405185699, -0.031276788562536, 0.292416691780090, -0.224161386489868, 0.777616679668427, -0.052411157637835, -0.078599147498608, 0.005847237072885, -0.078879565000534, -0.037520565092564, -0.296684384346008
-0.430145442485809, 2.135244369506836, -0.774743616580963, 0.015235317870975, -0.872669935226440, 0.000000000000000, -2.232224225997925, 0.519490063190460, -0.489637434482574, 2.331329345703125, -0.811434745788574, 0.000000000000000, 0.505148768424988, -0.025821557268500, 0.295274466276169, -0.225645497441292, 0.774516582489014, -0.051684994250536, -0.072736427187920, 0.005965874530375, -0.075032927095890, -0.036878500133753, -0.306400626897812
-0.411070317029953, 2.139816999435425, -0.783221125602722, -0.001617195433937, -0.872669935226440, 0.000000000000000, -2.233318090438843, 0.518142104148865, -0.487013369798660, 2.335192441940308, -0.813538372516632, 0.000000000000000, 0.507456004619598, -0.020055653527379, 0.296529650688171, -0.226784095168114, 0.770979702472687, -0.053475428372622, -0.072771452367306, 0.006107414141297, -0.074155561625957, -0.036906752735376, -0.314703226089478
-0.394066125154495, 2.143627643585205, -0.790737926959991, -0.016954498365521, -0.872669935226440, 0.000000000000000, -2.235565423965454, 0.515746235847473, -0.484989315271378, 2.338726758956909, -0.815758943557739, 0.000000000000000, 0.508759260177612, -0.014485297724605, 0.296173363924026, -0.227633967995644, 0.767255485057831, -0.057349398732185, -0.077829420566559, 0.006265375297517, -0.075836971402168, -0.037498995661736, -0.321121990680695
-0.379195988178253, 2.146689414978027, -0.797259807586670, -0.030759852379560, -0.872669935226440, 0.000000000000000, -2.238487005233765, 0.512677848339081, -0.483845084905624, 2.341890811920166, -0.817931115627289, 0.000000000000000, 0.508778214454651, -0.009756045415998, 0.293917626142502, -0.227418780326843, 0.763853132724762, -0.062468592077494, -0.086200870573521, 0.006429963279516, -0.079314924776554, -0.038458369672298, -0.325498253107071
-0.366565555334091, 2.148987054824829, -0.802743554115295, -0.042987685650587, -0.872669935226440, 0.000000000000000, -2.241525411605835, 0.509293198585510, -0.483656316995621, 2.344174861907959, -0.819759368896484, 0.000000000000000, 0.507866799831390, -0.006451413501054, 0.290334135293961, -0.225308537483215, 0.761137962341309, -0.068161159753799, -0.096372634172440, 0.006594014819711, -0.083914369344711, -0.039625536650419, -0.327621281147003
-0.356294691562653, 2.150486469268799, -0.807141780853271, -0.053574278950691, -0.872669935226440, 0.000000000000000, -2.243884801864624, 0.505995571613312, -0.484302550554276, 2.344794988632202, -0.820805251598358, 0.000000000000000, 0.506866335868835, -0.004873982630670, 0.286159157752991, -0.221236005425453, 0.759395003318787, -0.073803104460239, -0.107686258852482, 0.006739887408912, -0.089328490197659, -0.040849160403013, -0.327187716960907
-0.348498344421387, 2.151167869567871, -0.810409247875214, -0.062437273561954, -0.872669935226440, 0.000000000000000, -2.244802951812744, 0.503150343894958, -0.485665977001190, 2.342895984649658, -0.820635437965393, 0.000000000000000, 0.504954934120178, -0.004633744712919, 0.281637787818909, -0.215621799230576, 0.758959114551544, -0.078665621578693, -0.119432255625725, 0.006843616254628, -0.095205239951611, -0.041948582977057, -0.323542416095734
-0.343274414539337, 2.151060342788696, -0.812506616115570, -0.069474168121815, -0.872669935226440, 0.000000000000000, -2.243718862533569, 0.501048445701599, -0.487640738487244, 2.338133573532104, -0.818995356559753, 0.000000000000000, 0.500740408897400, -0.006540821399540, 0.277616709470749, -0.207940459251404, 0.760069966316223, -0.082289747893810, -0.129518553614616, 0.006904616951942, -0.100579395890236, -0.042806666344404, -0.316306948661804
-0.340693205595016, 2.150269508361816, -0.813404738903046, -0.074565134942532, -0.872669935226440, 0.000000000000000, -2.240251779556274, 0.499985218048096, -0.490208089351654, 2.331248998641968, -0.815923810005188, 0.000000000000000, 0.494523108005524, -0.011562247760594, 0.274053484201431, -0.197213172912598, 0.763240039348602, -0.083895094692707, -0.136040240526199, 0.006909593939781, -0.104614943265915, -0.043243307620287, -0.305563330650330
-0.340807557106018, 2.148999691009521, -0.813084602355957, -0.077572345733643, -0.872669935226440, 0.000000000000000, -2.235300064086914, 0.499729216098785, -0.493965953588486, 2.322602272033691, -0.811857223510742, 0.000000000000000, 0.484630048274994, -0.019151885062456, 0.270961582660675, -0.183822348713875, 0.768235087394714, -0.083749689161777, -0.139201492071152, 0.006867224816233, -0.107375867664814, -0.043313946574926, -0.291250616312027
-0.343655467033386, 2.147541046142578, -0.811537563800812, -0.078347168862820, -0.872669935226440, 0.000000000000000, -2.229809045791626, 0.500056505203247, -0.499469876289368, 2.313010215759277, -0.807341754436493, 0.000000000000000, 0.470428705215454, -0.027428189292550, 0.267405599355698, -0.169285148382187, 0.775097191333771, -0.081471137702465, -0.140710905194283, 0.006737084593624, -0.109600506722927, -0.042921870946884, -0.273137241601944
-0.349260538816452, 2.146190643310547, -0.808758795261383, -0.076749481260777, -0.872669935226440, 0.000000000000000, -2.224316835403442, 0.500682413578033, -0.506241977214813, 2.303723573684692, -0.802808046340942, 0.000000000000000, 0.458006769418716, -0.036276590079069, 0.261963903903961, -0.152715519070625, 0.784929871559143, -0.075123764574528, -0.140754818916321, 0.006423295475543, -0.111492864787579, -0.041637599468231, -0.251281231641769
-0.357615500688553, 2.145179271697998, -0.804746091365814, -0.072679437696934, -0.872669935226440, 0.000000000000000, -2.219371080398560, 0.501298606395721, -0.513935744762421, 2.295782089233398, -0.798655152320862, 0.000000000000000, 0.445882111787796, -0.044590793550014, 0.254201591014862, -0.134204044938087, 0.796452522277832, -0.066459842026234, -0.141042202711105, 0.005983137059957, -0.113830931484699, -0.039867378771305, -0.226044565439224
-0.368658870458603, 2.144566774368286, -0.799495518207550, -0.066113650798798, -0.872669935226440, 0.000000000000000, -2.215589761734009, 0.501433432102203, -0.522134542465210, 2.289871692657471, -0.795222759246826, 0.000000000000000, 0.432213366031647, -0.051740005612373, 0.245002329349518, -0.114283509552479, 0.808122396469116, -0.057568106800318, -0.143009290099144, 0.005496609956026, -0.117225751280785, -0.038086187094450, -0.198298469185829
-0.382263302803040, 2.144175291061401, -0.792997479438782, -0.057125430554152, -0.872669935226440, 0.000000000000000, -2.213416099548340, 0.500459849834442, -0.529917299747467, 2.286571502685547, -0.792731642723083, 0.000000000000000, 0.417901933193207, -0.057556599378586, 0.235208451747894, -0.093651793897152, 0.819087147712708, -0.049445103853941, -0.147651419043541, 0.005002024117857, -0.122102975845337, -0.036517936736345, -0.169580489397049
-0.398280233144760, 2.143598794937134, -0.785232245922089, -0.045863106846809, -0.872669935226440, 0.000000000000000, -2.212786912918091, 0.497986435890198, -0.536241173744202, 2.286552667617798, -0.791231215000153, 0.000000000000000, 0.404438704252243, -0.062229886651039, 0.225220993161201, -0.073655009269714, 0.828687846660614, -0.042878028005362, -0.156206622719765, 0.004529702942818, -0.128967657685280, -0.035335276275873, -0.142004370689392
-0.416628926992416, 2.142299652099609, -0.776163697242737, -0.032496791332960, -0.872669935226440, 0.000000000000000, -2.213760375976562, 0.493950545787811, -0.541321098804474, 2.289800643920898, -0.790715992450714, 0.000000000000000, 0.393416464328766, -0.067133568227291, 0.214612066745758, -0.055375445634127, 0.836554110050201, -0.038439184427261, -0.169226840138435, 0.004109115805477, -0.137994796037674, -0.034660734236240, -0.117984838783741
-0.437317699193954, 2.139608144760132, -0.765734612941742, -0.017206698656082, -0.872669935226440, 0.000000000000000, -2.216550111770630, 0.488387554883957, -0.546051919460297, 2.295558452606201, -0.791086614131927, 0.000000000000000, 0.385106623172760, -0.072759717702866, 0.202985852956772, -0.039290677756071, 0.843002438545227, -0.035858742892742, -0.185991108417511, 0.003736549988389, -0.148797169327736, -0.034425422549248, -0.098734177649021
-0.460414201021194, 2.134651660919189, -0.753859221935272, -0.000194087348063, -0.872669935226440, 0.000000000000000, -2.220351934432983, 0.481446504592896, -0.549736142158508, 2.303240299224854, -0.791820883750916, 0.000000000000000, 0.378268301486969, -0.078376837074757, 0.191501796245575, -0.025705676525831, 0.848860681056976, -0.034195907413960, -0.204769298434258, 0.003376104868948, -0.160532593727112, -0.034405846148729, -0.083890132606030
-0.486105114221573, 2.126544237136841, -0.740428209304810, 0.018384296447039, -0.872669935226440, 0.000000000000000, -2.225502014160156, 0.473069131374359, -0.553457796573639, 2.310527324676514, -0.792497873306274, 0.000000000000000, 0.372905164957047, -0.084356971085072, 0.179947748780251, -0.014692587777972, 0.854872703552246, -0.032704599201679, -0.224366307258606, 0.002992755034938, -0.172601804137230, -0.034425422549248, -0.073046453297138
-0.514624655246735, 2.114266157150269, -0.725301861763000, 0.038387425243855, -0.872669935226440, 0.000000000000000, -2.230818271636963, 0.463642537593842, -0.556399047374725, 2.316148996353149, -0.792285680770874, 0.000000000000000, 0.367865055799484, -0.090465679764748, 0.169760689139366, -0.006106308661401, 0.861386358737946, -0.031195774674416, -0.243522331118584, 0.002581883221865, -0.184374943375587, -0.034436754882336, -0.064686737954617
-0.546264946460724, 2.096829891204834, -0.708322882652283, 0.059731848537922, -0.872669935226440, 0.000000000000000, -2.235722780227661, 0.453393757343292, -0.558311939239502, 2.318812847137451, -0.790582239627838, 0.000000000000000, 0.363052368164062, -0.096288852393627, 0.161292418837547, 0.000139225972816, 0.868603229522705, -0.029382256790996, -0.261585503816605, 0.002124760067090, -0.195520192384720, -0.034368567168713, -0.057423565536737
-0.581357717514038, 2.073343038558960, -0.689324855804443, 0.082407452166080, -0.872669935226440, 0.000000000000000, -2.239634275436401, 0.442715436220169, -0.559047162532806, 2.318182945251465, -0.786995887756348, 0.000000000000000, 0.358279407024384, -0.101930312812328, 0.154877483844757, 0.004240733571351, 0.876166880130768, -0.027632182464004, -0.278104364871979, 0.001651847152971, -0.205781102180481, -0.034301277250051, -0.050491597503424
-0.620259881019592, 2.043094873428345, -0.668143749237061, 0.106491528451443, -0.872669935226440, 0.000000000000000, -2.242127418518066, 0.432031869888306, -0.558614194393158, 2.314153194427490, -0.781261384487152, 0.000000000000000, 0.353296667337418, -0.107648022472858, 0.150751501321793, 0.006340077612549, 0.883392989635468, -0.026607476174831, -0.292766034603119, 0.001217867247760, -0.214949205517769, -0.034381560981274, -0.043667994439602
-0.663337945938110, 2.005600690841675, -0.644625425338745, 0.132152825593948, -0.872669935226440, 0.000000000000000, -2.242769479751587, 0.421815782785416, -0.557025790214539, 2.306579351425171, -0.773129701614380, 0.000000000000000, 0.347592949867249, -0.113761834800243, 0.149082109332085, 0.006290763150901, 0.889520823955536, -0.027012867853045, -0.305370509624481, 0.000885546382051, -0.222840875387192, -0.034763947129250, -0.037095814943314
-0.710935831069946, 1.960612893104553, -0.618632316589355, 0.159640625119209, -0.872669935226440, 0.000000000000000, -2.241125822067261, 0.412511795759201, -0.554279148578644, 2.295138597488403, -0.762342631816864, 0.000000000000000, 0.340239018201828, -0.120500735938549, 0.150028124451637, 0.003574970178306, 0.893894672393799, -0.029488112777472, -0.315838158130646, 0.000715888163541, -0.229298591613770, -0.035586461424828, -0.031096819788218
-0.763314843177795, 1.908104419708252, -0.590050697326660, 0.189251840114594, -0.872669935226440, 0.000000000000000, -2.236891984939575, 0.404379844665527, -0.550400555133820, 2.279489755630493, -0.748717784881592, 0.000000000000000, 0.330029606819153, -0.128102526068687, 0.154054343700409, -0.002352090785280, 0.896030545234680, -0.034649677574635, -0.323898315429688, 0.000774661777541, -0.234073817729950, -0.036984559148550, -0.026020102202892
-0.820574820041656, 1.848239183425903, -0.558801352977753, 0.221279576420784, -0.872669935226440, 0.000000000000000, -2.229873418807983, 0.397378236055374, -0.545287251472473, 2.259604930877686, -0.732208549976349, 0.000000000000000, 0.316187977790833, -0.136822268366814, 0.161735668778419, -0.011715220287442, 0.895733773708344, -0.042801104485989, -0.328780710697174, 0.001104577677324, -0.236741349101067, -0.039023466408253, -0.022143520414829
-0.882580280303955, 1.781364440917969, -0.524853765964508, 0.255969852209091, -0.872669935226440, 0.000000000000000, -2.219851016998291, 0.391127496957779, -0.538475513458252, 2.235750675201416, -0.712854981422424, 0.000000000000000, 0.298702239990234, -0.146467655897141, 0.173027202486992, -0.024723125621676, 0.893188893795013, -0.053423125296831, -0.329455912113190, 0.001667410717346, -0.236822545528412, -0.041568629443645, -0.019656483083963
-0.948908090591431, 1.708042979240417, -0.488242983818054, 0.293507635593414, -0.872669935226440, 0.000000000000000, -2.206545829772949, 0.384969323873520, -0.529138267040253, 2.208192825317383, -0.690711259841919, 0.000000000000000, 0.278028368949890, -0.156396701931953, 0.187306642532349, -0.041725538671017, 0.888741433620453, -0.065258890390396, -0.324833095073700, 0.002348010428250, -0.233851104974747, -0.044300105422735, -0.018712822347879
-1.018802523612976, 1.629107713699341, -0.449090957641602, 0.334016174077988, -0.872668862342834, 0.000000000000000, -2.189659357070923, 0.378100037574768, -0.516291737556458, 2.176941394805908, -0.665810585021973, 0.000000000000000, 0.254782587289810, -0.165791764855385, 0.203684642910957, -0.063050672411919, 0.882573902606964, -0.076836906373501, -0.313982576131821, 0.003008218016475, -0.227455213665962, -0.046840496361256, -0.019500372931361
-1.091137528419495, 1.545685410499573, -0.407628089189529, 0.377539724111557, -0.872565925121307, 0.000000000000000, -2.168936729431152, 0.369657367467880, -0.499003350734711, 2.141659498214722, -0.638168454170227, 0.000000000000000, 0.229527577757835, -0.173817858099937, 0.221235007047653, -0.088885411620140, 0.874573290348053, -0.086903356015682, -0.296329945325851, 0.003534387331456, -0.217431157827377, -0.048864662647247, -0.022250289097428
-1.164414882659912, 1.459131002426147, -0.364199042320251, 0.423997223377228, -0.871101737022400, 0.000000000000000, -2.144443273544312, 0.358722209930420, -0.476770371198654, 2.101761102676392, -0.607898831367493, 0.000000000000000, 0.202674090862274, -0.179789260029793, 0.239247918128967, -0.119281359016895, 0.864466190338135, -0.094544008374214, -0.271638721227646, 0.003853933187202, -0.203727021813393, -0.050134252756834, -0.027182841673493
-1.236817955970764, 1.370909929275513, -0.319250166416168, 0.473131537437439, -0.865357160568237, 0.000000000000000, -2.116963863372803, 0.344593405723572, -0.450340718030930, 2.056779384613037, -0.575412333011627, 0.000000000000000, 0.174327895045280, -0.183416798710823, 0.257365822792053, -0.154285416007042, 0.851989150047302, -0.099202245473862, -0.240044593811035, 0.003936846740544, -0.186452791094780, -0.050504859536886, -0.034448467195034
-1.306313395500183, 1.282484292984009, -0.273309111595154, 0.524469196796417, -0.854303240776062, 0.000000000000000, -2.087655305862427, 0.327333062887192, -0.421873956918716, 2.007004022598267, -0.541413784027100, 0.000000000000000, 0.144105717539787, -0.184684738516808, 0.275247365236282, -0.194017440080643, 0.836921513080597, -0.100832611322403, -0.202462106943130, 0.003797652199864, -0.166076689958572, -0.049965623766184, -0.044070571660995
-1.370806813240051, 1.195205688476562, -0.226957410573959, 0.577273368835449, -0.837938666343689, 0.000000000000000, -2.057298183441162, 0.307593137025833, -0.393487095832825, 1.953545689582825, -0.506646931171417, 0.000000000000000, 0.111621454358101, -0.183327227830887, 0.292169958353043, -0.238124132156372, 0.819071054458618, -0.100137852132320, -0.160870105028152, 0.003495778888464, -0.143616423010826, -0.048706147819757, -0.055872481316328
-1.428358674049377, 1.110164165496826, -0.180771097540855, 0.630496084690094, -0.816279351711273, 0.000000000000000, -2.026187658309937, 0.286170423030853, -0.366561681032181, 1.897598028182983, -0.471690922975540, 0.000000000000000, 0.077457807958126, -0.179210454225540, 0.307866513729095, -0.285005122423172, 0.798487424850464, -0.098233297467232, -0.117193929851055, 0.003106933319941, -0.120163396000862, -0.047040302306414, -0.069504454731941
-1.477359890937805, 1.028150439262390, -0.135275438427925, 0.682792544364929, -0.789345145225525, 0.000000000000000, -1.994595170021057, 0.263453185558319, -0.341497033834457, 1.839409708976746, -0.436860084533691, 0.000000000000000, 0.042671713978052, -0.172847345471382, 0.323022842407227, -0.332714915275574, 0.775470197200775, -0.096149682998657, -0.072713680565357, 0.002685520565137, -0.096504420042038, -0.045264422893524, -0.084728255867958
-1.516605615615845, 0.949768304824829, -0.090948775410652, 0.732589185237885, -0.757176458835602, 0.000000000000000, -1.962833166122437, 0.239685907959938, -0.318346321582794, 1.778562664985657, -0.402301847934723, 0.000000000000000, 0.008390135131776, -0.165144279599190, 0.338269352912903, -0.379691272974014, 0.750120162963867, -0.095095179975033, -0.028744477778673, 0.002269639866427, -0.073360733687878, -0.043702911585569, -0.101629935204983
-1.545312643051147, 0.875439941883087, -0.048190720379353, 0.778178811073303, -0.719846069812775, 0.000000000000000, -1.930891633033752, 0.215162396430969, -0.296999722719193, 1.714845895767212, -0.368136614561081, 0.000000000000000, -0.024143051356077, -0.156668379902840, 0.353553801774979, -0.424588084220886, 0.722081542015076, -0.096417546272278, 0.013045344501734, 0.001876290887594, -0.051557466387749, -0.042702108621597, -0.120351739227772
-1.563020586967468, 0.805368542671204, -0.007277368102223, 0.817863464355469, -0.677464246749878, 0.000000000000000, -1.898126602172852, 0.190169811248779, -0.277028024196625, 1.648664712905884, -0.334507137537003, 0.000000000000000, -0.053113542497158, -0.147518858313560, 0.368253976106644, -0.465847790241241, 0.690682232379913, -0.101137131452560, 0.050854422152042, 0.001492145704105, -0.031957603991032, -0.042527064681053, -0.140728011727333
-1.569503188133240, 0.739585220813751, 0.031630635261536, 0.850031197071075, -0.630181312561035, 0.000000000000000, -1.863491415977478, 0.164915084838867, -0.257793456315994, 1.580720543861389, -0.301574170589447, 0.000000000000000, -0.076102159917355, -0.137542307376862, 0.381507068872452, -0.501895487308502, 0.655561864376068, -0.109305299818516, 0.083197779953480, 0.001082162838429, -0.015250502154231, -0.043209578841925, -0.162166699767113
-1.564765095710754, 0.678048312664032, 0.068442203104496, 0.873155772686005, -0.578192293643951, 0.000000000000000, -1.825958251953125, 0.139516860246658, -0.238708123564720, 1.511561155319214, -0.269514501094818, 0.000000000000000, -0.091022171080112, -0.126611799001694, 0.392744719982147, -0.531479835510254, 0.617043793201447, -0.120033331215382, 0.109288156032562, 0.000615024939179, -0.001775356940925, -0.044551555067301, -0.183738112449646
-1.548986792564392, 0.620798170566559, 0.103050097823143, 0.885823607444763, -0.521743118762970, 0.000000000000000, -1.784606218338013, 0.114141359925270, -0.219489172101021, 1.441418051719666, -0.238515451550484, 0.000000000000000, -0.097053714096546, -0.114752091467381, 0.401734262704849, -0.553605318069458, 0.576041638851166, -0.132066324353218, 0.129212945699692, 0.000080069199612, 0.008532450534403, -0.046264611184597, -0.204331576824188
-1.522429466247559, 0.568215191364288, 0.135179385542870, 0.886776804924011, -0.461141198873520, 0.000000000000000, -1.738366127014160, 0.089175797998905, -0.200276881456375, 1.370327711105347, -0.208763748407364, 0.000000000000000, -0.094692222774029, -0.102032005786896, 0.407902777194977, -0.567653954029083, 0.533843159675598, -0.144110798835754, 0.143799856305122, -0.000512798025738, 0.016060909256339, -0.048051372170448, -0.222804397344589
-1.487261891365051, 0.519575536251068, 0.165286540985107, 0.874681830406189, -0.397102028131485, 0.000000000000000, -1.685641407966614, 0.065186962485313, -0.181394830346107, 1.298490643501282, -0.180427640676498, 0.000000000000000, -0.084111452102661, -0.089006222784519, 0.411251902580261, -0.572634935379028, 0.491928458213806, -0.155038654804230, 0.154981210827827, -0.001132268924266, 0.021671313792467, -0.049654450267553, -0.238450884819031
-1.448322415351868, 0.471363872289658, 0.195458665490150, 0.849935293197632, -0.332209050655365, 0.000000000000000, -1.625469326972961, 0.042392525821924, -0.162874713540077, 1.226041197776794, -0.153673082590103, 0.000000000000000, -0.065411120653152, -0.076855361461639, 0.413666576147079, -0.566642761230469, 0.451467186212540, -0.164424180984497, 0.165960684418678, -0.001732275122777, 0.026774151250720, -0.050980117172003, -0.251141637563705
-1.405481219291687, 0.423265546560287, 0.225596532225609, 0.817272543907166, -0.270681947469711, 0.000000000000000, -1.560357570648193, 0.020412683486938, -0.144728586077690, 1.152333617210388, -0.128714546561241, 0.000000000000000, -0.043327797204256, -0.064719118177891, 0.414720743894577, -0.551455020904541, 0.412732273340225, -0.172433435916901, 0.178045436739922, -0.002294778125361, 0.031974382698536, -0.052057269960642, -0.260436832904816
-1.357267498970032, 0.376646161079407, 0.254766404628754, 0.778697729110718, -0.214080497622490, 0.000000000000000, -1.492599844932556, -0.000422811543103, -0.127547964453697, 1.078928351402283, -0.105616673827171, 0.000000000000000, -0.020386658608913, -0.051691267639399, 0.415018528699875, -0.528223633766174, 0.376610696315765, -0.178677856922150, 0.192715972661972, -0.002792779821903, 0.037943653762341, -0.052784115076065, -0.265534460544586
-1.304197192192078, 0.332921117544174, 0.282371431589127, 0.733616411685944, -0.162547081708908, 0.000000000000000, -1.424842596054077, -0.019800199195743, -0.111824482679367, 1.008255124092102, -0.084374591708183, 0.000000000000000, 0.004062863066792, -0.037195120006800, 0.414464801549911, -0.497761040925980, 0.344981193542480, -0.181697919964790, 0.210996270179749, -0.003182581393048, 0.045142091810703, -0.052808746695518, -0.266305744647980
-1.248597264289856, 0.294259697198868, 0.307783097028732, 0.680616736412048, -0.116160906851292, 0.000000000000000, -1.359302043914795, -0.037109449505806, -0.098269738256931, 0.942389309406281, -0.064968310296535, 0.000000000000000, 0.032718624919653, -0.021941425278783, 0.411612421274185, -0.461225777864456, 0.319113016128540, -0.180459320545197, 0.233408361673355, -0.003422637470067, 0.053813979029655, -0.051867444068193, -0.265958428382874
-1.190948486328125, 0.262062728404999, 0.330607593059540, 0.620773196220398, -0.074861206114292, 0.000000000000000, -1.297901988029480, -0.052003152668476, -0.087550133466721, 0.881844103336334, -0.047440651804209, 0.000000000000000, 0.064882002770901, -0.008933050557971, 0.406207680702209, -0.419474184513092, 0.297286689281464, -0.176718518137932, 0.260589241981506, -0.003524960950017, 0.064258754253387, -0.050347719341516, -0.267396301031113
-1.128578901290894, 0.234335541725159, 0.351736873388290, 0.560236871242523, -0.038335680961609, 0.000000000000000, -1.241902232170105, -0.065098114311695, -0.079898476600647, 0.826379179954529, -0.031835734844208, 0.000000000000000, 0.093031853437424, 0.002241114387289, 0.398474991321564, -0.376726448535919, 0.277272135019302, -0.172002986073494, 0.290434896945953, -0.003542808117345, 0.075575523078442, -0.048591271042824, -0.267202407121658
-1.065858244895935, 0.208384871482849, 0.373566091060638, 0.501512885093689, -0.006439354270697, 0.000000000000000, -1.190175175666809, -0.078027158975601, -0.074912168085575, 0.777041316032410, -0.018042596057057, 0.000000000000000, 0.117654539644718, 0.012769203633070, 0.390696555376053, -0.334914237260818, 0.259620517492294, -0.165543705224991, 0.322421193122864, -0.003454762743786, 0.087532907724380, -0.046397261321545, -0.264684081077576
-1.004744410514832, 0.185399830341339, 0.395928680896759, 0.446490138769150, 0.020971309393644, 0.000000000000000, -1.142908334732056, -0.091659508645535, -0.072578057646751, 0.734719574451447, -0.005884480196983, 0.000000000000000, 0.140280649065971, 0.021822582930326, 0.383940517902374, -0.295292615890503, 0.244210481643677, -0.157314673066139, 0.356212317943573, -0.003260210389271, 0.099978081882000, -0.043751988559961, -0.261823505163193
-0.944483339786530, 0.167095959186554, 0.417327016592026, 0.398451715707779, 0.044120516628027, 0.000000000000000, -1.099970579147339, -0.105955980718136, -0.072781614959240, 0.700398087501526, 0.004884998779744, 0.000000000000000, 0.160692527890205, 0.028188308700919, 0.379546523094177, -0.259726911783218, 0.230181008577347, -0.147920623421669, 0.391120940446854, -0.002980725374073, 0.112603478133678, -0.040792509913445, -0.260631352663040
-0.884450912475586, 0.151842340826988, 0.437089204788208, 0.360168635845184, 0.063210606575012, 0.000000000000000, -1.060047268867493, -0.120884440839291, -0.074707835912704, 0.674469351768494, 0.014508767984807, 0.000000000000000, 0.178914114832878, 0.031499162316322, 0.378732502460480, -0.229811027646065, 0.217127025127411, -0.137662559747696, 0.426361709833145, -0.002627538517118, 0.125063955783844, -0.037588194012642, -0.262711554765701
-0.821584165096283, 0.138454258441925, 0.454268783330917, 0.332847148180008, 0.078394956886768, 0.000000000000000, -1.020560383796692, -0.136044397950172, -0.077557563781738, 0.656148850917816, 0.023193771019578, 0.000000000000000, 0.194660514593124, 0.033253304660320, 0.382476150989532, -0.206051379442215, 0.204825177788734, -0.126859739422798, 0.461010932922363, -0.002222354756668, 0.136979728937149, -0.034237734973431, -0.268181413412094
-0.753423750400543, 0.128035470843315, 0.467722207307816, 0.315672904253006, 0.089834734797478, 0.000000000000000, -0.980809628963470, -0.151248186826706, -0.080620445311069, 0.642539322376251, 0.031024433672428, 0.000000000000000, 0.208438977599144, 0.034964431077242, 0.390345722436905, -0.188094824552536, 0.192892044782639, -0.116059251129627, 0.494171172380447, -0.001808339497074, 0.148012414574623, -0.030917407944798, -0.277462512254715
-0.680662751197815, 0.121815793216228, 0.477021396160126, 0.306662797927856, 0.097838126122952, 0.000000000000000, -0.942296087741852, -0.165775761008263, -0.083858184516430, 0.630129456520081, 0.038017835468054, 0.000000000000000, 0.220004558563232, 0.037426900118589, 0.400952637195587, -0.174888566136360, 0.180604875087738, -0.106072671711445, 0.525137126445770, -0.001453045872040, 0.157935038208961, -0.027885267511010, -0.290059030056000
-0.604725956916809, 0.119285129010677, 0.482496023178101, 0.304456859827042, 0.102923542261124, 0.000000000000000, -0.905371785163879, -0.178576216101646, -0.087576687335968, 0.617732107639313, 0.044269751757383, 0.000000000000000, 0.229677721858025, 0.040989123284817, 0.412552446126938, -0.164555251598358, 0.167828828096390, -0.097306154668331, 0.553790271282196, -0.001195183838718, 0.166788354516029, -0.025287237018347, -0.304993331432343
-0.526817739009857, 0.119587786495686, 0.484617650508881, 0.307889074087143, 0.105620481073856, 0.000000000000000, -0.869350671768188, -0.189327374100685, -0.091735251247883, 0.605757474899292, 0.049911729991436, 0.000000000000000, 0.237799361348152, 0.045426227152348, 0.423399984836578, -0.155675366520882, 0.155439242720604, -0.089419260621071, 0.580295324325562, -0.001011200016364, 0.174712553620338, -0.023043284192681, -0.320528984069824
-0.448514610528946, 0.122274689376354, 0.483906537294388, 0.315172910690308, 0.106258414685726, 0.000000000000000, -0.834024548530579, -0.198044598102570, -0.096189856529236, 0.594785392284393, 0.055028811097145, 0.000000000000000, 0.244198709726334, 0.049974717199802, 0.431746542453766, -0.148008823394775, 0.144469469785690, -0.081879056990147, 0.604565799236298, -0.000857043254655, 0.181707859039307, -0.021001368761063, -0.334529280662537
-0.372265696525574, 0.126898452639580, 0.481104701757431, 0.323809117078781, 0.104885078966618, 0.000000000000000, -0.800069093704224, -0.204379141330719, -0.101036295294762, 0.585168063640594, 0.059638280421495, 0.000000000000000, 0.248618483543396, 0.053628016263247, 0.436279565095901, -0.141709968447685, 0.135758563876152, -0.074244342744350, 0.626459598541260, -0.000691229186486, 0.187735632061958, -0.019026366993785, -0.345266848802567
-0.301082760095596, 0.132594928145409, 0.477174401283264, 0.331033229827881, 0.101417697966099, 0.000000000000000, -0.768263638019562, -0.207590863108635, -0.106603570282459, 0.577130258083344, 0.063766755163670, 0.000000000000000, 0.250705540180206, 0.055493004620075, 0.436367183923721, -0.137243717908859, 0.129892051219940, -0.066189981997013, 0.645737528800964, -0.000479374197312, 0.192707777023315, -0.017011241987348, -0.351933747529984
-0.237073138356209, 0.138779014348984, 0.472907155752182, 0.334559112787247, 0.095967844128609, 0.000000000000000, -0.738864481449127, -0.207613825798035, -0.112969636917114, 0.570792794227600, 0.067561402916908, 0.000000000000000, 0.249952509999275, 0.055322058498859, 0.432531595230103, -0.135140776634216, 0.127011820673943, -0.057598091661930, 0.662197291851044, -0.000205118471058, 0.196547493338585, -0.014907609671354, -0.354393035173416
-0.181077390909195, 0.145802468061447, 0.468702465295792, 0.332944363355637, 0.088809341192245, 0.000000000000000, -0.712115108966827, -0.205652013421059, -0.119712255895138, 0.565857231616974, 0.071305193006992, 0.000000000000000, 0.246051445603371, 0.053510814905167, 0.426025062799454, -0.135573178529739, 0.126811102032661, -0.048559024930000, 0.675901532173157, 0.000127794657601, 0.199290186166763, -0.012729799374938, -0.353090107440948
-0.133694320917130, 0.153266265988350, 0.465021967887878, 0.326007634401321, 0.079741895198822, 0.000000000000000, -0.688659608364105, -0.202527254819870, -0.126617237925529, 0.561633646488190, 0.075364977121353, 0.000000000000000, 0.238728851079941, 0.050800155848265, 0.418109655380249, -0.138465031981468, 0.128670677542686, -0.039296597242355, 0.687085866928101, 0.000500849855598, 0.201043218374252, -0.010534534230828, -0.348560839891434
-0.095442749559879, 0.159665480256081, 0.462522745132446, 0.314783513545990, 0.068097032606602, 0.000000000000000, -0.669269144535065, -0.198522299528122, -0.133744210004807, 0.557295382022858, 0.080101311206818, 0.000000000000000, 0.227680206298828, 0.047860756516457, 0.409650564193726, -0.143669828772545, 0.131830051541328, -0.030090682208538, 0.696031212806702, 0.000887795467861, 0.201929569244385, -0.008398367092013, -0.341166526079178
-0.067692101001740, 0.163797527551651, 0.461945831775665, 0.300088882446289, 0.053548824042082, 0.000000000000000, -0.654981315135956, -0.194523870944977, -0.140973463654518, 0.551791548728943, 0.085723526775837, 0.000000000000000, 0.212715566158295, 0.044921003282070, 0.400856792926788, -0.150969922542572, 0.135569855570793, -0.021198896691203, 0.703036069869995, 0.001263425801881, 0.202076211571693, -0.006393082905561, -0.331311196088791
-0.049108132719994, 0.165202155709267, 0.463578253984451, 0.283332198858261, 0.036813050508499, 0.000000000000000, -0.646295487880707, -0.191265106201172, -0.148264452815056, 0.544391632080078, 0.092237569391727, 0.000000000000000, 0.193949460983276, 0.042039666324854, 0.391615301370621, -0.159949168562889, 0.139412999153137, -0.012759432196617, 0.708464145660400, 0.001615561544895, 0.201635390520096, -0.004553087987006, -0.319371074438095
-0.037597980350256, 0.163360759615898, 0.467542052268982, 0.265833258628845, 0.019267428666353, 0.000000000000000, -0.642931520938873, -0.189146444201469, -0.155705779790878, 0.534937500953674, 0.099374167621136, 0.000000000000000, 0.171773910522461, 0.039266534149647, 0.381676673889160, -0.170055925846100, 0.143153160810471, -0.004769874271005, 0.712701857089996, 0.001948170829564, 0.200767219066620, -0.002866788767278, -0.305686682462692
-0.031849700957537, 0.158493012189865, 0.473728567361832, 0.248195335268974, 0.002459581475705, 0.000000000000000, -0.644165933132172, -0.188663378357887, -0.163339540362358, 0.523742675781250, 0.106491141021252, 0.000000000000000, 0.147005990147591, 0.036697793751955, 0.370837002992630, -0.180614724755287, 0.146731391549110, 0.002858725376427, 0.716172039508820, 0.002275302540511, 0.199645653367043, -0.001293498440646, -0.290681898593903
-0.031117172911763, 0.151887804269791, 0.481689304113388, 0.230537354946136, -0.012402058579028, 0.000000000000000, -0.649243354797363, -0.189927667379379, -0.171336784958839, 0.511501967906952, 0.112540900707245, 0.000000000000000, 0.120852775871754, 0.034540057182312, 0.359193295240402, -0.190817892551422, 0.150238931179047, 0.010298100300133, 0.719364523887634, 0.002620400628075, 0.198472708463669, 0.000235276660533, -0.274759709835052
-0.035040289163589, 0.144965216517448, 0.490851968526840, 0.212874203920364, -0.024695865809917, 0.000000000000000, -0.657775819301605, -0.191931337118149, -0.180269360542297, 0.498988568782806, 0.116367377340794, 0.000000000000000, 0.094531297683716, 0.033073332160711, 0.347201555967331, -0.199845939874649, 0.153982713818550, 0.017819449305534, 0.722784578800201, 0.003017816692591, 0.197456449270248, 0.001820949953981, -0.258037269115448
-0.043067269027233, 0.138923004269600, 0.500633895397186, 0.195377498865128, -0.034196346998215, 0.000000000000000, -0.669460177421570, -0.193938642740250, -0.190574094653130, 0.486727356910706, 0.117210380733013, 0.000000000000000, 0.068939000368118, 0.032508119940758, 0.335464954376221, -0.207073420286179, 0.158238261938095, 0.025669159367681, 0.726848542690277, 0.003498265286908, 0.196766272187233, 0.003556509967893, -0.240340307354927
-0.054212365299463, 0.134584069252014, 0.510564327239990, 0.178420156240463, -0.040829386562109, 0.000000000000000, -0.683432698249817, -0.196401670575142, -0.202185332775116, 0.475279390811920, 0.114792890846729, 0.000000000000000, 0.044668771326542, 0.032894123345613, 0.324556678533554, -0.211994096636772, 0.163071587681770, 0.033981945365667, 0.731920480728149, 0.004078733734787, 0.196549937129021, 0.005497178528458, -0.221395954489708
-0.067224912345409, 0.132270827889442, 0.520386159420013, 0.162509515881538, -0.044553820043802, 0.000000000000000, -0.697845101356506, -0.200017005205154, -0.214815378189087, 0.465730607509613, 0.109211012721062, 0.000000000000000, 0.022211832925677, 0.034099828451872, 0.314942419528961, -0.214021846652031, 0.168295294046402, 0.042761527001858, 0.738407671451569, 0.004760073963553, 0.196975290775299, 0.007653185166419, -0.201050296425819
