isaac-sim2real/sage/motion_files/g1/amass/0-KIT_441_drinking03_poses.txt
left_hip_yaw_joint, left_hip_pitch_joint, left_hip_roll_joint, left_knee_joint, left_ankle_pitch_joint, left_ankle_roll_joint, right_hip_yaw_joint, right_hip_pitch_joint, right_hip_roll_joint, right_knee_joint, right_ankle_pitch_joint, right_ankle_roll_joint, torso_joint, left_shoulder_pitch_joint, left_shoulder_roll_joint, left_shoulder_yaw_joint, left_elbow_joint, left_wrist_roll_joint, right_shoulder_pitch_joint, right_shoulder_roll_joint, right_shoulder_yaw_joint, right_elbow_joint, right_wrist_roll_joint
-0.071393445134163, 0.179433092474937, 0.490679353475571, 0.140021771192551, 0.204044729471207, 0.000000000000000, -0.083935901522636, -0.115731403231621, -0.153859451413155, 0.088459797203541, 0.328798234462738, 0.000000000000000, -0.046384211629629, 0.154092147946358, 0.205269351601601, 0.111024178564548, 0.094334721565247, 0.045417983084917, -0.086964674293995, -0.000514987041242, -0.071678362786770, 0.007514357566833, -0.023435181006789
-0.070322938263416, 0.179298982024193, 0.490500301122665, 0.140222772955894, 0.204062208533287, 0.000000000000000, -0.082197450101376, -0.116155602037907, -0.153856083750725, 0.088716983795166, 0.328853338956833, 0.000000000000000, -0.046147566288710, 0.154140144586563, 0.202976509928703, 0.107097834348679, 0.095681615173817, 0.046318743377924, -0.090470768511295, -0.000536322360858, -0.073304675519466, 0.007720175199211, -0.028172619640827
-0.068561211228371, 0.179071143269539, 0.490181297063828, 0.140455245971680, 0.204037874937057, 0.000000000000000, -0.079270318150520, -0.117039322853088, -0.153846710920334, 0.089003235101700, 0.328888386487961, 0.000000000000000, -0.045618053525686, 0.154164031147957, 0.199655324220657, 0.100430339574814, 0.097995921969414, 0.047727189958096, -0.096545748412609, -0.000568738323636, -0.076155349612236, 0.008041209541261, -0.036151647567749
-0.066411361098289, 0.178854212164879, 0.489740282297134, 0.140569001436234, 0.203937143087387, 0.000000000000000, -0.075462542474270, -0.118224702775478, -0.153856113553047, 0.089225560426712, 0.328894406557083, 0.000000000000000, -0.044751513749361, 0.154132962226868, 0.196723982691765, 0.092088460922241, 0.101027660071850, 0.049394741654396, -0.104321494698524, -0.000606196583249, -0.079862594604492, 0.008420289494097, -0.045810289680958
-0.063988558948040, 0.178709313273430, 0.489189118146896, 0.140513584017754, 0.203758135437965, 0.000000000000000, -0.070916958153248, -0.119347877800465, -0.153928697109222, 0.089410610496998, 0.328914731740952, 0.000000000000000, -0.043485071510077, 0.153917983174324, 0.194830298423767, 0.082835361361504, 0.104767233133316, 0.051410432904959, -0.113179452717304, -0.000652759976219, -0.084160350263119, 0.008878490887582, -0.056263364851475
-0.061330325901508, 0.178597196936607, 0.488550454378128, 0.140294209122658, 0.203508973121643, 0.000000000000000, -0.065971091389656, -0.119945816695690, -0.154122337698936, 0.089479900896549, 0.328971803188324, 0.000000000000000, -0.042108450084925, 0.153347089886665, 0.193884983658791, 0.072845116257668, 0.109160579741001, 0.053712915629148, -0.122876979410648, -0.000706625811290, -0.088936612010002, 0.009401667863131, -0.067432090640068
-0.058426447212696, 0.178449243307114, 0.487848013639450, 0.139937043190002, 0.203204095363617, 0.000000000000000, -0.061326593160629, -0.119987577199936, -0.154436066746712, 0.089099802076817, 0.329011321067810, 0.000000000000000, -0.040939729660749, 0.152238503098488, 0.193656012415886, 0.062115527689457, 0.114200077950954, 0.056294791400433, -0.133260503411293, -0.000767835066654, -0.094112753868103, 0.009988173842430, -0.079418182373047
-0.055267628282309, 0.178181737661362, 0.487109422683716, 0.139470100402832, 0.202863350510597, 0.000000000000000, -0.057250920683146, -0.119959808886051, -0.154786646366119, 0.088086545467377, 0.328964322805405, 0.000000000000000, -0.039666112512350, 0.150229260325432, 0.194156855344772, 0.051144748926163, 0.120099477469921, 0.059601653367281, -0.143892899155617, -0.000855427933857, -0.099494248628616, 0.010742525570095, -0.092275626957417
-0.051923166960478, 0.177700400352478, 0.486372292041779, 0.138895004987717, 0.202497020363808, 0.000000000000000, -0.053247403353453, -0.119839064776897, -0.155160710215569, 0.086705297231674, 0.328849703073502, 0.000000000000000, -0.037528466433287, 0.147155463695526, 0.195364475250244, 0.040507294237614, 0.127032652497292, 0.064037516713142, -0.154535576701164, -0.000988292274997, -0.104986630380154, 0.011759921908379, -0.106065176427364
-0.048312749713659, 0.177186802029610, 0.485616505146027, 0.138205572962761, 0.202096179127693, 0.000000000000000, -0.048986691981554, -0.119203850626945, -0.155619069933891, 0.085218966007233, 0.328755050897598, 0.000000000000000, -0.035169515758753, 0.143661975860596, 0.197031050920486, 0.029453478753567, 0.134348794817924, 0.068380333483219, -0.165856525301933, -0.001112894387916, -0.110878638923168, 0.012753919698298, -0.120806723833084
-0.044201433658600, 0.177052155137062, 0.484768480062485, 0.137405306100845, 0.201656848192215, 0.000000000000000, -0.044726785272360, -0.118250660598278, -0.156140536069870, 0.083550862967968, 0.328726351261139, 0.000000000000000, -0.033988729119301, 0.140306517481804, 0.199350371956825, 0.017302878201008, 0.140952974557877, 0.070635713636875, -0.178250789642334, -0.001136284321547, -0.117336913943291, 0.013256265781820, -0.136383667588234
-0.039857447147369, 0.176960572600365, 0.483911424875259, 0.136502787470818, 0.201208531856537, 0.000000000000000, -0.040201004594564, -0.117803022265434, -0.156583696603775, 0.081795237958431, 0.328790336847305, 0.000000000000000, -0.033807758241892, 0.136906042695045, 0.202547922730446, 0.003975567407906, 0.147147446870804, 0.071431711316109, -0.191403016448021, -0.001085694064386, -0.124191217124462, 0.013415158726275, -0.152599036693573
-0.035508241504431, 0.176824584603310, 0.483078598976135, 0.135484486818314, 0.200777113437653, 0.000000000000000, -0.034906767308712, -0.118015348911285, -0.156916126608849, 0.080221086740494, 0.329004168510437, 0.000000000000000, -0.033352132886648, 0.132933139801025, 0.206713989377022, -0.009739439934492, 0.153746351599693, 0.072522640228271, -0.204653710126877, -0.001048149657436, -0.131144225597382, 0.013646117411554, -0.169137760996819
-0.031158026307821, 0.177197784185410, 0.482178777456284, 0.134246617555618, 0.200334310531616, 0.000000000000000, -0.029812630265951, -0.117203474044800, -0.157425016164780, 0.078533783555031, 0.329335719347000, 0.000000000000000, -0.032247636467218, 0.128500163555145, 0.211268872022629, -0.023293189704418, 0.160890206694603, 0.074385732412338, -0.218011736869812, -0.001049324520864, -0.138222888112068, 0.014064313843846, -0.185698717832565
-0.026761155575514, 0.177744910120964, 0.481264173984528, 0.132862821221352, 0.199882090091705, 0.000000000000000, -0.025665806606412, -0.115059643983841, -0.158154025673866, 0.076361432671547, 0.329610407352448, 0.000000000000000, -0.030846580862999, 0.123785167932510, 0.215908870100975, -0.036620240658522, 0.168352678418159, 0.076711468398571, -0.231539413332939, -0.001074113301001, -0.145458355545998, 0.014598281122744, -0.202152132987976
-0.022110164165497, 0.178199484944344, 0.480365335941315, 0.131450846791267, 0.199431434273720, 0.000000000000000, -0.021217245608568, -0.113780602812767, -0.158742636442184, 0.074127390980721, 0.329862236976624, 0.000000000000000, -0.029623134061694, 0.118982754647732, 0.220789864659309, -0.050001513212919, 0.175945729017258, 0.079150877892971, -0.245229557156563, -0.001103278482333, -0.152825042605400, 0.015165701508522, -0.218501195311546
-0.017131702974439, 0.178552016615868, 0.479482501745224, 0.130034342408180, 0.198981940746307, 0.000000000000000, -0.015957219526172, -0.113208122551441, -0.159200996160507, 0.072153039276600, 0.330239385366440, 0.000000000000000, -0.028751894831657, 0.114214986562729, 0.225992679595947, -0.063722386956215, 0.183642148971558, 0.081611946225166, -0.259088516235352, -0.001131163677201, -0.160299703478813, 0.015744486823678, -0.234863758087158
-0.011857108213007, 0.178845241665840, 0.478615731000900, 0.128594443202019, 0.198536574840546, 0.000000000000000, -0.010272499173880, -0.112575255334377, -0.159645348787308, 0.070346660912037, 0.330759942531586, 0.000000000000000, -0.028145285323262, 0.109489947557449, 0.231387227773666, -0.077920615673065, 0.191531613469124, 0.084234349429607, -0.273113757371902, -0.001166884321719, -0.167861267924309, 0.016367906704545, -0.251348078250885
-0.006309888325632, 0.179141193628311, 0.477760672569275, 0.127120122313499, 0.198107004165649, 0.000000000000000, -0.004398835822940, -0.111744537949562, -0.160097509622574, 0.068621315062046, 0.331401824951172, 0.000000000000000, -0.027666090056300, 0.104751579463482, 0.236844629049301, -0.092636182904243, 0.199730575084686, 0.087229482829571, -0.287241399288177, -0.001226028660312, -0.175464004278183, 0.017086908221245, -0.268012851476669
-0.000555102888029, 0.179413542151451, 0.476929485797882, 0.125614345073700, 0.197712257504463, 0.000000000000000, 0.001558685558848, -0.110844977200031, -0.160538747906685, 0.066933304071426, 0.332147359848022, 0.000000000000000, -0.027228802442551, 0.099938131868839, 0.242357268929482, -0.107919268310070, 0.208331495523453, 0.090769752860069, -0.301361769437790, -0.001323217176832, -0.183038666844368, 0.017943501472473, -0.284934431314468
0.005309828557074, 0.179627150297165, 0.476136296987534, 0.124076001346111, 0.197367563843727, 0.000000000000000, 0.007575485389680, -0.109988108277321, -0.160952359437943, 0.065285012125969, 0.332991182804108, 0.000000000000000, -0.026830935850739, 0.095041170716286, 0.247877791523933, -0.123983196914196, 0.217392325401306, 0.094916626811028, -0.315449595451355, -0.001465336768888, -0.190545246005058, 0.018952524289489, -0.302233725786209
0.011156033724546, 0.179792389273643, 0.475390106439590, 0.122484445571899, 0.197082906961441, 0.000000000000000, 0.013551974669099, -0.109158106148243, -0.161341413855553, 0.063650585711002, 0.333918064832687, 0.000000000000000, -0.026545535773039, 0.090071544051170, 0.253364115953445, -0.141163170337677, 0.226933673024178, 0.099600762128830, -0.329523175954819, -0.001648860517889, -0.197955206036568, 0.020096175372601, -0.320094913244247
0.016888611018658, 0.179891377687454, 0.474702417850494, 0.120831653475761, 0.196875408291817, 0.000000000000000, 0.019362373277545, -0.108296200633049, -0.161714196205139, 0.061984498053789, 0.334903776645660, 0.000000000000000, -0.026445522904396, 0.085022658109665, 0.258812695741653, -0.159768223762512, 0.236964672803879, 0.104715153574944, -0.343572646379471, -0.001866809907369, -0.205226644873619, 0.021346854045987, -0.338749349117279
0.022537991404533, 0.179890349507332, 0.474077433347702, 0.119145244359970, 0.196764335036278, 0.000000000000000, 0.025009481236339, -0.107372738420963, -0.162071496248245, 0.060289207845926, 0.335931539535522, 0.000000000000000, -0.026526000350714, 0.079895660281181, 0.264208108186722, -0.179997041821480, 0.247514858841896, 0.110214315354824, -0.357568502426147, -0.002117087133229, -0.212315216660500, 0.022691965103149, -0.358348399400711
0.028219951316714, 0.179791510105133, 0.473505973815918, 0.117464229464531, 0.196761310100555, 0.000000000000000, 0.030569393187761, -0.106392838060856, -0.162407845258713, 0.058591153472662, 0.336984038352966, 0.000000000000000, -0.026728415861726, 0.074698016047478, 0.269552558660507, -0.201922833919525, 0.258624225854874, 0.116097301244736, -0.371445000171661, -0.002401597099379, -0.219168066978455, 0.024129962548614, -0.378933876752853
0.033995721489191, 0.179626569151878, 0.472977072000504, 0.115798071026802, 0.196871414780617, 0.000000000000000, 0.036088932305574, -0.105397924780846, -0.162714555859566, 0.056899446994066, 0.338040053844452, 0.000000000000000, -0.027036096900702, 0.069490045309067, 0.274812161922455, -0.225601807236671, 0.270335197448730, 0.122353337705135, -0.385148823261261, -0.002721259370446, -0.225739687681198, 0.025656543672085, -0.400553464889526
0.039800222963095, 0.179404944181442, 0.472491681575775, 0.114120334386826, 0.197098851203918, 0.000000000000000, 0.041535623371601, -0.104473710060120, -0.162981584668159, 0.055186767131090, 0.339078664779663, 0.000000000000000, -0.027476880699396, 0.064361453056335, 0.279966235160828, -0.251079469919205, 0.282692700624466, 0.128968775272369, -0.398609161376953, -0.003076880704612, -0.231976881623268, 0.027266474440694, -0.423295319080353
0.045548405498266, 0.179160848259926, 0.472047895193100, 0.112399540841579, 0.197447970509529, 0.000000000000000, 0.046927809715271, -0.103637799620628, -0.163210749626160, 0.053464893251657, 0.340102165937424, 0.000000000000000, -0.028025947511196, 0.059322129935026, 0.285043507814407, -0.278290808200836, 0.295733809471130, 0.135968267917633, -0.411674678325653, -0.003473795251921, -0.237797304987907, 0.028964739292860, -0.447218239307404
0.051152229309082, 0.178914561867714, 0.471646994352341, 0.110613279044628, 0.197924330830574, 0.000000000000000, 0.052293527871370, -0.102865964174271, -0.163409680128098, 0.051756259053946, 0.341115683317184, 0.000000000000000, -0.028622157871723, 0.054332628846169, 0.290142744779587, -0.307088196277618, 0.309456855058670, 0.143358111381531, -0.424148529767990, -0.003916047979146, -0.243104889988899, 0.030752366408706, -0.472290754318237
0.056495990604162, 0.178625822067261, 0.471302509307861, 0.108745709061623, 0.198536336421967, 0.000000000000000, 0.057560589164495, -0.102205879986286, -0.163575679063797, 0.050023578107357, 0.342096507549286, 0.000000000000000, -0.029256332665682, 0.049441538751125, 0.295278161764145, -0.337377041578293, 0.323828101158142, 0.151077449321747, -0.435917675495148, -0.004399870987982, -0.247841939330101, 0.032612919807434, -0.498427480459213
0.061539936810732, 0.178273528814316, 0.471018254756927, 0.106800861656666, 0.199292391538620, 0.000000000000000, 0.062638171017170, -0.101707920432091, -0.163704171776772, 0.048218552023172, 0.343010514974594, 0.000000000000000, -0.029984511435032, 0.044754426926374, 0.300251007080078, -0.369076877832413, 0.338787287473679, 0.158997878432274, -0.446966737508774, -0.004912673961371, -0.251999557018280, 0.034512031823397, -0.525514781475067
0.066370852291584, 0.177901208400726, 0.470777660608292, 0.104810953140259, 0.200193911790848, 0.000000000000000, 0.067565284669399, -0.101284265518188, -0.163807272911072, 0.046382088214159, 0.343852907419205, 0.000000000000000, -0.030801968649030, 0.040255974978209, 0.304898202419281, -0.401871562004089, 0.354209542274475, 0.166961982846260, -0.457230299711227, -0.005438252352178, -0.255569607019424, 0.036409005522728, -0.553306937217712
0.071086339652538, 0.177519485354424, 0.470569521188736, 0.102822355926037, 0.201233938336372, 0.000000000000000, 0.072384469211102, -0.100845798850060, -0.163897126913071, 0.044572979211807, 0.344632804393768, 0.000000000000000, -0.031665109097958, 0.035875152796507, 0.309249818325043, -0.435238748788834, 0.369915932416916, 0.174814492464066, -0.466585397720337, -0.005960665177554, -0.258539021015167, 0.038265265524387, -0.581443786621094
0.075711198151112, 0.177056610584259, 0.470400959253311, 0.100871838629246, 0.202400371432304, 0.000000000000000, 0.077055424451828, -0.100496649742126, -0.163960561156273, 0.042790636420250, 0.345342159271240, 0.000000000000000, -0.032641313970089, 0.031713273376226, 0.313238918781281, -0.468830674886703, 0.385779261589050, 0.182441100478172, -0.475013941526413, -0.006467549130321, -0.260931372642517, 0.040051929652691, -0.609630107879639
0.080235086381435, 0.176449149847031, 0.470279008150101, 0.098974235355854, 0.203675314784050, 0.000000000000000, 0.081579715013504, -0.100365608930588, -0.163981348276138, 0.041042216122150, 0.345967441797256, 0.000000000000000, -0.033788375556469, 0.027914326637983, 0.316743820905685, -0.502427399158478, 0.401738703250885, 0.189839988946915, -0.482533991336823, -0.006959514692426, -0.262777388095856, 0.041769362986088, -0.637622177600861
0.084678679704666, 0.175676241517067, 0.470201045274734, 0.097143210470676, 0.205038473010063, 0.000000000000000, 0.085998415946960, -0.100435659289360, -0.163963958621025, 0.039359260350466, 0.346501141786575, 0.000000000000000, -0.035013034939766, 0.024454232305288, 0.319827109575272, -0.535629332065582, 0.417706131935120, 0.197047814726830, -0.489109545946121, -0.007442021742463, -0.264101803302765, 0.043429855257273, -0.665140748023987
0.089107938110828, 0.174753814935684, 0.470156043767929, 0.095408350229263, 0.206472292542458, 0.000000000000000, 0.090296290814877, -0.100611530244350, -0.163925170898438, 0.037751518189907, 0.346939682960510, 0.000000000000000, -0.036204669624567, 0.021232163533568, 0.322650581598282, -0.567938745021820, 0.433543652296066, 0.203994631767273, -0.494739294052124, -0.007906568236649, -0.264956980943680, 0.045017655938864, -0.691916525363922
0.093512572348118, 0.173736914992332, 0.470132529735565, 0.093776077032089, 0.207960948348045, 0.000000000000000, 0.094437070190907, -0.100832477211952, -0.163878858089447, 0.036223664879799, 0.347295194864273, 0.000000000000000, -0.037347182631493, 0.018209112808108, 0.325382202863693, -0.599006891250610, 0.449113368988037, 0.210531890392303, -0.499487698078156, -0.008334110490978, -0.265412986278534, 0.046494863927364, -0.717747688293457
0.097687512636185, 0.172680705785751, 0.470132797956467, 0.092191226780415, 0.209487587213516, 0.000000000000000, 0.098338931798935, -0.101113744080067, -0.163832128047943, 0.034759644418955, 0.347592443227768, 0.000000000000000, -0.038509186357260, 0.015402137301862, 0.328246742486954, -0.628676593303680, 0.464294046163559, 0.216515988111496, -0.503413200378418, -0.008706663735211, -0.265518099069595, 0.047824144363403, -0.742512702941895
0.101365745067596, 0.171565324068069, 0.470175266265869, 0.090595819056034, 0.211037978529930, 0.000000000000000, 0.101783923804760, -0.101584576070309, -0.163780137896538, 0.033258810639381, 0.347839295864105, 0.000000000000000, -0.039760295301676, 0.012858316302299, 0.331433862447739, -0.656920373439789, 0.478995412588120, 0.221896246075630, -0.506553053855896, -0.009018596261740, -0.265299379825592, 0.048993296921253, -0.766160488128662
0.104579374194145, 0.170399561524391, 0.470252186059952, 0.089031122624874, 0.212606787681580, 0.000000000000000, 0.104751124978065, -0.102202296257019, -0.163734212517738, 0.031711235642433, 0.348045468330383, 0.000000000000000, -0.041060317307711, 0.010616008192301, 0.334862500429153, -0.683780133724213, 0.493192553520203, 0.226767122745514, -0.508986055850983, -0.009281937964261, -0.264799267053604, 0.050029259175062, -0.788685321807861
0.107554741203785, 0.169246941804886, 0.470331877470016, 0.087578564882278, 0.214188709855080, 0.000000000000000, 0.107484944164753, -0.102763727307320, -0.163719147443771, 0.030231904238462, 0.348234027624130, 0.000000000000000, -0.042250223457813, 0.008632008917630, 0.338158249855042, -0.709298551082611, 0.506908178329468, 0.231279313564301, -0.510869145393372, -0.009514164179564, -0.264099270105362, 0.050973623991013, -0.810112118721008
0.110307902097702, 0.168111518025398, 0.470405966043472, 0.086239486932755, 0.215767398476601, 0.000000000000000, 0.110047817230225, -0.103241190314293, -0.163740158081055, 0.028827244415879, 0.348409295082092, 0.000000000000000, -0.043296448886395, 0.006923442706466, 0.341152369976044, -0.733538985252380, 0.520148456096649, 0.235470786690712, -0.512303888797760, -0.009719255380332, -0.263249725103378, 0.051836866885424, -0.830471754074097
0.112776882946491, 0.167019441723824, 0.470470935106277, 0.084978990256786, 0.217324540019035, 0.000000000000000, 0.112389877438545, -0.103681430220604, -0.163793385028839, 0.027451906353235, 0.348574429750443, 0.000000000000000, -0.044194500893354, 0.005564910825342, 0.343845576047897, -0.756643891334534, 0.532929658889771, 0.239342093467712, -0.513331592082977, -0.009897493757308, -0.262262880802155, 0.052618674933910, -0.849820256233215
0.114918544888496, 0.165996283292770, 0.470523566007614, 0.083771012723446, 0.218844980001450, 0.000000000000000, 0.114478379487991, -0.104117140173912, -0.163875475525856, 0.026078414171934, 0.348742753267288, 0.000000000000000, -0.044944901019335, 0.004616803489625, 0.346239686012268, -0.778782665729523, 0.545278131961823, 0.242917865514755, -0.513952970504761, -0.010052870027721, -0.261129140853882, 0.053325369954109, -0.868229508399963
0.116706065833569, 0.165054336190224, 0.470561772584915, 0.082598857581615, 0.220315471291542, 0.000000000000000, 0.116273403167725, -0.104545488953590, -0.163987696170807, 0.024682573974133, 0.348928958177567, 0.000000000000000, -0.045563776046038, 0.004073132295161, 0.348394781351089, -0.800038158893585, 0.557198762893677, 0.246221095323563, -0.514130711555481, -0.010189596563578, -0.259829670190811, 0.053963761776686, -0.885749816894531
0.118163719773293, 0.164233922958374, 0.470575720071793, 0.081454984843731, 0.221723288297653, 0.000000000000000, 0.117802456021309, -0.104892566800117, -0.164138600230217, 0.023281335830688, 0.349154561758041, 0.000000000000000, -0.046070214360952, 0.003869038540870, 0.350389480590820, -0.820402383804321, 0.568692862987518, 0.249257579445839, -0.513812184333801, -0.010309605859220, -0.258346378803253, 0.054536268115044, -0.902419865131378
0.119329661130905, 0.163566499948502, 0.470555663108826, 0.080333434045315, 0.223055049777031, 0.000000000000000, 0.119132339954376, -0.105060383677483, -0.164338961243629, 0.021909872069955, 0.349439173936844, 0.000000000000000, -0.046477422118187, 0.003938192501664, 0.352132976055145, -0.839875817298889, 0.579777300357819, 0.252058684825897, -0.512996971607208, -0.010417051613331, -0.256686955690384, 0.055052097886801, -0.918300271034241
0.120272055268288, 0.163056179881096, 0.470494478940964, 0.079241156578064, 0.224299550056458, 0.000000000000000, 0.120371825993061, -0.104957029223442, -0.164598509669304, 0.020621230825782, 0.349800407886505, 0.000000000000000, -0.046776138246059, 0.004235280677676, 0.353409945964813, -0.858486235141754, 0.590430617332458, 0.254708051681519, -0.511806547641754, -0.010521026328206, -0.254917472600937, 0.055535804480314, -0.933428645133972
0.121111854910851, 0.162707194685936, 0.470383495092392, 0.078201480209827, 0.225447937846184, 0.000000000000000, 0.121640548110008, -0.104537621140480, -0.164919987320900, 0.019471952691674, 0.350253075361252, 0.000000000000000, -0.046882525086403, 0.004674324300140, 0.354122370481491, -0.876205086708069, 0.600577831268311, 0.257293194532394, -0.510454297065735, -0.010629719123244, -0.253151625394821, 0.056013986468315, -0.947776913642883
0.121938623487949, 0.162529081106186, 0.470217883586884, 0.077229574322701, 0.226492971181870, 0.000000000000000, 0.122944220900536, -0.103781029582024, -0.165304720401764, 0.018464799970388, 0.350797474384308, 0.000000000000000, -0.046748396009207, 0.005138039588928, 0.354448676109314, -0.892989039421082, 0.610095381736755, 0.259823292493820, -0.509085655212402, -0.010743224062026, -0.251465678215027, 0.056492146104574, -0.961333215236664
0.122797392308712, 0.162468403577805, 0.470006644725800, 0.076351419091225, 0.227443039417267, 0.000000000000000, 0.124196454882622, -0.102860100567341, -0.165730968117714, 0.017543263733387, 0.351422429084778, 0.000000000000000, -0.046438045799732, 0.005488291848451, 0.354734987020493, -0.908916115760803, 0.618811547756195, 0.262211412191391, -0.507676541805267, -0.010853964835405, -0.249838605523109, 0.056949958205223, -0.974246799945831
0.123707287013531, 0.162545412778854, 0.469750136137009, 0.075574994087219, 0.228310659527779, 0.000000000000000, 0.125353425741196, -0.101811520755291, -0.166194096207619, 0.016686707735062, 0.352126091718674, 0.000000000000000, -0.046015799045563, 0.005636830814183, 0.355133384466171, -0.924275636672974, 0.626657485961914, 0.264326393604279, -0.506079792976379, -0.010951166041195, -0.248169124126434, 0.057351924479008, -0.986856758594513
0.124604851007462, 0.162781342864037, 0.469452410936356, 0.074872225522995, 0.229106396436691, 0.000000000000000, 0.126353830099106, -0.100749209523201, -0.166680708527565, 0.015858549624681, 0.352908909320831, 0.000000000000000, -0.045437287539244, 0.005587539635599, 0.355535984039307, -0.939488112926483, 0.633733808994293, 0.266046822071075, -0.504146754741669, -0.011024324223399, -0.246342211961746, 0.057660926133394, -0.999539494514465
0.125359252095222, 0.163124650716782, 0.469129770994186, 0.074195839464664, 0.229838550090790, 0.000000000000000, 0.127159535884857, -0.099850334227085, -0.167168527841568, 0.015021787025034, 0.353764206171036, 0.000000000000000, -0.044795803725719, 0.005487972404808, 0.355747282505035, -0.954953730106354, 0.640166521072388, 0.267264395952225, -0.501750826835632, -0.011063901707530, -0.244255602359772, 0.057842895388603, -1.012581348419189
0.125933960080147, 0.163532435894012, 0.468788594007492, 0.073532529175282, 0.230520248413086, 0.000000000000000, 0.127881944179535, -0.099155619740486, -0.167649775743484, 0.014218429103494, 0.354679882526398, 0.000000000000000, -0.044219594448805, 0.005503866821527, 0.355487376451492, -0.970917761325836, 0.646090805530548, 0.267926275730133, -0.498836070299149, -0.011065089143813, -0.241855189204216, 0.057879269123077, -1.026157498359680
0.126315295696259, 0.163956195116043, 0.468434482812881, 0.072895228862762, 0.231172144412994, 0.000000000000000, 0.128571897745132, -0.098713852465153, -0.168118879199028, 0.013463500887156, 0.355634212493896, 0.000000000000000, -0.043719582259655, 0.005659272428602, 0.354768186807632, -0.987375438213348, 0.651628971099854, 0.268011540174484, -0.495330095291138, -0.011026293039322, -0.239101096987724, 0.057761400938034, -1.040298461914062
0.126426219940186, 0.164337605237961, 0.468079686164856, 0.072280853986740, 0.231813937425613, 0.000000000000000, 0.129070401191711, -0.098645150661469, -0.168565958738327, 0.012664411216974, 0.356591075658798, 0.000000000000000, -0.043258424848318, 0.005892296321690, 0.353828400373459, -1.004185080528259, 0.656907737255096, 0.267494738101959, -0.491127520799637, -0.010945381596684, -0.235950902104378, 0.057479992508888, -1.054931044578552
0.126262649893761, 0.164660140872002, 0.467725276947021, 0.071685947477818, 0.232459381222725, 0.000000000000000, 0.129347965121269, -0.098830983042717, -0.169006183743477, 0.011805218644440, 0.357524961233139, 0.000000000000000, -0.042825654149055, 0.006208159029484, 0.352648973464966, -1.021267175674438, 0.662070393562317, 0.266389966011047, -0.486246377229691, -0.010822673328221, -0.232420101761818, 0.057036232203245, -1.069936037063599
0.125910565257072, 0.164915099740028, 0.467364341020584, 0.071119442582130, 0.233117446303368, 0.000000000000000, 0.129450678825378, -0.099021881818771, -0.169467046856880, 0.010913955979049, 0.358422547578812, 0.000000000000000, -0.042422451078892, 0.006584853865206, 0.351177990436554, -1.038512587547302, 0.667152345180511, 0.264747262001038, -0.480808705091476, -0.010661620646715, -0.228579387068748, 0.056443888694048, -1.085150122642517
0.125429570674896, 0.165096461772919, 0.466992348432541, 0.070576027035713, 0.233791172504425, 0.000000000000000, 0.129427567124367, -0.099161416292191, -0.169952899217606, 0.010004402138293, 0.359274387359619, 0.000000000000000, -0.042026173323393, 0.006962442304939, 0.349441647529602, -1.055737257003784, 0.672129154205322, 0.262609541416168, -0.475011885166168, -0.010463843122125, -0.224540829658508, 0.055716164410114, -1.100384354591370
0.124769441783428, 0.165233001112938, 0.466608077287674, 0.070005260407925, 0.234471753239632, 0.000000000000000, 0.129353493452072, -0.099378325045109, -0.170446693897247, 0.009081681258976, 0.360062420368195, 0.000000000000000, -0.041555169969797, 0.007274917792529, 0.347441703081131, -1.072717308998108, 0.677043437957764, 0.260003030300140, -0.469118654727936, -0.010227273218334, -0.220448330044746, 0.054859910160303, -1.115435957908630
0.123927213251591, 0.165377780795097, 0.466204255819321, 0.069374635815620, 0.235144466161728, 0.000000000000000, 0.129207521677017, -0.099517218768597, -0.170965090394020, 0.008127388544381, 0.360764741897583, 0.000000000000000, -0.040932655334473, 0.007414014078677, 0.345369338989258, -1.089133262634277, 0.681903898715973, 0.256942987442017, -0.463348418474197, -0.009949198924005, -0.216431334614754, 0.053879942744970, -1.130078673362732
0.123080499470234, 0.165574356913567, 0.465764492750168, 0.068726614117622, 0.235798850655556, 0.000000000000000, 0.128864631056786, -0.099175244569778, -0.171552672982216, 0.007109558675438, 0.361386805772781, 0.000000000000000, -0.040141046047211, 0.007442178670317, 0.343454748392105, -1.104695200920105, 0.686641514301300, 0.253500849008560, -0.457927733659744, -0.009633351117373, -0.212621808052063, 0.052798189222813, -1.144043922424316
0.122317828238010, 0.165745362639427, 0.465296745300293, 0.068097651004791, 0.236427202820778, 0.000000000000000, 0.128268405795097, -0.098375827074051, -0.172203600406647, 0.005999775137752, 0.361953705549240, 0.000000000000000, -0.039254661649466, 0.007638200186193, 0.341687858104706, -1.119228720664978, 0.691170275211334, 0.249863997101784, -0.453112244606018, -0.009295108728111, -0.209158733487129, 0.051668006926775, -1.157054424285889
0.121546506881714, 0.165712445974350, 0.464834511280060, 0.067478828132153, 0.237020879983902, 0.000000000000000, 0.127565667033195, -0.097592659294605, -0.172856718301773, 0.004813537467271, 0.362478286027908, 0.000000000000000, -0.038389891386032, 0.008110162802041, 0.340036273002625, -1.132538557052612, 0.695368468761444, 0.246293693780899, -0.449009865522385, -0.008959104306996, -0.206115096807480, 0.050563722848892, -1.168901920318604
0.120823562145233, 0.165575951337814, 0.464360326528549, 0.066859796643257, 0.237566187977791, 0.000000000000000, 0.127115890383720, -0.097096174955368, -0.173471495509148, 0.003682025009766, 0.362980782985687, 0.000000000000000, -0.037652172148228, 0.008618029765785, 0.338871896266937, -1.144345164299011, 0.699023067951202, 0.243002012372017, -0.445470809936523, -0.008648713119328, -0.203449159860611, 0.049548920243979, -1.179461598396301
0.120204463601112, 0.165511339902878, 0.463847100734711, 0.066211648285389, 0.238042667508125, 0.000000000000000, 0.127065926790237, -0.096889860928059, -0.174043267965317, 0.002660165308043, 0.363465338945389, 0.000000000000000, -0.037114426493645, 0.008961173705757, 0.338440567255020, -1.154541492462158, 0.701985657215118, 0.240156933665276, -0.442304879426956, -0.008383032865822, -0.201084300875664, 0.048673007637262, -1.188712120056152
0.119649030268192, 0.165386289358139, 0.463319510221481, 0.065535262227058, 0.238445222377777, 0.000000000000000, 0.127412483096123, -0.097070522606373, -0.174557268619537, 0.001729430165142, 0.363917380571365, 0.000000000000000, -0.036723606288433, 0.009176933206618, 0.338474303483963, -1.163327336311340, 0.704240918159485, 0.237927615642548, -0.439466893672943, -0.008178643882275, -0.198984786868095, 0.047981183975935, -1.196747541427612
0.119204819202423, 0.165066182613373, 0.462798625230789, 0.064864411950111, 0.238777101039886, 0.000000000000000, 0.128006100654602, -0.097492299973965, -0.175026997923851, 0.000827886979096, 0.364307135343552, 0.000000000000000, -0.036362994462252, 0.009416021406651, 0.338566094636917, -1.171098589897156, 0.705733716487885, 0.236391082406044, -0.437008827924728, -0.008042641915381, -0.197144925594330, 0.047494232654572, -1.203736543655396
0.119064271450043, 0.164805024862289, 0.462240278720856, 0.064195543527603, 0.239030405879021, 0.000000000000000, 0.128688558936119, -0.097663082182407, -0.175506576895714, -0.000080118479673, 0.364609658718109, 0.000000000000000, -0.036006767302752, 0.009704429656267, 0.338555634021759, -1.178248286247253, 0.706269562244415, 0.235476523637772, -0.434931874275208, -0.007970014587045, -0.195536315441132, 0.047196920961142, -1.209915757179260
0.119241043925285, 0.164633810520172, 0.461641937494278, 0.063498012721539, 0.239203229546547, 0.000000000000000, 0.129408881068230, -0.097498670220375, -0.176001459360123, -0.001017490285449, 0.364810258150101, 0.000000000000000, -0.035718396306038, 0.009919157251716, 0.338358700275421, -1.185039281845093, 0.705661952495575, 0.235041648149490, -0.433182775974274, -0.007949664257467, -0.194113478064537, 0.047055087983608, -1.215600728988647
0.119747258722782, 0.164471879601479, 0.461017310619354, 0.062769107520580, 0.239302366971970, 0.000000000000000, 0.130290552973747, -0.097180470824242, -0.176486387848854, -0.001932117273100, 0.364937692880630, 0.000000000000000, -0.035565380007029, 0.010093476623297, 0.337998300790787, -1.191609263420105, 0.703859031200409, 0.234926283359528, -0.431752204895020, -0.007967349141836, -0.192858561873436, 0.047026894986629, -1.221016764640808
0.120615161955357, 0.164217591285706, 0.460382670164108, 0.062028754502535, 0.239332824945450, 0.000000000000000, 0.131369069218636, -0.096883215010166, -0.176941260695457, -0.002810851205140, 0.365024268627167, 0.000000000000000, -0.035577878355980, 0.010405971668661, 0.337410271167755, -1.198043227195740, 0.701014697551727, 0.234979704022408, -0.430745393037796, -0.008006828837097, -0.191811591386795, 0.047068353742361, -1.226277589797974
0.121862836182117, 0.163820385932922, 0.459747433662415, 0.061288885772228, 0.239294290542603, 0.000000000000000, 0.132658898830414, -0.096693232655525, -0.177358314394951, -0.003644591197371, 0.365089863538742, 0.000000000000000, -0.035693041980267, 0.010907814837992, 0.336528271436691, -1.204346895217896, 0.697519123554230, 0.235063746571541, -0.430307149887085, -0.008050598204136, -0.191039219498634, 0.047133751213551, -1.231423377990723
0.123438388109207, 0.163321554660797, 0.459111303091049, 0.060517676174641, 0.239176779985428, 0.000000000000000, 0.134181618690491, -0.096622884273529, -0.177739769220352, -0.004412216134369, 0.365147233009338, 0.000000000000000, -0.035918280482292, 0.011527302674949, 0.335392147302628, -1.210468530654907, 0.693877518177032, 0.235053211450577, -0.430540740489960, -0.008081761188805, -0.190597936511040, 0.047178711742163, -1.236444115638733
0.125275641679764, 0.162779420614243, 0.458472609519958, 0.059679005295038, 0.238970518112183, 0.000000000000000, 0.135942637920380, -0.096727468073368, -0.178084239363670, -0.005109451245517, 0.365203052759171, 0.000000000000000, -0.036331076174974, 0.012226711958647, 0.334187567234039, -1.216334104537964, 0.690582394599915, 0.234857156872749, -0.431455820798874, -0.008087609894574, -0.190506756305695, 0.047168821096420, -1.241252183914185
0.127430304884911, 0.162160575389862, 0.457837045192719, 0.058819368481636, 0.238684818148613, 0.000000000000000, 0.138031259179115, -0.097136408090591, -0.178378716111183, -0.005717757623643, 0.365258455276489, 0.000000000000000, -0.036919374018908, 0.012984230183065, 0.333168923854828, -1.221814393997192, 0.688003778457642, 0.234464228153229, -0.432950049638748, -0.008064615540206, -0.190738320350647, 0.047093998640776, -1.245690941810608
0.129988774657249, 0.161504834890366, 0.457199007272720, 0.057992056012154, 0.238330781459808, 0.000000000000000, 0.140569821000099, -0.097716219723225, -0.178635433316231, -0.006201168056577, 0.365307152271271, 0.000000000000000, -0.037576299160719, 0.013719122856855, 0.332405745983124, -1.226716637611389, 0.686304390430450, 0.233987107872963, -0.434832483530045, -0.008022733964026, -0.191226333379745, 0.046981733292341, -1.249618887901306
0.132866740226746, 0.161074802279472, 0.456531494855881, 0.057129401713610, 0.237895071506500, 0.000000000000000, 0.143413558602333, -0.098001882433891, -0.178907051682472, -0.006627380382270, 0.365335345268250, 0.000000000000000, -0.038180936127901, 0.014353233389556, 0.331636309623718, -1.230897784233093, 0.685472607612610, 0.233645692467690, -0.436857730150223, -0.007983771152794, -0.191869929432869, 0.046891413629055, -1.252971768379211
0.135959699749947, 0.160864949226379, 0.455844372510910, 0.056211967021227, 0.237378731369972, 0.000000000000000, 0.146521002054214, -0.097981557250023, -0.179191470146179, -0.007033098023385, 0.365359544754028, 0.000000000000000, -0.038663346320391, 0.014779459685087, 0.330780237913132, -1.234276056289673, 0.685366451740265, 0.233616873621941, -0.438677132129669, -0.007968602702022, -0.192506596446037, 0.046873256564140, -1.255767822265625
0.139218762516975, 0.160826250910759, 0.455150455236435, 0.055258769541979, 0.236788287758827, 0.000000000000000, 0.149871200323105, -0.097845159471035, -0.179465502500534, -0.007426627445966, 0.365422099828720, 0.000000000000000, -0.039034135639668, 0.014924756251276, 0.329970210790634, -1.236859917640686, 0.685763120651245, 0.233954370021820, -0.439915806055069, -0.007988645695150, -0.192947775125504, 0.046945948153734, -1.258106350898743
0.142603784799576, 0.161009639501572, 0.454450875520706, 0.054286517202854, 0.236126154661179, 0.000000000000000, 0.153304085135460, -0.097585685551167, -0.179730951786041, -0.007841967046261, 0.365558445453644, 0.000000000000000, -0.039339978247881, 0.014777781441808, 0.329442352056503, -1.238739371299744, 0.686393141746521, 0.234595045447350, -0.440314978361130, -0.008044064976275, -0.193051874637604, 0.047097787261009, -1.260107517242432
0.146056309342384, 0.161408111453056, 0.453757941722870, 0.053321152925491, 0.235388591885567, 0.000000000000000, 0.156636044383049, -0.097112610936165, -0.179998591542244, -0.008315534330904, 0.365788489580154, 0.000000000000000, -0.039560712873936, 0.014361462555826, 0.329283148050308, -1.240073919296265, 0.686995208263397, 0.235441297292709, -0.439895600080490, -0.008128373883665, -0.192806214094162, 0.047307454049587, -1.261847853660583
0.149579808115959, 0.161932662129402, 0.453089326620102, 0.052412182092667, 0.234569340944290, 0.000000000000000, 0.159948527812958, -0.096476979553699, -0.180258929729462, -0.008784820325673, 0.366127312183380, 0.000000000000000, -0.039687212556601, 0.013722147792578, 0.329337894916534, -1.241029977798462, 0.687328100204468, 0.236372366547585, -0.438901454210281, -0.008229927159846, -0.192303836345673, 0.047546856105328, -1.263397574424744
0.153181686997414, 0.162537455558777, 0.452452480792999, 0.051586087793112, 0.233662590384483, 0.000000000000000, 0.163401961326599, -0.095747746527195, -0.180500730872154, -0.009164750576019, 0.366578608751297, 0.000000000000000, -0.039750043302774, 0.012931609526277, 0.329442858695984, -1.241721868515015, 0.687191545963287, 0.237237602472305, -0.437604337930679, -0.008333589881659, -0.191655158996582, 0.047779090702534, -1.264835715293884
0.156779080629349, 0.163259074091911, 0.451845139265060, 0.050818812102079, 0.232668623328209, 0.000000000000000, 0.166838094592094, -0.094845689833164, -0.180736690759659, -0.009514666162431, 0.367121011018753, 0.000000000000000, -0.039702713489532, 0.012105412781239, 0.329524904489517, -1.242258906364441, 0.686495542526245, 0.237917453050613, -0.436168104410172, -0.008427626453340, -0.190923884510994, 0.047973576933146, -1.266224622726440
0.160270228981972, 0.164110407233238, 0.451266378164291, 0.050096284598112, 0.231604680418968, 0.000000000000000, 0.170117735862732, -0.093745775520802, -0.180973753333092, -0.009892054833472, 0.367734044790268, 0.000000000000000, -0.039499428123236, 0.011280259117484, 0.329750776290894, -1.242686033248901, 0.685173928737640, 0.238335326313972, -0.434600234031677, -0.008505897596478, -0.190108001232147, 0.048111174255610, -1.267604708671570
0.163594320416451, 0.165112063288689, 0.450712591409683, 0.049418214708567, 0.230492174625397, 0.000000000000000, 0.173185601830482, -0.092433445155621, -0.181214973330498, -0.010320016182959, 0.368412256240845, 0.000000000000000, -0.039155300706625, 0.010553474538028, 0.330110937356949, -1.243104338645935, 0.683122873306274, 0.238456606864929, -0.432949542999268, -0.008565902709961, -0.189223214983940, 0.048184841871262, -1.269011139869690
0.166791781783104, 0.166229262948036, 0.450185537338257, 0.048823960125446, 0.229354560375214, 0.000000000000000, 0.176172971725464, -0.090942241251469, -0.181451171636581, -0.010735420510173, 0.369174510240555, 0.000000000000000, -0.038701001554728, 0.010115996003151, 0.330420017242432, -1.243701577186584, 0.680166125297546, 0.238236889243126, -0.431431233882904, -0.008602868765593, -0.188357591629028, 0.048186298459768, -1.270441651344299
0.169872447848320, 0.167398303747177, 0.449696570634842, 0.048330873250961, 0.228199109435081, 0.000000000000000, 0.179014623165131, -0.089271955192089, -0.181677848100662, -0.011161067523062, 0.370024859905243, 0.000000000000000, -0.038153059780598, 0.010105224326253, 0.330523878335953, -1.244662642478943, 0.676119804382324, 0.237609505653381, -0.430365920066833, -0.008608635514975, -0.187649652361870, 0.048101469874382, -1.271876811981201
0.172724172472954, 0.168601170182228, 0.449257612228394, 0.047885697335005, 0.227012112736702, 0.000000000000000, 0.181674554944038, -0.087378650903702, -0.181895315647125, -0.011592274531722, 0.370962053537369, 0.000000000000000, -0.037532024085522, 0.010489025153220, 0.330370783805847, -1.246084570884705, 0.670901119709015, 0.236594885587692, -0.429958999156952, -0.008583065122366, -0.187192246317863, 0.047937411814928, -1.273346900939941
0.175258174538612, 0.169828668236732, 0.448876410722733, 0.047442115843296, 0.225779265165329, 0.000000000000000, 0.184201434254646, -0.085315376520157, -0.182093247771263, -0.011989141814411, 0.371983706951141, 0.000000000000000, -0.036795835942030, 0.010981869883835, 0.330077230930328, -1.247863531112671, 0.664605319499969, 0.235389038920403, -0.430135101079941, -0.008542994037271, -0.186963602900505, 0.047744393348694, -1.274934411048889
0.177588939666748, 0.171050518751144, 0.448549181222916, 0.047046579420567, 0.224503681063652, 0.000000000000000, 0.186632841825485, -0.083313122391701, -0.182242929935455, -0.012346550822258, 0.373069912195206, 0.000000000000000, -0.035890042781830, 0.011196644045413, 0.330043792724609, -1.249639987945557, 0.657529175281525, 0.234232842922211, -0.430557191371918, -0.008510229177773, -0.186840325593948, 0.047581028193235, -1.276664137840271
0.179859563708305, 0.172292768955231, 0.448260843753815, 0.046747021377087, 0.223201200366020, 0.000000000000000, 0.188980087637901, -0.081510588526726, -0.182330489158630, -0.012677527032793, 0.374197065830231, 0.000000000000000, -0.034881498664618, 0.011102866381407, 0.330471515655518, -1.251120448112488, 0.650215685367584, 0.233272537589073, -0.430824548006058, -0.008497527800500, -0.186669126152992, 0.047476034611464, -1.278450012207031
0.182060226798058, 0.173650190234184, 0.447993129491806, 0.046500012278557, 0.221877723932266, 0.000000000000000, 0.191155344247818, -0.079790852963924, -0.182375848293304, -0.013030897825956, 0.375331223011017, 0.000000000000000, -0.033876787871122, 0.010891379788518, 0.331146091222763, -1.252205610275269, 0.643358409404755, 0.232585698366165, -0.430705934762955, -0.008508834987879, -0.186366423964500, 0.047436520457268, -1.280129790306091
0.184167832136154, 0.175103217363358, 0.447741121053696, 0.046266652643681, 0.220540061593056, 0.000000000000000, 0.193150058388710, -0.078048601746559, -0.182394191622734, -0.013427546247840, 0.376435369253159, 0.000000000000000, -0.032910991460085, 0.010658375918865, 0.331790536642075, -1.252881169319153, 0.637622833251953, 0.232219263911247, -0.430130034685135, -0.008543789386749, -0.185917392373085, 0.047461759299040, -1.281543135643005
0.186193957924843, 0.176653817296028, 0.447496324777603, 0.046015687286854, 0.219190716743469, 0.000000000000000, 0.195023208856583, -0.076212644577026, -0.182395905256271, -0.013864126056433, 0.377478390932083, 0.000000000000000, -0.032050851732492, 0.010481805540621, 0.332259505987167, -1.253182053565979, 0.633477210998535, 0.232197970151901, -0.429082959890366, -0.008601041510701, -0.185327500104904, 0.047549087554216, -1.282575488090515
0.188231483101845, 0.178337097167969, 0.447245180606842, 0.045755241066217, 0.217838123440742, 0.000000000000000, 0.196843385696411, -0.074301622807980, -0.182382389903069, -0.014330801554024, 0.378446280956268, 0.000000000000000, -0.031399808824062, 0.010507439263165, 0.332643777132034, -1.253174781799316, 0.631045758724213, 0.232516184449196, -0.427641898393631, -0.008678226731718, -0.184635668992996, 0.047694694250822, -1.283132791519165
0.190393507480621, 0.179957792162895, 0.447006285190582, 0.045571167021990, 0.216515362262726, 0.000000000000000, 0.198701545596123, -0.072573527693748, -0.182323545217514, -0.014802405610681, 0.379352033138275, 0.000000000000000, -0.030953267589211, 0.010755100287497, 0.333113878965378, -1.252871513366699, 0.630028605461121, 0.233139932155609, -0.426103144884109, -0.008770945481956, -0.183971092104912, 0.047895006835461, -1.283161401748657
0.192509904503822, 0.181336686015129, 0.446815043687820, 0.045441418886185, 0.215239077806473, 0.000000000000000, 0.200499415397644, -0.071132972836494, -0.182207584381104, -0.015308297239244, 0.380212783813477, 0.000000000000000, -0.030605280771852, 0.011016602627933, 0.333474725484848, -1.252249121665955, 0.629903495311737, 0.234024181962013, -0.424952924251556, -0.008873110637069, -0.183541074395180, 0.048147022724152, -1.282710433006287
0.194424554705620, 0.182560116052628, 0.446671545505524, 0.045293673872948, 0.214007437229156, 0.000000000000000, 0.202159821987152, -0.069809570908546, -0.182054236531258, -0.015835793688893, 0.381046295166016, 0.000000000000000, -0.030239840969443, 0.011130399070680, 0.333501905202866, -1.251320481300354, 0.630213379859924, 0.235086485743523, -0.424594074487686, -0.008976065553725, -0.183517560362816, 0.048437111079693, -1.281829953193665
0.196196347475052, 0.183689117431641, 0.446565449237823, 0.045148383826017, 0.212824448943138, 0.000000000000000, 0.203716665506363, -0.068503297865391, -0.181875213980675, -0.016329783946276, 0.381864428520203, 0.000000000000000, -0.029778415337205, 0.011074443347752, 0.333208709955215, -1.250137329101562, 0.630657851696014, 0.236245855689049, -0.425195425748825, -0.009073133580387, -0.183972671627998, 0.048750013113022, -1.280540347099304
0.197891995310783, 0.184719458222389, 0.446491867303848, 0.045040506869555, 0.211691170930862, 0.000000000000000, 0.205200001597404, -0.067242249846458, -0.181671738624573, -0.016757026314735, 0.382667571306229, 0.000000000000000, -0.029265385121107, 0.010879814624786, 0.332805991172791, -1.248701214790344, 0.631053686141968, 0.237443864345551, -0.426708251237869, -0.009161345660686, -0.184883028268814, 0.049074370414019, -1.278876423835754
0.199489325284958, 0.185652568936348, 0.446447491645813, 0.044966343790293, 0.210602283477783, 0.000000000000000, 0.206603363156319, -0.066066652536392, -0.181446611881256, -0.017108282074332, 0.383452385663986, 0.000000000000000, -0.028793243691325, 0.010597059503198, 0.332493156194687, -1.246985316276550, 0.631348609924316, 0.238634973764420, -0.428945630788803, -0.009239652194083, -0.186159923672676, 0.049399234354496, -1.276915550231934
0.200959548354149, 0.186513200402260, 0.446426481008530, 0.044917251914740, 0.209552526473999, 0.000000000000000, 0.207882598042488, -0.064979724586010, -0.181207418441772, -0.017392994835973, 0.384216159582138, 0.000000000000000, -0.028415769338608, 0.010309271514416, 0.332398027181625, -1.244978547096252, 0.631597697734833, 0.239784836769104, -0.431666404008865, -0.009307875297964, -0.187687113881111, 0.049714103341103, -1.274734616279602
0.202290356159210, 0.187336251139641, 0.446421355009079, 0.044893223792315, 0.208537921309471, 0.000000000000000, 0.208972677588463, -0.063993252813816, -0.180960655212402, -0.017640486359596, 0.384952843189240, 0.000000000000000, -0.028159305453300, 0.010124462656677, 0.332585096359253, -1.242692828178406, 0.631929099559784, 0.240867927670479, -0.434631735086441, -0.009365929290652, -0.189349591732025, 0.050009276717901, -1.272379755973816
0.203465059399605, 0.188140988349915, 0.446428120136261, 0.044902797788382, 0.207560539245605, 0.000000000000000, 0.209835499525070, -0.063151821494102, -0.180707082152367, -0.017879547551274, 0.385655701160431, 0.000000000000000, -0.028001731261611, 0.010106581263244, 0.333024531602859, -1.240189313888550, 0.632523894309998, 0.241859138011932, -0.437617957592010, -0.009413134306669, -0.191039189696312, 0.050274163484573, -1.269909501075745
0.204475879669189, 0.188917174935341, 0.446446686983109, 0.044966202229261, 0.206634327769279, 0.000000000000000, 0.210514709353447, -0.062484405934811, -0.180445656180382, -0.018100550398231, 0.386326283216476, 0.000000000000000, -0.027910284698009, 0.010200419463217, 0.333691626787186, -1.237550139427185, 0.633491814136505, 0.242709174752235, -0.440358817577362, -0.009447955526412, -0.192625030875206, 0.050493307411671, -1.267449140548706
0.205313310027122, 0.189728721976280, 0.446468561887741, 0.045075301080942, 0.205775469541550, 0.000000000000000, 0.210992157459259, -0.061872690916061, -0.180192410945892, -0.018306585028768, 0.386968404054642, 0.000000000000000, -0.027827307581902, 0.010334921069443, 0.334473878145218, -1.234908461570740, 0.634822130203247, 0.243357703089714, -0.442563623189926, -0.009469602257013, -0.193954944610596, 0.050650455057621, -1.265171647071838
0.206002563238144, 0.190581649541855, 0.446489870548248, 0.045233428478241, 0.205000981688499, 0.000000000000000, 0.211289048194885, -0.061262603849173, -0.179952964186668, -0.018487883731723, 0.387585639953613, 0.000000000000000, -0.027717165648937, 0.010536284185946, 0.335234284400940, -1.232442378997803, 0.636423110961914, 0.243730261921883, -0.444013565778732, -0.009475965984166, -0.194902837276459, 0.050726857036352, -1.263212561607361
0.206511795520782, 0.191426917910576, 0.446516633033752, 0.045427061617374, 0.204313769936562, 0.000000000000000, 0.211440309882164, -0.060649186372757, -0.179727718234062, -0.018635096028447, 0.388175457715988, 0.000000000000000, -0.027622774243355, 0.010851070284843, 0.335914015769958, -1.230332493782043, 0.638200640678406, 0.243752613663673, -0.444633007049561, -0.009462842717767, -0.195413082838058, 0.050704006105661, -1.261645674705505
0.206788465380669, 0.192211195826530, 0.446556687355042, 0.045637309551239, 0.203715816140175, 0.000000000000000, 0.211486622691154, -0.060045279562473, -0.179516568779945, -0.018737493082881, 0.388736426830292, 0.000000000000000, -0.027550948783755, 0.011261817067862, 0.336500555276871, -1.228763699531555, 0.640072345733643, 0.243389457464218, -0.444503635168076, -0.009427027776837, -0.195509135723114, 0.050573728978634, -1.260501742362976
0.206826373934746, 0.192897826433182, 0.446614444255829, 0.045863900333643, 0.203221485018730, 0.000000000000000, 0.211449041962624, -0.059448707848787, -0.179320916533470, -0.018789777532220, 0.389273107051849, 0.000000000000000, -0.027460034936666, 0.011745830997825, 0.336921572685242, -1.227904438972473, 0.641879975795746, 0.242658868432045, -0.443828761577606, -0.009368917904794, -0.195274040102959, 0.050343744456768, -1.259776711463928
0.206621915102005, 0.193459212779999, 0.446694135665894, 0.046108212321997, 0.202846631407738, 0.000000000000000, 0.211311742663383, -0.058846391737461, -0.179141193628311, -0.018802193924785, 0.389790415763855, 0.000000000000000, -0.027330152690411, 0.012278197333217, 0.337145447731018, -1.227808594703674, 0.643383979797363, 0.241630613803864, -0.442835390567780, -0.009293566457927, -0.194811537861824, 0.050037778913975, -1.259416818618774
0.206141844391823, 0.193912148475647, 0.446796298027039, 0.046341735869646, 0.202595308423042, 0.000000000000000, 0.211009219288826, -0.058211866766214, -0.178979188203812, -0.018811414018273, 0.390287756919861, 0.000000000000000, -0.027222556993365, 0.012864465825260, 0.337014764547348, -1.228440403938293, 0.644323945045471, 0.240458399057388, -0.441841900348663, -0.009212187491357, -0.194277182221413, 0.049702584743500, -1.259349465370178
0.205413907766342, 0.194177076220512, 0.446929156780243, 0.046566743403673, 0.202470913529396, 0.000000000000000, 0.210552021861076, -0.057683732360601, -0.178815260529518, -0.018841946497560, 0.390759944915771, 0.000000000000000, -0.027071090415120, 0.013290634378791, 0.336548000574112, -1.229581475257874, 0.644627869129181, 0.239363983273506, -0.441127479076385, -0.009140565991402, -0.193825855851173, 0.049399517476559, -1.259476065635681
0.204460859298706, 0.194259718060493, 0.447090089321136, 0.046758331358433, 0.202467426657677, 0.000000000000000, 0.209935784339905, -0.057342227548361, -0.178639635443687, -0.018928725272417, 0.391198277473450, 0.000000000000000, -0.026910567656159, 0.013414749875665, 0.335939288139343, -1.230878233909607, 0.644397616386414, 0.238527044653893, -0.440728157758713, -0.009092318825424, -0.193509116768837, 0.049175534397364, -1.259703040122986
0.203374534845352, 0.194165199995041, 0.447272270917892, 0.046918120235205, 0.202580600976944, 0.000000000000000, 0.209162712097168, -0.057241600006819, -0.178445681929588, -0.019104747101665, 0.391593217849731, 0.000000000000000, -0.026838498190045, 0.013237482868135, 0.335493057966232, -1.231952548027039, 0.643780350685120, 0.238023445010185, -0.440540164709091, -0.009073290973902, -0.193312168121338, 0.049049023538828, -1.259946823120117
0.202306047081947, 0.193915814161301, 0.447461992502213, 0.047061569988728, 0.202801644802094, 0.000000000000000, 0.208255752921104, -0.057369828224182, -0.178233996033669, -0.019388977438211, 0.391933768987656, 0.000000000000000, -0.026908908039331, 0.012893439270556, 0.335374742746353, -1.232571363449097, 0.642984628677368, 0.237851634621620, -0.440473318099976, -0.009082199074328, -0.193214043974876, 0.049015935510397, -1.260138869285583
0.201330631971359, 0.193594306707382, 0.447640359401703, 0.047151762992144, 0.203105553984642, 0.000000000000000, 0.207287922501564, -0.057678643614054, -0.178010314702988, -0.019771214574575, 0.392211496829987, 0.000000000000000, -0.027191154658794, 0.012519834563136, 0.335532605648041, -1.232676625251770, 0.642243146896362, 0.237947106361389, -0.440483838319778, -0.009111822582781, -0.193201765418053, 0.049054384231567, -1.260263442993164
0.200474634766579, 0.193189829587936, 0.447804272174835, 0.047156393527985, 0.203473389148712, 0.000000000000000, 0.206372469663620, -0.058191489428282, -0.177771210670471, -0.020216073840857, 0.392428815364838, 0.000000000000000, -0.027672840282321, 0.012136859819293, 0.335864901542664, -1.232362866401672, 0.641699254512787, 0.238203212618828, -0.440558880567551, -0.009151965379715, -0.193262308835983, 0.049132596701384, -1.260360360145569
0.199745893478394, 0.192665264010429, 0.447957158088684, 0.047057095915079, 0.203895449638367, 0.000000000000000, 0.205547794699669, -0.058849353343248, -0.177523285150528, -0.020702375099063, 0.392593324184418, 0.000000000000000, -0.028246548026800, 0.011744904331863, 0.336199134588242, -1.231854438781738, 0.641358613967896, 0.238523960113525, -0.440723448991776, -0.009194431826472, -0.193386733531952, 0.049224052578211, -1.260488271713257
0.199114218354225, 0.191995963454247, 0.448103666305542, 0.046838045120239, 0.204365253448486, 0.000000000000000, 0.204850912094116, -0.059539120644331, -0.177279427647591, -0.021198976784945, 0.392717689275742, 0.000000000000000, -0.028888365253806, 0.011398399248719, 0.336364746093750, -1.231394648551941, 0.641117215156555, 0.238820120692253, -0.440958201885223, -0.009233215823770, -0.193541824817657, 0.049306280910969, -1.260713696479797
0.198577344417572, 0.191225424408913, 0.448238760232925, 0.046494320034981, 0.204876467585564, 0.000000000000000, 0.204364374279976, -0.060186099261045, -0.177046418190002, -0.021654518321157, 0.392821520566940, 0.000000000000000, -0.029600666835904, 0.011175510473549, 0.336329221725464, -1.231166958808899, 0.640877127647400, 0.239021569490433, -0.441167950630188, -0.009264865890145, -0.193664789199829, 0.049362216144800, -1.261075139045715
0.198161959648132, 0.190426722168922, 0.448353260755539, 0.046030774712563, 0.205424860119820, 0.000000000000000, 0.204075857996941, -0.060728259384632, -0.176830247044563, -0.022065959870815, 0.392917096614838, 0.000000000000000, -0.030349690467119, 0.011138871312141, 0.336115777492523, -1.231296062469482, 0.640618979930878, 0.239093631505966, -0.441261321306229, -0.009288202971220, -0.193701893091202, 0.049382805824280, -1.261581301689148
0.197872683405876, 0.189649656414986, 0.448443114757538, 0.045446384698153, 0.206006854772568, 0.000000000000000, 0.203964963555336, -0.061168704181910, -0.176628708839417, -0.022442393004894, 0.393012702465057, 0.000000000000000, -0.031144637614489, 0.011241595260799, 0.335847228765488, -1.231797814369202, 0.640361249446869, 0.239006936550140, -0.441217243671417, -0.009300804696977, -0.193641811609268, 0.049359735101461, -1.262238025665283
0.197712600231171, 0.188920468091965, 0.448506772518158, 0.044737610965967, 0.206616953015327, 0.000000000000000, 0.204002037644386, -0.061515755951405, -0.176438808441162, -0.022798521444201, 0.393113940954208, 0.000000000000000, -0.032016817480326, 0.011376657523215, 0.335597008466721, -1.232646107673645, 0.640157759189606, 0.238743856549263, -0.441122531890869, -0.009299281053245, -0.193529158830643, 0.049287050962448, -1.263070702552795
0.197719782590866, 0.188227772712708, 0.448545604944229, 0.043920580297709, 0.207252293825150, 0.000000000000000, 0.204118505120277, -0.061800792813301, -0.176253452897072, -0.023169144988060, 0.393223285675049, 0.000000000000000, -0.032988715916872, 0.011490469798446, 0.335418820381165, -1.233832597732544, 0.640074133872986, 0.238310605287552, -0.441061258316040, -0.009282351471484, -0.193407535552979, 0.049165043979883, -1.264103531837463
0.197910562157631, 0.187598839402199, 0.448557406663895, 0.043006695806980, 0.207907736301422, 0.000000000000000, 0.204239726066589, -0.062031023204327, -0.176066070795059, -0.023591008037329, 0.393340200185776, 0.000000000000000, -0.034068234264851, 0.011531729251146, 0.335309386253357, -1.235369920730591, 0.640174746513367, 0.237751215696335, -0.441046327352524, -0.009253196418285, -0.193287312984467, 0.049004334956408, -1.265378475189209
0.198267400264740, 0.187113419175148, 0.448536723852158, 0.042007662355900, 0.208577319979668, 0.000000000000000, 0.204330086708069, -0.062173429876566, -0.175872787833214, -0.024081837385893, 0.393463641405106, 0.000000000000000, -0.035252429544926, 0.011424378491938, 0.335258096456528, -1.237258195877075, 0.640526890754700, 0.237107455730438, -0.440970808267593, -0.009216425940394, -0.193123564124107, 0.048815153539181, -1.266959071159363
0.198771014809608, 0.186831608414650, 0.448484629392624, 0.040954276919365, 0.209256500005722, 0.000000000000000, 0.204359531402588, -0.062184389680624, -0.175672784447670, -0.024655723944306, 0.393594831228256, 0.000000000000000, -0.036512851715088, 0.011163756251335, 0.335197091102600, -1.239517927169800, 0.641221880912781, 0.236386850476265, -0.440654367208481, -0.009174549020827, -0.192832484841347, 0.048597998917103, -1.268910408020020
0.199382111430168, 0.186767950654030, 0.448411941528320, 0.039883840829134, 0.209932610392570, 0.000000000000000, 0.204364523291588, -0.062020819634199, -0.175468593835831, -0.025289384648204, 0.393744349479675, 0.000000000000000, -0.037806775420904, 0.010745648294687, 0.335058391094208, -1.242124319076538, 0.642308831214905, 0.235552161931992, -0.439940780401230, -0.009125944226980, -0.192341163754463, 0.048342142254114, -1.271297931671143
0.200051695108414, 0.186896368861198, 0.448335498571396, 0.038828961551189, 0.210583344101906, 0.000000000000000, 0.204435050487518, -0.061661828309298, -0.175262421369553, -0.025928916409612, 0.393926501274109, 0.000000000000000, -0.039060667157173, 0.010174742899835, 0.334706753492355, -1.245066165924072, 0.643778979778290, 0.234588742256165, -0.438774555921555, -0.009070086292922, -0.191621199250221, 0.048043787479401, -1.274171471595764
0.200767517089844, 0.187169924378395, 0.448271244764328, 0.037827804684639, 0.211197093129158, 0.000000000000000, 0.204597562551498, -0.061137519776821, -0.175051465630531, -0.026552719995379, 0.394141227006912, 0.000000000000000, -0.040216781198978, 0.009497402235866, 0.334148734807968, -1.248379349708557, 0.645549893379211, 0.233521193265915, -0.437186986207962, -0.009009430184960, -0.190682202577591, 0.047710943967104, -1.277508854866028
0.201514124870300, 0.187524169683456, 0.448234677314758, 0.036907341331244, 0.211772024631500, 0.000000000000000, 0.204819470643997, -0.060507327318192, -0.174830496311188, -0.027170138433576, 0.394373297691345, 0.000000000000000, -0.041271369904280, 0.008746460080147, 0.333450555801392, -1.252108693122864, 0.647483885288239, 0.232399180531502, -0.435328125953674, -0.008947454392910, -0.189590692520142, 0.047359522432089, -1.281234264373779
0.202260211110115, 0.187895536422729, 0.448238402605057, 0.036078818142414, 0.212311834096909, 0.000000000000000, 0.205104812979698, -0.059842549264431, -0.174594044685364, -0.027773365378380, 0.394608676433563, 0.000000000000000, -0.042231742292643, 0.007916796021163, 0.332632869482040, -1.256264090538025, 0.649471700191498, 0.231263116002083, -0.433401942253113, -0.008885744959116, -0.188443139195442, 0.047002501785755, -1.285259366035461
0.202960342168808, 0.188288509845734, 0.448284208774567, 0.035324163734913, 0.212817788124084, 0.000000000000000, 0.205435588955879, -0.059143055230379, -0.174347788095474, -0.028354739770293, 0.394840836524963, 0.000000000000000, -0.043078009039164, 0.007002456579357, 0.331670761108398, -1.260809183120728, 0.651455461978912, 0.230143100023270, -0.431563705205917, -0.008825195021927, -0.187316924333572, 0.046649284660816, -1.289498567581177
0.203613042831421, 0.188718751072884, 0.448365986347198, 0.034625872969627, 0.213287919759750, 0.000000000000000, 0.205795660614967, -0.058406561613083, -0.174098595976830, -0.028906134888530, 0.395068317651749, 0.000000000000000, -0.043822206556797, 0.005991689395159, 0.330627441406250, -1.265601992607117, 0.653342545032501, 0.229064911603928, -0.429880559444427, -0.008767550811172, -0.186252847313881, 0.046308968216181, -1.293857336044312
0.204284682869911, 0.189183130860329, 0.448473155498505, 0.033984359353781, 0.213718891143799, 0.000000000000000, 0.206185102462769, -0.057686366140842, -0.173845514655113, -0.029429292306304, 0.395285487174988, 0.000000000000000, -0.044533461332321, 0.004920946899801, 0.329664647579193, -1.270376086235046, 0.654992878437042, 0.228040277957916, -0.428354203701019, -0.008714286610484, -0.185265854001045, 0.045988004654646, -1.298208951950073
0.205073952674866, 0.189636662602425, 0.448598504066467, 0.033424563705921, 0.214112207293510, 0.000000000000000, 0.206634283065796, -0.057097222656012, -0.173577979207039, -0.029932942241430, 0.395479440689087, 0.000000000000000, -0.045278515666723, 0.003935705870390, 0.328912407159805, -1.274837374687195, 0.656265676021576, 0.227066099643707, -0.426999539136887, -0.008665367029607, -0.184376582503319, 0.045688726007938, -1.302387356758118
0.206048384308815, 0.190017908811569, 0.448740750551224, 0.032980434596539, 0.214475482702255, 0.000000000000000, 0.207182943820953, -0.056725475937128, -0.173287734389305, -0.030420929193497, 0.395636469125748, 0.000000000000000, -0.046053551137447, 0.003213434712961, 0.328459441661835, -1.278781533241272, 0.657086968421936, 0.226108089089394, -0.425820767879486, -0.008617945015430, -0.183595374226570, 0.045403704047203, -1.306236505508423
0.207206994295120, 0.190337553620338, 0.448894500732422, 0.032658144831657, 0.214816033840179, 0.000000000000000, 0.207901552319527, -0.056517764925957, -0.172983705997467, -0.030859040096402, 0.395752787590027, 0.000000000000000, -0.046812575310469, 0.002805781085044, 0.328410297632217, -1.282141327857971, 0.657498121261597, 0.225080147385597, -0.424693584442139, -0.008565900847316, -0.182866483926773, 0.045109584927559, -1.309697389602661
0.208473235368729, 0.190629124641418, 0.449056148529053, 0.032431393861771, 0.215138956904411, 0.000000000000000, 0.208899945020676, -0.056337136775255, -0.172684788703918, -0.031172869727015, 0.395837992429733, 0.000000000000000, -0.047513354569674, 0.002690009074286, 0.328733712434769, -1.285075664520264, 0.657604277133942, 0.223883748054504, -0.423464506864548, -0.008502584882081, -0.182107642292976, 0.044778194278479, -1.312808752059937
0.209737524390221, 0.190873950719833, 0.449231863021851, 0.032267056405544, 0.215451583266258, 0.000000000000000, 0.210181728005409, -0.056085232645273, -0.172405838966370, -0.031332019716501, 0.395902693271637, 0.000000000000000, -0.048129923641682, 0.002893993631005, 0.329208910465240, -1.287940979003906, 0.657445669174194, 0.222434878349304, -0.422150969505310, -0.008421434089541, -0.181301489472389, 0.044385984539986, -1.315632343292236
0.210948571562767, 0.191016808152199, 0.449431657791138, 0.032158337533474, 0.215768501162529, 0.000000000000000, 0.211600035429001, -0.055751517415047, -0.172151118516922, -0.031382929533720, 0.395952284336090, 0.000000000000000, -0.048621971160173, 0.003403846174479, 0.329587548971176, -1.291080355644226, 0.656991004943848, 0.220689117908478, -0.420906335115433, -0.008317940868437, -0.180493891239166, 0.043921083211899, -1.318238496780396
0.212087333202362, 0.191048175096512, 0.449657440185547, 0.032093986868858, 0.216096431016922, 0.000000000000000, 0.213056758046150, -0.055372837930918, -0.171917602419853, -0.031363178044558, 0.395993113517761, 0.000000000000000, -0.049019645899534, 0.004038750659674, 0.329640656709671, -1.294639825820923, 0.656271398067474, 0.218715772032738, -0.419785320758820, -0.008197200484574, -0.179702714085579, 0.043400906026363, -1.320773005485535
0.213140085339546, 0.190958634018898, 0.449908405542374, 0.032057944685221, 0.216430440545082, 0.000000000000000, 0.214521080255508, -0.055048543959856, -0.171693995594978, -0.031299300491810, 0.396026730537415, 0.000000000000000, -0.049373704940081, 0.004468915052712, 0.329363495111465, -1.298530340194702, 0.655451953411102, 0.216703072190285, -0.418611049652100, -0.008075207471848, -0.178861901164055, 0.042872425168753, -1.323403000831604
0.214149683713913, 0.190815597772598, 0.450171291828156, 0.032040838152170, 0.216763734817505, 0.000000000000000, 0.215887844562531, -0.054823238402605, -0.171474233269691, -0.031254496425390, 0.396044999361038, 0.000000000000000, -0.049714401364326, 0.004574233666062, 0.328909069299698, -1.302593827247620, 0.654769539833069, 0.214832618832588, -0.417093068361282, -0.007967933081090, -0.177860885858536, 0.042379882186651, -1.326203107833862
0.215173855423927, 0.190680503845215, 0.450433313846588, 0.032049003988504, 0.217094376683235, 0.000000000000000, 0.217085391283035, -0.054707389324903, -0.171254172921181, -0.031268604099751, 0.396040618419647, 0.000000000000000, -0.050129130482674, 0.004473353270441, 0.328443259000778, -1.306662321090698, 0.654367566108704, 0.213198617100716, -0.415055364370346, -0.007883367128670, -0.176639065146446, 0.041946101933718, -1.329140901565552
0.216201528906822, 0.190572977066040, 0.450691163539886, 0.032079573720694, 0.217423066496849, 0.000000000000000, 0.218094691634178, -0.054685410112143, -0.171033456921577, -0.031344912946224, 0.396009504795074, 0.000000000000000, -0.050661366432905, 0.004341378808022, 0.327960371971130, -1.310615539550781, 0.654290378093719, 0.211861774325371, -0.412568688392639, -0.007824689149857, -0.175242200493813, 0.041586440056562, -1.332127332687378
0.217175558209419, 0.190477043390274, 0.450948327779770, 0.032124433666468, 0.217751637101173, 0.000000000000000, 0.218912273645401, -0.054754018783569, -0.170813262462616, -0.031473036855459, 0.395949453115463, 0.000000000000000, -0.051292747259140, 0.004277685657144, 0.327430486679077, -1.314318895339966, 0.654510974884033, 0.210843712091446, -0.409854859113693, -0.007790741976351, -0.173781692981720, 0.041306883096695, -1.335065960884094
0.218016147613525, 0.190367698669434, 0.451210886240005, 0.032173935323954, 0.218083381652832, 0.000000000000000, 0.219523623585701, -0.054931569844484, -0.170595064759254, -0.031645383685827, 0.395862430334091, 0.000000000000000, -0.051991023123264, 0.004271028097719, 0.326982468366623, -1.317578434944153, 0.654928565025330, 0.210094496607780, -0.407157838344574, -0.007774934172630, -0.172377139329910, 0.041095893830061, -1.337873101234436
0.218643873929977, 0.190223515033722, 0.451484858989716, 0.032218061387539, 0.218422621488571, 0.000000000000000, 0.219912305474281, -0.055249474942684, -0.170379340648651, -0.031858000904322, 0.395753800868988, 0.000000000000000, -0.052700784057379, 0.004217781592160, 0.326733291149139, -1.320256233215332, 0.655406653881073, 0.209540039300919, -0.404682368040085, -0.007769734133035, -0.171125084161758, 0.040936373174191, -1.340506434440613
0.219030901789665, 0.190029203891754, 0.451772034168243, 0.032259501516819, 0.218773484230042, 0.000000000000000, 0.220079556107521, -0.055714916437864, -0.170167058706284, -0.032103136181831, 0.395627796649933, 0.000000000000000, -0.053359609097242, 0.004032954107970, 0.326639860868454, -1.322382092475891, 0.655819416046143, 0.209130704402924, -0.402518153190613, -0.007771247066557, -0.170061692595482, 0.040817767381668, -1.342968463897705
0.219246491789818, 0.189780563116074, 0.452066034078598, 0.032328456640244, 0.219137206673622, 0.000000000000000, 0.220115020871162, -0.056264124810696, -0.169963538646698, -0.032333865761757, 0.395487338304520, 0.000000000000000, -0.053948242217302, 0.003785866778344, 0.326571732759476, -1.324120640754700, 0.656068027019501, 0.208832800388336, -0.400632023811340, -0.007778400089592, -0.169161200523376, 0.040733519941568, -1.345259666442871
0.219387203454971, 0.189512625336647, 0.452352643013000, 0.032448701560497, 0.219506025314331, 0.000000000000000, 0.220150321722031, -0.056742735207081, -0.169783681631088, -0.032481532543898, 0.395334094762802, 0.000000000000000, -0.054521333426237, 0.003651904640719, 0.326393902301788, -1.325646877288818, 0.656069934368134, 0.208598285913467, -0.398990541696548, -0.007788948714733, -0.168397322297096, 0.040672995150089, -1.347365379333496
0.219492673873901, 0.189226076006889, 0.452624648809433, 0.032622549682856, 0.219866663217545, 0.000000000000000, 0.220260843634605, -0.057064093649387, -0.169637456536293, -0.032506983727217, 0.395169585943222, 0.000000000000000, -0.055127121508121, 0.003709205193445, 0.326023966073990, -1.327037930488586, 0.655770719051361, 0.208366990089417, -0.397670209407806, -0.007798020262271, -0.167799994349480, 0.040621537715197, -1.349279880523682
0.219522476196289, 0.188885793089867, 0.452884823083878, 0.032829124480486, 0.220204532146454, 0.000000000000000, 0.220403507351875, -0.057264070957899, -0.169524192810059, -0.032429575920105, 0.394994676113129, 0.000000000000000, -0.055725663900375, 0.003883531549945, 0.325430244207382, -1.328283786773682, 0.655195951461792, 0.208115994930267, -0.396837711334229, -0.007801768369973, -0.167447790503502, 0.040572389960289, -1.350999832153320
0.219426691532135, 0.188470795750618, 0.453136652708054, 0.033047229051590, 0.220508009195328, 0.000000000000000, 0.220490053296089, -0.057455271482468, -0.169434711337090, -0.032295886427164, 0.394808530807495, 0.000000000000000, -0.056244779378176, 0.004008373245597, 0.324691802263260, -1.329310894012451, 0.654444396495819, 0.207896694540977, -0.396584451198578, -0.007802169770002, -0.167391896247864, 0.040536925196648, -1.352513670921326
0.219193980097771, 0.188005998730659, 0.453377425670624, 0.033265914767981, 0.220768585801125, 0.000000000000000, 0.220443144440651, -0.057723864912987, -0.169361516833305, -0.032152846455574, 0.394605547189713, 0.000000000000000, -0.056679163128138, 0.003960356116295, 0.324053078889847, -1.330003857612610, 0.653635859489441, 0.207798346877098, -0.396807551383972, -0.007806019391865, -0.167597785592079, 0.040536269545555, -1.353801369667053
0.218860998749733, 0.187539041042328, 0.453599333763123, 0.033489633351564, 0.220980867743492, 0.000000000000000, 0.220256581902504, -0.058086328208447, -0.169303819537163, -0.032014258205891, 0.394380807876587, 0.000000000000000, -0.057078462094069, 0.003766147885472, 0.323721736669540, -1.330294013023376, 0.652884006500244, 0.207883253693581, -0.397337973117828, -0.007818973623216, -0.167996540665627, 0.040584739297628, -1.354847431182861
0.218450635671616, 0.187091872096062, 0.453798890113831, 0.033725131303072, 0.221143215894699, 0.000000000000000, 0.219945222139359, -0.058516949415207, -0.169265583157539, -0.031879786401987, 0.394132494926453, 0.000000000000000, -0.057483270764351, 0.003502514911816, 0.323724359273911, -1.330213785171509, 0.652261435985565, 0.208167850971222, -0.398088127374649, -0.007842783816159, -0.168548077344894, 0.040685240179300, -1.355673551559448
0.217948034405708, 0.186645433306694, 0.453980267047882, 0.033977948129177, 0.221259579062462, 0.000000000000000, 0.219516903162003, -0.059007119387388, -0.169248715043068, -0.031748589128256, 0.393863469362259, 0.000000000000000, -0.057905670255423, 0.003189583541825, 0.323961049318314, -1.329867720603943, 0.651768565177917, 0.208629563450813, -0.399061262607574, -0.007875832729042, -0.169245615601540, 0.040831528604031, -1.356348156929016
0.217316508293152, 0.186171859502792, 0.454151004552841, 0.034253153949976, 0.221336752176285, 0.000000000000000, 0.218984812498093, -0.059573449194431, -0.169250935316086, -0.031611889600754, 0.393582642078400, 0.000000000000000, -0.058343451470137, 0.002813410479575, 0.324307680130005, -1.329381704330444, 0.651347279548645, 0.209220439195633, -0.400287568569183, -0.007914702408016, -0.170089647173882, 0.041011676192284, -1.356956720352173
0.216522291302681, 0.185659974813461, 0.454317361116409, 0.034556604921818, 0.221379101276398, 0.000000000000000, 0.218319684267044, -0.060222137719393, -0.169270634651184, -0.031472299247980, 0.393299371004105, 0.000000000000000, -0.058747809380293, 0.002355676842853, 0.324596524238586, -1.328911900520325, 0.650949537754059, 0.209924861788750, -0.401777148246765, -0.007958699949086, -0.171070143580437, 0.041221994906664, -1.357574939727783
0.215598136186600, 0.185121431946754, 0.454478234052658, 0.034911148250103, 0.221386805176735, 0.000000000000000, 0.217510014772415, -0.060946911573410, -0.169307485222816, -0.031319048255682, 0.393023580312729, 0.000000000000000, -0.059072092175484, 0.001799019169994, 0.324742227792740, -1.328602433204651, 0.650567889213562, 0.210784241557121, -0.403348803520203, -0.008013544604182, -0.172092199325562, 0.041473355144262, -1.358261466026306
0.214591994881630, 0.184662029147148, 0.454617738723755, 0.035314824432135, 0.221346735954285, 0.000000000000000, 0.216534629464149, -0.061656959354877, -0.169373154640198, -0.031140314415097, 0.392763555049896, 0.000000000000000, -0.059392500668764, 0.001180853229016, 0.324928641319275, -1.328491926193237, 0.650214850902557, 0.211811587214470, -0.404471457004547, -0.008086634799838, -0.172903835773468, 0.041769385337830, -1.359068036079407
0.213527783751488, 0.184385195374489, 0.454719722270966, 0.035751834511757, 0.221239924430847, 0.000000000000000, 0.215364038944244, -0.062242407351732, -0.169482350349426, -0.030930196866393, 0.392524331808090, 0.000000000000000, -0.059760648757219, 0.000535952742212, 0.325349241495132, -1.328594088554382, 0.649916827678680, 0.212931707501411, -0.404689043760300, -0.008177524432540, -0.173287034034729, 0.042090117931366, -1.360036015510559
0.212424576282501, 0.184303194284439, 0.454777657985687, 0.036230038851500, 0.221054643392563, 0.000000000000000, 0.214072674512863, -0.062653660774231, -0.169641092419624, -0.030640708282590, 0.392314910888672, 0.000000000000000, -0.060099046677351, -0.000137076625833, 0.325894773006439, -1.329038500785828, 0.649686872959137, 0.214000821113586, -0.404102534055710, -0.008274141699076, -0.173274502158165, 0.042396921664476, -1.361176729202271
0.211237326264381, 0.184335410594940, 0.454800367355347, 0.036760907620192, 0.220787242054939, 0.000000000000000, 0.212770015001297, -0.062912948429585, -0.169846668839455, -0.030212694779038, 0.392146110534668, 0.000000000000000, -0.060305595397949, -0.000757553905714, 0.326199084520340, -1.330050587654114, 0.649528801441193, 0.214841827750206, -0.403236389160156, -0.008356983773410, -0.173089191317558, 0.042641781270504, -1.362481117248535
0.209876865148544, 0.184418156743050, 0.454799622297287, 0.037339981645346, 0.220437407493591, 0.000000000000000, 0.211467444896698, -0.063064143061638, -0.170095384120941, -0.029630482196808, 0.392026126384735, 0.000000000000000, -0.060396410524845, -0.001203961088322, 0.326133161783218, -1.331681728363037, 0.649431765079498, 0.215296044945717, -0.402429372072220, -0.008409906178713, -0.172877445816994, 0.042782153934240, -1.363955736160278
0.208321958780289, 0.184571176767349, 0.454776167869568, 0.037971984595060, 0.220007047057152, 0.000000000000000, 0.210067838430405, -0.063113629817963, -0.170388519763947, -0.028919149190187, 0.391959667205811, 0.000000000000000, -0.060427337884903, -0.001515300129540, 0.325828969478607, -1.333730697631836, 0.649381756782532, 0.215317890048027, -0.401704937219620, -0.008428886532784, -0.172656580805779, 0.042806010693312, -1.365654230117798
0.206599891185760, 0.184822008013725, 0.454728037118912, 0.038676418364048, 0.219498038291931, 0.000000000000000, 0.208477854728699, -0.063063479959965, -0.170726507902145, -0.028096158057451, 0.391953498125076, 0.000000000000000, -0.060425888746977, -0.001779687940143, 0.325358897447586, -1.335979342460632, 0.649389386177063, 0.214954599738121, -0.401068747043610, -0.008417142555118, -0.172440469264984, 0.042725380510092, -1.367614269256592
0.204712480306625, 0.185159623622894, 0.454659491777420, 0.039468251168728, 0.218909606337547, 0.000000000000000, 0.206661343574524, -0.062935478985310, -0.171106383204460, -0.027152834460139, 0.392020195722580, 0.000000000000000, -0.060372121632099, -0.001984006958082, 0.324689179658890, -1.338350772857666, 0.649501264095306, 0.214291065931320, -0.400597602128983, -0.008379979059100, -0.172270670533180, 0.042561423033476, -1.369759559631348
0.202654331922531, 0.185623794794083, 0.454568624496460, 0.040345035493374, 0.218238502740860, 0.000000000000000, 0.204583510756493, -0.062705025076866, -0.171531483530998, -0.026079412549734, 0.392174005508423, 0.000000000000000, -0.060247663408518, -0.002108437009156, 0.323917239904404, -1.340770840644836, 0.649763464927673, 0.213424190878868, -0.400241404771805, -0.008325099013746, -0.172131925821304, 0.042338926345110, -1.371926188468933
0.200420022010803, 0.186292320489883, 0.454448968172073, 0.041289489716291, 0.217482998967171, 0.000000000000000, 0.202200114727020, -0.062322538346052, -0.172009468078613, -0.024873578920960, 0.392427027225494, 0.000000000000000, -0.060083806514740, -0.002144727390260, 0.323249906301498, -1.343137860298157, 0.650208592414856, 0.212449014186859, -0.399819642305374, -0.008261570706964, -0.171951696276665, 0.042082872241735, -1.373930573463440
0.197998985648155, 0.187195152044296, 0.454300880432129, 0.042284421622753, 0.216649234294891, 0.000000000000000, 0.199460536241531, -0.061779767274857, -0.172542989253998, -0.023545129224658, 0.392783701419830, 0.000000000000000, -0.059919476509094, -0.002015008591115, 0.322826027870178, -1.345435976982117, 0.650861382484436, 0.211450308561325, -0.399189472198486, -0.008197412826121, -0.171670407056808, 0.041815675795078, -1.375602602958679
0.195371940732002, 0.188300833106041, 0.454135000705719, 0.043321967124939, 0.215754538774490, 0.000000000000000, 0.196322247385979, -0.061108965426683, -0.173127606511116, -0.022112410515547, 0.393238335847855, 0.000000000000000, -0.059757869690657, -0.001590188127011, 0.322660595178604, -1.347747445106506, 0.651684403419495, 0.210494741797447, -0.398354023694992, -0.008138154633343, -0.171288162469864, 0.041555892676115, -1.376817464828491
0.192495554685593, 0.189551666378975, 0.453969329595566, 0.044398885220289, 0.214824900031090, 0.000000000000000, 0.192787766456604, -0.060343399643898, -0.173755928874016, -0.020592691376805, 0.393776923418045, 0.000000000000000, -0.059562981128693, -0.000818573753349, 0.322699069976807, -1.350113630294800, 0.652530729770660, 0.209608659148216, -0.397455841302872, -0.008085241541266, -0.170867636799812, 0.041313394904137, -1.377541780471802
0.189309760928154, 0.190902948379517, 0.453822612762451, 0.045505106449127, 0.213887527585030, 0.000000000000000, 0.188910260796547, -0.059482421725988, -0.174421891570091, -0.019011834636331, 0.394375741481781, 0.000000000000000, -0.059265155345201, 0.000196662775124, 0.322836309671402, -1.352439641952515, 0.653231978416443, 0.208766967058182, -0.396684914827347, -0.008035437203944, -0.170498862862587, 0.041084907948971, -1.377857565879822
0.185800805687904, 0.192330211400986, 0.453706026077271, 0.046626228839159, 0.212964385747910, 0.000000000000000, 0.184813842177391, -0.058513928204775, -0.175117671489716, -0.017401957884431, 0.395001262426376, 0.000000000000000, -0.058813728392124, 0.001197617035359, 0.323007106781006, -1.354464292526245, 0.653717577457428, 0.207913801074028, -0.396137803792953, -0.007983151823282, -0.170239239931107, 0.040857285261154, -1.377940416336060
0.182033792138100, 0.193807259202003, 0.453620940446854, 0.047743644565344, 0.212068021297455, 0.000000000000000, 0.180643707513809, -0.057449992746115, -0.175830289721489, -0.015817392617464, 0.395610928535461, 0.000000000000000, -0.058195743709803, 0.001902109361254, 0.323237776756287, -1.355864405632019, 0.654048919677734, 0.207022547721863, -0.395779699087143, -0.007925539277494, -0.170092150568962, 0.040622577071190, -1.377961754798889
0.178132608532906, 0.195260554552078, 0.453565925359726, 0.048834860324860, 0.211202025413513, 0.000000000000000, 0.176549121737480, -0.056370072066784, -0.176537334918976, -0.014331080019474, 0.396160542964935, 0.000000000000000, -0.057409089058638, 0.002201622817665, 0.323537737131119, -1.356472253799438, 0.654380261898041, 0.206152737140656, -0.395549535751343, -0.007866410538554, -0.170043319463730, 0.040393389761448, -1.377973794937134
0.174267351627350, 0.196571186184883, 0.453540354967117, 0.049882721155882, 0.210368052124977, 0.000000000000000, 0.172728598117828, -0.055424459278584, -0.177206575870514, -0.012995705008507, 0.396614640951157, 0.000000000000000, -0.056475915014744, 0.002200148999691, 0.323849171400070, -1.356357693672180, 0.654873132705688, 0.205439746379852, -0.395429491996765, -0.007815404795110, -0.170087397098541, 0.040201939642429, -1.377898573875427
0.170623630285263, 0.197622701525688, 0.453543990850449, 0.050873793661594, 0.209574639797211, 0.000000000000000, 0.169343098998070, -0.054763004183769, -0.177806288003922, -0.011854453943670, 0.396945923566818, 0.000000000000000, -0.055481046438217, 0.002061344450340, 0.324157178401947, -1.355703592300415, 0.655602931976318, 0.205017074942589, -0.395390301942825, -0.007782964501530, -0.170207813382149, 0.040081907063723, -1.377633571624756
0.167376056313515, 0.198352783918381, 0.453574359416962, 0.051793430000544, 0.208840072154999, 0.000000000000000, 0.166448727250099, -0.054452959448099, -0.178318396210670, -0.010944882407784, 0.397134989500046, 0.000000000000000, -0.054550543427467, 0.001881511183456, 0.324524581432343, -1.354706287384033, 0.656515538692474, 0.204945504665375, -0.395370602607727, -0.007775198668242, -0.170369908213615, 0.040050778537989, -1.377142786979675
0.164636000990868, 0.198742896318436, 0.453630656003952, 0.052616480737925, 0.208188235759735, 0.000000000000000, 0.164025902748108, -0.054470755159855, -0.178741008043289, -0.010281443595886, 0.397172957658768, 0.000000000000000, -0.053754996508360, 0.001679277163930, 0.324937045574188, -1.353612303733826, 0.657478749752045, 0.205192282795906, -0.395390599966049, -0.007790761999786, -0.170569524168968, 0.040102951228619, -1.376471281051636
0.162422031164169, 0.198797896504402, 0.453716337680817, 0.053303353488445, 0.207640543580055, 0.000000000000000, 0.162056460976601, -0.054770052433014, -0.179077640175819, -0.009838033467531, 0.397063434123993, 0.000000000000000, -0.053144305944443, 0.001465749344788, 0.325311094522476, -1.352697610855103, 0.658331692218781, 0.205617249011993, -0.395570188760757, -0.007819151505828, -0.170841872692108, 0.040204863995314, -1.375731825828552
0.160722509026527, 0.198533713817596, 0.453835159540176, 0.053824804723263, 0.207207113504410, 0.000000000000000, 0.160526886582375, -0.055295590311289, -0.179334253072739, -0.009566820226610, 0.396816432476044, 0.000000000000000, -0.052768994122744, 0.001282991142944, 0.325551569461823, -1.352169036865234, 0.658931016921997, 0.206016570329666, -0.396033167839050, -0.007844632491469, -0.171224296092987, 0.040305770933628, -1.375077724456787
0.159544482827187, 0.197992175817490, 0.453984528779984, 0.054171927273273, 0.206885695457458, 0.000000000000000, 0.159411236643791, -0.055969789624214, -0.179521083831787, -0.009425593540072, 0.396442055702209, 0.000000000000000, -0.052624482661486, 0.001165674533695, 0.325607270002365, -1.352087259292603, 0.659178256988525, 0.206231474876404, -0.396810889244080, -0.007855356670916, -0.171719416975975, 0.040365789085627, -1.374639987945557
0.158884152770042, 0.197206467390060, 0.454162597656250, 0.054347272962332, 0.206665664911270, 0.000000000000000, 0.158728986978531, -0.056734155863523, -0.179646357893944, -0.009369973093271, 0.395950019359589, 0.000000000000000, -0.052722919732332, 0.001127531169914, 0.325497597455978, -1.352367162704468, 0.659022212028503, 0.206219702959061, -0.397762656211853, -0.007849846966565, -0.172261640429497, 0.040374901145697, -1.374490141868591
0.158750787377357, 0.196243971586227, 0.454362720251083, 0.054359659552574, 0.206530749797821, 0.000000000000000, 0.158522605895996, -0.057531211525202, -0.179717063903809, -0.009363812394440, 0.395348250865936, 0.000000000000000, -0.053057990968227, 0.001180000836030, 0.325300693511963, -1.352853536605835, 0.658491194248199, 0.206053256988525, -0.398662209510803, -0.007835771888494, -0.172755464911461, 0.040351733565331, -1.374596357345581
0.159146502614021, 0.195161178708076, 0.454580873250961, 0.054222926497459, 0.206460610032082, 0.000000000000000, 0.158826857805252, -0.058343570679426, -0.179734081029892, -0.009389176033437, 0.394644200801849, 0.000000000000000, -0.053586203604937, 0.001317176735029, 0.325109392404556, -1.353383064270020, 0.657678425312042, 0.205863684415817, -0.399372130632401, -0.007823939435184, -0.173152163624763, 0.040329266339540, -1.374818682670593
0.160043865442276, 0.193975716829300, 0.454820364713669, 0.053949866443872, 0.206432387232780, 0.000000000000000, 0.159654468297958, -0.059216696768999, -0.179690793156624, -0.009446527808905, 0.393846273422241, 0.000000000000000, -0.054290827363729, 0.001513315364718, 0.325010359287262, -1.353796124458313, 0.656683981418610, 0.205784633755684, -0.399912744760513, -0.007823462598026, -0.173476979136467, 0.040340665727854, -1.374957680702209
0.161467313766479, 0.192739963531494, 0.455076128244400, 0.053564313799143, 0.206426262855530, 0.000000000000000, 0.160977557301521, -0.060180474072695, -0.179582431912422, -0.009549523703754, 0.392959773540497, 0.000000000000000, -0.055162105709314, 0.001722281565890, 0.325118243694305, -1.353921294212341, 0.655605256557465, 0.205916136503220, -0.400400727987289, -0.007839713245630, -0.173798337578773, 0.040410023182631, -1.374812483787537
0.163466557860374, 0.191566422581673, 0.455333530902863, 0.053089790046215, 0.206425637006760, 0.000000000000000, 0.162759065628052, -0.061187971383333, -0.179413855075836, -0.009697778150439, 0.391989082098007, 0.000000000000000, -0.056195441633463, 0.001947452314198, 0.325506836175919, -1.353634595870972, 0.654552400112152, 0.206296727061272, -0.400948256254196, -0.007873360998929, -0.174176603555679, 0.040544807910919, -1.374248623847961
0.166030049324036, 0.190494582056999, 0.455591797828674, 0.052553333342075, 0.206411957740784, 0.000000000000000, 0.164975538849831, -0.062208991497755, -0.179189011454582, -0.009868471883237, 0.390944957733154, 0.000000000000000, -0.057352088391781, 0.002219010377303, 0.326151400804520, -1.352910041809082, 0.653659880161285, 0.206888809800148, -0.401592552661896, -0.007920031435788, -0.174629136919975, 0.040732011198997, -1.373258590698242
0.169105798006058, 0.189484298229218, 0.455862909555435, 0.051996994763613, 0.206362485885620, 0.000000000000000, 0.167647317051888, -0.063236154615879, -0.178910002112389, -0.010008821263909, 0.389853030443192, 0.000000000000000, -0.058587048202753, 0.002537466585636, 0.326942473649979, -1.351810216903687, 0.653043270111084, 0.207591906189919, -0.402290463447571, -0.007971662096679, -0.175129979848862, 0.040942694991827, -1.371970057487488
0.172642171382904, 0.188579320907593, 0.456148028373718, 0.051455676555634, 0.206270948052406, 0.000000000000000, 0.170745879411697, -0.064192667603493, -0.178588256239891, -0.010093445889652, 0.388741910457611, 0.000000000000000, -0.059866290539503, 0.002930888440460, 0.327720820903778, -1.350514888763428, 0.652746558189392, 0.208303451538086, -0.402995735406876, -0.008020829409361, -0.175644367933273, 0.041148841381073, -1.370568871498108
0.176575124263763, 0.187793478369713, 0.456450760364532, 0.050960205495358, 0.206149473786354, 0.000000000000000, 0.174224734306335, -0.065034255385399, -0.178229570388794, -0.010131116025150, 0.387639045715332, 0.000000000000000, -0.061128605157137, 0.003380955429748, 0.328338503837585, -1.349259614944458, 0.652734637260437, 0.208959415555000, -0.403728544712067, -0.008063069544733, -0.176165163516998, 0.041334141045809, -1.369228720664978
0.180809915065765, 0.187080964446068, 0.456780314445496, 0.050515290349722, 0.206005856394768, 0.000000000000000, 0.178070917725563, -0.065754018723965, -0.177833944559097, -0.010142666287720, 0.386565059423447, 0.000000000000000, -0.062341809272766, 0.003856860101223, 0.328626632690430, -1.348296642303467, 0.652944207191467, 0.209541648626328, -0.404558151960373, -0.008097190409899, -0.176708430051804, 0.041494816541672, -1.368086338043213
0.185305997729301, 0.186378300189972, 0.457141458988190, 0.050118420273066, 0.205837652087212, 0.000000000000000, 0.182290166616440, -0.066366069018841, -0.177398264408112, -0.010155356489122, 0.385529011487961, 0.000000000000000, -0.063474506139755, 0.004325129557401, 0.328407555818558, -1.347791194915771, 0.653307974338531, 0.210088983178139, -0.405556917190552, -0.008126344531775, -0.177298188209534, 0.041642278432846, -1.367218613624573
0.190073579549789, 0.185691967606544, 0.457526534795761, 0.049758944660425, 0.205644279718399, 0.000000000000000, 0.186846941709518, -0.066874325275421, -0.176921188831329, -0.010208330117166, 0.384531974792480, 0.000000000000000, -0.064507134258747, 0.004717628937215, 0.327756881713867, -1.347674965858459, 0.653743147850037, 0.210668042302132, -0.406676858663559, -0.008156887255609, -0.177916705608368, 0.041795890778303, -1.366621255874634
0.195083647966385, 0.185087591409683, 0.457922369241714, 0.049408625811338, 0.205435350537300, 0.000000000000000, 0.191645115613937, -0.067258395254612, -0.176406398415565, -0.010350089520216, 0.383572041988373, 0.000000000000000, -0.065477423369884, 0.004959220997989, 0.327037006616592, -1.347727537155151, 0.654168546199799, 0.211320415139198, -0.407803207635880, -0.008193514309824, -0.178525358438492, 0.041968688368797, -1.366215705871582
0.200222298502922, 0.184601247310638, 0.458325028419495, 0.049037136137486, 0.205235064029694, 0.000000000000000, 0.196612641215324, -0.067550912499428, -0.175852626562119, -0.010600824840367, 0.382655382156372, 0.000000000000000, -0.066401138901711, 0.005073516629636, 0.326487958431244, -1.347861409187317, 0.654545605182648, 0.212058544158936, -0.408990442752838, -0.008236499503255, -0.179156303405762, 0.042164742946625, -1.365877509117126
0.205357730388641, 0.184180647134781, 0.458745986223221, 0.048645485192537, 0.205071479082108, 0.000000000000000, 0.201703429222107, -0.067844301462173, -0.175252377986908, -0.010950117371976, 0.381795316934586, 0.000000000000000, -0.067215092480183, 0.005079111550003, 0.326194941997528, -1.348080277442932, 0.654841661453247, 0.212873533368111, -0.410410523414612, -0.008283171802759, -0.179889187216759, 0.042382027953863, -1.365493774414062
0.210435181856155, 0.183817744255066, 0.459189802408218, 0.048245478421450, 0.204946786165237, 0.000000000000000, 0.206848561763763, -0.068158879876137, -0.174609437584877, -0.011379605159163, 0.380997359752655, 0.000000000000000, -0.067865960299969, 0.004988643340766, 0.326061189174652, -1.348369240760803, 0.655025064945221, 0.213751032948494, -0.412083417177200, -0.008332303725183, -0.180731788277626, 0.042617201805115, -1.365045070648193
0.215497344732285, 0.183523520827293, 0.459652543067932, 0.047856912016869, 0.204832360148430, 0.000000000000000, 0.211988791823387, -0.068454883992672, -0.173936411738396, -0.011858599260449, 0.380255728960037, 0.000000000000000, -0.068429768085480, 0.004780555609614, 0.326171398162842, -1.348583817481995, 0.655058562755585, 0.214653268456459, -0.413658589124680, -0.008385056629777, -0.181525468826294, 0.042861517518759, -1.364587664604187
0.220534875988960, 0.183374851942062, 0.460123687982559, 0.047456506639719, 0.204688265919685, 0.000000000000000, 0.216971486806870, -0.068596832454205, -0.173261210322380, -0.012387712486088, 0.379563391208649, 0.000000000000000, -0.069022499024868, 0.004459706135094, 0.326642632484436, -1.348629951477051, 0.654963731765747, 0.215518027544022, -0.414707481861115, -0.008441247045994, -0.182071700692177, 0.043098542839289, -1.364204764366150
0.225475072860718, 0.183382421731949, 0.460606187582016, 0.047028169035912, 0.204500988125801, 0.000000000000000, 0.221714526414871, -0.068526424467564, -0.172600731253624, -0.012940317392349, 0.378931015729904, 0.000000000000000, -0.069614082574844, 0.004053607117385, 0.327267765998840, -1.348666310310364, 0.654835641384125, 0.216276705265045, -0.415183991193771, -0.008495498448610, -0.182335123419762, 0.043307680636644, -1.363985419273376
0.230245560407639, 0.183480113744736, 0.461112707853317, 0.046585869044065, 0.204277619719505, 0.000000000000000, 0.226230621337891, -0.068264208734035, -0.171958774328232, -0.013466323725879, 0.378373861312866, 0.000000000000000, -0.070117145776749, 0.003598449518904, 0.327653169631958, -1.348937630653381, 0.654755115509033, 0.216846287250519, -0.415321916341782, -0.008538055233657, -0.182405486702919, 0.043464262038469, -1.364035606384277
0.234807506203651, 0.183667466044426, 0.461645394563675, 0.046140287071466, 0.204026356339455, 0.000000000000000, 0.230544626712799, -0.067812211811543, -0.171339586377144, -0.013930569402874, 0.377893835306168, 0.000000000000000, -0.070510618388653, 0.003179145045578, 0.327612131834030, -1.349554538726807, 0.654760181903839, 0.217163220047951, -0.415165573358536, -0.008563122712076, -0.182293951511383, 0.043550334870815, -1.364449858665466
0.239126905798912, 0.184023588895798, 0.462196350097656, 0.045680839568377, 0.203751504421234, 0.000000000000000, 0.234612107276917, -0.067119933664799, -0.170753508806229, -0.014342499896884, 0.377476096153259, 0.000000000000000, -0.070847034454346, 0.002868684940040, 0.327320843935013, -1.350447893142700, 0.654860973358154, 0.217225939035416, -0.414491027593613, -0.008573164232075, -0.181902721524239, 0.043565936386585, -1.365247011184692
0.243184775114059, 0.184584379196167, 0.462762415409088, 0.045209847390652, 0.203462123870850, 0.000000000000000, 0.238376870751381, -0.066193722188473, -0.170202583074570, -0.014729983173311, 0.377099692821503, 0.000000000000000, -0.071156270802021, 0.002674257149920, 0.327012300491333, -1.351512789726257, 0.655062019824982, 0.217082470655441, -0.413233608007431, -0.008572675287724, -0.181214198470116, 0.043524309992790, -1.366348862648010
0.246997535228729, 0.185245171189308, 0.463354527950287, 0.044772781431675, 0.203177317976952, 0.000000000000000, 0.241866305470467, -0.065202608704567, -0.169667109847069, -0.015099400654435, 0.376748353242874, 0.000000000000000, -0.071360342204571, 0.002558688633144, 0.326613366603851, -1.352752804756165, 0.655386209487915, 0.216835200786591, -0.411745667457581, -0.008565542288125, -0.180399462580681, 0.043451786041260, -1.367604017257690
0.250564843416214, 0.185934782028198, 0.463976740837097, 0.044391684234142, 0.202905178070068, 0.000000000000000, 0.245107278227806, -0.064299054443836, -0.169130846858025, -0.015457568690181, 0.376406043767929, 0.000000000000000, -0.071456342935562, 0.002503373892978, 0.326018720865250, -1.354125261306763, 0.655828714370728, 0.216607481241226, -0.410366922616959, -0.008557667955756, -0.179623991250992, 0.043380629271269, -1.368849039077759
0.253902196884155, 0.186649173498154, 0.464620888233185, 0.044065482914448, 0.202636867761612, 0.000000000000000, 0.248102307319641, -0.063544817268848, -0.168588533997536, -0.015808232128620, 0.376056551933289, 0.000000000000000, -0.071525558829308, 0.002424277830869, 0.325611412525177, -1.355363845825195, 0.656317055225372, 0.216473177075386, -0.409076631069183, -0.008555408567190, -0.178895518183708, 0.043332211673260, -1.369925022125244
0.257003813982010, 0.187401860952377, 0.465279608964920, 0.043773785233498, 0.202352121472359, 0.000000000000000, 0.250798076391220, -0.062903247773647, -0.168046325445175, -0.016161864623427, 0.375682264566422, 0.000000000000000, -0.071537390351295, 0.002245961222798, 0.325483411550522, -1.356334090232849, 0.656809270381927, 0.216446742415428, -0.407953113317490, -0.008559166453779, -0.178259387612343, 0.043311391025782, -1.370769858360291
0.259883284568787, 0.188119113445282, 0.465958386659622, 0.043526466935873, 0.202030181884766, 0.000000000000000, 0.253250062465668, -0.062382455915213, -0.167503073811531, -0.016473101451993, 0.375272214412689, 0.000000000000000, -0.071452334523201, 0.001918672933243, 0.325454801321030, -1.357066273689270, 0.657265543937683, 0.216462910175323, -0.407209008932114, -0.008561483584344, -0.177813053131104, 0.043301735073328, -1.371424794197083
0.262567579746246, 0.188719019293785, 0.466668426990509, 0.043347135186195, 0.201650753617287, 0.000000000000000, 0.255498707294464, -0.061979528516531, -0.166958987712860, -0.016700208187103, 0.374811530113220, 0.000000000000000, -0.071317188441753, 0.001494136988185, 0.325443714857101, -1.357615113258362, 0.657650470733643, 0.216431081295013, -0.406804651021957, -0.008555958047509, -0.177534237504005, 0.043280411511660, -1.371975302696228
0.265124291181564, 0.189219146966934, 0.467410236597061, 0.043265160173178, 0.201198220252991, 0.000000000000000, 0.257589876651764, -0.061632361263037, -0.166422143578529, -0.016795668751001, 0.374285101890564, 0.000000000000000, -0.071224719285965, 0.001080781687051, 0.325458824634552, -1.358043551445007, 0.657937586307526, 0.216319337487221, -0.406506061553955, -0.008543280884624, -0.177310556173325, 0.043240100145340, -1.372489571571350
0.267631381750107, 0.189640790224075, 0.468184024095535, 0.043325044214725, 0.200668796896935, 0.000000000000000, 0.259583055973053, -0.061321787536144, -0.165896579623222, -0.016710337251425, 0.373681277036667, 0.000000000000000, -0.071188054978848, 0.000748862628825, 0.325486242771149, -1.358433961868286, 0.658125102519989, 0.216136232018471, -0.406146019697189, -0.008526452817023, -0.177059829235077, 0.043183382600546, -1.372988104820251
