isaac-sim2real/sage/motion_files/g1/amass/0-KIT_674_wash_front03_poses.txt
/g1/pelvis/left_hip_yaw_joint, /g1/left_hip_yaw_link/left_hip_pitch_joint, /g1/left_hip_pitch_link/left_hip_roll_joint, /g1/left_hip_roll_link/left_knee_joint, /g1/left_knee_link/left_ankle_pitch_joint, /g1/left_ankle_pitch_link/left_ankle_roll_joint, /g1/pelvis/right_hip_yaw_joint, /g1/right_hip_yaw_link/right_hip_pitch_joint, /g1/right_hip_pitch_link/right_hip_roll_joint, /g1/right_hip_roll_link/right_knee_joint, /g1/right_knee_link/right_ankle_pitch_joint, /g1/right_ankle_pitch_link/right_ankle_roll_joint, /g1/pelvis/torso_joint, /g1/torso_link/left_shoulder_pitch_joint, /g1/left_shoulder_pitch_link/left_shoulder_roll_joint, /g1/left_shoulder_roll_link/left_shoulder_yaw_joint, /g1/left_shoulder_yaw_link/left_elbow_joint, /g1/left_elbow_link/left_wrist_roll_joint, /g1/torso_link/right_shoulder_pitch_joint, /g1/right_shoulder_pitch_link/right_shoulder_roll_joint, /g1/right_shoulder_roll_link/right_shoulder_yaw_joint, /g1/right_shoulder_yaw_link/right_elbow_joint, /g1/right_elbow_link/right_wrist_roll_joint
0.008236155845225, 0.113128907978535, 0.149960815906525, 0.122201040387154, -0.147228315472603, 0.000000000000000, 0.038751672953367, 0.021789886057377, -0.048988614231348, 0.068804040551186, -0.042087186127901, 0.000000000000000, -0.062214717268944, 0.017915563657880, 0.186481922864914, 0.329345196485519, 0.489783853292465, 0.383081376552582, 0.544980287551880, 0.014062236063182, 0.229317188262939, 0.089249253273010, 0.290059983730316
0.006649015005678, 0.114063858985901, 0.149793624877930, 0.123068004846573, -0.147333949804306, 0.000000000000000, 0.037103597074747, 0.022475974634290, -0.049257814884186, 0.069611415266991, -0.042283762246370, 0.000000000000000, -0.062062367796898, 0.018084498122334, 0.186843737959862, 0.328649878501892, 0.488229870796204, 0.381841868162155, 0.544797718524933, 0.013988295570016, 0.229222819209099, 0.088938161730766, 0.289209991693497
0.003504825523123, 0.115719385445118, 0.149496659636497, 0.124714389443398, -0.147535115480423, 0.000000000000000, 0.033835060894489, 0.023873496800661, -0.049786370247602, 0.071109563112259, -0.042731035500765, 0.000000000000000, -0.061771728098392, 0.018388241529465, 0.187544047832489, 0.327306151390076, 0.485179007053375, 0.379423797130585, 0.544454276561737, 0.013842581771314, 0.229044169187546, 0.088330388069153, 0.287574321031570
-0.001157565042377, 0.117997951805592, 0.149089500308037, 0.127147465944290, -0.147803366184235, 0.000000000000000, 0.028880899772048, 0.026023531332612, -0.050576340407133, 0.073213003575802, -0.043525673449039, 0.000000000000000, -0.061343669891357, 0.018789978697896, 0.188607394695282, 0.325315177440643, 0.480550348758698, 0.375793248414993, 0.543967902660370, 0.013620230369270, 0.228788346052170, 0.087415635585785, 0.285163491964340
-0.007389159873128, 0.120768085122108, 0.148603558540344, 0.130332008004189, -0.148061633110046, 0.000000000000000, 0.022149119526148, 0.028932448476553, -0.051622912287712, 0.075786441564560, -0.044784128665924, 0.000000000000000, -0.060763485729694, 0.019241269677877, 0.190063878893852, 0.322685331106186, 0.474241375923157, 0.370910584926605, 0.543364524841309, 0.013314906507730, 0.228465840220451, 0.086181506514549, 0.281989097595215
-0.015321648679674, 0.123878493905067, 0.148078560829163, 0.134191170334816, -0.148224338889122, 0.000000000000000, 0.013598864898086, 0.032532140612602, -0.052908804267645, 0.078691393136978, -0.046606268733740, 0.000000000000000, -0.059991601854563, 0.019694287329912, 0.191934943199158, 0.319432616233826, 0.466147214174271, 0.364735901355743, 0.542673230171204, 0.012919682078063, 0.228088617324829, 0.084615007042885, 0.278057783842087
-0.025031486526132, 0.127091109752655, 0.147570252418518, 0.138655573129654, -0.148240640759468, 0.000000000000000, 0.003365744370967, 0.036596629768610, -0.054389927536249, 0.081839635968208, -0.049053050577641, 0.000000000000000, -0.058937240391970, 0.020115414634347, 0.194247558712959, 0.315588027238846, 0.456178516149521, 0.357238531112671, 0.541925966739655, 0.012428112328053, 0.227670475840569, 0.082705475389957, 0.273356318473816
-0.036540240049362, 0.130028039216995, 0.147158578038216, 0.143653407692909, -0.148095801472664, 0.000000000000000, -0.008178660646081, 0.040731348097324, -0.055990986526012, 0.085212908685207, -0.052147820591927, 0.000000000000000, -0.057442542165518, 0.020501270890236, 0.197041735053062, 0.311206102371216, 0.444281011819839, 0.348408609628677, 0.541156768798828, 0.011835525743663, 0.227227360010147, 0.080447904765606, 0.267843693494797
-0.049868308007717, 0.132252097129822, 0.146933332085609, 0.149054527282715, -0.147793397307396, 0.000000000000000, -0.020457912236452, 0.044498901814222, -0.057624436914921, 0.088865056633949, -0.055858198553324, 0.000000000000000, -0.055315472185612, 0.020884901285172, 0.200368314981461, 0.306356579065323, 0.430459320545197, 0.338265150785446, 0.540394663810730, 0.011140088550746, 0.226774305105209, 0.077845357358456, 0.261463731527328
-0.065169259905815, 0.133325532078743, 0.146983355283737, 0.154550626873970, -0.147348761558533, 0.000000000000000, -0.033081982284784, 0.047514613717794, -0.059210937470198, 0.092775918543339, -0.060062211006880, 0.000000000000000, -0.052421163767576, 0.021304322406650, 0.204273402690887, 0.301094055175781, 0.414789617061615, 0.326854139566422, 0.539650559425354, 0.010342701338232, 0.226319283246994, 0.074907913804054, 0.254187136888504
-0.082635015249252, 0.132858306169510, 0.147384807467461, 0.159635931253433, -0.146792054176331, 0.000000000000000, -0.045925006270409, 0.049002286046743, -0.060621310025454, 0.096823617815971, -0.064548984169960, 0.000000000000000, -0.048748526722193, 0.021753162145615, 0.208773300051689, 0.295453757047653, 0.397416204214096, 0.314243465662003, 0.538916528224945, 0.009446443989873, 0.225862413644791, 0.071651108562946, 0.246059119701385
-0.101978868246078, 0.130832865834236, 0.148137763142586, 0.163884714245796, -0.146134391427040, 0.000000000000000, -0.058524958789349, 0.048511940985918, -0.061775028705597, 0.101074963808060, -0.069075085222721, 0.000000000000000, -0.044338546693325, 0.022226361557841, 0.213855415582657, 0.289519459009171, 0.378557443618774, 0.300544083118439, 0.538189411163330, 0.008458512835205, 0.225407317280769, 0.068102248013020, 0.237199172377586
-0.122911609709263, 0.127387493848801, 0.149241209030151, 0.166956946253777, -0.145357489585876, 0.000000000000000, -0.069856412708759, 0.046371050179005, -0.062697142362595, 0.105904735624790, -0.073423385620117, 0.000000000000000, -0.039205037057400, 0.022752437740564, 0.219477891921997, 0.283474534749985, 0.358508527278900, 0.285929083824158, 0.537492156028748, 0.007392241153866, 0.224970906972885, 0.064306393265724, 0.227775633335114
-0.145458608865738, 0.122447364032269, 0.150780841708183, 0.168575212359428, -0.144440814852715, 0.000000000000000, -0.078361622989178, 0.042788621038198, -0.063380971550941, 0.111972741782665, -0.077392958104610, 0.000000000000000, -0.033336810767651, 0.023329673334956, 0.225551038980484, 0.277584791183472, 0.337627351284027, 0.270627617835999, 0.536876976490021, 0.006266553886235, 0.224583670496941, 0.060324534773827, 0.217980965971947
-0.169653162360191, 0.115853488445282, 0.152874514460564, 0.168607532978058, -0.143360197544098, 0.000000000000000, -0.083127535879612, 0.038226541131735, -0.063852705061436, 0.119644969701767, -0.080886743962765, 0.000000000000000, -0.026731308549643, 0.023896452039480, 0.231917560100555, 0.272156506776810, 0.316329181194305, 0.254917412996292, 0.536416113376617, 0.005105571355671, 0.224284291267395, 0.056231632828712, 0.208019644021988
-0.195180892944336, 0.107573784887791, 0.155592113733292, 0.167152613401413, -0.142073541879654, 0.000000000000000, -0.083914659917355, 0.033378001302481, -0.064180798828602, 0.128992617130280, -0.083868592977524, 0.000000000000000, -0.019495593383908, 0.024333855137229, 0.238355353474617, 0.267461299896240, 0.295070052146912, 0.239101812243462, 0.536172151565552, 0.003936638124287, 0.224105626344681, 0.052109949290752, 0.198143333196640
-0.221257254481316, 0.097803123295307, 0.158911317586899, 0.164554178714752, -0.140516221523285, 0.000000000000000, -0.080938138067722, 0.028790358453989, -0.064425453543663, 0.139926627278328, -0.086300328373909, 0.000000000000000, -0.011874491348863, 0.024520182982087, 0.244596391916275, 0.263670384883881, 0.274316787719727, 0.223478853702545, 0.536169707775116, 0.002787286415696, 0.224061399698257, 0.048040140420198, 0.188644304871559
-0.246664077043533, 0.086818747222424, 0.162731155753136, 0.161374047398567, -0.138619720935822, 0.000000000000000, -0.074868686497211, 0.024779422208667, -0.064618602395058, 0.152205646038055, -0.088151223957539, 0.000000000000000, -0.004225024487823, 0.024389041587710, 0.250359088182449, 0.260802179574966, 0.254528373479843, 0.208323732018471, 0.536370813846588, 0.001683636102825, 0.224135264754295, 0.044096540659666, 0.179811924695969
-0.269909173250198, 0.074772015213966, 0.166899353265762, 0.158318653702736, -0.136348024010658, 0.000000000000000, -0.066752322018147, 0.021593511104584, -0.064780123531818, 0.165466204285622, -0.089414484798908, 0.000000000000000, 0.003056249814108, 0.023941794410348, 0.255384892225266, 0.258722215890884, 0.236144244670868, 0.193883866071701, 0.536675393581390, 0.000649773806799, 0.224281772971153, 0.040345851331949, 0.171885788440704
-0.289543390274048, 0.061681184917688, 0.171220377087593, 0.156082987785339, -0.133732765913010, 0.000000000000000, -0.057725548744202, 0.019419765099883, -0.064912654459476, 0.179348871111870, -0.090107202529907, 0.000000000000000, 0.009620817378163, 0.023222731426358, 0.259482502937317, 0.257192343473434, 0.219561174511909, 0.180371791124344, 0.536946773529053, -0.000293470540782, 0.224437654018402, 0.036845061928034, 0.165032118558884
-0.304547131061554, 0.047594919800758, 0.175475135445595, 0.155155852437019, -0.130872368812561, 0.000000000000000, -0.048676129430532, 0.018238013610244, -0.064976356923580, 0.193650662899017, -0.090249136090279, 0.000000000000000, 0.015214713290334, 0.022289972752333, 0.262569397687912, 0.255908131599426, 0.205099344253540, 0.167950764298439, 0.537029564380646, -0.001130409538746, 0.224530443549156, 0.033637326210737, 0.159335628151894
-0.314545035362244, 0.032700158655643, 0.179465740919113, 0.155712932348251, -0.127885490655899, 0.000000000000000, -0.040186211466789, 0.017863230779767, -0.064902164041996, 0.208328738808632, -0.089841023087502, 0.000000000000000, 0.019681826233864, 0.021200416609645, 0.264674127101898, 0.254522770643234, 0.192983210086823, 0.156726852059364, 0.536759018898010, -0.001851522130892, 0.224483266472816, 0.030749753117561, 0.154804959893227
-0.319753140211105, 0.017302827909589, 0.183039993047714, 0.157642588019371, -0.124876119196415, 0.000000000000000, -0.032421652227640, 0.017999170348048, -0.064601816236973, 0.223505720496178, -0.088862285017967, 0.000000000000000, 0.022948063910007, 0.020018136128783, 0.265916258096695, 0.252691209316254, 0.183355495333672, 0.146762251853943, 0.535978674888611, -0.002452090615407, 0.224222868680954, 0.028197249397635, 0.151403024792671
-0.320824563503265, 0.001842507976107, 0.186068713665009, 0.160619616508484, -0.121932491660118, 0.000000000000000, -0.025183023884892, 0.018250960856676, -0.063962459564209, 0.239411085844040, -0.087280675768852, 0.000000000000000, 0.024984285235405, 0.018837284296751, 0.266502022743225, 0.250107347965240, 0.176294445991516, 0.138092383742332, 0.534554421901703, -0.002930298913270, 0.223686218261719, 0.025987638160586, 0.149085804820061
-0.318591296672821, -0.013094928115606, 0.188418954610825, 0.164235219359398, -0.119112998247147, 0.000000000000000, -0.018252452835441, 0.018146760761738, -0.062847286462784, 0.256204813718796, -0.085058756172657, 0.000000000000000, 0.025738356634974, 0.017796874046326, 0.266727298498154, 0.246490761637688, 0.171805918216705, 0.130727306008339, 0.532368957996368, -0.003286847844720, 0.222818300127983, 0.024122431874275, 0.147831097245216
-0.313603311777115, -0.026986425742507, 0.189971178770065, 0.168234363198280, -0.116427727043629, 0.000000000000000, -0.011933817528188, 0.017362285405397, -0.061156772077084, 0.273692458868027, -0.082171127200127, 0.000000000000000, 0.025096600875258, 0.017067350447178, 0.266951888799667, 0.241559267044067, 0.169810220599174, 0.124645650386810, 0.529310166835785, -0.003525423351675, 0.221566870808601, 0.022595349699259, 0.147645592689514
-0.305850297212601, -0.039613656699657, 0.190653786063194, 0.172650501132011, -0.113866910338402, 0.000000000000000, -0.007529770024121, 0.016032839193940, -0.058930613100529, 0.291010826826096, -0.078659877181053, 0.000000000000000, 0.022918188944459, 0.016810199245811, 0.267531305551529, 0.235036671161652, 0.170146048069000, 0.119788341224194, 0.525271415710449, -0.003653521882370, 0.219883158802986, 0.021390095353127, 0.148548543453217
-0.295119345188141, -0.050943717360497, 0.190433099865913, 0.177608862519264, -0.111452504992485, 0.000000000000000, -0.007365582045168, 0.014558495022357, -0.056336529552937, 0.306540757417679, -0.074711978435516, 0.000000000000000, 0.019095288589597, 0.017130527645350, 0.268735229969025, 0.226670980453491, 0.172602280974388, 0.116061858832836, 0.520156919956207, -0.003682324429974, 0.217724248766899, 0.020480593666434, 0.150519758462906
-0.281838119029999, -0.060893841087818, 0.189293354749680, 0.182911217212677, -0.109264470636845, 0.000000000000000, -0.013707532547414, 0.012819202616811, -0.053470838814974, 0.318568348884583, -0.070619054138660, 0.000000000000000, 0.013638126663864, 0.018044192343950, 0.270689666271210, 0.216235443949699, 0.176919221878052, 0.113339498639107, 0.513881623744965, -0.003626371035352, 0.215053111314774, 0.019831493496895, 0.153350278735161
-0.266916185617447, -0.069334618747234, 0.187234848737717, 0.188135907053947, -0.107331417500973, 0.000000000000000, -0.027612615376711, 0.010453241877258, -0.050381045788527, 0.326117843389511, -0.066604606807232, 0.000000000000000, 0.006714578252286, 0.019483834505081, 0.273367017507553, 0.203550219535828, 0.182757273316383, 0.111458458006382, 0.506377816200256, -0.003503444604576, 0.211841180920601, 0.019398184493184, 0.156571567058563
-0.250449001789093, -0.076118171215057, 0.184248208999634, 0.193287000060081, -0.105443194508553, 0.000000000000000, -0.049110576510429, 0.007841683924198, -0.047299522906542, 0.328934788703918, -0.062751211225986, 0.000000000000000, -0.001378679997288, 0.021376904100180, 0.276599466800690, 0.188619613647461, 0.189761117100716, 0.110259175300598, 0.497631937265396, -0.003330587875098, 0.208084911108017, 0.019137626513839, 0.159672826528549
-0.232262164354324, -0.081311590969563, 0.180363297462463, 0.198525726795197, -0.103479988873005, 0.000000000000000, -0.077690362930298, 0.005858804564923, -0.044560048729181, 0.327154844999313, -0.059028208255768, 0.000000000000000, -0.010327676311135, 0.023656612262130, 0.280202209949493, 0.171631321310997, 0.197657823562622, 0.109626188874245, 0.487706899642944, -0.003120260778815, 0.203815490007401, 0.019018951803446, 0.162312567234039
-0.212348237633705, -0.085190996527672, 0.175667911767960, 0.203966662287712, -0.101410217583179, 0.000000000000000, -0.112501300871372, 0.005513895303011, -0.042493674904108, 0.321138828992844, -0.055338617414236, 0.000000000000000, -0.019842786714435, 0.026241868734360, 0.284032166004181, 0.152902811765671, 0.206202775239944, 0.109461024403572, 0.476738303899765, -0.002883078064770, 0.199096485972404, 0.019016146659851, 0.164305865764618
-0.190955519676208, -0.088150843977928, 0.170298129320145, 0.209666088223457, -0.099214270710945, 0.000000000000000, -0.152422577142715, 0.007859676145017, -0.041406255215406, 0.311424136161804, -0.051562163978815, 0.000000000000000, -0.029667356982827, 0.029006661847234, 0.288002401590347, 0.132820844650269, 0.215153187513351, 0.109665669500828, 0.464920610189438, -0.002629398601130, 0.194017097353935, 0.019103532657027, 0.165552482008934
-0.168516471982002, -0.090574361383915, 0.164400100708008, 0.215705111622810, -0.096875101327896, 0.000000000000000, -0.196172863245010, 0.013845506124198, -0.041547670960426, 0.298666417598724, -0.047587811946869, 0.000000000000000, -0.039604272693396, 0.031772390007973, 0.292074412107468, 0.111803710460663, 0.224267572164536, 0.110138498246670, 0.452497601509094, -0.002369625493884, 0.188686877489090, 0.019254593178630, 0.166028752923012
-0.145258828997612, -0.092725142836571, 0.158086270093918, 0.222369819879532, -0.094374343752861, 0.000000000000000, -0.242439597845078, 0.024119893088937, -0.043066959828138, 0.283564001321793, -0.043320346623659, 0.000000000000000, -0.049549914896488, 0.034290619194508, 0.296245425939560, 0.090300604701042, 0.233248174190521, 0.110740721225739, 0.439763784408569, -0.002117061056197, 0.183236226439476, 0.019433129578829, 0.165806517004967
-0.120731189846992, -0.094989776611328, 0.151494592428207, 0.230248034000397, -0.091694004833698, 0.000000000000000, -0.289910972118378, 0.038824513554573, -0.045958321541548, 0.266826957464218, -0.038664739578962, 0.000000000000000, -0.059491742402315, 0.036157120019197, 0.300577700138092, 0.068857282400131, 0.241643503308296, 0.111243017017841, 0.427104830741882, -0.001892300555483, 0.177833750844002, 0.019579406827688, 0.165057480335236
-0.094301797449589, -0.098333202302456, 0.144942522048950, 0.239916324615479, -0.088822402060032, 0.000000000000000, -0.337308675050735, 0.057375498116016, -0.050007469952106, 0.249150574207306, -0.033507954329252, 0.000000000000000, -0.069392442703247, 0.036801040172577, 0.305200755596161, 0.048205330967903, 0.248882368206978, 0.111360624432564, 0.415044218301773, -0.001719948137179, 0.172705873847008, 0.019619923084974, 0.163987949490547
-0.066459998488426, -0.103479757905006, 0.138731479644775, 0.251426279544830, -0.085761331021786, 0.000000000000000, -0.383475422859192, 0.078244760632515, -0.054773993790150, 0.231163799762726, -0.027723055332899, 0.000000000000000, -0.079020716249943, 0.035799305886030, 0.310126513242722, 0.029167309403419, 0.254562467336655, 0.110938295722008, 0.404136121273041, -0.001613037544303, 0.168090075254440, 0.019516263157129, 0.162700340151787
-0.038599479943514, -0.109776273369789, 0.132804110646248, 0.264409124851227, -0.082520984113216, 0.000000000000000, -0.426808834075928, 0.099536627531052, -0.059755913913250, 0.213685050606728, -0.021429117769003, 0.000000000000000, -0.087713360786438, 0.033200457692146, 0.315120518207550, 0.012582625262439, 0.258690029382706, 0.110102273523808, 0.394854128360748, -0.001561937504448, 0.164187759160995, 0.019303834065795, 0.161035239696503
-0.012399318628013, -0.115803800523281, 0.126921668648720, 0.278365075588226, -0.079107731580734, 0.000000000000000, -0.465249955654144, 0.120222344994545, -0.064694114029408, 0.197703555226326, -0.015321810729802, 0.000000000000000, -0.094310343265533, 0.029520031064749, 0.319781154394150, -0.000723476987332, 0.261640191078186, 0.109224304556847, 0.387571930885315, -0.001538757700473, 0.161156833171844, 0.019080901518464, 0.158528745174408
0.011270424351096, -0.120349511504173, 0.120905667543411, 0.293088525533676, -0.075501702725887, 0.000000000000000, -0.497960269451141, 0.138101682066917, -0.069170527160168, 0.183557465672493, -0.009871145710349, 0.000000000000000, -0.097821950912476, 0.025291834026575, 0.323787748813629, -0.010174005292356, 0.263757526874542, 0.108620010316372, 0.382533252239227, -0.001520470366813, 0.159098938107491, 0.018929846584797, 0.154778867959976
0.031664326786995, -0.122903659939766, 0.114742353558540, 0.308391690254211, -0.071635790169239, 0.000000000000000, -0.523872911930084, 0.152178943157196, -0.073017045855522, 0.171755626797676, -0.005102280993015, 0.000000000000000, -0.097737394273281, 0.020864857360721, 0.326902478933334, -0.015500128269196, 0.265256702899933, 0.108483873307705, 0.379842013120651, -0.001492949086241, 0.158056721091270, 0.018901374191046, 0.149648278951645
0.047848876565695, -0.123061157763004, 0.108402945101261, 0.323921710252762, -0.067401617765427, 0.000000000000000, -0.541794717311859, 0.162169590592384, -0.076196871697903, 0.162901297211647, -0.000937937060371, 0.000000000000000, -0.093807786703110, 0.016375798732042, 0.329045236110687, -0.016599532216787, 0.266312211751938, 0.108968928456306, 0.379534006118774, -0.001444740570150, 0.158044412732124, 0.019035689532757, 0.143229618668556
0.058865789324045, -0.120409749448299, 0.101818315684795, 0.339217603206635, -0.062702335417271, 0.000000000000000, -0.550993025302887, 0.167925730347633, -0.078683480620384, 0.157363474369049, 0.002663649152964, 0.000000000000000, -0.085895426571369, 0.011779624968767, 0.330446451902390, -0.013427743688226, 0.267062664031982, 0.110194601118565, 0.381647735834122, -0.001366503769532, 0.159078121185303, 0.019364492967725, 0.135786414146423
0.064151406288147, -0.114898771047592, 0.095006473362446, 0.353965997695923, -0.057504616677761, 0.000000000000000, -0.551738917827606, 0.169236615300179, -0.080414868891239, 0.154998958110809, 0.005670696031302, 0.000000000000000, -0.073887608945370, 0.007137795910239, 0.331778436899185, -0.005997327622026, 0.267574638128281, 0.112220518290997, 0.386233210563660, -0.001252701273188, 0.161179706454277, 0.019904462620616, 0.127559155225754
0.063549205660820, -0.106383539736271, 0.087969310581684, 0.367992609739304, -0.052063647657633, 0.000000000000000, -0.544956266880035, 0.165992721915245, -0.081343494355679, 0.155329942703247, 0.008001341484487, 0.000000000000000, -0.057765811681747, 0.002499928465113, 0.333849579095840, 0.005612446460873, 0.267918080091476, 0.115083850920200, 0.393353551626205, -0.001098987529986, 0.164377242326736, 0.020666349679232, 0.118703342974186
0.055314391851425, -0.095132686197758, 0.080865636467934, 0.380084812641144, -0.047079700976610, 0.000000000000000, -0.530914783477783, 0.158249929547310, -0.081449985504150, 0.158201113343239, 0.009608699008822, 0.000000000000000, -0.037703663110733, -0.002177668968216, 0.337364703416824, 0.021170446649194, 0.268224477767944, 0.118813991546631, 0.403021544218063, -0.000900919781998, 0.168678373098373, 0.021658437326550, 0.109294913709164
0.037012763321400, -0.082341045141220, 0.074078530073166, 0.388054460287094, -0.043074015527964, 0.000000000000000, -0.509117424488068, 0.146457061171532, -0.080810926854610, 0.163845375180244, 0.010503157973289, 0.000000000000000, -0.014158654026687, -0.006779602728784, 0.342589020729065, 0.040059890598059, 0.268812686204910, 0.123462788760662, 0.414954334497452, -0.000650398666039, 0.173966437578201, 0.022894181311131, 0.099354907870293
0.007719864603132, -0.068842053413391, 0.067788600921631, 0.390283584594727, -0.040035810321569, 0.000000000000000, -0.480925023555756, 0.131536930799484, -0.079656593501568, 0.171597987413406, 0.010615895502269, 0.000000000000000, 0.012034261599183, -0.010792241431773, 0.349039644002914, 0.060936812311411, 0.270231932401657, 0.129095450043678, 0.428278356790543, -0.000334333017236, 0.179871752858162, 0.024390552192926, 0.088718682527542
-0.031803838908672, -0.055153794586658, 0.062051896005869, 0.386473089456558, -0.037789087742567, 0.000000000000000, -0.448815464973450, 0.115001976490021, -0.078351795673370, 0.180299982428551, 0.009829304181039, 0.000000000000000, 0.039764955639839, -0.013755968771875, 0.355930089950562, 0.082059033215046, 0.272921830415726, 0.135630682110786, 0.441851377487183, 0.000050909380661, 0.185903370380402, 0.026125822216272, 0.077085524797440
-0.080308325588703, -0.041605528444052, 0.056871250271797, 0.376966685056686, -0.036123875528574, 0.000000000000000, -0.414226591587067, 0.098795600235462, -0.077300593256950, 0.189383581280708, 0.008113627322018, 0.000000000000000, 0.067980028688908, -0.015623589977622, 0.362752258777618, 0.102082103490829, 0.276933282613754, 0.142792969942093, 0.454832941293716, 0.000491054437589, 0.191695317625999, 0.028026487678289, 0.064283065497875
-0.136081382632256, -0.028949491679668, 0.052379991859198, 0.362503081560135, -0.034748841077089, 0.000000000000000, -0.376425504684448, 0.084611922502518, -0.076792478561401, 0.199416190385818, 0.005652700085193, 0.000000000000000, 0.095921032130718, -0.016605971381068, 0.369335919618607, 0.120293855667114, 0.282012581825256, 0.150239735841751, 0.466784417629242, 0.000962861580774, 0.197054833173752, 0.030001699924469, 0.050288457423449
-0.196857884526253, -0.018054507672787, 0.048735231161118, 0.344177663326263, -0.033347878605127, 0.000000000000000, -0.333866059780121, 0.073510676622391, -0.076969370245934, 0.211443677544594, 0.002800205023959, 0.000000000000000, 0.123077705502510, -0.016948517411947, 0.375639110803604, 0.136372953653336, 0.287847012281418, 0.157683253288269, 0.477484285831451, 0.001445417758077, 0.201883152127266, 0.031975451856852, 0.035204786807299
-0.260485172271729, -0.009489189833403, 0.046006053686142, 0.323094725608826, -0.031688101589680, 0.000000000000000, -0.287040501832962, 0.066265247762203, -0.077936545014381, 0.225618571043015, -0.000176279791049, 0.000000000000000, 0.149174198508263, -0.016870368272066, 0.381576269865036, 0.150197461247444, 0.294139891862869, 0.164894044399261, 0.486800312995911, 0.001921340590343, 0.206119701266289, 0.033886976540089, 0.019121728837490
-0.325111389160156, -0.003598164534196, 0.044201828539371, 0.300247162580490, -0.029622711241245, 0.000000000000000, -0.237247034907341, 0.063033446669579, -0.079685352742672, 0.241717651486397, -0.003048018319532, 0.000000000000000, 0.174203425645828, -0.016542822122574, 0.387007802724838, 0.161771863698959, 0.300574630498886, 0.171662628650665, 0.494659900665283, 0.002373609459028, 0.209729745984077, 0.035680294036865, 0.001986257499084
-0.388875693082809, -0.000567969924305, 0.043270993977785, 0.276650339365005, -0.027055054903030, 0.000000000000000, -0.185892030596733, 0.063502557575703, -0.082127243280411, 0.259441614151001, -0.005632827524096, 0.000000000000000, 0.198327720165253, -0.016063949093223, 0.391714096069336, 0.171149790287018, 0.306837379932404, 0.177798524498940, 0.501031398773193, 0.002785849617794, 0.212696298956871, 0.037304092198610, -0.016333719715476
-0.449331313371658, -0.000450320745585, 0.043071016669273, 0.253624886274338, -0.023969747126102, 0.000000000000000, -0.134845852851868, 0.067224122583866, -0.085168525576591, 0.278281122446060, -0.007815498858690, 0.000000000000000, 0.221574068069458, -0.015544775873423, 0.395331054925919, 0.178356409072876, 0.312687754631042, 0.183145999908447, 0.505895018577576, 0.003144161077216, 0.215006798505783, 0.038715451955795, -0.035708043724298
-0.503520250320435, -0.002947702771053, 0.043342646211386, 0.232735991477966, -0.020597994327545, 0.000000000000000, -0.086510591208935, 0.073293522000313, -0.088614605367184, 0.297463119029999, -0.009496933780611, 0.000000000000000, 0.243514046072960, -0.015254335477948, 0.397438496351242, 0.183260902762413, 0.317925333976746, 0.187567442655563, 0.509221136569977, 0.003436243394390, 0.216641739010811, 0.039876170456409, -0.055628988891840
-0.549113869667053, -0.006783991586417, 0.043697528541088, 0.215167522430420, -0.017376698553562, 0.000000000000000, -0.042967043817043, 0.080055430531502, -0.092080928385258, 0.316238015890121, -0.010559633374214, 0.000000000000000, 0.263153493404388, -0.015629259869456, 0.397816866636276, 0.185581475496292, 0.322346836328506, 0.190935492515564, 0.510978639125824, 0.003650999395177, 0.217578381299973, 0.040751449763775, -0.075200408697128
-0.583962559700012, -0.010800753720105, 0.043953731656075, 0.201978996396065, -0.014516945928335, 0.000000000000000, -0.006292428355664, 0.086358711123466, -0.095338903367519, 0.333745598793030, -0.010963894426823, 0.000000000000000, 0.279488861560822, -0.016957635059953, 0.396485865116119, 0.185045033693314, 0.325748264789581, 0.193148538470268, 0.511155664920807, 0.003780033439398, 0.217802673578262, 0.041314594447613, -0.093576513230801
-0.606161355972290, -0.014581558294594, 0.044227175414562, 0.194131717085838, -0.012033891864121, 0.000000000000000, 0.021592950448394, 0.091986112296581, -0.098412737250328, 0.349155813455582, -0.010750810615718, 0.000000000000000, 0.291939854621887, -0.019266931340098, 0.393605351448059, 0.181508615612984, 0.327958792448044, 0.194136351346970, 0.509758770465851, 0.003817884251475, 0.217310890555382, 0.041547816246748, -0.110183805227280
-0.615800619125366, -0.017664097249508, 0.044588994234800, 0.191563755273819, -0.009955185465515, 0.000000000000000, 0.040306638926268, 0.096666604280472, -0.101253420114517, 0.362311363220215, -0.009919455274940, 0.000000000000000, 0.300234109163284, -0.022389484569430, 0.389657616615295, 0.174950391054153, 0.328864067792892, 0.193854644894600, 0.506799697875977, 0.003761296859011, 0.216105088591576, 0.041440024971962, -0.124569810926914
-0.615381836891174, -0.019103681668639, 0.044878445565701, 0.192980244755745, -0.008406218141317, 0.000000000000000, 0.051112789660692, 0.099649749696255, -0.103614658117294, 0.373723804950714, -0.008401213213801, 0.000000000000000, 0.304195493459702, -0.026004726067185, 0.385686874389648, 0.165389001369476, 0.328418046236038, 0.192283689975739, 0.502284407615662, 0.003609244013205, 0.214187577366829, 0.040986571460962, -0.136280447244644
-0.607082247734070, -0.018173372372985, 0.044919323176146, 0.197293177247047, -0.007513835094869, 0.000000000000000, 0.054482445120811, 0.100392505526543, -0.105348408222198, 0.383269429206848, -0.006244084332138, 0.000000000000000, 0.303759843111038, -0.029558839276433, 0.383125513792038, 0.152827233076096, 0.326683014631271, 0.189444437623024, 0.496199607849121, 0.003364727366716, 0.211554840207100, 0.040193688124418, -0.144885271787643
-0.591109752655029, -0.014558204449713, 0.044618286192417, 0.204406991600990, -0.007311217486858, 0.000000000000000, 0.048107430338860, 0.099099718034267, -0.106665365397930, 0.389087796211243, -0.003893055953085, 0.000000000000000, 0.299019396305084, -0.032228443771601, 0.383242845535278, 0.137271687388420, 0.323885202407837, 0.185425460338593, 0.488504588603973, 0.003037322778255, 0.208193391561508, 0.039085458964109, -0.150119662284851
-0.568957149982452, -0.007660405244678, 0.043824661523104, 0.213595107197762, -0.007864423096180, 0.000000000000000, 0.030271185562015, 0.095992513000965, -0.107822053134441, 0.389435857534409, -0.001963679445907, 0.000000000000000, 0.290173113346100, -0.033563617616892, 0.386182904243469, 0.118819236755371, 0.320421576499939, 0.180396378040314, 0.479139745235443, 0.002643997082487, 0.204082816839218, 0.037706885486841, -0.152210995554924
-0.543103814125061, 0.002673230366781, 0.042530518025160, 0.223656758666039, -0.009276855736971, 0.000000000000000, 0.001469342387281, 0.091048523783684, -0.108871690928936, 0.383849114179611, -0.000627915258519, 0.000000000000000, 0.277765035629272, -0.034125722944736, 0.390474647283554, 0.097736656665802, 0.316785544157028, 0.174593940377235, 0.468058556318283, 0.002206946257502, 0.199209585785866, 0.036120139062405, -0.152362525463104
-0.514445722103119, 0.015615279786289, 0.040942102670670, 0.234176173806190, -0.011568208225071, 0.000000000000000, -0.037030626088381, 0.084780663251877, -0.109957374632359, 0.372566193342209, 0.000223791386816, 0.000000000000000, 0.262599647045135, -0.034538567066193, 0.394320130348206, 0.074403300881386, 0.313573479652405, 0.168359935283661, 0.455256402492523, 0.001756752608344, 0.193579286336899, 0.034415800124407, -0.152194201946259
-0.482324361801147, 0.029872482642531, 0.039309822022915, 0.245533823966980, -0.014556599780917, 0.000000000000000, -0.083934672176838, 0.078081347048283, -0.111326165497303, 0.356081008911133, 0.000774710380938, 0.000000000000000, 0.245498701930046, -0.034708138555288, 0.396721571683884, 0.049368306994438, 0.311454534530640, 0.162155583500862, 0.440833687782288, 0.001332304091193, 0.187243789434433, 0.032716587185860, -0.152328267693520
-0.444520235061646, 0.043689861893654, 0.037943366914988, 0.258916199207306, -0.017686052247882, 0.000000000000000, -0.137747630476952, 0.071810707449913, -0.113193683326244, 0.335102677345276, 0.001239416771568, 0.000000000000000, 0.227322474122047, -0.034178961068392, 0.397281199693680, 0.023460049182177, 0.311052322387695, 0.156506165862083, 0.425080567598343, 0.000973920628894, 0.180336907505989, 0.031161336228251, -0.152539953589439
-0.400412023067474, 0.055268350988626, 0.037208508700132, 0.274741560220718, -0.020511411130428, 0.000000000000000, -0.196609258651733, 0.066529467701912, -0.115653730928898, 0.310564160346985, 0.001847225707024, 0.000000000000000, 0.208817914128304, -0.032553978264332, 0.396032124757767, -0.002258151536807, 0.312768578529358, 0.151877552270889, 0.408494681119919, 0.000712193548679, 0.173080727458000, 0.029871584847569, -0.152191966772079
-0.350804060697556, 0.063577242195606, 0.037333015352488, 0.292826384305954, -0.022882997989655, 0.000000000000000, -0.258379459381104, 0.062483299523592, -0.118685662746429, 0.283563286066055, 0.002827722113580, 0.000000000000000, 0.190458431839943, -0.029591046273708, 0.393245220184326, -0.026715749874711, 0.316647142171860, 0.148551613092422, 0.391685783863068, 0.000559638196137, 0.165742591023445, 0.028919657692313, -0.150566220283508
-0.297517538070679, 0.068422727286816, 0.038323830813169, 0.312723755836487, -0.024751914665103, 0.000000000000000, -0.320593595504761, 0.059672426432371, -0.122174702584743, 0.255379289388657, 0.004401972517371, 0.000000000000000, 0.172640785574913, -0.025236606597900, 0.389209657907486, -0.048962261527777, 0.322366833686829, 0.146590590476990, 0.375292450189590, 0.000510830141138, 0.158599808812141, 0.028321174904704, -0.147243753075600
-0.243390172719955, 0.070082865655422, 0.040055725723505, 0.333749562501907, -0.026100777089596, 0.000000000000000, -0.380039870738983, 0.058191508054733, -0.125967621803284, 0.227691948413849, 0.006747086066753, 0.000000000000000, 0.155869409441948, -0.019726334139705, 0.384183943271637, -0.068151436746120, 0.329326152801514, 0.145868420600891, 0.359967023134232, 0.000547175121028, 0.151933237910271, 0.028044247999787, -0.142191156744957
-0.191934198141098, 0.068884596228600, 0.042413357645273, 0.354934722185135, -0.026948021724820, 0.000000000000000, -0.432877004146576, 0.058533556759357, -0.129934802651405, 0.202528655529022, 0.009821801446378, 0.000000000000000, 0.140796720981598, -0.013571215793490, 0.378369688987732, -0.083539620041847, 0.336782723665237, 0.146133258938789, 0.346346348524094, 0.000643115432467, 0.146015018224716, 0.028025690466166, -0.135685861110687
-0.146056458353996, 0.065612703561783, 0.045154079794884, 0.375368356704712, -0.027307614684105, 0.000000000000000, -0.476107120513916, 0.060890760272741, -0.133900135755539, 0.181495428085327, 0.013291841372848, 0.000000000000000, 0.128064110875130, -0.007328353356570, 0.371930718421936, -0.094573684036732, 0.344008326530457, 0.147080436348915, 0.334970563650131, 0.000772299943492, 0.141073554754257, 0.028189353644848, -0.128109589219093
-0.107384450733662, 0.061376772820950, 0.047929640859365, 0.394496917724609, -0.027169257402420, 0.000000000000000, -0.508130252361298, 0.064781777560711, -0.137641966342926, 0.165541306138039, 0.016929127275944, 0.000000000000000, 0.118133723735809, -0.001515838201158, 0.365135490894318, -0.100906103849411, 0.350363373756409, 0.148395836353302, 0.326261073350906, 0.000910478061996, 0.137285381555557, 0.028456879779696, -0.119752243161201
-0.076767720282078, 0.057133015245199, 0.050434969365597, 0.411995291709900, -0.026521075516939, 0.000000000000000, -0.528298556804657, 0.069680698215961, -0.141006395220757, 0.155204847455025, 0.020674660801888, 0.000000000000000, 0.111227370798588, 0.003381108399481, 0.358449459075928, -0.102361112833023, 0.355323433876038, 0.149787276983261, 0.320539236068726, 0.001036860747263, 0.134783640503883, 0.028755346313119, -0.110736764967442
-0.054576437920332, 0.053629133850336, 0.052429001778364, 0.427675545215607, -0.025352677330375, 0.000000000000000, -0.536802411079407, 0.075190521776676, -0.143899574875832, 0.150517150759697, 0.024481365457177, 0.000000000000000, 0.107412666082382, 0.006963052786887, 0.352534353733063, -0.098894700407982, 0.358488559722900, 0.151012241840363, 0.318057030439377, 0.001135005382821, 0.133671805262566, 0.029024068266153, -0.101104788482189
-0.041015062481165, 0.051329515874386, 0.053778495639563, 0.441298395395279, -0.023674732074142, 0.000000000000000, -0.534447789192200, 0.081008784472942, -0.146257340908051, 0.150987878441811, 0.028245221823454, 0.000000000000000, 0.106710851192474, 0.008964774198830, 0.348108828067780, -0.090581282973289, 0.359576433897018, 0.151879340410233, 0.319000273942947, 0.001192267402075, 0.134025216102600, 0.029214749112725, -0.090964965522289
-0.036712240427732, 0.050299387425184, 0.054540112614632, 0.452159613370895, -0.021601149812341, 0.000000000000000, -0.522257447242737, 0.086847633123398, -0.148031115531921, 0.155879333615303, 0.031831443309784, 0.000000000000000, 0.109156422317028, 0.009205119684339, 0.345804423093796, -0.077591456472874, 0.358424931764603, 0.152247667312622, 0.323490202426910, 0.001199224148877, 0.135892391204834, 0.029290974140167, -0.080562427639961
-0.042859073728323, 0.050405710935593, 0.054923266172409, 0.458886563777924, -0.019437549635768, 0.000000000000000, -0.501721262931824, 0.092295125126839, -0.149168133735657, 0.164248943328857, 0.035093490034342, 0.000000000000000, 0.114732861518860, 0.007512261625379, 0.346029728651047, -0.060168769210577, 0.354975998401642, 0.152008756995201, 0.331572741270065, 0.001148289302364, 0.139291152358055, 0.029223525896668, -0.070255443453789
-0.059780340641737, 0.051723714917898, 0.055072586983442, 0.460335224866867, -0.017516452819109, 0.000000000000000, -0.475366622209549, 0.096873939037323, -0.149629548192024, 0.174747973680496, 0.037858720868826, 0.000000000000000, 0.123110748827457, 0.003778317011893, 0.348884284496307, -0.038664139807224, 0.349176824092865, 0.151007756590843, 0.343147546052933, 0.001029116450809, 0.144180119037628, 0.028971165418625, -0.060357831418514
-0.086530089378357, 0.054074231535196, 0.055140454322100, 0.456255406141281, -0.015944488346577, 0.000000000000000, -0.445620357990265, 0.100578658282757, -0.149480506777763, 0.186196580529213, 0.040021460503340, 0.000000000000000, 0.133595168590546, -0.001747613074258, 0.354041576385498, -0.013650500215590, 0.340959399938583, 0.149035766720772, 0.357781559228897, 0.000829235068522, 0.150380671024323, 0.028480036184192, -0.051039878278971
-0.121758691966534, 0.056720774620771, 0.055427044630051, 0.446981847286224, -0.014630644582212, 0.000000000000000, -0.414078503847122, 0.103742755949497, -0.148839205503464, 0.197910398244858, 0.041561521589756, 0.000000000000000, 0.145418122410774, -0.008321579545736, 0.360670119524002, 0.013910504058003, 0.330593764781952, 0.146113067865372, 0.374575883150101, 0.000554025056772, 0.157517403364182, 0.027756225317717, -0.042349394410849
-0.164037019014359, 0.058742739260197, 0.056278739124537, 0.433104664087296, -0.013407173566520, 0.000000000000000, -0.381750106811523, 0.106556259095669, -0.147771582007408, 0.209571510553360, 0.042494680732489, 0.000000000000000, 0.158032014966011, -0.014805485494435, 0.367672175168991, 0.042763639241457, 0.318932563066483, 0.142700552940369, 0.392377823591232, 0.000241846486460, 0.165102213621140, 0.026919713243842, -0.034285653382540
-0.211900010704994, 0.059344351291656, 0.057972855865955, 0.415324181318283, -0.012101178988814, 0.000000000000000, -0.349405586719513, 0.109013155102730, -0.146295383572578, 0.221070244908333, 0.042846582829952, 0.000000000000000, 0.171074733138084, -0.020299980416894, 0.374243229627609, 0.071707829833031, 0.306879371404648, 0.139315366744995, 0.410222917795181, -0.000063591360231, 0.172719776630402, 0.026105191558599, -0.026971073821187
-0.263860672712326, 0.057946875691414, 0.060683198273182, 0.394399434328079, -0.010556712746620, 0.000000000000000, -0.317382723093033, 0.110982224345207, -0.144396945834160, 0.232551649212837, 0.042660899460316, 0.000000000000000, 0.184342220425606, -0.024371400475502, 0.380011439323425, 0.099892742931843, 0.294978320598602, 0.136238694190979, 0.427499085664749, -0.000336118508130, 0.180102124810219, 0.025386203080416, -0.020652543753386
-0.318404465913773, 0.054168254137039, 0.064490430057049, 0.371132433414459, -0.008636085316539, 0.000000000000000, -0.285096913576126, 0.112313851714134, -0.142044648528099, 0.244612857699394, 0.042057722806931, 0.000000000000000, 0.197754964232445, -0.026826050132513, 0.384843140840530, 0.126767516136169, 0.283509165048599, 0.133563533425331, 0.443832516670227, -0.000564786896575, 0.187083095312119, 0.024786597117782, -0.015625374391675
-0.374193072319031, 0.048001602292061, 0.069322586059570, 0.346258252859116, -0.006234109867364, 0.000000000000000, -0.251725405454636, 0.113288551568985, -0.139319360256195, 0.257998675107956, 0.041274711489677, 0.000000000000000, 0.211146652698517, -0.027577923610806, 0.388725191354752, 0.151793792843819, 0.272789686918259, 0.131347030401230, 0.458932220935822, -0.000742265779991, 0.193530261516571, 0.024318737909198, -0.012064939364791
-0.429799348115921, 0.039605744183064, 0.075007967650890, 0.320583909749985, -0.003275200258940, 0.000000000000000, -0.217212036252022, 0.114561863243580, -0.136439219117165, 0.273072242736816, 0.040539510548115, 0.000000000000000, 0.224270984530449, -0.026665193960071, 0.391723215579987, 0.174436539411545, 0.263137847185135, 0.129618853330612, 0.472571879625320, -0.000864321715198, 0.199337944388390, 0.023986538872123, -0.010071748867631
-0.483123511075974, 0.029003579169512, 0.081344030797482, 0.295303314924240, 0.000196032371605, 0.000000000000000, -0.183013170957565, 0.116920374333858, -0.133714824914932, 0.289433062076569, 0.039881028234959, 0.000000000000000, 0.236812457442284, -0.024331020191312, 0.393928408622742, 0.194196030497551, 0.254799544811249, 0.128365799784660, 0.484587401151657, -0.000931211165152, 0.204426825046539, 0.023782148957253, -0.009698471054435
-0.531682550907135, 0.016831390559673, 0.087931901216507, 0.271817862987518, 0.003857121802866, 0.000000000000000, -0.151487186551094, 0.120387993752956, -0.131310641765594, 0.306139916181564, 0.039123933762312, 0.000000000000000, 0.248135417699814, -0.021120470017195, 0.395488858222961, 0.210547804832458, 0.247978925704956, 0.127548441290855, 0.494858503341675, -0.000946331652813, 0.208736181259155, 0.023690264672041, -0.010667333379388
-0.573904573917389, 0.005275438539684, 0.094057358801365, 0.251022249460220, 0.007360988762230, 0.000000000000000, -0.124321788549423, 0.123749166727066, -0.129094481468201, 0.322398543357849, 0.038134671747684, 0.000000000000000, 0.257238775491714, -0.017764423042536, 0.396686226129532, 0.222967088222504, 0.242837369441986, 0.127118512988091, 0.503307044506073, -0.000914451840799, 0.212224259972572, 0.023693477734923, -0.012240181677043
-0.607990026473999, -0.003735839389265, 0.099178828299046, 0.234225243330002, 0.010676867328584, 0.000000000000000, -0.103113994002342, 0.126187428832054, -0.127038508653641, 0.337393045425415, 0.037055734544992, 0.000000000000000, 0.263411372900009, -0.014769321307540, 0.397813022136688, 0.231147259473801, 0.239449650049210, 0.127028867602348, 0.509899854660034, -0.000840388529468, 0.214872181415558, 0.023776184767485, -0.013767600059509
-0.632496833801270, -0.009358805604279, 0.103124052286148, 0.223018139600754, 0.013936525210738, 0.000000000000000, -0.089099660515785, 0.126828998327255, -0.125054642558098, 0.350433617830276, 0.036173943430185, 0.000000000000000, 0.266551911830902, -0.012247480452061, 0.399058282375336, 0.235081881284714, 0.237772360444069, 0.127227976918221, 0.514636039733887, -0.000729268009309, 0.216679275035858, 0.023923572152853, -0.015017613768578
-0.647631466388702, -0.011280635371804, 0.105875529348850, 0.217511981725693, 0.017151243984699, 0.000000000000000, -0.082341015338898, 0.125105202198029, -0.123078800737858, 0.361338108778000, 0.035729758441448, 0.000000000000000, 0.266768991947174, -0.010063592344522, 0.400605052709579, 0.234941944479942, 0.237644791603088, 0.127651840448380, 0.517537415027618, -0.000587216578424, 0.217657983303070, 0.024119354784489, -0.015870558097959
-0.655071735382080, -0.009386321529746, 0.107459835708141, 0.216094434261322, 0.020135870203376, 0.000000000000000, -0.081823140382767, 0.120746307075024, -0.121081016957760, 0.370296150445938, 0.035872496664524, 0.000000000000000, 0.264147222042084, -0.007970984093845, 0.402714252471924, 0.230975836515427, 0.238796085119247, 0.128214731812477, 0.518653869628906, -0.000422466837335, 0.217835605144501, 0.024342797696590, -0.016191957518458
-0.656280577182770, -0.004075975157320, 0.108050025999546, 0.217264652252197, 0.022670976817608, 0.000000000000000, -0.086817607283592, 0.113243088126183, -0.118947006762028, 0.377081781625748, 0.036561366170645, 0.000000000000000, 0.258824169635773, -0.005679089110345, 0.405664026737213, 0.223506629467010, 0.240889132022858, 0.128816068172455, 0.518082201480865, -0.000245010596700, 0.217262208461761, 0.024569775909185, -0.015978202223778
-0.651625812053680, 0.003717228304595, 0.107943959534168, 0.220558896660805, 0.024635074660182, 0.000000000000000, -0.099516116082668, 0.101959042251110, -0.116547405719757, 0.379909515380859, 0.037366185337305, 0.000000000000000, 0.251173466444016, -0.003026247723028, 0.409503966569901, 0.212963297963142, 0.243574395775795, 0.129350870847702, 0.515984535217285, -0.000065938926127, 0.216017886996269, 0.024774538353086, -0.015680346637964
-0.642922163009644, 0.012542143464088, 0.107607737183571, 0.225103586912155, 0.025903541594744, 0.000000000000000, -0.121672913432121, 0.087039276957512, -0.113874666392803, 0.377492249011993, 0.037883546203375, 0.000000000000000, 0.242090180516243, -0.000074920186307, 0.413841634988785, 0.199924230575562, 0.246494457125664, 0.129706680774689, 0.512603819370270, 0.000102051177237, 0.214218139648438, 0.024928342550993, -0.016585767269135
-0.631660282611847, 0.021128859370947, 0.107385121285915, 0.230241820216179, 0.026421472430229, 0.000000000000000, -0.153207153081894, 0.069171346724033, -0.111046940088272, 0.369617879390717, 0.038074709475040, 0.000000000000000, 0.232558995485306, 0.003176403231919, 0.418381690979004, 0.185119301080704, 0.249337688088417, 0.129798203706741, 0.508288323879242, 0.000248288793955, 0.212023988366127, 0.025009267032146, -0.019905284047127
-0.618343710899353, 0.028328940272331, 0.107502274215221, 0.235810935497284, 0.026250636205077, 0.000000000000000, -0.193272605538368, 0.049118224531412, -0.108232349157333, 0.356568455696106, 0.038070060312748, 0.000000000000000, 0.223382368683815, 0.006761701311916, 0.423142641782761, 0.169457480311394, 0.251858353614807, 0.129584640264511, 0.503513276576996, 0.000365798128769, 0.209650218486786, 0.025007000193000, -0.026168551295996
-0.602664470672607, 0.033198341727257, 0.108091957867146, 0.242045044898987, 0.025572504848242, 0.000000000000000, -0.240641251206398, 0.027646075934172, -0.105606399476528, 0.338911145925522, 0.038069866597652, 0.000000000000000, 0.215126231312752, 0.010577252134681, 0.428311020135880, 0.153935089707375, 0.253867775201797, 0.129055723547935, 0.498824149370193, 0.000450146821095, 0.207338929176331, 0.024918805807829, -0.035274446010590
-0.584153294563293, 0.035324577242136, 0.109159022569656, 0.249239459633827, 0.024601347744465, 0.000000000000000, -0.293647199869156, 0.005490079056472, -0.103311873972416, 0.317490905523300, 0.038333162665367, 0.000000000000000, 0.207993566989899, 0.014358792454004, 0.434079140424728, 0.139366760849953, 0.255194991827011, 0.128183156251907, 0.494675248861313, 0.000495501735713, 0.205288156867027, 0.024736108258367, -0.046675316989422
-0.562928497791290, 0.034822385758162, 0.110603377223015, 0.257392525672913, 0.023479053750634, 0.000000000000000, -0.350315928459167, -0.016726257279515, -0.101428210735321, 0.293352782726288, 0.039128374308348, 0.000000000000000, 0.201900362968445, 0.017831401899457, 0.440520405769348, 0.126255437731743, 0.255684971809387, 0.126910045742989, 0.491323977708817, 0.000494373613037, 0.203607693314552, 0.024442179128528, -0.059647187590599
-0.539728999137878, 0.032058551907539, 0.112287513911724, 0.266206145286560, 0.022280978038907, 0.000000000000000, -0.408689945936203, -0.038596168160439, -0.099954225122929, 0.267565250396729, 0.040677081793547, 0.000000000000000, 0.196690559387207, 0.020832600072026, 0.447541773319244, 0.114849500358105, 0.255234926939011, 0.125185191631317, 0.488844931125641, 0.000441048236098, 0.202327489852905, 0.024022137746215, -0.073529623448849
-0.515572786331177, 0.027431337162852, 0.114094763994217, 0.275253266096115, 0.021057877689600, 0.000000000000000, -0.466945737600327, -0.059957165271044, -0.098805084824562, 0.241146236658096, 0.043143063783646, 0.000000000000000, 0.192265421152115, 0.023315690457821, 0.454930841922760, 0.105262123048306, 0.253804385662079, 0.122989691793919, 0.487210363149643, 0.000333674193826, 0.201433360576630, 0.023470444604754, -0.087802790105343
-0.491727679967880, 0.021213127300143, 0.115980543196201, 0.283997684717178, 0.019830664619803, 0.000000000000000, -0.523182332515717, -0.080737560987473, -0.097842440009117, 0.215169236063957, 0.046645682305098, 0.000000000000000, 0.188666731119156, 0.025310479104519, 0.462393492460251, 0.097585111856461, 0.251409947872162, 0.120348230004311, 0.486372053623199, 0.000174772125320, 0.200902745127678, 0.022793954238296, -0.102115280926228
-0.469863981008530, 0.013430694118142, 0.118017196655273, 0.291740208864212, 0.018582582473755, 0.000000000000000, -0.575138509273529, -0.100665621459484, -0.096936330199242, 0.190923422574997, 0.051232770085335, 0.000000000000000, 0.186115294694901, 0.026858348399401, 0.469568818807602, 0.091910459101200, 0.248105704784393, 0.117316290736198, 0.486291170120239, -0.000030326827982, 0.200717762112617, 0.022008080035448, -0.116342425346375
-0.451849728822708, 0.004002631176263, 0.120344005525112, 0.297723263502121, 0.017300229519606, 0.000000000000000, -0.620522916316986, -0.119159065186977, -0.096030123531818, 0.169746607542038, 0.056726519018412, 0.000000000000000, 0.184970572590828, 0.027981199324131, 0.476102173328400, 0.088279411196709, 0.243964642286301, 0.113957442343235, 0.486924350261688, -0.000275685655652, 0.200858712196350, 0.021130274981260, -0.130592480301857
-0.438827514648438, -0.006818253081292, 0.122974231839180, 0.301501244306564, 0.016044758260250, 0.000000000000000, -0.658082067966461, -0.135963320732117, -0.095100387930870, 0.152442082762718, 0.062673479318619, 0.000000000000000, 0.185624212026596, 0.028786236420274, 0.481731176376343, 0.086760081350803, 0.239080175757408, 0.110342092812061, 0.488256782293320, -0.000555150676519, 0.201318606734276, 0.020179301500320, -0.144955709576607
-0.430773556232452, -0.018537744879723, 0.125789269804955, 0.303114414215088, 0.014937021769583, 0.000000000000000, -0.687704324722290, -0.151534676551819, -0.094099223613739, 0.139249369502068, 0.068743117153645, 0.000000000000000, 0.188314914703369, 0.029500631615520, 0.486355364322662, 0.087424829602242, 0.233562633395195, 0.106545180082321, 0.490297079086304, -0.000862447428517, 0.202100932598114, 0.019174726679921, -0.159352406859398
-0.427071869373322, -0.030798701569438, 0.128680691123009, 0.302866637706757, 0.014087448827922, 0.000000000000000, -0.710024535655975, -0.166284456849098, -0.093041099607944, 0.130056783556938, 0.074757166206837, 0.000000000000000, 0.192976728081703, 0.030360065400600, 0.490062594413757, 0.090197272598743, 0.227552652359009, 0.102642662823200, 0.493015795946121, -0.001191083923914, 0.203192695975304, 0.018136201426387, -0.173574849963188
-0.426656275987625, -0.043307967483997, 0.131532177329063, 0.301309287548065, 0.013576507568359, 0.000000000000000, -0.726444661617279, -0.180440545082092, -0.091972343623638, 0.124306038022041, 0.080559574067593, 0.000000000000000, 0.199268564581871, 0.031608998775482, 0.493117928504944, 0.094866894185543, 0.221217975020409, 0.098716579377651, 0.496355682611465, -0.001533783273771, 0.204568907618523, 0.017085107043386, -0.187306180596352
-0.428215384483337, -0.055696543306112, 0.134194016456604, 0.299172520637512, 0.013447630219162, 0.000000000000000, -0.738843977451324, -0.194206550717354, -0.090901970863342, 0.121063075959682, 0.086006201803684, 0.000000000000000, 0.206721410155296, 0.033489972352982, 0.495892554521561, 0.101154364645481, 0.214718103408813, 0.094847328960896, 0.500262141227722, -0.001883205724880, 0.206205889582634, 0.016042781993747, -0.200207009911537
-0.430778831243515, -0.067626722157001, 0.136547148227692, 0.297079354524612, 0.013687834143639, 0.000000000000000, -0.748771429061890, -0.207722112536430, -0.089795790612698, 0.119419157505035, 0.091010920703411, 0.000000000000000, 0.214954778552055, 0.036174125969410, 0.498722821474075, 0.108805656433105, 0.208199456334114, 0.091116532683372, 0.504710018634796, -0.002231722930446, 0.208092913031578, 0.015031312592328, -0.212055504322052
-0.433991789817810, -0.078944839537144, 0.138552218675613, 0.295353621244431, 0.014235490001738, 0.000000000000000, -0.757003724575043, -0.220905095338821, -0.088624522089958, 0.118767581880093, 0.095554620027542, 0.000000000000000, 0.223739549517632, 0.039712045341730, 0.501786351203918, 0.117617666721344, 0.201841741800308, 0.087623357772827, 0.509683668613434, -0.002569774398580, 0.210223317146301, 0.014077617786825, -0.222781270742416
-0.437863290309906, -0.089635424315929, 0.140206232666969, 0.294052928686142, 0.014998137950897, 0.000000000000000, -0.763794839382172, -0.233492732048035, -0.087388694286346, 0.118776284158230, 0.099656023085117, 0.000000000000000, 0.232880324125290, 0.044051803648472, 0.505065679550171, 0.127308666706085, 0.195933952927589, 0.084506481885910, 0.515090703964233, -0.002883307635784, 0.212556287646294, 0.013219277374446, -0.232402488589287
-0.442382544279099, -0.099696405231953, 0.141477435827255, 0.293073117733002, 0.015855783596635, 0.000000000000000, -0.769334673881531, -0.245209082961082, -0.086110144853592, 0.119223892688751, 0.103336535394192, 0.000000000000000, 0.242088347673416, 0.049067296087742, 0.508402168750763, 0.137418553233147, 0.190883457660675, 0.081946097314358, 0.520717620849609, -0.003153161611408, 0.214996576309204, 0.012505460530519, -0.240941613912582
-0.447354435920715, -0.109078347682953, 0.142293527722359, 0.292254507541656, 0.016648916527629, 0.000000000000000, -0.773932874202728, -0.255941540002823, -0.084792450070381, 0.119896635413170, 0.106605224311352, 0.000000000000000, 0.251039415597916, 0.054600801318884, 0.511586070060730, 0.147419169545174, 0.187072962522507, 0.080112591385841, 0.526293694972992, -0.003360115922987, 0.217422291636467, 0.011983751319349, -0.248403429985046
-0.452494263648987, -0.117631450295448, 0.142557993531227, 0.291454672813416, 0.017189400270581, 0.000000000000000, -0.777937948703766, -0.265760391950607, -0.083406776189804, 0.120593965053558, 0.109461724758148, 0.000000000000000, 0.259474843740463, 0.060472499579191, 0.514437019824982, 0.156855672597885, 0.184740602970123, 0.079121857881546, 0.531569063663483, -0.003489721100777, 0.219719767570496, 0.011688170954585, -0.254780143499374
-0.457558840513229, -0.125146523118019, 0.142184555530548, 0.290574789047241, 0.017309552058578, 0.000000000000000, -0.781594097614288, -0.274738967418671, -0.081923931837082, 0.121185183525085, 0.111909247934818, 0.000000000000000, 0.267193496227264, 0.066455438733101, 0.516812682151794, 0.165375962853432, 0.183911144733429, 0.078999809920788, 0.536336779594421, -0.003536493983120, 0.221795067191124, 0.011628940701485, -0.260053336620331
-0.462353080511093, -0.131412476301193, 0.141112372279167, 0.289570659399033, 0.016885688528419, 0.000000000000000, -0.785013020038605, -0.282876431941986, -0.080330476164818, 0.121614307165146, 0.113957859575748, 0.000000000000000, 0.274006694555283, 0.072256863117218, 0.518579900264740, 0.172701537609100, 0.184414401650429, 0.079673007130623, 0.540427744388580, -0.003505747532472, 0.223572582006454, 0.011788461357355, -0.264199316501617
-0.466720581054688, -0.136258125305176, 0.139310225844383, 0.288432240486145, 0.015829952433705, 0.000000000000000, -0.788209438323975, -0.290109276771545, -0.078627005219460, 0.121877565979958, 0.115622781217098, 0.000000000000000, 0.279726028442383, 0.077545642852783, 0.519610285758972, 0.178620547056198, 0.185956552624702, 0.080983959138393, 0.543714702129364, -0.003412840189412, 0.224997073411942, 0.012123975902796, -0.267200231552124
-0.470581829547882, -0.139569923281670, 0.136779591441154, 0.287139385938644, 0.014073291793466, 0.000000000000000, -0.791100382804871, -0.296309709548950, -0.076827332377434, 0.122023634612560, 0.116926483809948, 0.000000000000000, 0.284189879894257, 0.081996552646160, 0.519949257373810, 0.183005630970001, 0.188193976879120, 0.082721799612045, 0.546124398708344, -0.003280283417553, 0.226038530468941, 0.012575509026647, -0.269060760736465
-0.473952233791351, -0.141310751438141, 0.133560508489609, 0.285637915134430, 0.011555168777704, 0.000000000000000, -0.793486237525940, -0.301307618618011, -0.074954159557819, 0.122162215411663, 0.117902465164661, 0.000000000000000, 0.287280589342117, 0.085328869521618, 0.519997715950012, 0.185830548405647, 0.190789163112640, 0.084659874439240, 0.547645270824432, -0.003133506048471, 0.226694568991661, 0.013076823204756, -0.269802749156952
-0.476895004510880, -0.141502767801285, 0.129725664854050, 0.283856362104416, 0.008220403455198, 0.000000000000000, -0.795070767402649, -0.305000156164169, -0.073021538555622, 0.122451715171337, 0.118603408336639, 0.000000000000000, 0.288923531770706, 0.087340801954269, 0.519999980926514, 0.187171190977097, 0.193447828292847, 0.086592204868793, 0.548324704170227, -0.002996312687173, 0.226988777518272, 0.013566793873906, -0.269444018602371
-0.479472190141678, -0.140127286314964, 0.125348642468452, 0.281728535890579, 0.004018682986498, 0.000000000000000, -0.795621454715729, -0.307482719421387, -0.071015782654285, 0.123014330863953, 0.119098782539368, 0.000000000000000, 0.289112985134125, 0.087943159043789, 0.519999980926514, 0.187211841344833, 0.195971891283989, 0.088379465043545, 0.548262774944305, -0.002885139780119, 0.226967811584473, 0.014003656804562, -0.267991572618484
-0.481740444898605, -0.137099534273148, 0.120483309030533, 0.279200822114944, -0.001087776385248, 0.000000000000000, -0.795051395893097, -0.309034526348114, -0.068898260593414, 0.123888596892357, 0.119441881775856, 0.000000000000000, 0.287924319505692, 0.087179735302925, 0.519999980926514, 0.186220511794090, 0.198316425085068, 0.089989520609379, 0.547592580318451, -0.002804008778185, 0.226692616939545, 0.014377426356077, -0.265446424484253
-0.483849436044693, -0.132523044943810, 0.115207545459270, 0.276199936866760, -0.007104508578777, 0.000000000000000, -0.793294012546539, -0.309960275888443, -0.066629074513912, 0.125090122222900, 0.119634382426739, 0.000000000000000, 0.285466790199280, 0.085223473608494, 0.519999980926514, 0.184464946389198, 0.200614556670189, 0.091505661606789, 0.546437680721283, -0.002743400400504, 0.226219311356544, 0.014712296426296, -0.261807560920715
-0.486118465662003, -0.126837894320488, 0.109645009040833, 0.272603124380112, -0.013982248492539, 0.000000000000000, -0.790381669998169, -0.309923797845840, -0.064278453588486, 0.126611113548279, 0.119648382067680, 0.000000000000000, 0.281817108392715, 0.082377053797245, 0.519999980926514, 0.182120561599731, 0.203162759542465, 0.093105591833591, 0.544870674610138, -0.002682686783373, 0.225579872727394, 0.015060144476593, -0.257073312997818
-0.488242894411087, -0.120755739510059, 0.103936038911343, 0.268622785806656, -0.021547779440880, 0.000000000000000, -0.785988509654999, -0.307904183864594, -0.062033589929342, 0.128668770194054, 0.119492165744305, 0.000000000000000, 0.276961892843246, 0.079040773212910, 0.519999980926514, 0.179215639829636, 0.206334263086319, 0.095003314316273, 0.542895972728729, -0.002596897305921, 0.224774435162544, 0.015483353286982, -0.251224666833878
-0.489534765481949, -0.114921011030674, 0.098192967474461, 0.264663368463516, -0.029494633898139, 0.000000000000000, -0.780171453952789, -0.303203165531158, -0.060043204575777, 0.131267383694649, 0.119157433509827, 0.000000000000000, 0.270784467458725, 0.075599819421768, 0.519999980926514, 0.175623998045921, 0.210445046424866, 0.097372606396675, 0.540456235408783, -0.002465511206537, 0.223774626851082, 0.016032606363297, -0.244220420718193
-0.489712804555893, -0.109426103532314, 0.092428877949715, 0.260910004377365, -0.037605606019497, 0.000000000000000, -0.773492276668549, -0.295408189296722, -0.058423627167940, 0.134138211607933, 0.118610821664333, 0.000000000000000, 0.263136208057404, 0.072352275252342, 0.519992232322693, 0.171135380864143, 0.215664625167847, 0.100305028259754, 0.537466108798981, -0.002277186838910, 0.222539767622948, 0.016735099256039, -0.236023440957069
-0.488830298185349, -0.105383418500423, 0.086931951344013, 0.257419526576996, -0.045801565051079, 0.000000000000000, -0.766525506973267, -0.284357726573944, -0.057253483682871, 0.136985242366791, 0.117775246500969, 0.000000000000000, 0.253789752721786, 0.069488652050495, 0.519859731197357, 0.165485054254532, 0.222017481923103, 0.103812150657177, 0.533822298049927, -0.002029382623732, 0.221021816134453, 0.017595345154405, -0.226587668061256
-0.486024707555771, -0.102624133229256, 0.081763774156570, 0.254638254642487, -0.053894761949778, 0.000000000000000, -0.759685158729553, -0.269947052001953, -0.056606695055962, 0.139591813087463, 0.116579361259937, 0.000000000000000, 0.242529138922691, 0.067105904221535, 0.519248902797699, 0.158442005515099, 0.229412123560905, 0.107847958803177, 0.529438197612762, -0.001725795562379, 0.219180911779404, 0.018601829186082, -0.215894237160683
-0.480709135532379, -0.099873214960098, 0.076856479048729, 0.252825021743774, -0.061570856720209, 0.000000000000000, -0.753476440906525, -0.252497047185898, -0.056484468281269, 0.141669586300850, 0.114924937486649, 0.000000000000000, 0.229193702340126, 0.065182253718376, 0.517855226993561, 0.149851679801941, 0.237662166357040, 0.112324260175228, 0.524262189865112, -0.001374562270939, 0.216993495821953, 0.019731590524316, -0.203977629542351
-0.473020672798157, -0.096498139202595, 0.072366528213024, 0.251904100179672, -0.068609595298767, 0.000000000000000, -0.748395264148712, -0.232860147953033, -0.056792423129082, 0.142906576395035, 0.112694993615150, 0.000000000000000, 0.213706016540527, 0.063589520752430, 0.515624105930328, 0.139668002724648, 0.246514573693275, 0.117126554250717, 0.518289327621460, -0.000986515660770, 0.214457705616951, 0.020954741165042, -0.190942525863647
-0.462800890207291, -0.092086657881737, 0.068451330065727, 0.251958370208740, -0.074999876320362, 0.000000000000000, -0.744330644607544, -0.211590081453323, -0.057486779987812, 0.143320083618164, 0.109829731285572, 0.000000000000000, 0.196131438016891, 0.062179960310459, 0.512594044208527, 0.127996638417244, 0.255693525075912, 0.122136443853378, 0.511577129364014, -0.000572888238821, 0.211599647998810, 0.022240577265620, -0.176975816488266
-0.450240224599838, -0.086502216756344, 0.065231755375862, 0.252907216548920, -0.080797970294952, 0.000000000000000, -0.741035819053650, -0.189003676176071, -0.058566607534885, 0.143015533685684, 0.106297522783279, 0.000000000000000, 0.176645353436470, 0.060783430933952, 0.508781492710114, 0.115077048540115, 0.264918386936188, 0.127234816551208, 0.504236102104187, -0.000145032667206, 0.208469107747078, 0.023558197543025, -0.162332832813263
-0.435722738504410, -0.079762883484364, 0.062780588865280, 0.254565805196762, -0.086057379841805, 0.000000000000000, -0.738098204135895, -0.165458336472511, -0.060020841658115, 0.142191454768181, 0.102080687880516, 0.000000000000000, 0.155538126826286, 0.059244506061077, 0.504214048385620, 0.101266212761402, 0.273904532194138, 0.132296770811081, 0.496426612138748, 0.000284967827611, 0.205137595534325, 0.024874808266759, -0.147290349006653
-0.419848680496216, -0.071824938058853, 0.061098244041204, 0.256630092859268, -0.090813696384430, 0.000000000000000, -0.734811604022980, -0.141372084617615, -0.061822116374969, 0.141216203570366, 0.097182050347328, 0.000000000000000, 0.133254855871201, 0.057498779147863, 0.498981803655624, 0.087045401334763, 0.282365798950195, 0.137191191315651, 0.488363504409790, 0.000704178994056, 0.201700180768967, 0.026155438274145, -0.132075786590576
-0.403505146503448, -0.062533907592297, 0.060107924044132, 0.258656829595566, -0.095070488750935, 0.000000000000000, -0.730218470096588, -0.117297850549221, -0.063907265663147, 0.140631020069122, 0.091626763343811, 0.000000000000000, 0.110397867858410, 0.055583093315363, 0.493222594261169, 0.073002509772778, 0.290020734071732, 0.141782864928246, 0.480307370424271, 0.001099073910154, 0.198270961642265, 0.027363466098905, -0.116837725043297
-0.387692719697952, -0.051558110862970, 0.059643629938364, 0.260168641805649, -0.098810933530331, 0.000000000000000, -0.723080933094025, -0.094046697020531, -0.066138535737991, 0.141200423240662, 0.085469283163548, 0.000000000000000, 0.087699785828590, 0.053587093949318, 0.487045198678970, 0.059751581400633, 0.296607047319412, 0.145937114953995, 0.472525238990784, 0.001456253346987, 0.194965675473213, 0.028461970388889, -0.101715102791786
-0.373513370752335, -0.038504745811224, 0.059498004615307, 0.260674744844437, -0.102016083896160, 0.000000000000000, -0.711884558200836, -0.072514578700066, -0.068323530256748, 0.143932551145554, 0.078801229596138, 0.000000000000000, 0.065948218107224, 0.051634706556797, 0.480462282896042, 0.047814633697271, 0.301908433437347, 0.149531990289688, 0.465234905481339, 0.001764083513990, 0.191877484321594, 0.029417490586638, -0.086911164224148
-0.361916512250900, -0.023137856274843, 0.059495754539967, 0.259765416383743, -0.104670852422714, 0.000000000000000, -0.695202171802521, -0.053333260118961, -0.070283852517605, 0.149840444326401, 0.071735650300980, 0.000000000000000, 0.045753240585327, 0.049868449568748, 0.473399758338928, 0.037556212395430, 0.305782258510590, 0.152478098869324, 0.458575546741486, 0.002014732221141, 0.189064875245094, 0.030205762013793, -0.072545997798443
-0.353320688009262, -0.005329045001417, 0.059486914426088, 0.257240086793900, -0.106762409210205, 0.000000000000000, -0.672155082225800, -0.036787275224924, -0.071871884167194, 0.159590050578117, 0.064373388886452, 0.000000000000000, 0.027353182435036, 0.048338428139687, 0.465708583593369, 0.029208015650511, 0.308175265789032, 0.154735043644905, 0.452624350786209, 0.002205378841609, 0.186559632420540, 0.030816195532680, -0.058533515781164
-0.347738295793533, 0.015179414302111, 0.059292938560247, 0.253061860799789, -0.108283095061779, 0.000000000000000, -0.642361223697662, -0.023198146373034, -0.072887241840363, 0.173420101404190, 0.056798331439495, 0.000000000000000, 0.010821459814906, 0.047008931636810, 0.457187294960022, 0.022846180945635, 0.309120863676071, 0.156309738755226, 0.447402596473694, 0.002337764017284, 0.184369638562202, 0.031251259148121, -0.044907908886671
-0.345162957906723, 0.038834359496832, 0.058686163276434, 0.247225016355515, -0.109233789145947, 0.000000000000000, -0.605674564838409, -0.013093300163746, -0.073054954409599, 0.191242545843124, 0.049078274518251, 0.000000000000000, -0.003656292101368, 0.045917809009552, 0.447671949863434, 0.018445713445544, 0.308749020099640, 0.157259643077850, 0.442906111478806, 0.002417895942926, 0.182492420077324, 0.031526725739241, -0.031909100711346
-0.345515817403793, 0.065622828900814, 0.057531550526619, 0.239811137318611, -0.109614469110966, 0.000000000000000, -0.562281250953674, -0.006552516017109, -0.072205819189548, 0.212661340832710, 0.041232381016016, 0.000000000000000, -0.015950640663505, 0.045079495757818, 0.437067687511444, 0.015914697200060, 0.307197421789169, 0.157653883099556, 0.439124822616577, 0.002452581888065, 0.180923163890839, 0.031661622226238, -0.019911583513021
-0.347971558570862, 0.094931796193123, 0.055807687342167, 0.231317982077599, -0.109426043927670, 0.000000000000000, -0.513029336929321, -0.003417939646170, -0.070269070565701, 0.236921250820160, 0.033504735678434, 0.000000000000000, -0.026314251124859, 0.044457428157330, 0.425477504730225, 0.015098063275218, 0.304611206054688, 0.157572299242020, 0.436040133237839, 0.002449352527037, 0.179653659462929, 0.031677942723036, -0.009002274833620
-0.350434511899948, 0.126348778605461, 0.053429327905178, 0.222893893718719, -0.108694545924664, 0.000000000000000, -0.460087716579437, -0.004267722833902, -0.067089438438416, 0.262637823820114, 0.026564966887236, 0.000000000000000, -0.035455524921417, 0.044014155864716, 0.413300096988678, 0.015738260000944, 0.301145553588867, 0.157096773386002, 0.433606088161469, 0.002415855647996, 0.178663864731789, 0.031598173081875, 0.001231549307704
-0.351139873266220, 0.159299850463867, 0.050376232713461, 0.215566933155060, -0.107515454292297, 0.000000000000000, -0.406154960393906, -0.009139614179730, -0.062673218548298, 0.288236469030380, 0.020544629544020, 0.000000000000000, -0.043964155018330, 0.043710876256227, 0.401024788618088, 0.017564786598086, 0.296943366527557, 0.156306385993958, 0.431787163019180, 0.002359179547057, 0.177938446402550, 0.031443942338228, 0.011131042614579
-0.349428832530975, 0.192664325237274, 0.046809203922749, 0.209848433732986, -0.106016583740711, 0.000000000000000, -0.352993786334991, -0.017251776531339, -0.057228349149227, 0.312691390514374, 0.015295421704650, 0.000000000000000, -0.052124410867691, 0.043391171842813, 0.389103740453720, 0.020395904779434, 0.292103707790375, 0.155264496803284, 0.430603861808777, 0.002284418558702, 0.177486598491669, 0.031232381239533, 0.020792039111257
-0.345224022865295, 0.225224673748016, 0.042972855269909, 0.205954402685165, -0.104281172156334, 0.000000000000000, -0.301940649747849, -0.027450494468212, -0.051079109311104, 0.335245758295059, 0.010665162466466, 0.000000000000000, -0.059988323599100, 0.042747400701046, 0.377917170524597, 0.024182431399822, 0.286689221858978, 0.154021829366684, 0.430146008729935, 0.002194811590016, 0.177347898483276, 0.030976735055447, 0.030196085572243
-0.339370787143707, 0.255802065134048, 0.039136447012424, 0.203716784715652, -0.102359034121037, 0.000000000000000, -0.254438608884811, -0.038370601832867, -0.044647321105003, 0.355138063430786, 0.006486135069281, 0.000000000000000, -0.067227773368359, 0.041432447731495, 0.367646694183350, 0.028967602178454, 0.280794858932495, 0.152653798460960, 0.430538207292557, 0.002095155185089, 0.177577197551727, 0.030696287751198, 0.038980264216661
-0.333451092243195, 0.283660113811493, 0.035467296838760, 0.202685877680779, -0.100276231765747, 0.000000000000000, -0.211752533912659, -0.048377696424723, -0.038472328335047, 0.371737718582153, 0.002602905035019, 0.000000000000000, -0.073295399546623, 0.039275888353586, 0.358351409435272, 0.034792505204678, 0.274592012166977, 0.151275902986526, 0.431875258684158, 0.001993664540350, 0.178216636180878, 0.030420627444983, 0.046645980328321
-0.328365772962570, 0.308493375778198, 0.032032359391451, 0.202718928456306, -0.098035693168640, 0.000000000000000, -0.174600884318352, -0.055918436497450, -0.033080972731113, 0.384704440832138, -0.001091275829822, 0.000000000000000, -0.077859044075012, 0.036178555339575, 0.350221365690231, 0.041694235056639, 0.268158435821533, 0.149930536746979, 0.434248507022858, 0.001892416854389, 0.179306879639626, 0.030159553512931, 0.053038552403450
-0.324251204729080, 0.329946905374527, 0.028922926634550, 0.203967824578285, -0.095647044479847, 0.000000000000000, -0.143404722213745, -0.059907846152782, -0.028845343738794, 0.393864214420319, -0.004671047441661, 0.000000000000000, -0.080779977142811, 0.031994961202145, 0.343555390834808, 0.049763657152653, 0.261385142803192, 0.148537084460258, 0.437783837318420, 0.001782868173905, 0.180903598666191, 0.029889827594161, 0.058244980871677
-0.320964962244034, 0.347409367561340, 0.026310719549656, 0.206614628434181, -0.093139566481113, 0.000000000000000, -0.118451803922653, -0.059703391045332, -0.025981049984694, 0.399145245552063, -0.008178274147213, 0.000000000000000, -0.081964217126369, 0.026631716638803, 0.338583052158356, 0.059102743864059, 0.254054307937622, 0.146949067711830, 0.442582160234451, 0.001651014899835, 0.183051779866219, 0.029570799320936, 0.062320213764906
-0.318355113267899, 0.359869420528412, 0.024498181417584, 0.210730597376823, -0.090557768940926, 0.000000000000000, -0.099732913076878, -0.055014379322529, -0.024570032954216, 0.400678247213364, -0.011570796370506, 0.000000000000000, -0.081245176494122, 0.020202836021781, 0.335328876972198, 0.069774955511093, 0.245977595448494, 0.145051181316376, 0.448649793863297, 0.001486135879532, 0.185755878686905, 0.029170842841268, 0.065145835280418
-0.316382527351379, 0.365883708000183, 0.023943221196532, 0.216227665543556, -0.087945878505707, 0.000000000000000, -0.086648717522621, -0.045924328267574, -0.024555189535022, 0.398958802223206, -0.014675283804536, 0.000000000000000, -0.078288465738297, 0.013130141422153, 0.333584994077682, 0.081823073327541, 0.237123861908913, 0.142842873930931, 0.455890804529190, 0.001288133091293, 0.188977032899857, 0.028689827769995, 0.066425472497940
-0.315079361200333, 0.363884091377258, 0.025179430842400, 0.222858041524887, -0.085331201553345, 0.000000000000000, -0.077985830605030, -0.032815575599670, -0.025781540200114, 0.394843250513077, -0.017248922958970, 0.000000000000000, -0.072689995169640, 0.006100750062615, 0.333001405000687, 0.095276691019535, 0.227654844522476, 0.140445604920387, 0.464133113622665, 0.001068263896741, 0.192644089460373, 0.028160737827420, 0.065870642662048
-0.314491719007492, 0.352718502283096, 0.028652083128691, 0.230193540453911, -0.082720220088959, 0.000000000000000, -0.072367101907730, -0.016204731538892, -0.028058474883437, 0.389237672090530, -0.019102171063423, 0.000000000000000, -0.064227879047394, -0.000106882056571, 0.333243608474731, 0.110127277672291, 0.217861250042915, 0.138044312596321, 0.473162025213242, 0.000844088150188, 0.196667388081551, 0.027633562684059, 0.063501335680485
-0.314812690019608, 0.332049369812012, 0.034580320119858, 0.237620517611504, -0.080104656517506, 0.000000000000000, -0.068646326661110, 0.003072616178542, -0.031093871220946, 0.382813900709152, -0.020127659663558, 0.000000000000000, -0.052927102893591, -0.004745600279421, 0.334116607904434, 0.126280844211578, 0.208068534731865, 0.135821953415871, 0.482738345861435, 0.000633745745290, 0.200945839285851, 0.027157768607140, 0.059665191918612
-0.316532909870148, 0.302359998226166, 0.042936686426401, 0.244448840618134, -0.077458441257477, 0.000000000000000, -0.065844222903252, 0.023820903152227, -0.034483999013901, 0.376041412353516, -0.020266218110919, 0.000000000000000, -0.038878902792931, -0.007303431630135, 0.335452944040298, 0.143502965569496, 0.198553368449211, 0.133911907672882, 0.492595046758652, 0.000451666448498, 0.205365255475044, 0.026769725605845, 0.054529093205929
-0.320229768753052, 0.264847964048386, 0.053481366485357, 0.250074684619904, -0.074730575084686, 0.000000000000000, -0.062857672572136, 0.044897764921188, -0.037858437746763, 0.369376927614212, -0.019485577940941, 0.000000000000000, -0.022222926840186, -0.007970535196364, 0.336803019046783, 0.161497041583061, 0.189560100436211, 0.132412299513817, 0.502472281455994, 0.000309473834932, 0.209813475608826, 0.026496296748519, 0.047738611698151
-0.326662063598633, 0.221189945936203, 0.065830141305923, 0.253914833068848, -0.071883700788021, 0.000000000000000, -0.058322962373495, 0.065151140093803, -0.040870998054743, 0.363382816314697, -0.017778528854251, 0.000000000000000, -0.003067480400205, -0.007256918121129, 0.337612986564636, 0.179848104715347, 0.181393772363663, 0.131426021456718, 0.512092769145966, 0.000219806752284, 0.214169144630432, 0.026365302503109, 0.038570594042540
-0.336496561765671, 0.173286288976669, 0.079516164958477, 0.255498588085175, -0.068900339305401, 0.000000000000000, -0.050597056746483, 0.083660624921322, -0.043270476162434, 0.358795285224915, -0.015188035555184, 0.000000000000000, 0.018500229343772, -0.005626937374473, 0.337491244077682, 0.198038861155510, 0.174367129802704, 0.131039157509804, 0.521180093288422, 0.000194063119125, 0.218309521675110, 0.026399828493595, 0.026231054216623
-0.350119382143021, 0.123266562819481, 0.093983396887779, 0.254525244235992, -0.065766140818596, 0.000000000000000, -0.037938743829727, 0.100733257830143, -0.045203547924757, 0.356488347053528, -0.011829222552478, 0.000000000000000, 0.042004268616438, -0.003326490521431, 0.336483210325241, 0.215513303875923, 0.168753802776337, 0.131303414702415, 0.529488623142242, 0.000240250359639, 0.222124040126801, 0.026613313704729, 0.010528065264225
-0.367867231369019, 0.073491394519806, 0.108598023653030, 0.250745058059692, -0.062478121370077, 0.000000000000000, -0.019630214199424, 0.117522329092026, -0.047098517417908, 0.356983155012131, -0.007886147126555, 0.000000000000000, 0.066300198435783, -0.000373320828658, 0.335097283124924, 0.231712549924850, 0.164778724312782, 0.132232755422592, 0.536800861358643, 0.000362303806469, 0.225513413548470, 0.027008306235075, -0.007491698488593
-0.389779210090637, 0.026290105655789, 0.122726313769817, 0.244082272052765, -0.059028264135122, 0.000000000000000, 0.004141663201153, 0.134025216102600, -0.049014892429113, 0.360419094562531, -0.003604930592701, 0.000000000000000, 0.090992756187916, 0.002930339192972, 0.333331048488617, 0.246132388710976, 0.162592574954033, 0.133794769644737, 0.542932689189911, 0.000558761879802, 0.228392660617828, 0.027573790401220, -0.027004392817616
-0.415456026792526, -0.015917014330626, 0.135713636875153, 0.234683915972710, -0.055377773940563, 0.000000000000000, 0.032768465578556, 0.149247422814369, -0.050673123449087, 0.366686433553696, 0.000782910676207, 0.000000000000000, 0.114808939397335, 0.006351041141897, 0.331591427326202, 0.258322387933731, 0.162258237600327, 0.135908871889114, 0.547725021839142, 0.000822386995424, 0.230687394738197, 0.028284611180425, -0.046211224049330
-0.443254202604294, -0.051173642277718, 0.146996021270752, 0.223348081111908, -0.051481865346432, 0.000000000000000, 0.064741589128971, 0.161875486373901, -0.051681734621525, 0.375270545482635, 0.005079776979983, 0.000000000000000, 0.136230900883675, 0.009401273913682, 0.330068945884705, 0.267839610576630, 0.163737148046494, 0.138441160321236, 0.551027536392212, 0.001139591215178, 0.232325270771980, 0.029100041836500, -0.063503131270409
-0.469064801931381, -0.079196996986866, 0.156321614980698, 0.212182968854904, -0.047556057572365, 0.000000000000000, 0.097368478775024, 0.171365857124329, -0.051939178258181, 0.385217487812042, 0.009098078124225, 0.000000000000000, 0.154030323028564, 0.011459135450423, 0.328538984060287, 0.274264335632324, 0.166880384087563, 0.141212418675423, 0.552708804607391, 0.001491402159445, 0.233240455389023, 0.029966514557600, -0.077792763710022
-0.490286111831665, -0.100587911903858, 0.163677498698235, 0.202564001083374, -0.044193174690008, 0.000000000000000, 0.127780318260193, 0.177796334028244, -0.051567818969488, 0.395581185817719, 0.012699786573648, 0.000000000000000, 0.167540371417999, 0.012091704644263, 0.326602220535278, 0.277329325675964, 0.171406820416451, 0.144011229276657, 0.552688658237457, 0.001855027279817, 0.233390107750893, 0.030822314321995, -0.088367842137814
-0.504746139049530, -0.115863651037216, 0.169065952301025, 0.195551067590714, -0.041509177535772, 0.000000000000000, 0.154218941926956, 0.181329131126404, -0.050691060721874, 0.405894875526428, 0.015849582850933, 0.000000000000000, 0.176580980420113, 0.011258617974818, 0.324015200138092, 0.277008980512619, 0.176872715353966, 0.146598532795906, 0.550951302051544, 0.002204697113484, 0.232762441039085, 0.031599961221218, -0.094738103449345
-0.510979235172272, -0.125637859106064, 0.172556981444359, 0.191772162914276, -0.039430983364582, 0.000000000000000, 0.175608158111572, 0.182120949029922, -0.049413211643696, 0.415944367647171, 0.018546808511019, 0.000000000000000, 0.181213140487671, 0.009330000728369, 0.320814520120621, 0.273487031459808, 0.182690784335136, 0.148717001080513, 0.547535836696625, 0.002513071754947, 0.231372833251953, 0.032229237258434, -0.096564136445522
-0.508605182170868, -0.130602166056633, 0.174294143915176, 0.191326290369034, -0.037961076945066, 0.000000000000000, 0.191231206059456, 0.180241420865059, -0.047786954790354, 0.425633519887924, 0.020776925608516, 0.000000000000000, 0.181575819849968, 0.007052985019982, 0.317403554916382, 0.267049759626389, 0.188234791159630, 0.150118589401245, 0.542521297931671, 0.002754403278232, 0.229256734251976, 0.032644312828779, -0.093665845692158
-0.498208105564117, -0.131371468305588, 0.174461081624031, 0.193881109356880, -0.037158198654652, 0.000000000000000, 0.200341358780861, 0.175556212663651, -0.045753687620163, 0.434757798910141, 0.022467946633697, 0.000000000000000, 0.177776217460632, 0.005422206595540, 0.314514338970184, 0.257987082004547, 0.192990362644196, 0.150608420372009, 0.536002039909363, 0.002909330185503, 0.226458340883255, 0.032794941216707, -0.086050488054752
-0.480275034904480, -0.128437548875809, 0.173245981335640, 0.199168920516968, -0.037057828158140, 0.000000000000000, 0.201935797929764, 0.167646527290344, -0.043089892715216, 0.442699044942856, 0.023469157516956, 0.000000000000000, 0.169921785593033, 0.005438183434308, 0.313041955232620, 0.246563747525215, 0.196646377444267, 0.150075644254684, 0.528065264225006, 0.002968185581267, 0.223020613193512, 0.032654494047165, -0.073938272893429
-0.454820305109024, -0.122340299189091, 0.170855909585953, 0.207170560956001, -0.037626393139362, 0.000000000000000, 0.194687679409981, 0.156067490577698, -0.039504051208496, 0.448391616344452, 0.023601021617651, 0.000000000000000, 0.158230260014534, 0.007862918078899, 0.313785523176193, 0.233051806688309, 0.199083641171455, 0.148490801453590, 0.518787026405334, 0.002930333605036, 0.218983232975006, 0.032218795269728, -0.057735968381166
-0.423141956329346, -0.114256232976913, 0.167669042944908, 0.217331066727638, -0.038821518421173, 0.000000000000000, 0.176293507218361, 0.140335336327553, -0.034644428640604, 0.450207561254501, 0.022730210795999, 0.000000000000000, 0.143048524856567, 0.012995868921280, 0.317022264003754, 0.217835262417793, 0.200343176722527, 0.145901307463646, 0.508255898952484, 0.002802909584716, 0.214392811059952, 0.031504411250353, -0.037960011512041
-0.386664867401123, -0.105251990258694, 0.164006486535072, 0.229068681597710, -0.040405552834272, 0.000000000000000, 0.145911946892738, 0.120585255324841, -0.028405431658030, 0.446964353322983, 0.020863868296146, 0.000000000000000, 0.125113919377327, 0.020190084353089, 0.321916371583939, 0.201448455452919, 0.200676605105400, 0.142474934458733, 0.496593624353409, 0.002604578388855, 0.209312811493874, 0.030560571700335, -0.015818815678358
-0.345565617084503, -0.095720976591110, 0.159994319081306, 0.242313206195831, -0.041871070861816, 0.000000000000000, 0.104590244591236, 0.098685890436172, -0.021437125280499, 0.438131958246231, 0.018104834482074, 0.000000000000000, 0.105700694024563, 0.027741465717554, 0.326552450656891, 0.184235930442810, 0.200586020946503, 0.138518825173378, 0.483890533447266, 0.002367450855672, 0.203790619969368, 0.029474327340722, 0.006365059874952
-0.300469130277634, -0.086603581905365, 0.155900120735168, 0.256762534379959, -0.043066024780273, 0.000000000000000, 0.053563080728054, 0.076866298913956, -0.014538506977260, 0.423600554466248, 0.014650763012469, 0.000000000000000, 0.085904985666275, 0.034955799579620, 0.330078244209290, 0.166389569640160, 0.200619250535965, 0.134369805455208, 0.470237314701080, 0.002124649705365, 0.197869911789894, 0.028339123353362, 0.027307866141200
-0.252532362937927, -0.078957140445709, 0.152053400874138, 0.271888673305511, -0.044049687683582, 0.000000000000000, -0.005801553837955, 0.057051774114370, -0.008344045840204, 0.403701633214951, 0.010762914083898, 0.000000000000000, 0.066302366554737, 0.041796993464231, 0.332392811775208, 0.148092359304428, 0.201202690601349, 0.130309820175171, 0.455765038728714, 0.001901495968923, 0.191609442234039, 0.027231518179178, 0.046762455254793
-0.203015610575676, -0.073424115777016, 0.148694828152657, 0.287192612886429, -0.044882576912642, 0.000000000000000, -0.071743518114090, 0.040801290422678, -0.003321856958792, 0.379145920276642, 0.006684765685350, 0.000000000000000, 0.047059401869774, 0.048284288495779, 0.333486050367355, 0.129500940442085, 0.202578350901604, 0.126530200242996, 0.440626353025436, 0.001713114674203, 0.185075655579567, 0.026202552020550, 0.064848802983761
-0.153032869100571, -0.070100210607052, 0.145894154906273, 0.302447587251663, -0.045599408447742, 0.000000000000000, -0.142232999205589, 0.029184404760599, 0.000251870660577, 0.350868225097656, 0.002610515104607, 0.000000000000000, 0.028118748217821, 0.054444842040539, 0.333339273929596, 0.110737480223179, 0.204766437411308, 0.123109705746174, 0.424987703561783, 0.001563753583468, 0.178340077400208, 0.025273205712438, 0.081771597266197
-0.103409036993980, -0.068605773150921, 0.143532469868660, 0.317874133586884, -0.046200424432755, 0.000000000000000, -0.215000063180923, 0.022722195833921, 0.002312382683158, 0.319981366395950, -0.001298654940911, 0.000000000000000, 0.009420130401850, 0.060279797762632, 0.331935316324234, 0.091966457664967, 0.207510933279991, 0.119985282421112, 0.409067213535309, 0.001445533940569, 0.171496570110321, 0.024427913129330, 0.097609743475914
-0.054900132119656, -0.068419426679611, 0.141408815979958, 0.333883792161942, -0.046662747859955, 0.000000000000000, -0.287242889404297, 0.021382831037045, 0.003009580774233, 0.287922382354736, -0.004898633807898, 0.000000000000000, -0.008938318118453, 0.065661609172821, 0.329289376735687, 0.073542766273022, 0.210211858153343, 0.116913504898548, 0.393221318721771, 0.001336460583843, 0.164698883891106, 0.023605445399880, 0.112216927111149
-0.008901672437787, -0.069072723388672, 0.139360710978508, 0.350446164608002, -0.046976361423731, 0.000000000000000, -0.355064302682877, 0.024374231696129, 0.002728401450440, 0.256742417812347, -0.008165242150426, 0.000000000000000, -0.026438400149345, 0.070331789553165, 0.325523048639297, 0.056291610002518, 0.212115556001663, 0.113607197999954, 0.378099620342255, 0.001211047871038, 0.158226251602173, 0.022734213620424, 0.125243872404099
0.032287232577801, -0.070012576878071, 0.137260138988495, 0.366895228624344, -0.047144733369350, 0.000000000000000, -0.414319127798080, 0.029826011508703, 0.002042772015557, 0.228682681918144, -0.011353866197169, 0.000000000000000, -0.041887685656548, 0.074242912232876, 0.320929348468781, 0.041559778153896, 0.212836295366287, 0.110089421272278, 0.364636361598969, 0.001066232216544, 0.152477800846100, 0.021822696551681, 0.136228859424591
0.066924802958965, -0.070631124079227, 0.134976282715797, 0.382645249366760, -0.047126520425081, 0.000000000000000, -0.462504535913467, 0.035494782030582, 0.001438155188225, 0.205242425203323, -0.014649865217507, 0.000000000000000, -0.054083932191133, 0.077595226466656, 0.315816015005112, 0.030480150133371, 0.212393537163734, 0.106619156897068, 0.353623598814011, 0.000916314893402, 0.147787734866142, 0.020938640460372, 0.144808217883110
0.093716919422150, -0.070552751421928, 0.132478877902031, 0.397175133228302, -0.046851541846991, 0.000000000000000, -0.498005747795105, 0.039937756955624, 0.001096680294722, 0.187605604529381, -0.017990903928876, 0.000000000000000, -0.062341563403606, 0.080472379922867, 0.310440242290497, 0.023647803813219, 0.210824325680733, 0.103359751403332, 0.345551133155823, 0.000769721926190, 0.144359305500984, 0.020123634487391, 0.150781333446503
0.111956909298897, -0.069423191249371, 0.129741325974464, 0.410143226385117, -0.046242289245129, 0.000000000000000, -0.520234644412994, 0.042357660830021, 0.001031443476677, 0.176402792334557, -0.021278440952301, 0.000000000000000, -0.066335752606392, 0.082708969712257, 0.305210262537003, 0.021297056227922, 0.208050176501274, 0.100299924612045, 0.340734302997589, 0.000623729778454, 0.142321661114693, 0.019373631104827, 0.154026493430138
0.121390402317047, -0.066964223980904, 0.126754567027092, 0.421348690986633, -0.045245066285133, 0.000000000000000, -0.529777646064758, 0.042185924947262, 0.001224083011039, 0.171382248401642, -0.024534843862057, 0.000000000000000, -0.065857276320457, 0.083973735570908, 0.300828427076340, 0.023438550531864, 0.203940436244011, 0.097319461405277, 0.339396595954895, 0.000469099381007, 0.141765415668488, 0.018656086176634, 0.154435664415359
0.121350310742855, -0.063313797116280, 0.123694695532322, 0.430260837078094, -0.043907944113016, 0.000000000000000, -0.528151571750641, 0.038955148309469, 0.001661855145358, 0.171547308564186, -0.027924999594688, 0.000000000000000, -0.060796763747931, 0.083849377930164, 0.298198848962784, 0.029914852231741, 0.198377177119255, 0.094246290624142, 0.341689497232437, 0.000293685647193, 0.142751082777977, 0.017924435436726, 0.151939868927002
0.109851516783237, -0.058705616742373, 0.120887085795403, 0.435364723205566, -0.042516604065895, 0.000000000000000, -0.517450630664825, 0.032506622374058, 0.002308255992830, 0.175559461116791, -0.031691681593657, 0.000000000000000, -0.051281001418829, 0.081959106028080, 0.297986030578613, 0.040506504476070, 0.191340535879135, 0.090929478406906, 0.347676336765289, 0.000086769701738, 0.145303562283516, 0.017136380076408, 0.146599292755127
0.085555844008923, -0.052343290299177, 0.118300743401051, 0.434910893440247, -0.041491236537695, 0.000000000000000, -0.499892503023148, 0.023185227066278, 0.003057058900595, 0.182127580046654, -0.036050852388144, 0.000000000000000, -0.037705853581429, 0.078251376748085, 0.300152391195297, 0.055049974471331, 0.182995811104774, 0.087317444384098, 0.357236802577972, -0.000155838191858, 0.149375230073929, 0.016274109482765, 0.138653203845024
0.049805987626314, -0.044083170592785, 0.115905553102493, 0.428371280431747, -0.041007857769728, 0.000000000000000, -0.477476716041565, 0.011262868531048, 0.003848105669022, 0.190187081694603, -0.041127353906631, 0.000000000000000, -0.020727658644319, 0.073276162147522, 0.303782939910889, 0.073170810937881, 0.173799186944962, 0.083543904125690, 0.369787007570267, -0.000424268859206, 0.154727458953857, 0.015367940068245, 0.128468915820122
0.004794714041054, -0.035176828503609, 0.114016726613045, 0.416149139404297, -0.040979065001011, 0.000000000000000, -0.450752973556519, -0.002990407636389, 0.004628950729966, 0.199475780129433, -0.046819530427456, 0.000000000000000, -0.001145701855421, 0.068063750863075, 0.307470858097076, 0.093894772231579, 0.164665549993515, 0.080067642033100, 0.384196400642395, -0.000683044956531, 0.160886377096176, 0.014533746987581, 0.116453029215336
-0.047368094325066, -0.027258386835456, 0.113060198724270, 0.399062991142273, -0.041196987032890, 0.000000000000000, -0.418459266424179, -0.018948616459966, 0.005309748463333, 0.210690319538116, -0.052575469017029, 0.000000000000000, 0.020093552768230, 0.063148021697998, 0.310153424739838, 0.116089820861816, 0.156501933932304, 0.077367819845676, 0.399445235729218, -0.000893146265298, 0.167416453361511, 0.013894547708333, 0.103127479553223
-0.104502350091934, -0.021575715392828, 0.113318160176277, 0.378155112266541, -0.041430551558733, 0.000000000000000, -0.380346715450287, -0.034634981304407, 0.005585312377661, 0.224030062556267, -0.057836420834064, 0.000000000000000, 0.041960079222918, 0.058444306254387, 0.311325490474701, 0.138971805572510, 0.149864882230759, 0.075710102915764, 0.414934784173965, -0.001030048588291, 0.174058780074120, 0.013519776985049, 0.089215062558651
-0.164440989494324, -0.018746439367533, 0.114853002130985, 0.354520261287689, -0.041478928178549, 0.000000000000000, -0.336391806602478, -0.047552891075611, 0.005017854738981, 0.239567995071411, -0.062458489090204, 0.000000000000000, 0.063685096800327, 0.053864780813456, 0.310907572507858, 0.162100315093994, 0.145103141665459, 0.075244233012199, 0.430337935686111, -0.001077121472917, 0.180670991539955, 0.013450210914016, 0.075422510504723
-0.225174173712730, -0.018983934074640, 0.117594234645367, 0.329201757907867, -0.041186455637217, 0.000000000000000, -0.287749260663986, -0.056272473186255, 0.003358446992934, 0.256860584020615, -0.066484309732914, 0.000000000000000, 0.084846012294292, 0.049450527876616, 0.308990538120270, 0.185123771429062, 0.142396464943886, 0.076019093394279, 0.445395141839981, -0.001024952973239, 0.187139868736267, 0.013701425865293, 0.062189139425755
-0.284688979387283, -0.022213343530893, 0.121369302272797, 0.303252011537552, -0.040429230779409, 0.000000000000000, -0.236367881298065, -0.060438185930252, 0.000585503643379, 0.275179326534271, -0.069965884089470, 0.000000000000000, 0.105255864560604, 0.045269768685102, 0.305676460266113, 0.207635283470154, 0.141721263527870, 0.077955439686775, 0.459827631711960, -0.000874485820532, 0.193344071507454, 0.014255830086768, 0.049652185291052
-0.340723812580109, -0.028097633272409, 0.125891312956810, 0.277846902608871, -0.039119180291891, 0.000000000000000, -0.184375360608101, -0.060289852321148, -0.003182270796970, 0.293814331293106, -0.072943761944771, 0.000000000000000, 0.124766804277897, 0.041328288614750, 0.300999373197556, 0.229144871234894, 0.142866849899292, 0.080853976309299, 0.473334550857544, -0.000637797696982, 0.199152052402496, 0.015063427388668, 0.037798259407282
-0.390751212835312, -0.036209288984537, 0.130793496966362, 0.254312038421631, -0.037256315350533, 0.000000000000000, -0.134048625826836, -0.056424289941788, -0.007737229112536, 0.312050789594650, -0.075451165437698, 0.000000000000000, 0.143118411302567, 0.037512138485909, 0.294894993305206, 0.249110832810402, 0.145482555031776, 0.084425933659077, 0.485624849796295, -0.000336743163643, 0.204435065388680, 0.016048721969128, 0.026641320437193
-0.432398170232773, -0.046099375933409, 0.135678932070732, 0.233933851122856, -0.034978657960892, 0.000000000000000, -0.087573766708374, -0.049669448286295, -0.012813654728234, 0.329201102256775, -0.077517837285995, 0.000000000000000, 0.159955173730850, 0.033617600798607, 0.287238866090775, 0.267015874385834, 0.149137303233147, 0.088339857757092, 0.496460020542145, 0.000000582743155, 0.209085404872894, 0.017122812569141, 0.016310088336468
-0.464065194129944, -0.057226233184338, 0.140192821621895, 0.217675805091858, -0.032492317259312, 0.000000000000000, -0.046468202024698, -0.041072785854340, -0.018086489289999, 0.344807952642441, -0.079155288636684, 0.000000000000000, 0.174933761358261, 0.029433440417051, 0.277949899435043, 0.282420963048935, 0.153380453586578, 0.092268124222755, 0.505676031112671, 0.000344193220371, 0.213025942444801, 0.018196158111095, 0.007041023112833
-0.485246688127518, -0.068965815007687, 0.144076004624367, 0.206080660223961, -0.029948852956295, 0.000000000000000, -0.011374772526324, -0.031705882400274, -0.023216415196657, 0.358743906021118, -0.080351620912552, 0.000000000000000, 0.187861725687981, 0.024871589615941, 0.267153114080429, 0.294999092817307, 0.157780334353447, 0.095917209982872, 0.513186097145081, 0.000665600528009, 0.216212600469589, 0.019187472760677, -0.000898569705896
-0.496576637029648, -0.080568678677082, 0.147114321589470, 0.199218079447746, -0.027446482330561, 0.000000000000000, 0.017864927649498, -0.022687789052725, -0.027835309505463, 0.371208131313324, -0.081068955361843, 0.000000000000000, 0.198678240180016, 0.020084083080292, 0.255331665277481, 0.304544001817703, 0.161935120820999, 0.099038958549500, 0.518970012664795, 0.000939607096370, 0.218630865216255, 0.020027594640851, -0.007222084328532
-0.499348670244217, -0.091317921876907, 0.149121508002281, 0.196597307920456, -0.025091929361224, 0.000000000000000, 0.041554123163223, -0.015248417854309, -0.031544096767902, 0.382402598857880, -0.081269159913063, 0.000000000000000, 0.207235306501389, 0.015504706650972, 0.243367314338684, 0.310928970575333, 0.165493756532669, 0.101439125835896, 0.523048579692841, 0.001145896734670, 0.220285803079605, 0.020662501454353, -0.011521303094923
-0.494482070207596, -0.100843124091625, 0.150000557303429, 0.197480484843254, -0.023004669696093, 0.000000000000000, 0.059082709252834, -0.010554051026702, -0.034005917608738, 0.391902863979340, -0.080989152193069, 0.000000000000000, 0.213198706507683, 0.011822737753391, 0.232436984777451, 0.314076095819473, 0.168210208415985, 0.102992095053196, 0.525457203388214, 0.001271023880690, 0.221190854907036, 0.021057369187474, -0.013237972743809
-0.482109189033508, -0.109194606542587, 0.149775683879852, 0.201418742537498, -0.021265208721161, 0.000000000000000, 0.068269543349743, -0.009516628459096, -0.035040576010942, 0.398187220096588, -0.080524601042271, 0.000000000000000, 0.216201201081276, 0.009812370873988, 0.223712310194969, 0.313962906599045, 0.169990107417107, 0.103645563125610, 0.526228249073029, 0.001309019397013, 0.221360385417938, 0.021197274327278, -0.011854092590511
-0.463038951158524, -0.116519235074520, 0.148533836007118, 0.207812905311584, -0.019941741600633, 0.000000000000000, 0.066837742924690, -0.012452100403607, -0.034702394157648, 0.399462044239044, -0.080426380038261, 0.000000000000000, 0.216176033020020, 0.009985678829253, 0.217887312173843, 0.310640871524811, 0.170871168375015, 0.103400655090809, 0.525387763977051, 0.001259266631678, 0.220807388424873, 0.021081266924739, -0.007212642114609
-0.439529776573181, -0.122753165662289, 0.146347358822823, 0.215514108538628, -0.019157497212291, 0.000000000000000, 0.054824791848660, -0.018716253340244, -0.033312231302261, 0.395126849412918, -0.080948166549206, 0.000000000000000, 0.213683217763901, 0.012531955726445, 0.215025380253792, 0.304259091615677, 0.170998930931091, 0.102306984364986, 0.522962093353271, 0.001126092858613, 0.219546645879745, 0.020721329376101, 0.000289550720481
-0.413600265979767, -0.127725303173065, 0.143249407410622, 0.223563581705093, -0.019010927528143, 0.000000000000000, 0.033373612910509, -0.027559859678149, -0.031182767823339, 0.385329455137253, -0.082058824598789, 0.000000000000000, 0.209158316254616, 0.017017574980855, 0.214597359299660, 0.295043647289276, 0.170603781938553, 0.100473873317242, 0.518992900848389, 0.000920292281080, 0.217601895332336, 0.020146740600467, 0.009702994488180
-0.386019140481949, -0.131122782826424, 0.139203667640686, 0.231650575995445, -0.019525837153196, 0.000000000000000, 0.003688657656312, -0.038438893854618, -0.028529575094581, 0.370439857244492, -0.083625696599483, 0.000000000000000, 0.202481612563133, 0.022066138684750, 0.215364873409271, 0.283384740352631, 0.169936299324036, 0.098059326410294, 0.513581395149231, 0.000657771422993, 0.215025708079338, 0.019401602447033, 0.019565656781197
-0.356252014636993, -0.132298797369003, 0.134067922830582, 0.240144014358521, -0.020670188590884, 0.000000000000000, -0.033054947853088, -0.050493165850639, -0.025638945400715, 0.350939840078354, -0.085478045046329, 0.000000000000000, 0.194146469235420, 0.026762198656797, 0.216325983405113, 0.269829779863358, 0.169307321310043, 0.095275811851025, 0.506905555725098, 0.000359483557986, 0.211905077099800, 0.018545210361481, 0.028854830190539
