isaac-sim2real/sage/motion_files/g1/amass/0-KIT_3_wave_right15_poses.txt
left_hip_yaw_joint, left_hip_pitch_joint, left_hip_roll_joint, left_knee_joint, left_ankle_pitch_joint, left_ankle_roll_joint, right_hip_yaw_joint, right_hip_pitch_joint, right_hip_roll_joint, right_knee_joint, right_ankle_pitch_joint, right_ankle_roll_joint, torso_joint, left_shoulder_pitch_joint, left_shoulder_roll_joint, left_shoulder_yaw_joint, left_elbow_joint, left_wrist_roll_joint, right_shoulder_pitch_joint, right_shoulder_roll_joint, right_shoulder_yaw_joint, right_elbow_joint, right_wrist_roll_joint
-0.063405022025108, 0.324999690055847, 0.512248277664185, 0.166883572936058, -0.019555967301130, 0.000000000000000, -0.046170048415661, -0.123171932995319, -0.405560046434402, 0.068885959684849, 0.102214314043522, 0.000000000000000, -0.067495711147785, -0.045332081615925, 0.381601095199585, -0.145264565944672, 0.121953345835209, 0.242756694555283, 0.939489424228668, 0.017497491091490, 0.209669649600983, 0.037026897072792, -0.069667384028435
-0.063451893627644, 0.325150460004807, 0.512303948402405, 0.167304247617722, -0.019729515537620, 0.000000000000000, -0.046393055468798, -0.123068712651730, -0.405611038208008, 0.068765744566917, 0.102411113679409, 0.000000000000000, -0.067826487123966, -0.044791869819164, 0.382245957851410, -0.145522311329842, 0.121845118701458, 0.243111759424210, 0.939484238624573, 0.017560597509146, 0.209638312458992, 0.037101455032825, -0.068921193480492
-0.063650846481323, 0.325526386499405, 0.512396633625031, 0.168073356151581, -0.020113019272685, 0.000000000000000, -0.046692386269569, -0.122797928750515, -0.405717521905899, 0.068592794239521, 0.102786958217621, 0.000000000000000, -0.068376503884792, -0.043875701725483, 0.383417636156082, -0.145822733640671, 0.121561594307423, 0.243793830275536, 0.939549207687378, 0.017681125551462, 0.209609985351562, 0.037242788821459, -0.067538589239120
-0.064022056758404, 0.326178163290024, 0.512509465217590, 0.169196516275406, -0.020727623254061, 0.000000000000000, -0.046931080520153, -0.122349448502064, -0.405878841876984, 0.068400770425797, 0.103364318609238, 0.000000000000000, -0.069064438343048, -0.042683303356171, 0.384932726621628, -0.146053239703178, 0.121118642389774, 0.244817450642586, 0.939711630344391, 0.017861451953650, 0.209596455097198, 0.037457533180714, -0.065672971308231
-0.064469598233700, 0.327136904001236, 0.512618422508240, 0.170719876885414, -0.021563276648521, 0.000000000000000, -0.047054540365934, -0.121740266680717, -0.406091153621674, 0.068152531981468, 0.104157030582428, 0.000000000000000, -0.069864816963673, -0.041222635656595, 0.386678725481033, -0.146175533533096, 0.120565131306648, 0.246204450726509, 0.939983725547791, 0.018105767667294, 0.209603369235992, 0.037757258862257, -0.063441276550293
-0.064900882542133, 0.328408569097519, 0.512703835964203, 0.172666594386101, -0.022600585594773, 0.000000000000000, -0.047041215002537, -0.120960526168346, -0.406352192163467, 0.067777022719383, 0.105167202651501, 0.000000000000000, -0.070757992565632, -0.039428718388081, 0.388613551855087, -0.146147176623344, 0.119940780103207, 0.247979909181595, 0.940396904945374, 0.018418988212943, 0.209644898772240, 0.038155999034643, -0.060945529490709
-0.065262369811535, 0.329970657825470, 0.512752532958984, 0.175021335482597, -0.023814814165235, 0.000000000000000, -0.046854551881552, -0.119976967573166, -0.406662642955780, 0.067204974591732, 0.106399051845074, 0.000000000000000, -0.071699179708958, -0.037246663123369, 0.390670955181122, -0.145921677350998, 0.119289852678776, 0.250174432992935, 0.940992236137390, 0.018807191401720, 0.209739655256271, 0.038671344518661, -0.058378782123327
-0.065544866025448, 0.331796139478683, 0.512752413749695, 0.177742496132851, -0.025173747912049, 0.000000000000000, -0.046462409198284, -0.118760950863361, -0.407026648521423, 0.066374167799950, 0.107862859964371, 0.000000000000000, -0.072617106139660, -0.034710891544819, 0.392708957195282, -0.145474612712860, 0.118681430816650, 0.252827495336533, 0.941805303096771, 0.019278293475509, 0.209904313087463, 0.039325982332230, -0.056088343262672
-0.065802194178104, 0.333883702754974, 0.512686669826508, 0.180769920349121, -0.026644298806787, 0.000000000000000, -0.045864447951317, -0.117297403514385, -0.407453238964081, 0.065230280160904, 0.109571591019630, 0.000000000000000, -0.073414191603661, -0.031990464776754, 0.394489794969559, -0.144823119044304, 0.118224911391735, 0.255989998579025, 0.942853748798370, 0.019842687994242, 0.210148259997368, 0.040149211883545, -0.054590858519077
-0.066136315464973, 0.336268097162247, 0.512531816959381, 0.184029310941696, -0.028201213106513, 0.000000000000000, -0.045083969831467, -0.115562655031681, -0.407958418130875, 0.063733547925949, 0.111532978713512, 0.000000000000000, -0.073978200554848, -0.029414914548397, 0.395686984062195, -0.144028484821320, 0.118063904345036, 0.259721964597702, 0.944133400917053, 0.020512910559773, 0.210471972823143, 0.041176084429026, -0.054522972553968
-0.066655457019806, 0.339005738496780, 0.512258291244507, 0.187438309192657, -0.029827840626240, 0.000000000000000, -0.044104102998972, -0.113524056971073, -0.408559739589691, 0.061868850141764, 0.113743759691715, 0.000000000000000, -0.074188277125359, -0.027495050802827, 0.395898938179016, -0.143160030245781, 0.118342041969299, 0.264083743095398, 0.945635378360748, 0.021301882341504, 0.210874423384666, 0.042443171143532, -0.056559313088655
-0.067429415881634, 0.342151939868927, 0.511833429336548, 0.190921559929848, -0.031512830406427, 0.000000000000000, -0.042785726487637, -0.111147604882717, -0.409267753362656, 0.059655860066414, 0.116189219057560, 0.000000000000000, -0.073908761143684, -0.026915153488517, 0.394656151533127, -0.142231091856956, 0.119176581501961, 0.269130229949951, 0.947375953197479, 0.022221339866519, 0.211365699768066, 0.043985318392515, -0.061318960040808
-0.068499967455864, 0.345727294683456, 0.511234402656555, 0.194416463375092, -0.033251255750656, 0.000000000000000, -0.040899265557528, -0.108395867049694, -0.410082042217255, 0.057132072746754, 0.118840463459492, 0.000000000000000, -0.072998791933060, -0.028482962399721, 0.391428023576736, -0.141166150569916, 0.120696544647217, 0.274922877550125, 0.949400186538696, 0.023283584043384, 0.211969122290611, 0.045840661972761, -0.069272778928280
-0.069973483681679, 0.349643528461456, 0.510477602481842, 0.197851449251175, -0.035051204264164, 0.000000000000000, -0.038261540234089, -0.105224534869194, -0.410990625619888, 0.054321333765984, 0.121651791036129, 0.000000000000000, -0.071334138512611, -0.033057570457458, 0.385627567768097, -0.139789327979088, 0.123129844665527, 0.281555891036987, 0.951764047145844, 0.024506133049726, 0.212713882327080, 0.048062883317471, -0.080680683255196
-0.072131052613258, 0.353701025247574, 0.509643375873566, 0.201079770922661, -0.036943279206753, 0.000000000000000, -0.034729044884443, -0.101472854614258, -0.411982953548431, 0.051298629492521, 0.124575421214104, 0.000000000000000, -0.068887129426003, -0.041493549942970, 0.376675188541412, -0.137734189629555, 0.126838058233261, 0.289173424243927, 0.954560697078705, 0.025914225727320, 0.213646844029427, 0.050728935748339, -0.095450609922409
-0.074846476316452, 0.358065187931061, 0.508757531642914, 0.203958928585052, -0.038876131176949, 0.000000000000000, -0.029890192672610, -0.097057305276394, -0.413070827722549, 0.048259317874908, 0.127678424119949, 0.000000000000000, -0.065794914960861, -0.054650373756886, 0.363807499408722, -0.134583562612534, 0.132195636630058, 0.297911375761032, 0.957861781120300, 0.027531476691365, 0.214806437492371, 0.053912218660116, -0.113537698984146
-0.076607689261436, 0.363489717245102, 0.507650732994080, 0.206687867641449, -0.040622659027576, 0.000000000000000, -0.023068530485034, -0.092264726758003, -0.414281934499741, 0.045402061194181, 0.131198748946190, 0.000000000000000, -0.062380503863096, -0.073465473949909, 0.345564514398575, -0.130202710628510, 0.139394789934158, 0.307796776294708, 0.961586654186249, 0.029364103451371, 0.216164529323578, 0.057636771351099, -0.135793372988701
-0.075259670615196, 0.370545178651810, 0.506111800670624, 0.209770411252975, -0.042154144495726, 0.000000000000000, -0.013836836442351, -0.086263306438923, -0.415670961141586, 0.043191727250814, 0.135167434811592, 0.000000000000000, -0.059853944927454, -0.099060885608196, 0.320164591073990, -0.124045833945274, 0.148467302322388, 0.318829357624054, 0.965859830379486, 0.031408105045557, 0.217782348394394, 0.061908919364214, -0.163401037454605
-0.068899169564247, 0.379175543785095, 0.504025578498840, 0.213851973414421, -0.043525882065296, 0.000000000000000, -0.002883248496801, -0.078630082309246, -0.417224436998367, 0.041670087724924, 0.139414906501770, 0.000000000000000, -0.059647824615240, -0.130421161651611, 0.288176238536835, -0.115874648094177, 0.159098714590073, 0.330847144126892, 0.970686137676239, 0.033630810678005, 0.219666406512260, 0.066657818853855, -0.199548378586769
-0.060863237828016, 0.387250751256943, 0.502133071422577, 0.218047350645065, -0.044856008142233, 0.000000000000000, 0.007924496196210, -0.071627318859100, -0.418695628643036, 0.039860911667347, 0.143604040145874, 0.000000000000000, -0.060822129249573, -0.161318406462669, 0.256332278251648, -0.106675870716572, 0.170414358377457, 0.343375891447067, 0.975581645965576, 0.035951539874077, 0.221603214740753, 0.071670450270176, -0.246322304010391
-0.052755344659090, 0.393990129232407, 0.500694096088409, 0.221918433904648, -0.046206854283810, 0.000000000000000, 0.018052672967315, -0.065830416977406, -0.420048087835312, 0.037659704685211, 0.147551566362381, 0.000000000000000, -0.062644712626934, -0.188682585954666, 0.228115171194077, -0.097662955522537, 0.181491002440453, 0.355887115001678, 0.979986906051636, 0.038278479129076, 0.223341271281242, 0.076703146100044, -0.302063703536987
-0.044474903494120, 0.399579465389252, 0.499593794345856, 0.225499391555786, -0.047599188983440, 0.000000000000000, 0.027767708525062, -0.060958597809076, -0.421348661184311, 0.035418435931206, 0.151196017861366, 0.000000000000000, -0.065066218376160, -0.212492644786835, 0.203541040420532, -0.089533329010010, 0.191651999950409, 0.367967337369919, 0.983573973178864, 0.040532637387514, 0.224727764725685, 0.081555731594563, -0.364346086978912
-0.036222826689482, 0.404101043939590, 0.498767644166946, 0.228740081191063, -0.049046561121941, 0.000000000000000, 0.037221226841211, -0.056973591446877, -0.422642767429352, 0.033343162387609, 0.154493927955627, 0.000000000000000, -0.067974820733070, -0.233159020543098, 0.182033479213715, -0.082582078874111, 0.200438961386681, 0.379308253526688, 0.986209809780121, 0.042648009955883, 0.225693643093109, 0.086069941520691, -0.431258887052536
-0.028458558022976, 0.407544851303101, 0.498202919960022, 0.231531471014023, -0.050542738288641, 0.000000000000000, 0.046384673565626, -0.053894471377134, -0.423966228961945, 0.031519673764706, 0.157403171062469, 0.000000000000000, -0.071142397820950, -0.251014083623886, 0.163099139928818, -0.076926738023758, 0.207553148269653, 0.389674305915833, 0.987876832485199, 0.044569142162800, 0.226219341158867, 0.090118549764156, -0.501267850399017
-0.021649140864611, 0.409927219152451, 0.497898906469345, 0.233766734600067, -0.052047401666641, 0.000000000000000, 0.055096421390772, -0.051686439663172, -0.425347596406937, 0.029973136261106, 0.159887239336967, 0.000000000000000, -0.074356473982334, -0.266324132680893, 0.146413266658783, -0.072595395147800, 0.212826684117317, 0.398889333009720, 0.988647162914276, 0.046250119805336, 0.226324126124382, 0.093601047992706, -0.573115766048431
-0.016123095527291, 0.411315679550171, 0.497854977846146, 0.235389262437820, -0.053469542413950, 0.000000000000000, 0.062993377447128, -0.050228670239449, -0.426811218261719, 0.028671775013208, 0.161916971206665, 0.000000000000000, -0.077549539506435, -0.279334813356400, 0.131858229637146, -0.069578871130943, 0.216228723526001, 0.406829744577408, 0.988664090633392, 0.047654081135988, 0.226058527827263, 0.096440896391869, -0.645681440830231
-0.012018265202641, 0.411861836910248, 0.498060524463654, 0.236420080065727, -0.054705534130335, 0.000000000000000, 0.069587752223015, -0.049357645213604, -0.428371548652649, 0.027578368782997, 0.163479715585709, 0.000000000000000, -0.080812379717827, -0.290259897708893, 0.119555927813053, -0.067820496857166, 0.217823594808578, 0.413415789604187, 0.988128483295441, 0.048752311617136, 0.225499004125595, 0.098582148551941, -0.717828452587128
-0.009399489499629, 0.411839425563812, 0.498495578765869, 0.236906141042709, -0.055731810629368, 0.000000000000000, 0.074605569243431, -0.048918392509222, -0.430017918348312, 0.026797004044056, 0.164606615900993, 0.000000000000000, -0.084232881665230, -0.299247622489929, 0.109807617962360, -0.067094817757607, 0.217645093798637, 0.418604403734207, 0.987310767173767, 0.049523174762726, 0.224753752350807, 0.099987626075745, -0.788352310657501
-0.008383131586015, 0.411526232957840, 0.499162077903748, 0.236878260970116, -0.056588433682919, 0.000000000000000, 0.078009754419327, -0.048675563186407, -0.431723296642303, 0.026572870090604, 0.165366843342781, 0.000000000000000, -0.087798476219177, -0.306346952915192, 0.102987743914127, -0.067042730748653, 0.215726435184479, 0.422392636537552, 0.986506164073944, 0.049954153597355, 0.223944067955017, 0.100641652941704, -0.855992197990417
-0.008834337815642, 0.410797566175461, 0.500131666660309, 0.236541613936424, -0.057277657091618, 0.000000000000000, 0.079363442957401, -0.048824992030859, -0.433399200439453, 0.026880523189902, 0.165792793035507, 0.000000000000000, -0.091817170381546, -0.310297757387161, 0.100005403161049, -0.067029930651188, 0.212176263332367, 0.424845755100250, 0.986103773117065, 0.050043221563101, 0.223236083984375, 0.100558310747147, -0.918829798698425
-0.009816389530897, 0.409277528524399, 0.501444756984711, 0.236446142196655, -0.057737920433283, 0.000000000000000, 0.077993951737881, -0.050420936197042, -0.434852659702301, 0.027319040149450, 0.165864259004593, 0.000000000000000, -0.097232401371002, -0.307974815368652, 0.101845331490040, -0.066093191504478, 0.207201108336449, 0.426124244928360, 0.986615657806396, 0.049803197383881, 0.222855716943741, 0.099795430898666, -0.973111808300018
-0.010355607606471, 0.407523721456528, 0.502899944782257, 0.236895933747292, -0.057960756123066, 0.000000000000000, 0.074913047254086, -0.052769571542740, -0.436055600643158, 0.028261665254831, 0.165725782513618, 0.000000000000000, -0.104046501219273, -0.299768835306168, 0.106401473283768, -0.063940696418285, 0.201150417327881, 0.426407843828201, 0.988224446773529, 0.049266539514065, 0.222891375422478, 0.098439738154411, -1.015697956085205
-0.010805768892169, 0.406237751245499, 0.504376232624054, 0.237560093402863, -0.058041125535965, 0.000000000000000, 0.071363225579262, -0.054696813225746, -0.437053799629211, 0.030041581019759, 0.165510177612305, 0.000000000000000, -0.111589796841145, -0.287982463836670, 0.111334942281246, -0.060913674533367, 0.194552525877953, 0.425898611545563, 0.990727066993713, 0.048487361520529, 0.223270028829575, 0.096609413623810, -1.047343850135803
-0.011509718373418, 0.405760675668716, 0.505820572376251, 0.238138556480408, -0.058095734566450, 0.000000000000000, 0.067779049277306, -0.055903971195221, -0.437805473804474, 0.032429628074169, 0.165233805775642, 0.000000000000000, -0.119505129754543, -0.273659139871597, 0.115733064711094, -0.057205218821764, 0.187789455056190, 0.424807935953140, 0.993955135345459, 0.047522202134132, 0.223935693502426, 0.094429492950439, -1.069819450378418
-0.012347047217190, 0.406171530485153, 0.507185459136963, 0.238528609275818, -0.058204911649227, 0.000000000000000, 0.064199134707451, -0.056495182216167, -0.438230067491531, 0.035043321549892, 0.164895355701447, 0.000000000000000, -0.127713039517403, -0.257062762975693, 0.119379825890064, -0.052788052707911, 0.180970773100853, 0.423320055007935, 0.997872173786163, 0.046419207006693, 0.224888518452644, 0.092009298503399, -1.084610104560852
-0.013076983392239, 0.407282650470734, 0.508470475673676, 0.238716214895248, -0.058399789035320, 0.000000000000000, 0.060600239783525, -0.056583177298307, -0.438271611928940, 0.037621140480042, 0.164547055959702, 0.000000000000000, -0.136213615536690, -0.238325253129005, 0.122364334762096, -0.047637410461903, 0.174073174595833, 0.421593934297562, 1.002465367317200, 0.045222204178572, 0.226138323545456, 0.089446835219860, -1.093060731887817
-0.013509124517441, 0.408738642930984, 0.509719252586365, 0.238745838403702, -0.058677636086941, 0.000000000000000, 0.056927703320980, -0.056341554969549, -0.437906324863434, 0.039996672421694, 0.164236590266228, 0.000000000000000, -0.144965544342995, -0.217645570635796, 0.125012755393982, -0.041832588613033, 0.167093783617020, 0.419779211282730, 1.007661461830139, 0.043976143002510, 0.227669030427933, 0.086838312447071, -1.096399188041687
-0.013535015285015, 0.410187065601349, 0.510981321334839, 0.238705202937126, -0.059025939553976, 0.000000000000000, 0.053153183311224, -0.055991049855947, -0.437141656875610, 0.042073249816895, 0.163980960845947, 0.000000000000000, -0.153817892074585, -0.195447906851768, 0.127745926380157, -0.035543732345104, 0.160137534141541, 0.418028920888901, 1.013311862945557, 0.042729407548904, 0.229432702064514, 0.084283694624901, -1.095741868019104
-0.013142505660653, 0.411365032196045, 0.512289881706238, 0.238690242171288, -0.059431221336126, 0.000000000000000, 0.049318332225084, -0.055695533752441, -0.436017423868179, 0.043807189911604, 0.163781180977821, 0.000000000000000, -0.162512034177780, -0.172423496842384, 0.130945757031441, -0.029025649651885, 0.153445124626160, 0.416495472192764, 1.019196033477783, 0.041531983762980, 0.231350317597389, 0.081882648169994, -1.092069625854492
-0.012405413202941, 0.412154495716095, 0.513643562793732, 0.238758817315102, -0.059869322925806, 0.000000000000000, 0.045520976185799, -0.055548515170813, -0.434597313404083, 0.045172214508057, 0.163637831807137, 0.000000000000000, -0.170734494924545, -0.149504080414772, 0.134852409362793, -0.022646751254797, 0.147349208593369, 0.415310174226761, 1.025020480155945, 0.040430556982756, 0.233309954404831, 0.079722881317139, -1.086211562156677
-0.011430885642767, 0.412583768367767, 0.515001356601715, 0.238911464810371, -0.060295432806015, 0.000000000000000, 0.041924372315407, -0.055591903626919, -0.432958304882050, 0.046146959066391, 0.163550898432732, 0.000000000000000, -0.178164258599281, -0.127779215574265, 0.139467209577560, -0.016838857904077, 0.142199352383614, 0.414571911096573, 1.030445814132690, 0.039464958012104, 0.235177546739578, 0.077873386442661, -1.078880786895752
-0.010342375375330, 0.412690043449402, 0.516316235065460, 0.239102557301521, -0.060644887387753, 0.000000000000000, 0.038761872798204, -0.055767018347979, -0.431191474199295, 0.046731244772673, 0.163508161902428, 0.000000000000000, -0.184493437409401, -0.108317852020264, 0.144544154405594, -0.011971662752330, 0.138274297118187, 0.414345413446426, 1.035148859024048, 0.038665514439344, 0.236823692917824, 0.076381810009480, -1.070740222930908
-0.009279589168727, 0.412444174289703, 0.517555952072144, 0.239254489541054, -0.060839988291264, 0.000000000000000, 0.036247633397579, -0.055991970002651, -0.429392814636230, 0.046926129609346, 0.163477867841721, 0.000000000000000, -0.189462035894394, -0.092012561857700, 0.149696409702301, -0.008292770013213, 0.135713949799538, 0.414656609296799, 1.038873076438904, 0.038050156086683, 0.238144934177399, 0.075270369648933, -1.062451958656311
-0.008355445228517, 0.411837905645370, 0.518681526184082, 0.239274829626083, -0.060808505862951, 0.000000000000000, 0.034508097916842, -0.056306634098291, -0.427641987800598, 0.046706743538380, 0.163415640592575, 0.000000000000000, -0.192888349294662, -0.079563438892365, 0.154513850808144, -0.005942051764578, 0.134528294205666, 0.415497839450836, 1.041442632675171, 0.037624813616276, 0.239069953560829, 0.074537985026836, -1.054657340049744
-0.007639703806490, 0.410924583673477, 0.519641280174255, 0.239080473780632, -0.060496099293232, 0.000000000000000, 0.033626638352871, -0.056786466389894, -0.426004439592361, 0.046056706458330, 0.163280144333839, 0.000000000000000, -0.194654911756516, -0.071523673832417, 0.158643051981926, -0.004966133739799, 0.134679675102234, 0.416849642992020, 1.042753338813782, 0.037388715893030, 0.239556491374969, 0.074172869324684, -1.047867536544800
-0.007174634374678, 0.409787535667419, 0.520386159420013, 0.238613814115524, -0.059877306222916, 0.000000000000000, 0.033678483217955, -0.057429075241089, -0.424537748098373, 0.044998042285442, 0.163044854998589, 0.000000000000000, -0.194693475961685, -0.068274900317192, 0.161870077252388, -0.005338771734387, 0.136117205023766, 0.418693304061890, 1.042763113975525, 0.037338223308325, 0.239587292075157, 0.074161201715469, -1.042343020439148
-0.006946892943233, 0.408491730690002, 0.520884335041046, 0.237859025597572, -0.058960497379303, 0.000000000000000, 0.034693308174610, -0.058148298412561, -0.423288613557816, 0.043583881109953, 0.162697926163673, 0.000000000000000, -0.193020492792130, -0.069914378225803, 0.164156481623650, -0.007007404696196, 0.138790562748909, 0.421015739440918, 1.041467308998108, 0.037469554692507, 0.239159733057022, 0.074492566287518, -1.038062095642090
-0.006849313154817, 0.407063513994217, 0.521123468875885, 0.236854180693626, -0.057784609496593, 0.000000000000000, 0.036593563854694, -0.058890435844660, -0.422279983758926, 0.041860830038786, 0.162234351038933, 0.000000000000000, -0.189775690436363, -0.076168790459633, 0.165620207786560, -0.009917507879436, 0.142625436186790, 0.423805743455887, 1.038887858390808, 0.037778902798891, 0.238281190395355, 0.075159586966038, -1.034786939620972
-0.006730863824487, 0.405492961406708, 0.521111607551575, 0.235674351453781, -0.056411087512970, 0.000000000000000, 0.039194457232952, -0.059720829129219, -0.421505212783813, 0.039848387241364, 0.161651983857155, 0.000000000000000, -0.185186475515366, -0.086467877030373, 0.166490107774734, -0.014002821408212, 0.147452086210251, 0.427038401365280, 1.035083770751953, 0.038258578628302, 0.236972764134407, 0.076149016618729, -1.032152175903320
-0.006538708228618, 0.403707444667816, 0.520891487598419, 0.234380468726158, -0.054916337132454, 0.000000000000000, 0.042305357754230, -0.060705199837685, -0.420947074890137, 0.037579536437988, 0.160961166024208, 0.000000000000000, -0.179482519626617, -0.100122392177582, 0.167056456208229, -0.019190290942788, 0.152987405657768, 0.430661499500275, 1.030140638351440, 0.038893546909094, 0.235264524817467, 0.077432788908482, -1.029725551605225
-0.006240508519113, 0.401616454124451, 0.520515918731689, 0.233032673597336, -0.053375981748104, 0.000000000000000, 0.045807626098394, -0.061892118304968, -0.420576840639114, 0.035097490996122, 0.160189986228943, 0.000000000000000, -0.172883778810501, -0.116436630487442, 0.167589247226715, -0.025370234623551, 0.158905550837517, 0.434603929519653, 1.024162411689758, 0.039662819355726, 0.233191683888435, 0.078970462083817, -1.027043581008911
-0.005752841476351, 0.399187833070755, 0.520020246505737, 0.231687411665916, -0.051855761557817, 0.000000000000000, 0.049707166850567, -0.063254460692406, -0.420356184244156, 0.032447576522827, 0.159377887845039, 0.000000000000000, -0.165609002113342, -0.134820669889450, 0.168268352746964, -0.032378878444433, 0.164894476532936, 0.438786894083023, 1.017268896102905, 0.040542058646679, 0.230794295668602, 0.080715000629425, -1.023658037185669
-0.004860916174948, 0.396523296833038, 0.519393920898438, 0.230402112007141, -0.050412375479937, 0.000000000000000, 0.054080091416836, -0.064727149903774, -0.420235276222229, 0.029620695859194, 0.158537998795509, 0.000000000000000, -0.157898083329201, -0.154744952917099, 0.169185191392899, -0.039988633245230, 0.170634940266609, 0.443123757839203, 1.009617686271667, 0.041503645479679, 0.228126689791679, 0.082613386213779, -1.019161462783813
-0.003340585157275, 0.393832057714462, 0.518598556518555, 0.229190915822983, -0.049085255712271, 0.000000000000000, 0.059062503278255, -0.066162809729576, -0.420169264078140, 0.026590069755912, 0.157667100429535, 0.000000000000000, -0.149966239929199, -0.175743892788887, 0.170402422547340, -0.047967333346605, 0.175811007618904, 0.447516620159149, 1.001390218734741, 0.042516984045506, 0.225251585245132, 0.084606096148491, -1.013205766677856
-0.001134399091825, 0.391391634941101, 0.517597734928131, 0.227977693080902, -0.047897588461637, 0.000000000000000, 0.064847148954868, -0.067317746579647, -0.420135349035263, 0.023394780233502, 0.156785115599632, 0.000000000000000, -0.141943126916885, -0.197494223713875, 0.172009468078613, -0.056169893592596, 0.180175736546516, 0.451858222484589, 0.992746651172638, 0.043550498783588, 0.222220718860626, 0.086629271507263, -1.005509614944458
0.001688803313300, 0.389549344778061, 0.516356706619263, 0.226631999015808, -0.046868115663528, 0.000000000000000, 0.071606442332268, -0.067942246794701, -0.420133173465729, 0.020149288699031, 0.155922845005989, 0.000000000000000, -0.133923768997192, -0.219842106103897, 0.174044683575630, -0.064547769725323, 0.183504879474640, 0.456017374992371, 0.983834862709045, 0.044568881392479, 0.219078466296196, 0.088607326149940, -0.995880246162415
0.004786473698914, 0.388364136219025, 0.514939248561859, 0.224997088313103, -0.046012748032808, 0.000000000000000, 0.079453505575657, -0.067722499370575, -0.420185923576355, 0.017067315056920, 0.155118793249130, 0.000000000000000, -0.126185506582260, -0.242547422647476, 0.175901666283607, -0.073062568902969, 0.185563966631889, 0.459833860397339, 0.974834322929382, 0.045530840754509, 0.215880468487740, 0.090448267757893, -0.984468877315521
0.008428527042270, 0.387372910976410, 0.513470768928528, 0.223319441080093, -0.045309852808714, 0.000000000000000, 0.088169008493423, -0.067108139395714, -0.420219689607620, 0.014169169589877, 0.154355704784393, 0.000000000000000, -0.118938960134983, -0.262933135032654, 0.178630039095879, -0.081099875271320, 0.186022743582726, 0.463178068399429, 0.966245949268341, 0.046390350908041, 0.212821260094643, 0.092063248157501, -0.971377670764923
0.014041909947991, 0.386125564575195, 0.511964082717896, 0.222369953989983, -0.044700987637043, 0.000000000000000, 0.097208537161350, -0.067217953503132, -0.420081764459610, 0.011266139335930, 0.153571337461472, 0.000000000000000, -0.111973784863949, -0.276946663856506, 0.185748219490051, -0.087626680731773, 0.184721291065216, 0.466014206409454, 0.958758592605591, 0.047112297266722, 0.210180386900902, 0.093401342630386, -0.957081913948059
0.020126817747951, 0.384574145078659, 0.510617733001709, 0.221697643399239, -0.044283997267485, 0.000000000000000, 0.106211863458157, -0.067533805966377, -0.419855535030365, 0.008571155369282, 0.152779296040535, 0.000000000000000, -0.106106966733932, -0.287501662969589, 0.192616030573845, -0.092879429459572, 0.181934341788292, 0.468264728784561, 0.952411830425262, 0.047677561640739, 0.207958787679672, 0.094415239989758, -0.945431709289551
0.025868745520711, 0.383150875568390, 0.509458959102631, 0.221046820282936, -0.044138547033072, 0.000000000000000, 0.114869818091393, -0.067524500191212, -0.419611513614655, 0.006284906528890, 0.152000486850739, 0.000000000000000, -0.101141780614853, -0.296287864446640, 0.198285818099976, -0.097278013825417, 0.178246378898621, 0.469949066638947, 0.947109162807465, 0.048090163618326, 0.206105545163155, 0.095111690461636, -0.937661588191986
0.031038083136082, 0.382045835256577, 0.508513152599335, 0.220432594418526, -0.044287744909525, 0.000000000000000, 0.122697770595551, -0.067321285605431, -0.419310480356216, 0.004356809891760, 0.151228234171867, 0.000000000000000, -0.096891753375530, -0.303367137908936, 0.203132778406143, -0.100797072052956, 0.174146994948387, 0.471162766218185, 0.942978143692017, 0.048360794782639, 0.204671740531921, 0.095528982579708, -0.933968663215637
0.035281252115965, 0.381080448627472, 0.507897377014160, 0.219835698604584, -0.044712975621223, 0.000000000000000, 0.129238754510880, -0.066936634480953, -0.418910533189774, 0.002725612837821, 0.150481775403023, 0.000000000000000, -0.093485154211521, -0.308721035718918, 0.206659317016602, -0.103311210870743, 0.170082658529282, 0.472021490335464, 0.940148949623108, 0.048503208905458, 0.203712403774261, 0.095714040100574, -0.934659063816071
0.038449764251709, 0.380233228206635, 0.507667064666748, 0.219207510352135, -0.045349862426519, 0.000000000000000, 0.134151354432106, -0.066582322120667, -0.418343037366867, 0.001315988134593, 0.149806588888168, 0.000000000000000, -0.091120421886444, -0.312275260686874, 0.208416014909744, -0.104574531316757, 0.166401833295822, 0.472641140222549, 0.938786089420319, 0.048529658466578, 0.203299403190613, 0.095711611211300, -0.939777493476868
0.040552362799644, 0.379566967487335, 0.507831275463104, 0.218470662832260, -0.046109370887280, 0.000000000000000, 0.137272566556931, -0.066414363682270, -0.417549937963486, 0.000107424995804, 0.149257600307465, 0.000000000000000, -0.090023532509804, -0.313922047615051, 0.208060026168823, -0.104299508035183, 0.163397446274757, 0.473124921321869, 0.939026296138763, 0.048450417816639, 0.203494384884834, 0.095559008419514, -0.949083983898163
0.041705880314112, 0.379076272249222, 0.508390426635742, 0.217551931738853, -0.046894311904907, 0.000000000000000, 0.138643994927406, -0.066378816962242, -0.416499465703964, -0.000853084609844, 0.148872151970863, 0.000000000000000, -0.090400047600269, -0.313581496477127, 0.205328434705734, -0.102335453033447, 0.161300390958786, 0.473528355360031, 0.940876662731171, 0.048271704465151, 0.204303815960884, 0.095273487269878, -0.962115526199341
0.042134165763855, 0.378735631704330, 0.509332895278931, 0.216399684548378, -0.047592751681805, 0.000000000000000, 0.138494044542313, -0.066341474652290, -0.415168315172195, -0.001486889319494, 0.148648589849472, 0.000000000000000, -0.092410080134869, -0.311219364404678, 0.200076222419739, -0.098722055554390, 0.160122632980347, 0.473819047212601, 0.944225072860718, 0.047989573329687, 0.205682024359703, 0.094835855066776, -0.978267312049866
0.042141307145357, 0.378432303667068, 0.510651648044586, 0.215039208531380, -0.048091489821672, 0.000000000000000, 0.137136951088905, -0.066164322197437, -0.413531184196472, -0.001706821727566, 0.148533537983894, 0.000000000000000, -0.096148222684860, -0.306839317083359, 0.192339807748795, -0.093427620828152, 0.159408330917358, 0.473868191242218, 0.949058592319489, 0.047582004219294, 0.207624524831772, 0.094182252883911, -0.996888697147369
0.042506385594606, 0.377440273761749, 0.512406289577484, 0.213907986879349, -0.048247534781694, 0.000000000000000, 0.134497627615929, -0.066608831286430, -0.411476463079453, -0.001760968472809, 0.148382574319839, 0.000000000000000, -0.102008499205112, -0.298339456319809, 0.183093935251236, -0.086103282868862, 0.158388867974281, 0.473547965288162, 0.955570101737976, 0.047021526843309, 0.210217908024788, 0.093246407806873, -1.016817569732666
0.043982561677694, 0.374977111816406, 0.514658033847809, 0.213544890284538, -0.047939740121365, 0.000000000000000, 0.130171284079552, -0.069327056407928, -0.408849716186523, -0.002209217054769, 0.148011773824692, 0.000000000000000, -0.110431537032127, -0.281898319721222, 0.174874901771545, -0.076731935143471, 0.156654089689255, 0.472843617200851, 0.963684141635895, 0.046310711652040, 0.213442459702492, 0.092029370367527, -1.035464167594910
0.045099120587111, 0.371894091367722, 0.517309486865997, 0.213299766182899, -0.047251205891371, 0.000000000000000, 0.124864540994167, -0.072402969002724, -0.405947178602219, -0.002476082416251, 0.147460877895355, 0.000000000000000, -0.120130248367786, -0.261936068534851, 0.168271526694298, -0.066738009452820, 0.154397025704384, 0.471765369176865, 0.972511291503906, 0.045487467199564, 0.216933816671371, 0.090579725801945, -1.050802946090698
0.045368753373623, 0.369133144617081, 0.520142614841461, 0.212913110852242, -0.046279788017273, 0.000000000000000, 0.119029134511948, -0.075100749731064, -0.402952432632446, -0.002338465070352, 0.146721422672272, 0.000000000000000, -0.130274280905724, -0.241398423910141, 0.163250043988228, -0.057119596749544, 0.151956304907799, 0.470423698425293, 0.981327235698700, 0.044602379202843, 0.220403552055359, 0.088987924158573, -1.062511682510376
0.045129761099815, 0.366913408041000, 0.523003458976746, 0.212571963667870, -0.045144889503717, 0.000000000000000, 0.112760990858078, -0.077828072011471, -0.399896323680878, -0.001931091770530, 0.145776107907295, 0.000000000000000, -0.140618547797203, -0.220418840646744, 0.159876644611359, -0.048173826187849, 0.149438947439194, 0.468931615352631, 0.989809572696686, 0.043692264705896, 0.223735123872757, 0.087328411638737, -1.070939540863037
0.044614233076572, 0.365096092224121, 0.525835096836090, 0.212425008416176, -0.044014904648066, 0.000000000000000, 0.106319636106491, -0.080611787736416, -0.396823078393936, -0.001235039206222, 0.144745588302612, 0.000000000000000, -0.150886580348015, -0.199073314666748, 0.158084183931351, -0.040173817425966, 0.146984845399857, 0.467378020286560, 0.997659981250763, 0.042788006365299, 0.226819917559624, 0.085659272968769, -1.076609730720520
0.043918587267399, 0.363542139530182, 0.528613805770874, 0.212539285421371, -0.042985975742340, 0.000000000000000, 0.099959380924702, -0.083267547190189, -0.393793225288391, -0.000282315479126, 0.143720984458923, 0.000000000000000, -0.160719186067581, -0.177732869982719, 0.157821655273438, -0.033457398414612, 0.144905984401703, 0.465866774320602, 1.004533290863037, 0.041925188153982, 0.229527726769447, 0.084046453237534, -1.080133557319641
0.043050356209278, 0.362216264009476, 0.531313359737396, 0.212941721081734, -0.042080081999302, 0.000000000000000, 0.093915492296219, -0.085608989000320, -0.390862882137299, 0.000831612211186, 0.142742857336998, 0.000000000000000, -0.169708281755447, -0.157097041606903, 0.159022673964500, -0.028302052989602, 0.143593043088913, 0.464520692825317, 1.010128259658813, 0.041142739355564, 0.231746017932892, 0.082565627992153, -1.082144856452942
0.041961092501879, 0.361093610525131, 0.533914029598236, 0.213653951883316, -0.041264697909355, 0.000000000000000, 0.088374666869640, -0.087553456425667, -0.388073265552521, 0.001986208138987, 0.141836851835251, 0.000000000000000, -0.177470788359642, -0.138123497366905, 0.161567822098732, -0.024872824549675, 0.143350005149841, 0.463452011346817, 1.014250159263611, 0.040475070476532, 0.233405768871307, 0.081285983324051, -1.083226680755615
0.040543530136347, 0.360052168369293, 0.536420285701752, 0.214695200324059, -0.040445916354656, 0.000000000000000, 0.083401292562485, -0.089183166623116, -0.385451138019562, 0.003024888224900, 0.141011700034142, 0.000000000000000, -0.183695033192635, -0.121798761188984, 0.165319904685020, -0.023248104378581, 0.144291535019875, 0.462734967470169, 1.016810059547424, 0.039946030825377, 0.234479561448097, 0.080255880951881, -1.083880305290222
0.038611482828856, 0.358875483274460, 0.538860440254211, 0.216054022312164, -0.039490118622780, 0.000000000000000, 0.078940048813820, -0.090786814689636, -0.383010476827621, 0.003753151278943, 0.140252262353897, 0.000000000000000, -0.188133731484413, -0.108889386057854, 0.170145958662033, -0.023453610017896, 0.146349057555199, 0.462400734424591, 1.017792940139771, 0.039567761123180, 0.234968110918999, 0.079499423503876, -1.084542632102966
0.035939075052738, 0.357363581657410, 0.541259825229645, 0.217660158872604, -0.038273777812719, 0.000000000000000, 0.074909187853336, -0.092733494937420, -0.380763620138168, 0.003989354707301, 0.139528959989548, 0.000000000000000, -0.190591692924500, -0.099897406995296, 0.175870329141617, -0.025458548218012, 0.149353176355362, 0.462451964616776, 1.017238378524780, 0.039343375712633, 0.234891906380653, 0.079022526741028, -1.085591793060303
0.032426111400127, 0.355469733476639, 0.543600916862488, 0.219404056668282, -0.036721937358379, 0.000000000000000, 0.071323700249195, -0.095196105539799, -0.378739893436432, 0.003651404287666, 0.138818889856339, 0.000000000000000, -0.190969362854958, -0.095192253589630, 0.182170078158379, -0.029169380664825, 0.153163105249405, 0.462890148162842, 1.015214323997498, 0.039273001253605, 0.234281197190285, 0.078826747834682, -1.087307929992676
0.028253419324756, 0.353323042392731, 0.545809566974640, 0.221191957592964, -0.034831911325455, 0.000000000000000, 0.068333484232426, -0.098055414855480, -0.376983880996704, 0.002801105845720, 0.138129130005836, 0.000000000000000, -0.189337447285652, -0.095037996768951, 0.188523367047310, -0.034432791173458, 0.157734662294388, 0.463732689619064, 1.011793732643127, 0.039358172565699, 0.233166217803955, 0.078918986022472, -1.089807510375977
0.023805161938071, 0.351122647523880, 0.547790884971619, 0.222970217466354, -0.032668855041265, 0.000000000000000, 0.066134050488472, -0.101021163165569, -0.375542014837265, 0.001619048998691, 0.137508884072304, 0.000000000000000, -0.185934051871300, -0.099476918578148, 0.194321632385254, -0.041042003780603, 0.163060337305069, 0.465002536773682, 1.007052421569824, 0.039600227028131, 0.231576472520828, 0.079307533800602, -1.093006968498230
0.019425367936492, 0.349043577909470, 0.549477934837341, 0.224703595042229, -0.030316930264235, 0.000000000000000, 0.064820013940334, -0.103782586753368, -0.374456584453583, 0.000324284803355, 0.137033954262733, 0.000000000000000, -0.181073069572449, -0.108237259089947, 0.199089735746384, -0.048768591135740, 0.169073089957237, 0.466706722974777, 1.001073598861694, 0.039996035397053, 0.229541808366776, 0.079991832375526, -1.096654176712036
0.015262426808476, 0.347205877304077, 0.550854980945587, 0.226351916790009, -0.027836790308356, 0.000000000000000, 0.064272664487362, -0.106193065643311, -0.373749345541000, -0.000934127485380, 0.136782556772232, 0.000000000000000, -0.175060823559761, -0.120744749903679, 0.202636420726776, -0.057393636554480, 0.175626441836357, 0.468827396631241, 0.993945658206940, 0.040536608546972, 0.227091446518898, 0.080958671867847, -1.100390553474426
0.011290892027318, 0.345635265111923, 0.551957190036774, 0.227883696556091, -0.025287721306086, 0.000000000000000, 0.064222447574139, -0.108224101364613, -0.373419284820557, -0.002091899048537, 0.136810764670372, 0.000000000000000, -0.168169870972633, -0.136248961091042, 0.205055043101311, -0.066718623042107, 0.182484954595566, 0.471318244934082, 0.985770285129547, 0.041206501424313, 0.224257618188858, 0.082180656492710, -1.103793144226074
0.007432060781866, 0.344278037548065, 0.552846312522888, 0.229305967688560, -0.022753274068236, 0.000000000000000, 0.064391084015369, -0.109879754483700, -0.373441308736801, -0.003146493807435, 0.137135043740273, 0.000000000000000, -0.160637557506561, -0.153982535004616, 0.206650078296661, -0.076549932360649, 0.189333111047745, 0.474109917879105, 0.976677238941193, 0.041985165327787, 0.221082121133804, 0.083619743585587, -1.106385350227356
0.003637385088950, 0.343104928731918, 0.553576052188873, 0.230657815933228, -0.020324271172285, 0.000000000000000, 0.064601302146912, -0.111176960170269, -0.373762518167496, -0.004130596294999, 0.137747406959534, 0.000000000000000, -0.152664437890053, -0.173302143812180, 0.207831755280495, -0.086650401353836, 0.195809096097946, 0.477125376462936, 0.966846942901611, 0.042849700897932, 0.217626735568047, 0.085234791040421, -1.107653498649597
-0.000062461731432, 0.342209935188293, 0.554162025451660, 0.231979817152023, -0.018084650859237, 0.000000000000000, 0.064761422574520, -0.112162388861179, -0.374308913946152, -0.005110386293381, 0.138625115156174, 0.000000000000000, -0.144449189305305, -0.193709090352058, 0.209041565656662, -0.096742160618305, 0.201516315340996, 0.480283647775650, 0.956518352031708, 0.043775457888842, 0.213977247476578, 0.086983308196068, -1.107074499130249
-0.003579118987545, 0.341812342405319, 0.554585158824921, 0.233276695013046, -0.016109455376863, 0.000000000000000, 0.064938552677631, -0.112644851207733, -0.375030577182770, -0.006032157689333, 0.139793679118156, 0.000000000000000, -0.136195108294487, -0.214912369847298, 0.210629299283028, -0.106632150709629, 0.206273391842842, 0.483535110950470, 0.945894002914429, 0.044744357466698, 0.210203513503075, 0.088838189840317, -1.104187846183777
-0.006925329566002, 0.342354029417038, 0.554793059825897, 0.234421983361244, -0.014469165354967, 0.000000000000000, 0.065264210104942, -0.112276755273342, -0.375908315181732, -0.006731922272593, 0.141310378909111, 0.000000000000000, -0.128102928400040, -0.236915364861488, 0.212851390242577, -0.116284914314747, 0.209962308406830, 0.486804753541946, 0.935162425041199, 0.045734252780676, 0.206367403268814, 0.090760044753551, -1.098648905754089
-0.010596327483654, 0.344255566596985, 0.554802417755127, 0.235079571604729, -0.013226186856627, 0.000000000000000, 0.065876334905624, -0.110404245555401, -0.376967489719391, -0.006895963102579, 0.143260940909386, 0.000000000000000, -0.120474688708782, -0.260015964508057, 0.215105250477791, -0.125795185565948, 0.212460294365883, 0.489949077367783, 0.924537539482117, 0.046709984540939, 0.202538192272186, 0.092673547565937, -1.090600490570068
-0.014341366477311, 0.347277402877808, 0.554699242115021, 0.235358566045761, -0.012357343919575, 0.000000000000000, 0.066338405013084, -0.107155255973339, -0.378140419721603, -0.006523259449750, 0.145682051777840, 0.000000000000000, -0.113709025084972, -0.281588673591614, 0.218076720833778, -0.134274959564209, 0.213556453585625, 0.492877930402756, 0.914804875850677, 0.047622818499804, 0.199031174182892, 0.094499081373215, -1.080215454101562
-0.015952078625560, 0.350811839103699, 0.554439902305603, 0.236238136887550, -0.011728925630450, 0.000000000000000, 0.065520353615284, -0.104051120579243, -0.379213809967041, -0.006168190389872, 0.148533880710602, 0.000000000000000, -0.108134768903255, -0.295507520437241, 0.225109368562698, -0.139679968357086, 0.213320970535278, 0.495680958032608, 0.907286882400513, 0.048429951071739, 0.196397572755814, 0.096205636858940, -1.067773222923279
-0.016889413818717, 0.355112880468369, 0.554159879684448, 0.237122058868408, -0.011466157622635, 0.000000000000000, 0.063362866640091, -0.100002974271774, -0.380295246839523, -0.005566702224314, 0.151891186833382, 0.000000000000000, -0.104368120431900, -0.304910659790039, 0.230806186795235, -0.142590418457985, 0.212064817547798, 0.498077452182770, 0.902003586292267, 0.049076922237873, 0.194618970155716, 0.097642906010151, -1.057471990585327
-0.018255637958646, 0.360653400421143, 0.553885102272034, 0.237512096762657, -0.011701598763466, 0.000000000000000, 0.060125578194857, -0.094295464456081, -0.381445556879044, -0.004598311148584, 0.155761286616325, 0.000000000000000, -0.101999662816525, -0.312343150377274, 0.234345570206642, -0.144318476319313, 0.210363537073135, 0.499778807163239, 0.898450195789337, 0.049528490751982, 0.193452939391136, 0.098677739500999, -1.050327897071838
-0.020007414743304, 0.367265403270721, 0.553632438182831, 0.237473577260971, -0.012480588629842, 0.000000000000000, 0.056225806474686, -0.087333343923092, -0.382558256387711, -0.003472937736660, 0.160014346241951, 0.000000000000000, -0.100610151886940, -0.318171322345734, 0.236541986465454, -0.145320802927017, 0.208589658141136, 0.500650882720947, 0.896423161029816, 0.049765866249800, 0.192794471979141, 0.099241547286510, -1.046042680740356
-0.021848004311323, 0.374409288167953, 0.553464233875275, 0.237198114395142, -0.013793736696243, 0.000000000000000, 0.052417490631342, -0.079954065382481, -0.383444577455521, -0.002416371135041, 0.164430424571037, 0.000000000000000, -0.099945046007633, -0.322312355041504, 0.237273842096329, -0.145492494106293, 0.206703364849091, 0.500634849071503, 0.895907163619995, 0.049779314547777, 0.192628964781761, 0.099305152893066, -1.044545173645020
-0.023372348397970, 0.381471991539001, 0.553452908992767, 0.236884534358978, -0.015599687583745, 0.000000000000000, 0.049499385058880, -0.072973579168320, -0.383918374776840, -0.001562504330650, 0.168749362230301, 0.000000000000000, -0.099780537188053, -0.324340194463730, 0.236314907670021, -0.144492983818054, 0.204372540116310, 0.499730765819550, 0.896954774856567, 0.049569427967072, 0.192981317639351, 0.098875820636749, -1.045762062072754
-0.024231815710664, 0.387844532728195, 0.553687870502472, 0.236689358949661, -0.017840502783656, 0.000000000000000, 0.047908034175634, -0.066893704235554, -0.383863925933838, -0.000945865816902, 0.172720640897751, 0.000000000000000, -0.100059837102890, -0.323793888092041, 0.233526781201363, -0.141981855034828, 0.201306849718094, 0.498025625944138, 0.899648070335388, 0.049150343984365, 0.193897560238838, 0.098002769052982, -1.049655675888062
-0.024214668199420, 0.393094688653946, 0.554245293140411, 0.236691489815712, -0.020427895709872, 0.000000000000000, 0.047550022602081, -0.062010314315557, -0.383240729570389, -0.000543123052921, 0.176143884658813, 0.000000000000000, -0.100926771759987, -0.320349007844925, 0.228972256183624, -0.137742653489113, 0.197504073381424, 0.495702445507050, 0.904064059257507, 0.048550423234701, 0.195427492260933, 0.096775196492672, -1.056192159652710
-0.023210301995277, 0.397105991840363, 0.555151402950287, 0.236892223358154, -0.023224409669638, 0.000000000000000, 0.047980777919292, -0.058413479477167, -0.382072836160660, -0.000256696308497, 0.178894847631454, 0.000000000000000, -0.102648444473743, -0.314041644334793, 0.222976937890053, -0.131678774952888, 0.192988336086273, 0.492933034896851, 0.910298764705658, 0.047795809805393, 0.197629824280739, 0.095274053514004, -1.065267324447632
-0.021173017099500, 0.399981081485748, 0.556392729282379, 0.237256601452827, -0.026046860963106, 0.000000000000000, 0.048696517944336, -0.055931940674782, -0.380430430173874, 0.000092252259492, 0.180933550000191, 0.000000000000000, -0.105521634221077, -0.305273592472076, 0.215806707739830, -0.123844377696514, 0.187737867236137, 0.489835977554321, 0.918373882770538, 0.046907268464565, 0.200531035661697, 0.093556843698025, -1.076712012290955
-0.018345633521676, 0.401742160320282, 0.558000326156616, 0.237703129649162, -0.028710126876831, 0.000000000000000, 0.049204699695110, -0.054439794272184, -0.378375291824341, 0.000627132074442, 0.182282492518425, 0.000000000000000, -0.109949834644794, -0.294155329465866, 0.207322910428047, -0.114368811249733, 0.181811660528183, 0.486513108015060, 0.928154110908508, 0.045907590538263, 0.204091906547546, 0.091674737632275, -1.090253114700317
-0.014695917256176, 0.402378499507904, 0.559972345829010, 0.238316580653191, -0.031027769669890, 0.000000000000000, 0.049159508198500, -0.054078873246908, -0.375918388366699, 0.001349630416371, 0.182989433407784, 0.000000000000000, -0.115955352783203, -0.279369920492172, 0.199573814868927, -0.103380523622036, 0.175409600138664, 0.483084440231323, 0.939360082149506, 0.044827021658421, 0.208213999867439, 0.089688882231712, -1.104055643081665
-0.009497187100351, 0.402354478836060, 0.562104105949402, 0.239388123154640, -0.032848846167326, 0.000000000000000, 0.048779297620058, -0.054501894861460, -0.373103797435760, 0.002424515318125, 0.183145448565483, 0.000000000000000, -0.122526682913303, -0.260043829679489, 0.196166962385178, -0.091375038027763, 0.168830946087837, 0.479631900787354, 0.951427876949310, 0.043699476867914, 0.212676972150803, 0.087651938199997, -1.114834785461426
-0.004360899794847, 0.402042150497437, 0.564447164535522, 0.240349501371384, -0.034189846366644, 0.000000000000000, 0.047931943088770, -0.055334944278002, -0.370032936334610, 0.003748579183593, 0.182782784104347, 0.000000000000000, -0.129962369799614, -0.238221690058708, 0.193832769989967, -0.079549238085747, 0.162282720208168, 0.476103633642197, 0.963442146778107, 0.042548380792141, 0.217104807496071, 0.085567072033882, -1.122606754302979
0.000353574199835, 0.401771485805511, 0.566896975040436, 0.241174548864365, -0.035141661763191, 0.000000000000000, 0.046699844300747, -0.056304160505533, -0.366791874170303, 0.005245631560683, 0.181942880153656, 0.000000000000000, -0.137957826256752, -0.215537503361702, 0.191667169332504, -0.068552933633327, 0.155958920717239, 0.472523957490921, 0.974768280982971, 0.041400596499443, 0.221244141459465, 0.083462893962860, -1.127529144287109
0.004838345106691, 0.401449084281921, 0.569369614124298, 0.242175936698914, -0.035856954753399, 0.000000000000000, 0.045320801436901, -0.057319946587086, -0.363448828458786, 0.006892523728311, 0.180701524019241, 0.000000000000000, -0.145914137363434, -0.192365586757660, 0.190158173441887, -0.058612570166588, 0.150174319744110, 0.468999803066254, 0.985004544258118, 0.040289901196957, 0.224943399429321, 0.081398829817772, -1.129671931266785
0.008937122300267, 0.400859355926514, 0.571853995323181, 0.243546709418297, -0.036409646272659, 0.000000000000000, 0.043821729719639, -0.058573223650455, -0.360065519809723, 0.008558744564652, 0.179121404886246, 0.000000000000000, -0.153353691101074, -0.169200256466866, 0.189328968524933, -0.049941111356020, 0.145230889320374, 0.465640068054199, 0.993846833705902, 0.039249431341887, 0.228091135621071, 0.079436354339123, -1.129500746726990
0.012326847761869, 0.399824529886246, 0.574358880519867, 0.245350643992424, -0.036819111555815, 0.000000000000000, 0.042092762887478, -0.060231387615204, -0.356728732585907, 0.010105242021382, 0.177263930439949, 0.000000000000000, -0.159819528460503, -0.146770656108856, 0.189222663640976, -0.042705703526735, 0.141432896256447, 0.462568104267120, 1.001092553138733, 0.038314502686262, 0.230618029832840, 0.077646553516388, -1.127619504928589
0.014619425870478, 0.398238360881805, 0.576888263225555, 0.247478142380714, -0.037092220038176, 0.000000000000000, 0.039999864995480, -0.062312442809343, -0.353554964065552, 0.011457918211818, 0.175213798880577, 0.000000000000000, -0.164936229586601, -0.125841826200485, 0.189976692199707, -0.036983329802752, 0.139098152518272, 0.459926158189774, 1.006646633148193, 0.037522938102484, 0.232499092817307, 0.076111383736134, -1.124639868736267
0.015625681728125, 0.396204739809036, 0.579376339912415, 0.249646127223969, -0.037187751382589, 0.000000000000000, 0.037449095398188, -0.064735241234303, -0.350671082735062, 0.012603105977178, 0.173077091574669, 0.000000000000000, -0.168548017740250, -0.107227899134159, 0.191634118556976, -0.032780382782221, 0.138478145003319, 0.457850813865662, 1.010519266128540, 0.036909721791744, 0.233752205967903, 0.074910774827003, -1.121126651763916
0.015552254393697, 0.393995851278305, 0.581672966480255, 0.251497387886047, -0.036990493535995, 0.000000000000000, 0.034528147429228, -0.067313872277737, -0.348197340965271, 0.013588367961347, 0.170959547162056, 0.000000000000000, -0.170746326446533, -0.091822393238544, 0.193926140666008, -0.030015287920833, 0.139641448855400, 0.456444889307022, 1.012831687927246, 0.036500312387943, 0.234439462423325, 0.074107080698013, -1.117588520050049
0.014873852021992, 0.391826450824738, 0.583611607551575, 0.252735644578934, -0.036352563649416, 0.000000000000000, 0.031580556184053, -0.069804757833481, -0.346228033304214, 0.014493747614324, 0.168940916657448, 0.000000000000000, -0.171721026301384, -0.080430142581463, 0.196325525641441, -0.028500564396381, 0.142430514097214, 0.455763548612595, 1.013788700103760, 0.036307234317064, 0.234655424952507, 0.073736391961575, -1.114460825920105
0.014005823992193, 0.389745384454727, 0.585079371929169, 0.253209233283997, -0.035169817507267, 0.000000000000000, 0.029063999652863, -0.072058595716953, -0.344813972711563, 0.015370279550552, 0.167065963149071, 0.000000000000000, -0.171568006277084, -0.073632426559925, 0.198309853672981, -0.028023913502693, 0.146514713764191, 0.455807268619537, 1.013595581054688, 0.036329656839371, 0.234490916132927, 0.073804356157780, -1.112073898315430
0.013069957494736, 0.387718528509140, 0.586033880710602, 0.252908885478973, -0.033430598676205, 0.000000000000000, 0.027300309389830, -0.074177823960781, -0.343950837850571, 0.016176821663976, 0.165332168340683, 0.000000000000000, -0.170202210545540, -0.071801096200943, 0.199567094445229, -0.028458539396524, 0.151482552289963, 0.456522434949875, 1.012375116348267, 0.036554902791977, 0.233997508883476, 0.074286565184593, -1.110625863075256
0.012025787495077, 0.385623663663864, 0.586494088172913, 0.251984119415283, -0.031195957213640, 0.000000000000000, 0.026385664939880, -0.076272577047348, -0.343616217374802, 0.016809953376651, 0.163652792572975, 0.000000000000000, -0.167472273111343, -0.075073398649693, 0.199980959296227, -0.029801806434989, 0.156968384981155, 0.457823812961578, 1.010132670402527, 0.036964099854231, 0.233172923326492, 0.075140595436096, -1.110170245170593
0.010752552188933, 0.383276253938675, 0.586528062820435, 0.250668019056320, -0.028570588678122, 0.000000000000000, 0.026242824271321, -0.078539825975895, -0.343758076429367, 0.017147094011307, 0.161926016211510, 0.000000000000000, -0.163235068321228, -0.083316378295422, 0.199610397219658, -0.032109417021275, 0.162642940878868, 0.459605753421783, 1.006813406944275, 0.037533752620220, 0.231986239552498, 0.076311789453030, -1.110593795776367
0.009112332947552, 0.380464434623718, 0.586235284805298, 0.249214172363281, -0.025664847344160, 0.000000000000000, 0.026742881163955, -0.081230677664280, -0.344302117824554, 0.017104523256421, 0.160094603896141, 0.000000000000000, -0.157403752207756, -0.096163809299469, 0.198643848299980, -0.035441536456347, 0.168196573853493, 0.461754739284515, 1.002358078956604, 0.038238041102886, 0.230402588844299, 0.077740781009197, -1.111612915992737
0.006993927061558, 0.377009034156799, 0.585718095302582, 0.247853919863701, -0.022576805204153, 0.000000000000000, 0.027757938951254, -0.084553748369217, -0.345171600580215, 0.016644036397338, 0.158144265413284, 0.000000000000000, -0.149986237287521, -0.113078065216541, 0.197349667549133, -0.039833415299654, 0.173358410596848, 0.464164853096008, 0.996730029582977, 0.039052262902260, 0.228395104408264, 0.079372666776180, -1.112787365913391
0.004353042691946, 0.372826308012009, 0.585054755210876, 0.246769979596138, -0.019400747492909, 0.000000000000000, 0.029194563627243, -0.088589392602444, -0.346300870180130, 0.015776989981532, 0.156088992953300, 0.000000000000000, -0.141112372279167, -0.133373841643333, 0.196038559079170, -0.045239720493555, 0.177921652793884, 0.466751098632812, 0.989942193031311, 0.039954710751772, 0.225957289338112, 0.081162601709366, -1.113550901412964
0.001247043954208, 0.367976754903793, 0.584279537200928, 0.246074229478836, -0.016223942860961, 0.000000000000000, 0.031014142557979, -0.093194790184498, -0.347648441791534, 0.014591014012694, 0.153974428772926, 0.000000000000000, -0.131056770682335, -0.156242504715919, 0.195043697953224, -0.051520258188248, 0.181773990392685, 0.469453543424606, 0.982066690921783, 0.040926788002253, 0.223106890916824, 0.083076588809490, -1.113268613815308
-0.002138286363333, 0.362743616104126, 0.583360314369202, 0.245778262615204, -0.013105692341924, 0.000000000000000, 0.033129900693893, -0.098080970346928, -0.349195510149002, 0.013197974301875, 0.151860594749451, 0.000000000000000, -0.120250105857849, -0.180826842784882, 0.194735184311867, -0.058505717664957, 0.184853911399841, 0.472217977046967, 0.973234057426453, 0.041949052363634, 0.219885393977165, 0.085081301629543, -1.111313939094543
-0.005582159385085, 0.357603996992111, 0.582216322422028, 0.245764479041100, -0.010086669586599, 0.000000000000000, 0.035429600626230, -0.102829463779926, -0.350949227809906, 0.011748000048101, 0.149820774793625, 0.000000000000000, -0.109195828437805, -0.206352755427361, 0.195523634552956, -0.066083230078220, 0.187122523784637, 0.474974870681763, 0.963616669178009, 0.042997870594263, 0.216349601745605, 0.087134212255478, -1.107131838798523
-0.009002164937556, 0.353154629468918, 0.580761075019836, 0.245763659477234, -0.007198616396636, 0.000000000000000, 0.037845268845558, -0.106962881982327, -0.352935343980789, 0.010456256568432, 0.147964060306549, 0.000000000000000, -0.098352350294590, -0.232295081019402, 0.197801902890205, -0.074229061603546, 0.188496783375740, 0.477608621120453, 0.953436136245728, 0.044039800763130, 0.212574273347855, 0.089168436825275, -1.100295662879944
-0.012702741660178, 0.349921315908432, 0.578979432582855, 0.245349824428558, -0.004478435497731, 0.000000000000000, 0.040461260825396, -0.109784416854382, -0.355203509330750, 0.009684015996754, 0.146447762846947, 0.000000000000000, -0.088108323514462, -0.258548855781555, 0.201395094394684, -0.082909300923347, 0.188774988055229, 0.479931473731995, 0.943024933338165, 0.045025296509266, 0.208676934242249, 0.091077238321304, -1.090741634368896
-0.016446338966489, 0.347808241844177, 0.576936066150665, 0.244481429457664, -0.001915585598908, 0.000000000000000, 0.042982976883650, -0.111234590411186, -0.357711166143417, 0.009539311751723, 0.145385995507240, 0.000000000000000, -0.078951366245747, -0.282838046550751, 0.206759348511696, -0.091383829712868, 0.187589004635811, 0.481751352548599, 0.933148562908173, 0.045888755470514, 0.204959705471992, 0.092731945216656, -1.078344702720642
-0.018495535477996, 0.346113920211792, 0.574654221534729, 0.243905261158943, 0.000585884845350, 0.000000000000000, 0.044339634478092, -0.112697906792164, -0.360248714685440, 0.009510507807136, 0.144790276885033, 0.000000000000000, -0.071551881730556, -0.299640417098999, 0.215793192386627, -0.098106153309345, 0.184770792722702, 0.482987612485886, 0.924917638301849, 0.046569827944040, 0.201876193284988, 0.094035007059574, -1.063199520111084
-0.019807636737823, 0.344962865114212, 0.572265744209290, 0.243234336376190, 0.002921084174886, 0.000000000000000, 0.044466052204370, -0.113464489579201, -0.362865030765533, 0.009786346927285, 0.144759401679039, 0.000000000000000, -0.066228345036507, -0.311134994029999, 0.224616810679436, -0.103070080280304, 0.180672511458397, 0.483474314212799, 0.918547213077545, 0.047025695443153, 0.199493899941444, 0.094879508018494, -1.048974752426147
-0.021634098142385, 0.344785392284393, 0.569851458072662, 0.241968914866447, 0.004937601275742, 0.000000000000000, 0.043538853526115, -0.112771637737751, -0.365613132715225, 0.010526303201914, 0.145357385277748, 0.000000000000000, -0.062602289021015, -0.319968849420547, 0.231610789895058, -0.107027024030685, 0.175983712077141, 0.483086109161377, 0.913692235946655, 0.047242090106010, 0.197645395994186, 0.095201596617699, -1.037298440933228
-0.024172510951757, 0.345474451780319, 0.567474722862244, 0.240154281258583, 0.006563432049006, 0.000000000000000, 0.041558109223843, -0.110843747854233, -0.368405103683472, 0.011531012132764, 0.146552741527557, 0.000000000000000, -0.060487452894449, -0.326530575752258, 0.236477166414261, -0.110207878053188, 0.171265378594398, 0.481822878122330, 0.910166263580322, 0.047222591936588, 0.196240320801735, 0.094996571540833, -1.028460144996643
-0.027256129309535, 0.346682548522949, 0.565208733081818, 0.237987548112869, 0.007773896213621, 0.000000000000000, 0.038684137165546, -0.108335383236408, -0.371079295873642, 0.012549150735140, 0.148268967866898, 0.000000000000000, -0.059859212487936, -0.330683678388596, 0.238835796713829, -0.112280800938606, 0.166673481464386, 0.479748964309692, 0.908094346523285, 0.046974021941423, 0.195328518748283, 0.094287909567356, -1.022673249244690
-0.030623808503151, 0.348156213760376, 0.563098549842834, 0.235615983605385, 0.008555248379707, 0.000000000000000, 0.035244967788458, -0.105828031897545, -0.373485267162323, 0.013440160080791, 0.150417670607567, 0.000000000000000, -0.060701243579388, -0.332268267869949, 0.238619148731232, -0.112778432667255, 0.162185475230217, 0.476989507675171, 0.907725572586060, 0.046511378139257, 0.195019379258156, 0.093130193650723, -1.019999384880066
-0.033982779830694, 0.349789708852768, 0.561154544353485, 0.233118981122971, 0.008881155401468, 0.000000000000000, 0.031541742384434, -0.103557571768761, -0.375539183616638, 0.014190096408129, 0.152906209230423, 0.000000000000000, -0.063033983111382, -0.331208497285843, 0.235940024256706, -0.111411377787590, 0.157941535115242, 0.473766863346100, 0.909240722656250, 0.045868556946516, 0.195400506258011, 0.091628380119801, -1.020425438880920
-0.037109497934580, 0.351546049118042, 0.559382081031799, 0.230525687336922, 0.008732324466109, 0.000000000000000, 0.027726646512747, -0.101432129740715, -0.377228558063507, 0.014875919558108, 0.155652821063995, 0.000000000000000, -0.066886194050312, -0.327443838119507, 0.230944707989693, -0.108142241835594, 0.154356718063354, 0.470395803451538, 0.912654459476471, 0.045099906623363, 0.196495458483696, 0.089935906231403, -1.023910641670227
-0.039909902960062, 0.353465229272842, 0.557789027690887, 0.227827221155167, 0.008123987354338, 0.000000000000000, 0.023809300735593, -0.099225595593452, -0.378580868244171, 0.015629496425390, 0.158611327409744, 0.000000000000000, -0.072261944413185, -0.320979982614517, 0.223881229758263, -0.103077530860901, 0.151744574308395, 0.467147558927536, 0.917886137962341, 0.044257421046495, 0.198287680745125, 0.088191367685795, -1.030335664749146
-0.042344525456429, 0.355646342039108, 0.556376516819000, 0.225015386939049, 0.007107060868293, 0.000000000000000, 0.019717494025826, -0.096716798841953, -0.379637092351913, 0.016592806205153, 0.161763548851013, 0.000000000000000, -0.079179070889950, -0.311925679445267, 0.215021669864655, -0.096355751156807, 0.150050923228264, 0.464141547679901, 0.924824774265289, 0.043370924890041, 0.200744211673737, 0.086465202271938, -1.039469480514526
-0.044388450682163, 0.358024030923843, 0.555172920227051, 0.222145840525627, 0.005755423102528, 0.000000000000000, 0.015266434289515, -0.093896359205246, -0.380419462919235, 0.017807943746448, 0.165084198117256, 0.000000000000000, -0.087903723120689, -0.300150781869888, 0.204166322946548, -0.088017202913761, 0.148887172341347, 0.461352854967117, 0.933372735977173, 0.042445898056030, 0.203834414482117, 0.084757313132286, -1.051079630851746
-0.045492742210627, 0.360391169786453, 0.554164886474609, 0.219548895955086, 0.004166794475168, 0.000000000000000, 0.010251549072564, -0.091175198554993, -0.380898505449295, 0.019172109663486, 0.168528154492378, 0.000000000000000, -0.098518542945385, -0.284008413553238, 0.193142652511597, -0.077950663864613, 0.147835806012154, 0.458730608224869, 0.943419873714447, 0.041482172906399, 0.207523450255394, 0.083050630986691, -1.063491106033325
-0.044845245778561, 0.362982332706451, 0.553190708160400, 0.217593044042587, 0.002406871411949, 0.000000000000000, 0.004897154867649, -0.088581763207912, -0.381097495555878, 0.020756432786584, 0.172083452343941, 0.000000000000000, -0.109998360276222, -0.262165635824203, 0.186515182256699, -0.066490665078163, 0.146670728921890, 0.456214785575867, 0.954550027847290, 0.040486641228199, 0.211646646261215, 0.081331580877304, -1.073084354400635
-0.044012993574142, 0.366136968135834, 0.552288293838501, 0.215724363923073, 0.000407528743381, 0.000000000000000, -0.000578914652579, -0.085541047155857, -0.381173461675644, 0.022692179307342, 0.175764724612236, 0.000000000000000, -0.122517302632332, -0.237576678395271, 0.181228682398796, -0.054882351309061, 0.145342096686363, 0.453685581684113, 0.965882182121277, 0.039470221847296, 0.215838983654976, 0.079574160277843, -1.080025196075439
-0.043326083570719, 0.370183736085892, 0.551362693309784, 0.213878035545349, -0.001835813280195, 0.000000000000000, -0.006170798558742, -0.081840604543686, -0.381246179342270, 0.024937814101577, 0.179570958018303, 0.000000000000000, -0.135796949267387, -0.212094694375992, 0.176766306161880, -0.043865840882063, 0.143931612372398, 0.451147705316544, 0.976805508136749, 0.038456860929728, 0.219855815172195, 0.077802874147892, -1.084516882896423
-0.042653482407331, 0.375041604042053, 0.550364255905151, 0.212240368127823, -0.004272935912013, 0.000000000000000, -0.011982352472842, -0.077592298388481, -0.381384789943695, 0.027321735396981, 0.183481812477112, 0.000000000000000, -0.149296224117279, -0.186142385005951, 0.173959836363792, -0.033685646951199, 0.142525851726532, 0.448679029941559, 0.987024247646332, 0.037474654614925, 0.223590061068535, 0.076069019734859, -1.086632013320923
-0.042037155479193, 0.380362838506699, 0.549321949481964, 0.210955902934074, -0.006845174357295, 0.000000000000000, -0.017920080572367, -0.072965398430824, -0.381635606288910, 0.029688673093915, 0.187465429306030, 0.000000000000000, -0.162549585103989, -0.160258069634438, 0.172791287302971, -0.024501640349627, 0.141223669052124, 0.446364253759384, 0.996348440647125, 0.036551110446453, 0.226979240775108, 0.074426136910915, -1.086840629577637
-0.041450116783381, 0.385789424180984, 0.548257231712341, 0.210160478949547, -0.009511353448033, 0.000000000000000, -0.023552658036351, -0.068187512457371, -0.382010787725449, 0.031942967325449, 0.191473677754402, 0.000000000000000, -0.175045311450958, -0.135293945670128, 0.172945633530617, -0.016454752534628, 0.140215203166008, 0.444301635026932, 1.004617094993591, 0.035716414451599, 0.229972228407860, 0.072934813797474, -1.085684895515442
-0.040837470442057, 0.391051292419434, 0.547166943550110, 0.209930256009102, -0.012262108735740, 0.000000000000000, -0.028297938406467, -0.063511714339256, -0.382494717836380, 0.034004341810942, 0.195439085364342, 0.000000000000000, -0.186280488967896, -0.112286150455475, 0.174033522605896, -0.009659720584750, 0.139765039086342, 0.442597031593323, 1.011679887771606, 0.035002533346415, 0.232520431280136, 0.071659974753857, -1.083644747734070
-0.040184359997511, 0.395953893661499, 0.546036303043365, 0.210246950387955, -0.015084335580468, 0.000000000000000, -0.031719319522381, -0.059154994785786, -0.383068382740021, 0.035751853138208, 0.199277654290199, 0.000000000000000, -0.195856884121895, -0.092231087386608, 0.175724938511848, -0.004201787989587, 0.140102416276932, 0.441336363554001, 1.017409801483154, 0.034436624497175, 0.234582722187042, 0.070655487477779, -1.081086993217468
-0.039536710828543, 0.400328397750854, 0.544854879379272, 0.211017012596130, -0.017909890040755, 0.000000000000000, -0.033663973212242, -0.055254597216845, -0.383735597133636, 0.037037130445242, 0.202896088361740, 0.000000000000000, -0.203513845801353, -0.075969733297825, 0.177771553397179, -0.000155554123921, 0.141335040330887, 0.440562635660172, 1.021716833114624, 0.034035082906485, 0.236130237579346, 0.069951064884663, -1.078344821929932
-0.038978546857834, 0.404036223888397, 0.543615400791168, 0.212116420269012, -0.020616965368390, 0.000000000000000, -0.034225285053253, -0.051920223981142, -0.384527772665024, 0.037738829851151, 0.206199571490288, 0.000000000000000, -0.209104344248772, -0.064152255654335, 0.179965510964394, 0.002409584354609, 0.143428117036819, 0.440272420644760, 1.024559140205383, 0.033801630139351, 0.237151399254799, 0.069548889994621, -1.075833320617676
-0.038597136735916, 0.407010763883591, 0.542303621768951, 0.213422685861588, -0.023081339895725, 0.000000000000000, -0.033615723252296, -0.049282930791378, -0.385496407747269, 0.037813596427441, 0.209106832742691, 0.000000000000000, -0.212559714913368, -0.057223211973906, 0.182119280099869, 0.003430433338508, 0.146250799298286, 0.440429985523224, 1.025936722755432, 0.033730186522007, 0.237649589776993, 0.069430887699127, -1.074019074440002
-0.038481999188662, 0.409262329339981, 0.540899813175201, 0.214822426438332, -0.025213941931725, 0.000000000000000, -0.032032135874033, -0.047434784471989, -0.386705994606018, 0.037328418344259, 0.211576223373413, 0.000000000000000, -0.213863179087639, -0.055452667176723, 0.184083417057991, 0.002843590453267, 0.149660944938660, 0.440990447998047, 1.025863409042358, 0.033811062574387, 0.237631484866142, 0.069572478532791, -1.073253393173218
-0.038718178868294, 0.410843402147293, 0.539389491081238, 0.216221094131470, -0.026964448392391, 0.000000000000000, -0.029607614502311, -0.046356111764908, -0.388222455978394, 0.036439150571823, 0.213619157671928, 0.000000000000000, -0.213048905134201, -0.058935660868883, 0.185787186026573, 0.000586654408835, 0.153563246130943, 0.441917419433594, 1.024343967437744, 0.034036014229059, 0.237098038196564, 0.069953911006451, -1.073630571365356
-0.039336770772934, 0.411819130182266, 0.537770688533783, 0.217568904161453, -0.028314337134361, 0.000000000000000, -0.026457715779543, -0.045934721827507, -0.390089958906174, 0.035315170884132, 0.215285181999207, 0.000000000000000, -0.210224121809006, -0.067505821585655, 0.187269151210785, -0.003389929886907, 0.157914280891418, 0.443187862634659, 1.021373987197876, 0.034399755299091, 0.236044213175774, 0.070563465356827, -1.074962615966797
-0.040340565145016, 0.412259161472321, 0.536060452461243, 0.218852624297142, -0.029261909425259, 0.000000000000000, -0.022723143920302, -0.046049948781729, -0.392308712005615, 0.034073170274496, 0.216641396284103, 0.000000000000000, -0.205554232001305, -0.080662474036217, 0.188679501414299, -0.009103302843869, 0.162705287337303, 0.444788634777069, 1.016945958137512, 0.034898910671473, 0.234461724758148, 0.071395263075829, -1.076857924461365
-0.041773192584515, 0.412227720022202, 0.534301400184631, 0.220060393214226, -0.029807871207595, 0.000000000000000, -0.018550068140030, -0.046574618667364, -0.394836962223053, 0.032770488411188, 0.217761889100075, 0.000000000000000, -0.199227482080460, -0.097619816660881, 0.190224841237068, -0.016507152467966, 0.167920500040054, 0.446706771850586, 1.011066317558289, 0.035529177635908, 0.232345953583717, 0.072442956268787, -1.078833460807800
-0.043659616261721, 0.411767363548279, 0.532549321651459, 0.221188768744469, -0.029972627758980, 0.000000000000000, -0.014093524776399, -0.047340273857117, -0.397608339786530, 0.031409855931997, 0.218712076544762, 0.000000000000000, -0.191479414701462, -0.117425918579102, 0.192063421010971, -0.025446437299252, 0.173453509807587, 0.448913425207138, 1.003795623779297, 0.036280751228333, 0.229713097214699, 0.073690026998520, -1.080395698547363
-0.045955892652273, 0.410923629999161, 0.530856192111969, 0.222238242626190, -0.029810821637511, 0.000000000000000, -0.009561182931066, -0.048208318650723, -0.400540530681610, 0.029929462820292, 0.219530865550041, 0.000000000000000, -0.182612121105194, -0.139080479741096, 0.194233298301697, -0.035622835159302, 0.179058060050011, 0.451356142759323, 0.995279967784882, 0.037136208266020, 0.226613342761993, 0.075105592608452, -1.081089019775391
-0.048467714339495, 0.409806966781616, 0.529241800308228, 0.223228946328163, -0.029398757964373, 0.000000000000000, -0.005267646163702, -0.049255602061749, -0.403530746698380, 0.028183246031404, 0.220226392149925, 0.000000000000000, -0.173000603914261, -0.161578357219696, 0.196651771664619, -0.046587970107794, 0.184370100498199, 0.453964293003082, 0.985759794712067, 0.038071841001511, 0.223135128617287, 0.076647557318211, -1.080519914627075
-0.051078949123621, 0.408499985933304, 0.527736067771912, 0.224132254719734, -0.028789035975933, 0.000000000000000, -0.001419493230060, -0.050413545221090, -0.406514495611191, 0.026132404804230, 0.220844298601151, 0.000000000000000, -0.162991464138031, -0.184189975261688, 0.199122875928879, -0.057843469083309, 0.189125195145607, 0.456682413816452, 0.975498139858246, 0.039065722376108, 0.219375237822533, 0.078279338777065, -1.078406929969788
-0.053662948310375, 0.407080292701721, 0.526360392570496, 0.224910408258438, -0.028011241927743, 0.000000000000000, 0.001902414485812, -0.051506508141756, -0.409462094306946, 0.023827051743865, 0.221453905105591, 0.000000000000000, -0.152896478772163, -0.206394851207733, 0.201457053422928, -0.068891525268555, 0.193149283528328, 0.459467828273773, 0.964789092540741, 0.040097411721945, 0.215442582964897, 0.079969458281994, -1.074547529220581
-0.056073755025864, 0.405688017606735, 0.525112509727478, 0.225517109036446, -0.027090664952993, 0.000000000000000, 0.004775378853083, -0.052326865494251, -0.412356674671173, 0.021365569904447, 0.222119316458702, 0.000000000000000, -0.142961040139198, -0.227817490696907, 0.203627824783325, -0.079267516732216, 0.196276530623436, 0.462281376123428, 0.953982055187225, 0.041146598756313, 0.211469218134880, 0.081689238548279, -1.068761110305786
-0.058168742805719, 0.404553532600403, 0.523964166641235, 0.225901931524277, -0.026059871539474, 0.000000000000000, 0.007448760792613, -0.052771527320147, -0.415165454149246, 0.018863473087549, 0.222885206341743, 0.000000000000000, -0.133337154984474, -0.248218357563019, 0.205830246210098, -0.088609397411346, 0.198328673839569, 0.465086519718170, 0.943462312221527, 0.042193997651339, 0.207602530717850, 0.083414465188980, -1.060870051383972
-0.059724133461714, 0.403836280107498, 0.522890746593475, 0.226095259189606, -0.024955485016108, 0.000000000000000, 0.010247414931655, -0.052736647427082, -0.417853981256485, 0.016450585797429, 0.223773851990700, 0.000000000000000, -0.124203890562057, -0.267434269189835, 0.208034142851830, -0.096741706132889, 0.199290767312050, 0.467878639698029, 0.933569192886353, 0.043227970600128, 0.203971743583679, 0.085139438509941, -1.050861239433289
-0.060449395328760, 0.403547853231430, 0.521895170211792, 0.226223483681679, -0.023815454915166, 0.000000000000000, 0.013340184465051, -0.052291296422482, -0.420369505882263, 0.014160154387355, 0.224771901965141, 0.000000000000000, -0.115828856825829, -0.284993767738342, 0.209886610507965, -0.103498369455338, 0.199284985661507, 0.470701456069946, 0.924684584140778, 0.044243324548006, 0.200726792216301, 0.086879469454288, -1.039017319679260
-0.059905305504799, 0.403675824403763, 0.520976245403290, 0.226506024599075, -0.022663099691272, 0.000000000000000, 0.016825275495648, -0.051615975797176, -0.422646015882492, 0.011979686096311, 0.225857943296432, 0.000000000000000, -0.108251497149467, -0.299062669277191, 0.213079854846001, -0.108495846390724, 0.198572948575020, 0.473673701286316, 0.917297720909119, 0.045241892337799, 0.198067605495453, 0.088677629828453, -1.025364398956299
-0.057928301393986, 0.404398471117020, 0.520115077495575, 0.227016538381577, -0.021511400118470, 0.000000000000000, 0.020857110619545, -0.050494786351919, -0.424679666757584, 0.010008333250880, 0.227046400308609, 0.000000000000000, -0.101230755448341, -0.308818608522415, 0.220039665699005, -0.111519806087017, 0.197508960962296, 0.476891756057739, 0.911739349365234, 0.046224407851696, 0.196126967668533, 0.090566456317902, -1.010647773742676
-0.055575422942638, 0.405762106180191, 0.519432246685028, 0.227351695299149, -0.020366782322526, 0.000000000000000, 0.025106187909842, -0.049025058746338, -0.426478266716003, 0.008118942379951, 0.228335559368134, 0.000000000000000, -0.094942651689053, -0.316688060760498, 0.227304652333260, -0.113207645714283, 0.196390688419342, 0.480239897966385, 0.907787024974823, 0.047174762934446, 0.194795459508896, 0.092496387660503, -0.997919321060181
-0.053066626191139, 0.407915949821472, 0.518898725509644, 0.227395430207253, -0.019309995695949, 0.000000000000000, 0.029353791847825, -0.047391939908266, -0.427959591150284, 0.006155904382467, 0.229664072394371, 0.000000000000000, -0.089268177747726, -0.323921501636505, 0.233263269066811, -0.113999575376511, 0.195332005620003, 0.483497470617294, 0.905224084854126, 0.048058841377497, 0.193963289260864, 0.094363570213318, -0.988173007965088
-0.050978891551495, 0.410082399845123, 0.518675029277802, 0.227032139897346, -0.018700337037444, 0.000000000000000, 0.033376771956682, -0.045311555266380, -0.428985536098480, 0.003957832232118, 0.230840384960175, 0.000000000000000, -0.084264755249023, -0.329221367835999, 0.238158896565437, -0.113645263016224, 0.194780200719833, 0.486532926559448, 0.903988659381866, 0.048845693469048, 0.193590179085732, 0.096081063151360, -0.980796039104462
-0.048918031156063, 0.412005126476288, 0.518735110759735, 0.226360529661179, -0.018642684444785, 0.000000000000000, 0.037172410637140, -0.042859513312578, -0.429476350545883, 0.001583141740412, 0.231884658336639, 0.000000000000000, -0.080314420163631, -0.332166731357574, 0.241431906819344, -0.111843407154083, 0.194816067814827, 0.489138782024384, 0.904158532619476, 0.049490306526423, 0.193693965673447, 0.097527615725994, -0.975623130798340
-0.046309899538755, 0.413953155279160, 0.518956720829010, 0.225368365645409, -0.019126782193780, 0.000000000000000, 0.040932297706604, -0.040284816175699, -0.429420053958893, -0.000782304559834, 0.232882723212242, 0.000000000000000, -0.077775605022907, -0.333079874515533, 0.242442220449448, -0.108327075839043, 0.195292681455612, 0.491128236055374, 0.905916452407837, 0.049950897693634, 0.194340944290161, 0.098597526550293, -0.972796022891998
-0.042816992849112, 0.415958911180496, 0.519301176071167, 0.223976299166679, -0.020094107836485, 0.000000000000000, 0.044773075729609, -0.037657387554646, -0.428852587938309, -0.002977509051561, 0.233875140547752, 0.000000000000000, -0.076929777860641, -0.332007050514221, 0.240869060158730, -0.103112325072289, 0.196223184466362, 0.492441713809967, 0.909296751022339, 0.050213489681482, 0.195543780922890, 0.099257595837116, -0.972483396530151
-0.038267381489277, 0.417885363101959, 0.519781827926636, 0.222120955586433, -0.021444125100970, 0.000000000000000, 0.048686299473047, -0.035033565014601, -0.427816987037659, -0.004921451210976, 0.234859496355057, 0.000000000000000, -0.077935121953487, -0.328775078058243, 0.236837461590767, -0.096318818628788, 0.197538465261459, 0.493113636970520, 0.914319813251495, 0.050283499062061, 0.197318911552429, 0.099531166255474, -0.974850177764893
-0.032656740397215, 0.419643044471741, 0.520419418811798, 0.219762101769447, -0.023065624758601, 0.000000000000000, 0.052635226398706, -0.032507535070181, -0.426344335079193, -0.006579927634448, 0.235801458358765, 0.000000000000000, -0.080797128379345, -0.323256671428680, 0.230842858552933, -0.088016338646412, 0.198886647820473, 0.493192106485367, 0.921074390411377, 0.050169818103313, 0.199717089533806, 0.099455513060093, -0.980044484138489
-0.026085264980793, 0.421230882406235, 0.521230936050415, 0.216908648610115, -0.024843167513609, 0.000000000000000, 0.056644398719072, -0.030096111819148, -0.424461126327515, -0.007903997786343, 0.236656412482262, 0.000000000000000, -0.085402727127075, -0.315545022487640, 0.223409637808800, -0.078412063419819, 0.199765816330910, 0.492675274610519, 0.929543614387512, 0.049878168851137, 0.202744528651237, 0.099049858748913, -0.988210201263428
-0.018726971000433, 0.422651171684265, 0.522245824337006, 0.213624387979507, -0.026660133153200, 0.000000000000000, 0.060801252722740, -0.027696121484041, -0.422188311815262, -0.008825873024762, 0.237379744648933, 0.000000000000000, -0.091569975018501, -0.306158035993576, 0.214522644877434, -0.067826427519321, 0.199671745300293, 0.491505175828934, 0.939569771289825, 0.049408134073019, 0.206346124410629, 0.098304979503155, -0.999628186225891
-0.010326026007533, 0.423780441284180, 0.523479819297791, 0.210243836045265, -0.028385818004608, 0.000000000000000, 0.065155543386936, -0.025496605783701, -0.419485032558441, -0.009383390657604, 0.237907662987709, 0.000000000000000, -0.099331639707088, -0.294473320245743, 0.204389899969101, -0.056413285434246, 0.198241680860519, 0.489640086889267, 0.950952947139740, 0.048759683966637, 0.210450828075409, 0.097209118306637, -1.014136910438538
-0.000103834019683, 0.424643069505692, 0.524864792823792, 0.207332715392113, -0.029917277395725, 0.000000000000000, 0.069674186408520, -0.024064889177680, -0.416260510683060, -0.009736510924995, 0.238163366913795, 0.000000000000000, -0.108947761356831, -0.277426451444626, 0.195451796054840, -0.044361453503370, 0.195343837141991, 0.487074792385101, 0.963355362415314, 0.047941043972969, 0.214931309223175, 0.095764093101025, -1.029436826705933
0.011117699556053, 0.425737202167511, 0.526375532150269, 0.204713985323906, -0.031345117837191, 0.000000000000000, 0.074415542185307, -0.022794703021646, -0.412605881690979, -0.009749487973750, 0.238168984651566, 0.000000000000000, -0.119847118854523, -0.256709754467010, 0.187861561775208, -0.032602731138468, 0.191144004464149, 0.483780592679977, 0.976020932197571, 0.046970792114735, 0.219480365514755, 0.093972697854042, -1.043303370475769
0.022492161020637, 0.427483469247818, 0.527989029884338, 0.202199280261993, -0.032828673720360, 0.000000000000000, 0.079425767064095, -0.020991664379835, -0.408657550811768, -0.009215972386301, 0.238023668527603, 0.000000000000000, -0.131442457437515, -0.235008314251900, 0.181002274155617, -0.021969446912408, 0.186252415180206, 0.479865431785583, 0.988158881664276, 0.045893035829067, 0.223781824111938, 0.091902397572994, -1.055232524871826
0.033833529800177, 0.429810196161270, 0.529708743095398, 0.199926927685738, -0.034386977553368, 0.000000000000000, 0.084451951086521, -0.018700594082475, -0.404477506875992, -0.008202928118408, 0.237781599164009, 0.000000000000000, -0.143509492278099, -0.212632372975349, 0.175252020359039, -0.012834579683840, 0.181339249014854, 0.475532501935959, 0.999221861362457, 0.044764008373022, 0.227627590298653, 0.089663885533810, -1.065101742744446
0.045016471296549, 0.432388216257095, 0.531577289104462, 0.198041066527367, -0.035951383411884, 0.000000000000000, 0.089117698371410, -0.016209196299314, -0.400100350379944, -0.006902703549713, 0.237459689378738, 0.000000000000000, -0.155870422720909, -0.189602255821228, 0.170927211642265, -0.005312605760992, 0.176850929856300, 0.470980912446976, 1.008908152580261, 0.043636176735163, 0.230913832783699, 0.087367758154869, -1.072965502738953
0.055793005973101, 0.434870272874832, 0.533642232418060, 0.196567595005035, -0.037447743117809, 0.000000000000000, 0.093079216778278, -0.013754810206592, -0.395570427179337, -0.005487624555826, 0.237075164914131, 0.000000000000000, -0.168288320302963, -0.166408851742744, 0.168131545186043, 0.000599550257903, 0.173066243529320, 0.466390281915665, 1.017090559005737, 0.042556889355183, 0.233609095215797, 0.085117496550083, -1.079052805900574
0.065878935158253, 0.436966717243195, 0.535929918289185, 0.195450663566589, -0.038816407322884, 0.000000000000000, 0.096044711768627, -0.011523199267685, -0.390945643186569, -0.004087355453521, 0.236658871173859, 0.000000000000000, -0.180506795644760, -0.143758073449135, 0.166886463761330, 0.004941894672811, 0.170238047838211, 0.461930662393570, 1.023725032806396, 0.041571553796530, 0.235714584589005, 0.083013497292995, -1.083649635314941
0.074986472725868, 0.438444167375565, 0.538443088531494, 0.194581717252731, -0.040007576346397, 0.000000000000000, 0.097794175148010, -0.009700384922326, -0.386291742324829, -0.002799540292472, 0.236249402165413, 0.000000000000000, -0.192275166511536, -0.122353777289391, 0.167148798704147, 0.007756257429719, 0.168592378497124, 0.457748502492905, 1.028803586959839, 0.040720324963331, 0.237242743372917, 0.081143811345100, -1.087058424949646
0.082848988473415, 0.439144611358643, 0.541158020496368, 0.193823337554932, -0.040973145514727, 0.000000000000000, 0.098223932087421, -0.008452667854726, -0.381683856248856, -0.001689335098490, 0.235867470502853, 0.000000000000000, -0.203334599733353, -0.102849505841732, 0.168773606419563, 0.009105703793466, 0.168242365121841, 0.453946977853775, 1.032357573509216, 0.040032334625721, 0.238218903541565, 0.079571388661861, -1.089659094810486
0.089270710945129, 0.439010113477707, 0.544021248817444, 0.193049579858780, -0.041663590818644, 0.000000000000000, 0.097371853888035, -0.007867965847254, -0.377213358879089, -0.000780311704148, 0.235496044158936, 0.000000000000000, -0.213405236601830, -0.085894919931889, 0.171465292572975, 0.009075124748051, 0.169173881411552, 0.450584381818771, 1.034453034400940, 0.039524395018816, 0.238678708672523, 0.078332014381886, -1.092026114463806
0.094116039574146, 0.438056111335754, 0.546961247920990, 0.192175909876823, -0.042026475071907, 0.000000000000000, 0.095393069088459, -0.007989736273885, -0.372980177402496, -0.000072936163633, 0.235084310173988, 0.000000000000000, -0.222181499004364, -0.072084404528141, 0.174833506345749, 0.007752897217870, 0.171279892325401, 0.447683155536652, 1.035170435905457, 0.039203248918056, 0.238660424947739, 0.077439449727535, -1.094942569732666
0.097312264144421, 0.436342090368271, 0.549901843070984, 0.191175490617752, -0.042010314762592, 0.000000000000000, 0.092515826225281, -0.008868445642292, -0.369077742099762, 0.000423468183726, 0.234567388892174, 0.000000000000000, -0.229349479079247, -0.061911493539810, 0.178455278277397, 0.005235821940005, 0.174401745200157, 0.445243835449219, 1.034599184989929, 0.039068941026926, 0.238202929496765, 0.076893679797649, -1.099279165267944
0.098892487585545, 0.433974355459213, 0.552763342857361, 0.190072208642960, -0.041580911725760, 0.000000000000000, 0.089026205241680, -0.010515059344471, -0.365586638450623, 0.000692527857609, 0.233894154429436, 0.000000000000000, -0.234629958868027, -0.055821359157562, 0.181864231824875, 0.001637260662392, 0.178386479616165, 0.443263351917267, 1.032832264900208, 0.039119448512793, 0.237344935536385, 0.076691865921021, -1.105808258056641
0.099003128707409, 0.431101709604263, 0.555466473102570, 0.188911989331245, -0.040741652250290, 0.000000000000000, 0.085271120071411, -0.012828014791012, -0.362575769424438, 0.000735244364478, 0.233047515153885, 0.000000000000000, -0.237815394997597, -0.054220438003540, 0.184565275907516, -0.002918815705925, 0.183133989572525, 0.441749393939972, 1.029958605766296, 0.039354596287012, 0.236121922731400, 0.076837524771690, -1.115023136138916
0.097838230431080, 0.427909433841705, 0.557938694953918, 0.187725618481636, -0.039538193494081, 0.000000000000000, 0.081622473895550, -0.015590022318065, -0.360099613666534, 0.000580568390433, 0.232044816017151, 0.000000000000000, -0.238781318068504, -0.057415936142206, 0.186131164431572, -0.008299108594656, 0.188562974333763, 0.440715163946152, 1.026072978973389, 0.039774917066097, 0.234570533037186, 0.077338211238384, -1.127044796943665
0.095626763999462, 0.424605727195740, 0.560116648674011, 0.186532407999039, -0.038046739995480, 0.000000000000000, 0.078412279486656, -0.018538491800427, -0.358189821243286, 0.000274274876574, 0.230919599533081, 0.000000000000000, -0.237513706088066, -0.065500907599926, 0.186295419931412, -0.014349427074194, 0.194557711482048, 0.440168738365173, 1.021291613578796, 0.040378633886576, 0.232735335826874, 0.078199073672295, -1.141633152961731
0.092678144574165, 0.421391963958740, 0.561946570873260, 0.185370951890945, -0.036354452371597, 0.000000000000000, 0.075893767178059, -0.021453026682138, -0.356844574213028, -0.000131168184453, 0.229697600007057, 0.000000000000000, -0.234139144420624, -0.078251309692860, 0.184966057538986, -0.020877890288830, 0.200956031680107, 0.440109342336655, 1.015757322311401, 0.041160643100739, 0.230670914053917, 0.079420551657677, -1.158282399177551
0.089300423860550, 0.418410837650299, 0.563403129577637, 0.184280097484589, -0.034547090530396, 0.000000000000000, 0.074192233383656, -0.024258449673653, -0.356020390987396, -0.000598760787398, 0.228381916880608, 0.000000000000000, -0.228896036744118, -0.095076747238636, 0.182223737239838, -0.027658225968480, 0.207568198442459, 0.440528780221939, 1.009629487991333, 0.042112898081541, 0.228437945246696, 0.080998808145523, -1.176342964172363
0.085800662636757, 0.415690690279007, 0.564496576786041, 0.183322414755821, -0.032706249505281, 0.000000000000000, 0.073294073343277, -0.026909833773971, -0.355655223131180, -0.001086879521608, 0.226966336369514, 0.000000000000000, -0.222120806574821, -0.115191869437695, 0.178234606981277, -0.034468401223421, 0.214213132858276, 0.441412001848221, 1.003068685531616, 0.043224897235632, 0.226096197962761, 0.082926124334335, -1.195152282714844
0.082405969500542, 0.413178652524948, 0.565268814563751, 0.182556018233299, -0.030906317755580, 0.000000000000000, 0.073095008730888, -0.029317418113351, -0.355684846639633, -0.001538632437587, 0.225452050566673, 0.000000000000000, -0.214168339967728, -0.137803584337234, 0.173209086060524, -0.041099093854427, 0.220725089311600, 0.442731648683548, 0.996234774589539, 0.044482268393040, 0.223704233765602, 0.085186943411827, -1.214101314544678
0.079187780618668, 0.410823315382004, 0.565780520439148, 0.181984588503838, -0.029209874570370, 0.000000000000000, 0.073423005640507, -0.031478017568588, -0.356030344963074, -0.001925662043504, 0.223847746849060, 0.000000000000000, -0.205347657203674, -0.162074685096741, 0.167464733123779, -0.047319505363703, 0.226882725954056, 0.444429755210876, 0.989318013191223, 0.045862261205912, 0.221331834793091, 0.087747655808926, -1.232607364654541
0.076184943318367, 0.408621311187744, 0.566082894802094, 0.181583926081657, -0.027664104476571, 0.000000000000000, 0.074035614728928, -0.033612456172705, -0.356582492589951, -0.002292564604431, 0.222164914011955, 0.000000000000000, -0.195947155356407, -0.187081024050713, 0.161402568221092, -0.052837796509266, 0.232359349727631, 0.446407139301300, 0.982571780681610, 0.047330927103758, 0.219074130058289, 0.090550303459167, -1.250090479850769
0.073438130319118, 0.406501412391663, 0.566233515739441, 0.181332036852837, -0.026303660124540, 0.000000000000000, 0.074778236448765, -0.035721011459827, -0.357260525226593, -0.002622617175803, 0.220430612564087, 0.000000000000000, -0.186253324151039, -0.211870983242989, 0.155286282300949, -0.057352691888809, 0.236988291144371, 0.448569387197495, 0.976236760616302, 0.048853568732738, 0.217020377516747, 0.093535199761391, -1.265990853309631
0.071067884564400, 0.404437005519867, 0.566263496875763, 0.181218221783638, -0.025160893797874, 0.000000000000000, 0.075533896684647, -0.037688735872507, -0.358005046844482, -0.002888619666919, 0.218658953905106, 0.000000000000000, -0.176547169685364, -0.235574096441269, 0.149239927530289, -0.060612667351961, 0.240707993507385, 0.450810909271240, 0.970554649829865, 0.050391964614391, 0.215259686112404, 0.096633844077587, -1.279736638069153
0.069146528840065, 0.402538299560547, 0.566175520420074, 0.181185483932495, -0.024256102740765, 0.000000000000000, 0.076250627636909, -0.039348646998405, -0.358770072460175, -0.003044601297006, 0.216856524348259, 0.000000000000000, -0.167042791843414, -0.257541358470917, 0.143272176384926, -0.062474578619003, 0.243472114205360, 0.452980577945709, 0.965782940387726, 0.051897648721933, 0.213885858654976, 0.099751412868500, -1.290716648101807
0.067747130990028, 0.401075154542923, 0.565934360027313, 0.181153088808060, -0.023599857464433, 0.000000000000000, 0.076946713030338, -0.040579892694950, -0.359509438276291, -0.003050811588764, 0.215009599924088, 0.000000000000000, -0.157877936959267, -0.277384400367737, 0.137387737631798, -0.062798753380775, 0.245069593191147, 0.454844355583191, 0.962296485900879, 0.053301576524973, 0.213039174675941, 0.102744720876217, -1.298245072364807
0.066935785114765, 0.400210082530975, 0.565518021583557, 0.181077539920807, -0.023178543895483, 0.000000000000000, 0.077766396105289, -0.041268885135651, -0.360182553529739, -0.002827794291079, 0.213103026151657, 0.000000000000000, -0.149138346314430, -0.294631928205490, 0.131594032049179, -0.061471257358789, 0.245288372039795, 0.456124484539032, 0.960499167442322, 0.054523754864931, 0.212869897484779, 0.105441957712173, -1.301531553268433
0.066824212670326, 0.399824976921082, 0.564945161342621, 0.181014209985733, -0.022954234853387, 0.000000000000000, 0.078876018524170, -0.041445069015026, -0.360742002725601, -0.002297286409885, 0.211115241050720, 0.000000000000000, -0.140935763716698, -0.308434039354324, 0.126000851392746, -0.058505151420832, 0.243983030319214, 0.456532537937164, 0.960689544677734, 0.055484864860773, 0.213483557105064, 0.107665993273258, -1.299646258354187
0.067559748888016, 0.399713248014450, 0.564240276813507, 0.181067645549774, -0.022903630509973, 0.000000000000000, 0.080316081643105, -0.041365206241608, -0.361125916242599, -0.001452608616091, 0.208989232778549, 0.000000000000000, -0.133374735713005, -0.317941397428513, 0.121080204844475, -0.053922981023788, 0.240864828228951, 0.455773293972015, 0.963117718696594, 0.056106224656105, 0.214966431260109, 0.109238430857658, -1.291478157043457
0.069306991994381, 0.399648696184158, 0.563419342041016, 0.181384652853012, -0.023009955883026, 0.000000000000000, 0.082025855779648, -0.041403677314520, -0.361276596784592, -0.000325053813867, 0.206646129488945, 0.000000000000000, -0.126422703266144, -0.322611659765244, 0.117819197475910, -0.047730300575495, 0.235620409250259, 0.453603446483612, 0.967918395996094, 0.056322708725929, 0.217362210154533, 0.110011197626591, -1.275646686553955
0.072317712008953, 0.399287164211273, 0.562493801116943, 0.182220578193665, -0.023230081424117, 0.000000000000000, 0.083889581263065, -0.041975077241659, -0.361163139343262, 0.001041845302097, 0.204009875655174, 0.000000000000000, -0.120094776153564, -0.321973919868469, 0.116735406219959, -0.040272206068039, 0.228363946080208, 0.449915528297424, 0.974795103073120, 0.056110378354788, 0.220543801784515, 0.109919682145119, -1.250919938087463
0.076500631868839, 0.398459523916245, 0.561452805995941, 0.183687910437584, -0.023524494841695, 0.000000000000000, 0.085848107933998, -0.043202634900808, -0.360832244157791, 0.002683464670554, 0.201033905148506, 0.000000000000000, -0.114588402211666, -0.316227048635483, 0.116184152662754, -0.032487954944372, 0.219693794846535, 0.444737941026688, 0.982919931411743, 0.055493589490652, 0.224170565605164, 0.108991906046867, -1.217371225357056
0.081359438598156, 0.397352486848831, 0.560239374637604, 0.185679003596306, -0.023875840008259, 0.000000000000000, 0.088037520647049, -0.044710639864206, -0.360416114330292, 0.004797827918082, 0.197724655270576, 0.000000000000000, -0.109744071960449, -0.306561261415482, 0.114996425807476, -0.025614788755774, 0.210385680198669, 0.438193917274475, 0.991222560405731, 0.054529193788767, 0.227807581424713, 0.107322357594967, -1.175470948219299
0.086132302880287, 0.396142154932022, 0.558817148208618, 0.188004270195961, -0.024265067651868, 0.000000000000000, 0.090253040194511, -0.046355184167624, -0.360042273998260, 0.007397822104394, 0.194083914160728, 0.000000000000000, -0.105431489646435, -0.293490260839462, 0.114639431238174, -0.020772898569703, 0.201085120439529, 0.430435031652451, 0.998698651790619, 0.053281683474779, 0.231051743030548, 0.105025194585323, -1.124639272689819
0.089434199035168, 0.394880324602127, 0.557244420051575, 0.190240547060966, -0.024677159264684, 0.000000000000000, 0.091814391314983, -0.048205021768808, -0.359827488660812, 0.010259971953928, 0.190104052424431, 0.000000000000000, -0.101015187799931, -0.278354555368423, 0.118446476757526, -0.018944915384054, 0.192243173718452, 0.421583771705627, 1.004475712776184, 0.051807504147291, 0.233552694320679, 0.102196924388409, -1.064020156860352
0.090056069195271, 0.393612831830978, 0.555578589439392, 0.191981926560402, -0.025084262713790, 0.000000000000000, 0.092218935489655, -0.050242647528648, -0.359873026609421, 0.013232969678938, 0.185807034373283, 0.000000000000000, -0.094965770840645, -0.264500945806503, 0.127901479601860, -0.020753622055054, 0.184128165245056, 0.411746591329575, 1.007952332496643, 0.050150755792856, 0.235071823000908, 0.098914720118046, -0.994024872779846
0.088048547506332, 0.392254501581192, 0.553792595863342, 0.193289563059807, -0.025413280352950, 0.000000000000000, 0.091410987079144, -0.052543967962265, -0.360215276479721, 0.016307853162289, 0.181237608194351, 0.000000000000000, -0.087331980466843, -0.252303510904312, 0.141903460025787, -0.026175055652857, 0.176877245306969, 0.401057362556458, 1.008928894996643, 0.048347078263760, 0.235541343688965, 0.095254480838776, -0.915699005126953
0.083978600800037, 0.390622466802597, 0.551853060722351, 0.194386184215546, -0.025568636134267, 0.000000000000000, 0.089476592838764, -0.055241610854864, -0.360844969749451, 0.019498154520988, 0.176446735858917, 0.000000000000000, -0.078769922256470, -0.241141751408577, 0.159085586667061, -0.034791268408298, 0.170545369386673, 0.389659732580185, 1.007488965988159, 0.046425126492977, 0.235012069344521, 0.091287143528461, -0.830585420131683
0.078189656138420, 0.388558655977249, 0.549771368503571, 0.195359379053116, -0.025474892929196, 0.000000000000000, 0.086505725979805, -0.058414068073034, -0.361735999584198, 0.022800099104643, 0.171476200222969, 0.000000000000000, -0.069646634161472, -0.230994895100594, 0.178503304719925, -0.046124633401632, 0.165073484182358, 0.377673208713531, 1.003851056098938, 0.044406037777662, 0.233587712049484, 0.087068721652031, -0.740945696830750
0.070835590362549, 0.385901272296906, 0.547600209712982, 0.196222126483917, -0.025116492062807, 0.000000000000000, 0.082629948854446, -0.062116038054228, -0.362845033407211, 0.026188867166638, 0.166312456130981, 0.000000000000000, -0.060156922787428, -0.221822813153267, 0.199706152081490, -0.059765487909317, 0.160241127014160, 0.365182280540466, 0.998295426368713, 0.042305074632168, 0.231393024325371, 0.082640357315540, -0.649501323699951
0.061915185302496, 0.382482498884201, 0.545430600643158, 0.196940988302231, -0.024584900587797, 0.000000000000000, 0.077959075570107, -0.066588789224625, -0.364076077938080, 0.029544072225690, 0.160828024148941, 0.000000000000000, -0.050402332097292, -0.213182210922241, 0.222789257764816, -0.075167223811150, 0.155550196766853, 0.352233469486237, 0.991228520870209, 0.040129229426384, 0.228602483868599, 0.078025862574577, -0.559038639068604
0.051488213241100, 0.378069311380386, 0.543387353420258, 0.197528973221779, -0.023975973948836, 0.000000000000000, 0.072589956223965, -0.072098702192307, -0.365298449993134, 0.032777749001980, 0.154944419860840, 0.000000000000000, -0.040555514395237, -0.204277306795120, 0.247913971543312, -0.091828890144825, 0.150569409132004, 0.338879138231277, 0.983005940914154, 0.037889257073402, 0.225365191698074, 0.073253214359283, -0.472406655550003
0.039771694689989, 0.372364372014999, 0.541612029075623, 0.198062777519226, -0.023431034758687, 0.000000000000000, 0.066482298076153, -0.078733071684837, -0.366377443075180, 0.035813987255096, 0.148640081286430, 0.000000000000000, -0.030935622751713, -0.194202944636345, 0.275258183479309, -0.109276875853539, 0.145105287432671, 0.325209319591522, 0.973922491073608, 0.035603936761618, 0.221802383661270, 0.068365760147572, -0.392370522022247
0.026819040998816, 0.364998847246170, 0.540293216705322, 0.198531746864319, -0.023178519681096, 0.000000000000000, 0.059569150209427, -0.086099550127983, -0.367222011089325, 0.038658838719130, 0.141925796866417, 0.000000000000000, -0.021931650117040, -0.182051107287407, 0.305238693952560, -0.126933842897415, 0.139290153980255, 0.311395883560181, 0.964285969734192, 0.033305138349533, 0.218040764331818, 0.063440434634686, -0.321348220109940
0.012663234025240, 0.356008440256119, 0.539594352245331, 0.198792666196823, -0.023070961236954, 0.000000000000000, 0.051730692386627, -0.093956448137760, -0.367778331041336, 0.041351802647114, 0.134941652417183, 0.000000000000000, -0.013894872739911, -0.167025759816170, 0.338156908750534, -0.144211322069168, 0.133333116769791, 0.297650814056396, 0.954415380954742, 0.031031744554639, 0.214211255311966, 0.058573368936777, -0.261714905500412
-0.001869222498499, 0.346141308546066, 0.539507567882538, 0.198863029479980, -0.022183606401086, 0.000000000000000, 0.042334403842688, -0.103629231452942, -0.367909759283066, 0.043546695262194, 0.128005087375641, 0.000000000000000, -0.007114708423615, -0.148860588669777, 0.373194247484207, -0.160592198371887, 0.127105951309204, 0.284135609865189, 0.944658339023590, 0.028814354911447, 0.210453703999519, 0.053841553628445, -0.216423749923706
