isaac-sim2real/sage/motion_files/g1/amass/0-KIT_675_double_pour_and_mixing15_poses.txt
/g1/pelvis/left_hip_yaw_joint, /g1/left_hip_yaw_link/left_hip_pitch_joint, /g1/left_hip_pitch_link/left_hip_roll_joint, /g1/left_hip_roll_link/left_knee_joint, /g1/left_knee_link/left_ankle_pitch_joint, /g1/left_ankle_pitch_link/left_ankle_roll_joint, /g1/pelvis/right_hip_yaw_joint, /g1/right_hip_yaw_link/right_hip_pitch_joint, /g1/right_hip_pitch_link/right_hip_roll_joint, /g1/right_hip_roll_link/right_knee_joint, /g1/right_knee_link/right_ankle_pitch_joint, /g1/right_ankle_pitch_link/right_ankle_roll_joint, /g1/pelvis/torso_joint, /g1/torso_link/left_shoulder_pitch_joint, /g1/left_shoulder_pitch_link/left_shoulder_roll_joint, /g1/left_shoulder_roll_link/left_shoulder_yaw_joint, /g1/left_shoulder_yaw_link/left_elbow_joint, /g1/left_elbow_link/left_wrist_roll_joint, /g1/torso_link/right_shoulder_pitch_joint, /g1/right_shoulder_pitch_link/right_shoulder_roll_joint, /g1/right_shoulder_roll_link/right_shoulder_yaw_joint, /g1/right_shoulder_yaw_link/right_elbow_joint, /g1/right_elbow_link/right_wrist_roll_joint
-0.119803838431835, 0.044021379202604, 0.353682070970535, 0.001551112509333, 0.081745006144047, 0.000000000000000, -0.248667791485786, 0.024332473054528, -0.178964197635651, 0.358701676130295, 0.058368694037199, 0.000000000000000, 0.091282650828362, 0.026882851496339, 0.403399020433426, -0.073881015181541, 0.404649704694748, 0.175523415207863, 0.851020872592926, 0.013160187751055, 0.270699888467789, 0.041292857378721, -0.117536067962646
-0.119996473193169, 0.042384751141071, 0.353415906429291, 0.002085808431730, 0.080742366611958, 0.000000000000000, -0.250752538442612, 0.022846395149827, -0.178279578685760, 0.363432794809341, 0.058330513536930, 0.000000000000000, 0.091153077781200, 0.027394644916058, 0.406564503908157, -0.075089201331139, 0.395430415868759, 0.171803355216980, 0.850541770458221, 0.012498040683568, 0.270442456007004, 0.039888564497232, -0.118397355079651
-0.120139442384243, 0.039481289684772, 0.352853029966354, 0.003167311195284, 0.078859433531761, 0.000000000000000, -0.254637151956558, 0.020281581208110, -0.177045807242393, 0.372659772634506, 0.058337118476629, 0.000000000000000, 0.090760163962841, 0.028190026059747, 0.411823093891144, -0.077288746833801, 0.379243105649948, 0.165128722786903, 0.849541783332825, 0.011314375326037, 0.269940823316574, 0.037376936525106, -0.119835771620274
-0.120158955454826, 0.035593125969172, 0.351952105760574, 0.004782919306308, 0.076199747622013, 0.000000000000000, -0.260348260402679, 0.016946759074926, -0.175362437963486, 0.386346578598022, 0.058495417237282, 0.000000000000000, 0.090000264346600, 0.028972573578358, 0.418036133050919, -0.080280803143978, 0.358586966991425, 0.156318411231041, 0.847935080528259, 0.009762273170054, 0.269192904233932, 0.034079954028130, -0.121643513441086
-0.120123080909252, 0.031035121530294, 0.350679010152817, 0.006863612681627, 0.072901464998722, 0.000000000000000, -0.268013358116150, 0.012980679981411, -0.173275381326675, 0.404342740774155, 0.058931101113558, 0.000000000000000, 0.088815964758396, 0.029482932761312, 0.424310356378555, -0.083899244666100, 0.335945993661880, 0.146220326423645, 0.845664143562317, 0.008000319823623, 0.268199712038040, 0.030330153182149, -0.123685710132122
-0.120136946439743, 0.026054138317704, 0.349018275737762, 0.009333870373666, 0.069118946790695, 0.000000000000000, -0.277859151363373, 0.008394908159971, -0.170790448784828, 0.426403254270554, 0.059771813452244, 0.000000000000000, 0.087175898253918, 0.029614880681038, 0.430184334516525, -0.088087372481823, 0.313172638416290, 0.135498374700546, 0.842697381973267, 0.006152544636279, 0.266959726810455, 0.026386365294456, -0.125913113355637
-0.120380744338036, 0.020837770774961, 0.346982061862946, 0.012084346264601, 0.064990311861038, 0.000000000000000, -0.290318369865417, 0.003140037646517, -0.167905271053314, 0.452140092849731, 0.061114586889744, 0.000000000000000, 0.085074655711651, 0.029391655698419, 0.435469448566437, -0.092864349484444, 0.291475713253021, 0.124621540307999, 0.839022278785706, 0.004306111484766, 0.265470743179321, 0.022429687902331, -0.128330826759338
-0.121107421815395, 0.015605297870934, 0.344602406024933, 0.014943875372410, 0.060570362955332, 0.000000000000000, -0.305958122014999, -0.002916117664427, -0.164602845907211, 0.481025278568268, 0.062991291284561, 0.000000000000000, 0.082545772194862, 0.028890747576952, 0.440078437328339, -0.098242126405239, 0.271658122539520, 0.113938860595226, 0.834654867649078, 0.002524947281927, 0.263738304376602, 0.018593210726976, -0.130949512124062
-0.122321143746376, 0.010664158500731, 0.341905564069748, 0.017775105312467, 0.055748321115971, 0.000000000000000, -0.324956625699997, -0.010094318538904, -0.160799533128738, 0.512505292892456, 0.065334759652615, 0.000000000000000, 0.079676344990730, 0.028210442513227, 0.444052606821060, -0.104135937988758, 0.254299372434616, 0.103735931217670, 0.829678416252136, 0.000859686522745, 0.261794686317444, 0.014983798377216, -0.133719027042389
-0.123405650258064, 0.006224724464118, 0.338912785053253, 0.020658217370510, 0.050305176526308, 0.000000000000000, -0.346594780683517, -0.018748531118035, -0.156408786773682, 0.546028435230255, 0.067926898598671, 0.000000000000000, 0.076644770801067, 0.027448659762740, 0.447590827941895, -0.110306993126869, 0.239806085824966, 0.094247467815876, 0.824274659156799, -0.000650056463201, 0.259713828563690, 0.011686949059367, -0.136555865406990
-0.123741552233696, 0.002667003311217, 0.335623621940613, 0.023659013211727, 0.044063884764910, 0.000000000000000, -0.369956284761429, -0.028292190283537, -0.151803910732269, 0.580563724040985, 0.070366896688938, 0.000000000000000, 0.073712714016438, 0.026692306622863, 0.450859844684601, -0.116530813276768, 0.228395253419876, 0.085638895630836, 0.818626999855042, -0.001978033920750, 0.257569700479507, 0.008760473690927, -0.139534935355186
-0.123787827789783, 0.000759289541747, 0.332007616758347, 0.026458205655217, 0.036951791495085, 0.000000000000000, -0.395729780197144, -0.035615738481283, -0.148587182164192, 0.613785326480865, 0.072282262146473, 0.000000000000000, 0.070849262177944, 0.025945939123631, 0.453815668821335, -0.123062789440155, 0.220052883028984, 0.077966816723347, 0.812681138515472, -0.003116947365925, 0.255333274602890, 0.006220421288162, -0.142793774604797
-0.123852670192719, 0.000009207987205, 0.328181952238083, 0.029106909409165, 0.029104439541698, 0.000000000000000, -0.425380855798721, -0.038121711462736, -0.148187488317490, 0.642073214054108, 0.074146278202534, 0.000000000000000, 0.067743621766567, 0.025100797414780, 0.456321984529495, -0.130249798297882, 0.214442923665047, 0.071161404252052, 0.806319057941437, -0.004081267397851, 0.252949148416519, 0.004035038873553, -0.146267890930176
-0.122724406421185, -0.001799361081794, 0.324476093053818, 0.032602876424789, 0.020985538139939, 0.000000000000000, -0.459174424409866, -0.038151446729898, -0.149763241410255, 0.661544561386108, 0.077264733612537, 0.000000000000000, 0.064689949154854, 0.024235256016254, 0.458377391099930, -0.137352436780930, 0.211296811699867, 0.065218634903431, 0.799911499023438, -0.004875196609646, 0.250574648380280, 0.002197975292802, -0.149793773889542
-0.121066987514496, -0.002826710464433, 0.320736497640610, 0.036690734326839, 0.012744617648423, 0.000000000000000, -0.497294872999191, -0.036405924707651, -0.153193563222885, 0.670291543006897, 0.082006797194481, 0.000000000000000, 0.061734359711409, 0.023551320657134, 0.459959715604782, -0.144147798418999, 0.210586205124855, 0.060196012258530, 0.793569862842560, -0.005492305383086, 0.248253419995308, 0.000726675265469, -0.153017193078995
-0.119183473289013, -0.003123716218397, 0.316961884498596, 0.041449747979641, 0.004362428560853, 0.000000000000000, -0.538589060306549, -0.033246692270041, -0.158275708556175, 0.668231070041656, 0.088427141308784, 0.000000000000000, 0.058882515877485, 0.023122485727072, 0.461148947477341, -0.150493130087852, 0.211901858448982, 0.056006241589785, 0.787391126155853, -0.005948870908469, 0.246024861931801, -0.000413263740484, -0.155766308307648
-0.116883464157581, -0.003447755239904, 0.313201785087585, 0.047167420387268, -0.004215576220304, 0.000000000000000, -0.581653833389282, -0.029311662539840, -0.164553239941597, 0.655863106250763, 0.096616804599762, 0.000000000000000, 0.056085128337145, 0.022876890376210, 0.462089240550995, -0.156268596649170, 0.214613005518913, 0.052467055618763, 0.781473517417908, -0.006275811232626, 0.243930533528328, -0.001290194690228, -0.157967984676361
-0.114105589687824, -0.004024078138173, 0.309429138898849, 0.053966168314219, -0.013018470257521, 0.000000000000000, -0.625216543674469, -0.024807585403323, -0.171694159507751, 0.634157419204712, 0.106613025069237, 0.000000000000000, 0.053109724074602, 0.022634595632553, 0.462904959917068, -0.161558955907822, 0.218078941106796, 0.049364507198334, 0.775814950466156, -0.006508435122669, 0.241968646645546, -0.001983600202948, -0.159508913755417
-0.110935680568218, -0.005198352970183, 0.305637717247009, 0.061943169683218, -0.021997125819325, 0.000000000000000, -0.667196154594421, -0.018861986696720, -0.179702758789062, 0.605455040931702, 0.118090972304344, 0.000000000000000, 0.049669113010168, 0.022183746099472, 0.463671594858170, -0.166549846529961, 0.221714824438095, 0.046484317630529, 0.770355761051178, -0.006681484635919, 0.240112915635109, -0.002572631696239, -0.160283416509628
-0.107439197599888, -0.006775920279324, 0.301783800125122, 0.071179658174515, -0.031055465340614, 0.000000000000000, -0.705468237400055, -0.010528244078159, -0.188599288463593, 0.573113799095154, 0.129999905824661, 0.000000000000000, 0.045947194099426, 0.021522542461753, 0.464430958032608, -0.171156004071236, 0.225162789225578, 0.043700680136681, 0.765158891677856, -0.006815411616117, 0.238389670848846, -0.003103665541857, -0.160489574074745
-0.103268973529339, -0.007486291695386, 0.297694742679596, 0.081882610917091, -0.040030043572187, 0.000000000000000, -0.740195274353027, -0.001149586518295, -0.197720348834991, 0.538729488849640, 0.141468152403831, 0.000000000000000, 0.042716544121504, 0.020934518426657, 0.465273439884186, -0.174896359443665, 0.228328719735146, 0.041002240031958, 0.760476827621460, -0.006912606768310, 0.236906975507736, -0.003581014694646, -0.160641923546791
-0.098052166402340, -0.007167425937951, 0.293327301740646, 0.094629816710949, -0.048587553203106, 0.000000000000000, -0.771158933639526, 0.007787303067744, -0.206404700875282, 0.503504395484924, 0.152363345026970, 0.000000000000000, 0.040361478924751, 0.020583949983120, 0.466326594352722, -0.177530437707901, 0.231063634157181, 0.038342177867889, 0.756437242031097, -0.006980547681451, 0.235719665884972, -0.004021452739835, -0.160958379507065
-0.091806419193745, -0.006314573343843, 0.288711428642273, 0.110028170049191, -0.056305468082428, 0.000000000000000, -0.798044860363007, 0.015570428222418, -0.214301228523254, 0.468799948692322, 0.162832349538803, 0.000000000000000, 0.038810163736343, 0.020448533818126, 0.467721015214920, -0.179102316498756, 0.233142390847206, 0.035627879202366, 0.753015756607056, -0.007033375557512, 0.234817966818810, -0.004457980394363, -0.161344707012177
-0.084956303238869, -0.005155435297638, 0.283830344676971, 0.128438383340836, -0.062822297215462, 0.000000000000000, -0.820620596408844, 0.021939514204860, -0.221185207366943, 0.436122000217438, 0.173033460974693, 0.000000000000000, 0.037829414010048, 0.020416952669621, 0.469546377658844, -0.179757475852966, 0.234369039535522, 0.032770451158285, 0.750120639801025, -0.007084507495165, 0.234163418412209, -0.004922186024487, -0.161599114537239
-0.078139185905457, -0.003572603454813, 0.278602570295334, 0.150025546550751, -0.067873455584049, 0.000000000000000, -0.838010013103485, 0.027118336409330, -0.226915925741196, 0.407271564006805, 0.183111652731895, 0.000000000000000, 0.037189185619354, 0.020366044715047, 0.471803218126297, -0.179661586880684, 0.234639003872871, 0.029714073985815, 0.747626781463623, -0.007142432034016, 0.233703702688217, -0.005434021819383, -0.161532029509544
-0.071995899081230, -0.001277541276067, 0.272901743650436, 0.174883276224136, -0.071259297430515, 0.000000000000000, -0.848449707031250, 0.031774517148733, -0.231453135609627, 0.384293407201767, 0.193203970789909, 0.000000000000000, 0.036754772067070, 0.020211184397340, 0.474424749612808, -0.178937613964081, 0.233949348330498, 0.026443814858794, 0.745412886142731, -0.007209637202322, 0.233388483524323, -0.005999160464853, -0.161016240715981
-0.066947132349014, 0.002074675867334, 0.266575843095779, 0.203123897314072, -0.072823598980904, 0.000000000000000, -0.850698649883270, 0.036481495946646, -0.234827101230621, 0.368553996086121, 0.203389883041382, 0.000000000000000, 0.036522939801216, 0.019918879494071, 0.477367192506790, -0.177609726786613, 0.232370406389236, 0.022976579144597, 0.743405342102051, -0.007283885497600, 0.233188480138779, -0.006612180732191, -0.159986302256584
-0.063124582171440, 0.006663050968200, 0.259500235319138, 0.234905689954758, -0.072447739541531, 0.000000000000000, -0.845428764820099, 0.041198663413525, -0.237102299928665, 0.359791129827499, 0.213597521185875, 0.000000000000000, 0.036596186459064, 0.019483499228954, 0.480667501688004, -0.175606682896614, 0.230008989572525, 0.019346132874489, 0.741590023040771, -0.007360351737589, 0.233100429177284, -0.007261811289936, -0.158428817987442
-0.060467354953289, 0.012344053015113, 0.251627892255783, 0.270395547151566, -0.070052690804005, 0.000000000000000, -0.835211694240570, 0.045647028833628, -0.238538533449173, 0.356175303459167, 0.223552197217941, 0.000000000000000, 0.037171628326178, 0.018925147131085, 0.484416365623474, -0.172794848680496, 0.227017030119896, 0.015605513006449, 0.739995241165161, -0.007431317120790, 0.233139932155609, -0.007930144667625, -0.156411588191986
-0.058806180953979, 0.018689177930355, 0.242995366454124, 0.309730619192123, -0.065612711012363, 0.000000000000000, -0.822406828403473, 0.049784295260906, -0.239543601870537, 0.355509608983994, 0.232829049229622, 0.000000000000000, 0.038537811487913, 0.018308093771338, 0.488690078258514, -0.169017389416695, 0.223630368709564, 0.011841882020235, 0.738666176795959, -0.007484147325158, 0.233330041170120, -0.008587582036853, -0.154111564159393
-0.057922545820475, 0.025172896683216, 0.233678638935089, 0.352996259927750, -0.059178963303566, 0.000000000000000, -0.807164072990417, 0.053715731948614, -0.240375295281410, 0.356240957975388, 0.240972116589546, 0.000000000000000, 0.040973242372274, 0.017728896811604, 0.493486821651459, -0.164215251803398, 0.220180392265320, 0.008178316988051, 0.737598717212677, -0.007501236628741, 0.233672499656677, -0.009192362427711, -0.151779413223267
-0.057696420699358, 0.031653694808483, 0.223653510212898, 0.400159686803818, -0.050909202545881, 0.000000000000000, -0.788086771965027, 0.057822041213512, -0.241169020533562, 0.357442736625671, 0.247615203261375, 0.000000000000000, 0.044636797159910, 0.017306549474597, 0.498698502779007, -0.158556714653969, 0.217102602124214, 0.004775915294886, 0.736672520637512, -0.007459897082299, 0.234118759632111, -0.009689883328974, -0.149686843156815
-0.058401752263308, 0.038706582039595, 0.212691068649292, 0.450970530509949, -0.041119441390038, 0.000000000000000, -0.763785660266876, 0.062779746949673, -0.242059901356697, 0.358549892902374, 0.252547621726990, 0.000000000000000, 0.049550216645002, 0.017179608345032, 0.504092574119568, -0.152502894401550, 0.214919358491898, 0.001829021377489, 0.735616147518158, -0.007333074230701, 0.234554141759872, -0.010014093481004, -0.148165538907051
-0.061105381697416, 0.047410238534212, 0.200480461120605, 0.504835486412048, -0.030355902388692, 0.000000000000000, -0.733858227729797, 0.069225005805492, -0.243188679218292, 0.359134376049042, 0.255700618028641, 0.000000000000000, 0.055689290165901, 0.017518447712064, 0.509313583374023, -0.146740227937698, 0.214180618524551, -0.000456689391285, 0.734038114547729, -0.007092366460711, 0.234810933470726, -0.010094788856804, -0.147704243659973
-0.068020574748516, 0.058396276086569, 0.187132731080055, 0.560588896274567, -0.019428547471762, 0.000000000000000, -0.699132978916168, 0.077306054532528, -0.244617789983749, 0.358723044395447, 0.257087767124176, 0.000000000000000, 0.063017062842846, 0.018479451537132, 0.513902842998505, -0.142059370875359, 0.215310499072075, -0.001929438556544, 0.731485605239868, -0.006717258598655, 0.234694123268127, -0.009880107827485, -0.148974537849426
-0.081843160092831, 0.071413725614548, 0.173413068056107, 0.616401433944702, -0.009306536987424, 0.000000000000000, -0.661380708217621, 0.086516313254833, -0.246279031038284, 0.356756985187531, 0.256752014160156, 0.000000000000000, 0.071425899863243, 0.020112419500947, 0.517361104488373, -0.139210328459740, 0.218418732285500, -0.002573142992333, 0.727522790431976, -0.006206622347236, 0.234016329050064, -0.009364717639983, -0.152720794081688
-0.104241244494915, 0.085969328880310, 0.160223886370659, 0.669969260692596, -0.000903470208868, 0.000000000000000, -0.622710645198822, 0.095732606947422, -0.247946158051491, 0.352705121040344, 0.254741668701172, 0.000000000000000, 0.080698043107986, 0.022322591394186, 0.519296407699585, -0.138703554868698, 0.223240897059441, -0.002536561805755, 0.721844255924225, -0.005582486279309, 0.232647791504860, -0.008599724620581, -0.159493505954742
-0.135480314493179, 0.101345524191856, 0.148277878761292, 0.718660235404968, 0.005139513872564, 0.000000000000000, -0.584742665290833, 0.103611506521702, -0.249311894178391, 0.346311330795288, 0.251122415065765, 0.000000000000000, 0.090509757399559, 0.024907628074288, 0.519567072391510, -0.140689149498940, 0.229249536991119, -0.002087771426886, 0.714354455471039, -0.004882975947112, 0.230550289154053, -0.007676513399929, -0.169433280825615
-0.176422536373138, 0.115290932357311, 0.138748422265053, 0.758951187133789, 0.008857998996973, 0.000000000000000, -0.547594428062439, 0.109674647450447, -0.250290632247925, 0.338010162115097, 0.246049791574478, 0.000000000000000, 0.100464291870594, 0.027748519554734, 0.518332600593567, -0.144950464367867, 0.235875248908997, -0.001519760582596, 0.705180704593658, -0.004148580599576, 0.227781832218170, -0.006693981122226, -0.182132706046104
-0.228344857692719, 0.125413522124290, 0.132791444659233, 0.786461293697357, 0.011484508402646, 0.000000000000000, -0.510233938694000, 0.114574611186981, -0.251121193170547, 0.328805565834045, 0.239766955375671, 0.000000000000000, 0.110121302306652, 0.030814912170172, 0.515859484672546, -0.151022642850876, 0.242615893483162, -0.001105844741687, 0.694612979888916, -0.003415738232434, 0.224469617009163, -0.005743148736656, -0.196745708584785
-0.288047432899475, 0.133178442716599, 0.129372760653496, 0.799501836299896, 0.014542168937624, 0.000000000000000, -0.473353594541550, 0.117916554212570, -0.251785784959793, 0.318978577852249, 0.232382565736771, 0.000000000000000, 0.119249202311039, 0.033755011856556, 0.512255609035492, -0.158250644803047, 0.248975023627281, -0.001129449112341, 0.683077752590179, -0.002720704767853, 0.220798075199127, -0.004917121026665, -0.212638810276985
-0.352006673812866, 0.139758840203285, 0.127540230751038, 0.798367798328400, 0.018720392137766, 0.000000000000000, -0.437695175409317, 0.119390211999416, -0.252272933721542, 0.308823794126511, 0.224007084965706, 0.000000000000000, 0.127782538533211, 0.036117590963840, 0.507635176181793, -0.165922269225121, 0.254585713148117, -0.001821756712161, 0.671064555644989, -0.002091467846185, 0.216977208852768, -0.004290351178497, -0.229339227080345
-0.417789280414581, 0.145294129848480, 0.126897782087326, 0.783882558345795, 0.024271117523313, 0.000000000000000, -0.403499484062195, 0.119231037795544, -0.252693831920624, 0.298836082220078, 0.214787676930428, 0.000000000000000, 0.135756626725197, 0.037516199052334, 0.502181947231293, -0.173439115285873, 0.259293317794800, -0.003318572882563, 0.659025847911835, -0.001542860059999, 0.213199526071548, -0.003905118675902, -0.246491551399231
-0.483319371938705, 0.149648815393448, 0.127215802669525, 0.757178664207458, 0.031366650015116, 0.000000000000000, -0.370716571807861, 0.117975965142250, -0.253210157155991, 0.289563655853271, 0.204887643456459, 0.000000000000000, 0.143265977501869, 0.037620473653078, 0.496098130941391, -0.180485978722572, 0.263052344322205, -0.005708916112781, 0.647270977497101, -0.001083350623958, 0.209594905376434, -0.003788110101596, -0.263979107141495
-0.546648025512695, 0.152392208576202, 0.128423377871513, 0.719802439212799, 0.040128052234650, 0.000000000000000, -0.339101195335388, 0.116369567811489, -0.254000991582870, 0.281593978404999, 0.194511219859123, 0.000000000000000, 0.150464594364166, 0.036148287355900, 0.489523887634277, -0.186974316835403, 0.265807718038559, -0.009091706946492, 0.635968685150146, -0.000722255383153, 0.206232190132141, -0.003969070501626, -0.281953603029251
-0.605736851692200, 0.152634710073471, 0.130633831024170, 0.674024403095245, 0.050560504198074, 0.000000000000000, -0.308313846588135, 0.115278065204620, -0.255235493183136, 0.275550603866577, 0.183938145637512, 0.000000000000000, 0.157591462135315, 0.032944682985544, 0.482500135898590, -0.192765310406685, 0.267627030611038, -0.013502254150808, 0.625270366668701, -0.000461509538582, 0.203173324465752, -0.004458168055862, -0.300584346055984
-0.658426403999329, 0.149462938308716, 0.133895352482796, 0.623129904270172, 0.062390126287937, 0.000000000000000, -0.278140723705292, 0.115413479506969, -0.257024854421616, 0.271984934806824, 0.173511773347855, 0.000000000000000, 0.164787471294403, 0.027970762923360, 0.474933356046677, -0.197614163160324, 0.268818825483322, -0.018844733014703, 0.615335643291473, -0.000288515642751, 0.200484588742256, -0.005225444212556, -0.319765418767929
-0.703285753726959, 0.143690258264542, 0.137450069189072, 0.570886790752411, 0.075063578784466, 0.000000000000000, -0.248323649168015, 0.116580188274384, -0.259232312440872, 0.271329551935196, 0.163603648543358, 0.000000000000000, 0.171719729900360, 0.021063121035695, 0.466718494892120, -0.201350376009941, 0.269616514444351, -0.025056723505259, 0.606261789798737, -0.000194722262677, 0.198205322027206, -0.006251795217395, -0.339025706052780
-0.740543723106384, 0.137897849082947, 0.139800935983658, 0.520620346069336, 0.088144116103649, 0.000000000000000, -0.218456760048866, 0.117931626737118, -0.261559456586838, 0.273928761482239, 0.154604971408844, 0.000000000000000, 0.177906185388565, 0.012119784019887, 0.458021998405457, -0.203835144639015, 0.270063042640686, -0.032159041613340, 0.598136186599731, -0.000180751056178, 0.196369946002960, -0.007543532177806, -0.357759207487106
-0.769848525524139, 0.133634284138680, 0.139865547418594, 0.475864022970200, 0.101518839597702, 0.000000000000000, -0.188831835985184, 0.119240052998066, -0.263949006795883, 0.279846519231796, 0.146899491548538, 0.000000000000000, 0.183292880654335, 0.001409108866937, 0.448767989873886, -0.205181613564491, 0.270271986722946, -0.040096424520016, 0.590871989727020, -0.000239347529714, 0.194938674569130, -0.009082953445613, -0.375988036394119
-0.788447976112366, 0.129538729786873, 0.137939259409904, 0.440749526023865, 0.115327447652817, 0.000000000000000, -0.160575002431870, 0.120793841779232, -0.266550540924072, 0.288809925317764, 0.140835791826248, 0.000000000000000, 0.187813565135002, -0.010747660882771, 0.438346028327942, -0.205802723765373, 0.270340025424957, -0.048784792423248, 0.584153234958649, -0.000360536098015, 0.193775460124016, -0.010842695832253, -0.394395768642426
-0.796557366847992, 0.123335242271423, 0.135122284293175, 0.416981279850006, 0.129701241850853, 0.000000000000000, -0.134995847940445, 0.122467331588268, -0.269400238990784, 0.300361096858978, 0.136691808700562, 0.000000000000000, 0.191151335835457, -0.023756342008710, 0.426892936229706, -0.206085473299026, 0.270143419504166, -0.058242738246918, 0.577667355537415, -0.000545096641872, 0.192746639251709, -0.012825901620090, -0.413313180208206
-0.796966135501862, 0.115134216845036, 0.131666213274002, 0.403746813535690, 0.144610181450844, 0.000000000000000, -0.113438561558723, 0.123813420534134, -0.272427469491959, 0.313923805952072, 0.134656220674515, 0.000000000000000, 0.193925768136978, -0.035941310226917, 0.416225045919418, -0.206422045826912, 0.269487202167511, -0.068525783717632, 0.571110904216766, -0.000798113876954, 0.191721677780151, -0.015047334134579, -0.433343648910522
-0.793067574501038, 0.105847470462322, 0.127490192651749, 0.399245351552963, 0.159805238246918, 0.000000000000000, -0.097024910151958, 0.123961418867111, -0.275406986474991, 0.328886449337006, 0.134835749864578, 0.000000000000000, 0.196805000305176, -0.046267982572317, 0.407663583755493, -0.207208782434464, 0.268175303936005, -0.079710081219673, 0.564187169075012, -0.001127546071075, 0.190572917461395, -0.017529647797346, -0.456541031599045
-0.788161993026733, 0.096331492066383, 0.122570835053921, 0.401233911514282, 0.174818694591522, 0.000000000000000, -0.086366862058640, 0.122111946344376, -0.278117030858994, 0.344747900962830, 0.137260496616364, 0.000000000000000, 0.199680730700493, -0.054690454155207, 0.401750475168228, -0.208625152707100, 0.266070127487183, -0.091879948973656, 0.556732952594757, -0.001542688929476, 0.189231008291245, -0.020300475880504, -0.483338803052902
-0.784224390983582, 0.087219968438148, 0.117022491991520, 0.407318890094757, 0.189098879694939, 0.000000000000000, -0.081626750528812, 0.117947041988373, -0.280504643917084, 0.361069917678833, 0.141908302903175, 0.000000000000000, 0.202449753880501, -0.061134207993746, 0.398874700069427, -0.210992634296417, 0.262995809316635, -0.105172351002693, 0.548441052436829, -0.002059509046376, 0.187565997242928, -0.023405451327562, -0.513297498226166
-0.781576156616211, 0.078523248434067, 0.111200593411922, 0.415124773979187, 0.202190339565277, 0.000000000000000, -0.082336246967316, 0.111733861267567, -0.282698214054108, 0.377511352300644, 0.148700222373009, 0.000000000000000, 0.205201342701912, -0.065675146877766, 0.398848265409470, -0.214718535542488, 0.258705675601959, -0.119778782129288, 0.538883864879608, -0.002700310433283, 0.185396775603294, -0.026907557621598, -0.546313822269440
-0.780031442642212, 0.069561585783958, 0.105637699365616, 0.422515243291855, 0.213832095265388, 0.000000000000000, -0.087194010615349, 0.104290388524532, -0.284936398267746, 0.393911808729172, 0.157424077391624, 0.000000000000000, 0.208267733454704, -0.068701080977917, 0.400826334953308, -0.220033928751945, 0.253075361251831, -0.135813102126122, 0.527711868286133, -0.003479567822069, 0.182575374841690, -0.030847273766994, -0.582793533802032
-0.779458642005920, 0.059712126851082, 0.100696377456188, 0.428122401237488, 0.223974287509918, 0.000000000000000, -0.094625137746334, 0.096991971135139, -0.287600576877594, 0.410133987665176, 0.167517721652985, 0.000000000000000, 0.212229073047638, -0.070639312267303, 0.403715014457703, -0.227006986737251, 0.246296972036362, -0.153160914778709, 0.514688789844513, -0.004389658570290, 0.179001078009605, -0.035198681056499, -0.623350322246552
-0.780003070831299, 0.049057014286518, 0.096371285617352, 0.431404560804367, 0.232723087072372, 0.000000000000000, -0.104089133441448, 0.091007053852081, -0.291120737791061, 0.425493031740189, 0.177942022681236, 0.000000000000000, 0.217538848519325, -0.071594528853893, 0.406732201576233, -0.235745206475258, 0.238883152604103, -0.171427235007286, 0.499604940414429, -0.005397857632488, 0.174581512808800, -0.039855051785707, -0.668112576007843
-0.782201766967773, 0.038187175989151, 0.092443794012070, 0.432344853878021, 0.240260317921638, 0.000000000000000, -0.116175539791584, 0.086371459066868, -0.295696973800659, 0.438678324222565, 0.187625721096992, 0.000000000000000, 0.224452018737793, -0.071396343410015, 0.409549057483673, -0.246385455131531, 0.231466367840767, -0.190035834908485, 0.482302635908127, -0.006456715986133, 0.169241964817047, -0.044657621532679, -0.716566205024719
-0.786768317222595, 0.027539812028408, 0.088774561882019, 0.431169599294662, 0.246775761246681, 0.000000000000000, -0.131440490484238, 0.082766018807888, -0.301386743783951, 0.448574334383011, 0.195913016796112, 0.000000000000000, 0.233359143137932, -0.069977052509785, 0.412151217460632, -0.258763372898102, 0.224531769752502, -0.208438366651535, 0.462868601083755, -0.007521062158048, 0.163008451461792, -0.049454156309366, -0.767911970615387
-0.793930590152740, 0.017159491777420, 0.085387654602528, 0.428258836269379, 0.252435296773911, 0.000000000000000, -0.149871602654457, 0.080045193433762, -0.308193057775497, 0.454702734947205, 0.202553689479828, 0.000000000000000, 0.244775712490082, -0.067606762051582, 0.414851874113083, -0.272103339433670, 0.218225568532944, -0.226334169507027, 0.441798269748688, -0.008563062176108, 0.156080082058907, -0.054158858954906, -0.821167767047882
-0.803080797195435, 0.006918478291482, 0.082376174628735, 0.424091905355453, 0.257376194000244, 0.000000000000000, -0.170667335391045, 0.078092709183693, -0.316009193658829, 0.457273095846176, 0.207571953535080, 0.000000000000000, 0.258995860815048, -0.064875915646553, 0.417962342500687, -0.285193741321564, 0.212404936552048, -0.243710339069366, 0.419863075017929, -0.009574461728334, 0.148773625493050, -0.058763567358255, -0.875178635120392
-0.813080906867981, -0.003172832075506, 0.079780153930187, 0.419159024953842, 0.261709660291672, 0.000000000000000, -0.192271113395691, 0.076738327741623, -0.324626892805099, 0.457046657800674, 0.211165890097618, 0.000000000000000, 0.275821834802628, -0.062319647520781, 0.421478033065796, -0.296951949596405, 0.207006335258484, -0.260587215423584, 0.397777885198593, -0.010550199076533, 0.141381189227104, -0.063271097838879, -0.928408622741699
-0.822770535945892, -0.012880366295576, 0.077553533017635, 0.413902193307877, 0.265522390604019, 0.000000000000000, -0.212856471538544, 0.075759217143059, -0.333803415298462, 0.454995542764664, 0.213608384132385, 0.000000000000000, 0.294597655534744, -0.060282073915005, 0.425239264965057, -0.306570827960968, 0.202109724283218, -0.276972562074661, 0.376139968633652, -0.011484669521451, 0.134144946932793, -0.067682772874832, -0.978940010070801
-0.830874025821686, -0.021396268159151, 0.075387872755527, 0.408850044012070, 0.268894374370575, 0.000000000000000, -0.230571478605270, 0.074623949825764, -0.343171209096909, 0.452076226472855, 0.215173259377480, 0.000000000000000, 0.314461082220078, -0.059149324893951, 0.429416686296463, -0.313154041767120, 0.197553887963295, -0.293185859918594, 0.355656534433365, -0.012387799099088, 0.127357453107834, -0.072079226374626, -1.024980783462524
-0.837510228157043, -0.028393547981977, 0.073196709156036, 0.404004484415054, 0.271875590085983, 0.000000000000000, -0.245564788579941, 0.073046468198299, -0.352664321660995, 0.448459327220917, 0.216013863682747, 0.000000000000000, 0.334954887628555, -0.059296693652868, 0.433447748422623, -0.316429972648621, 0.193415001034737, -0.309321254491806, 0.336778551340103, -0.013261672109365, 0.121199145913124, -0.076484821736813, -1.065663099288940
-0.844671308994293, -0.035236380994320, 0.071681790053844, 0.398572444915771, 0.274476200342178, 0.000000000000000, -0.260538846254349, 0.071615859866142, -0.362802207469940, 0.443350881338120, 0.216145232319832, 0.000000000000000, 0.355742752552032, -0.060583628714085, 0.434992492198944, -0.317518591880798, 0.190634816884995, -0.324609160423279, 0.319262653589249, -0.014069980941713, 0.115546397864819, -0.080706425011158, -1.101128578186035
-0.850300431251526, -0.040184020996094, 0.070141896605492, 0.393299221992493, 0.276799023151398, 0.000000000000000, -0.273310303688049, 0.069561921060085, -0.372920602560043, 0.437596768140793, 0.215772166848183, 0.000000000000000, 0.375552833080292, -0.062363211065531, 0.435775756835938, -0.316079616546631, 0.188752710819244, -0.339630007743835, 0.303786367177963, -0.014827611856163, 0.110682740807533, -0.084873758256435, -1.131084084510803
-0.854509830474854, -0.042921636253595, 0.068582311272621, 0.388388723134995, 0.278878182172775, 0.000000000000000, -0.284044533967972, 0.066738091409206, -0.382911413908005, 0.431203514337540, 0.214941248297691, 0.000000000000000, 0.394001096487045, -0.064718663692474, 0.436847418546677, -0.312543958425522, 0.187408253550529, -0.354554980993271, 0.290678620338440, -0.015539048239589, 0.106738127768040, -0.089010342955589, -1.156267285346985
-0.859385490417480, -0.044682983309031, 0.067681476473808, 0.383221596479416, 0.280694067478180, 0.000000000000000, -0.295318752527237, 0.064136415719986, -0.393454074859619, 0.423387497663498, 0.213591232895851, 0.000000000000000, 0.410238206386566, -0.066993035376072, 0.436609655618668, -0.309039503335953, 0.187313184142113, -0.368246465921402, 0.278997242450714, -0.016172448173165, 0.103291064500809, -0.092831477522850, -1.177148818969727
-0.863484323024750, -0.045132707804441, 0.067306168377399, 0.378065764904022, 0.282308995723724, 0.000000000000000, -0.305390834808350, 0.060737919062376, -0.403845071792603, 0.414767950773239, 0.211798891425133, 0.000000000000000, 0.423963993787766, -0.068524360656738, 0.435745388269424, -0.306014329195023, 0.188101589679718, -0.380767852067947, 0.268389016389847, -0.016738232225180, 0.100190185010433, -0.096349045634270, -1.193672299385071
-0.865951001644135, -0.044467024505138, 0.067565076053143, 0.373179137706757, 0.283740639686584, 0.000000000000000, -0.313440978527069, 0.055829700082541, -0.413653075695038, 0.405655592679977, 0.209585204720497, 0.000000000000000, 0.435074418783188, -0.069433651864529, 0.434949606657028, -0.303432136774063, 0.189340576529503, -0.392291903495789, 0.258974909782410, -0.017242372035980, 0.097489342093468, -0.099593110382557, -1.206203460693359
-0.866938829421997, -0.042870108038187, 0.068575747311115, 0.368524461984634, 0.284976571798325, 0.000000000000000, -0.320003032684326, 0.049560584127903, -0.422970056533813, 0.395937085151672, 0.206953018903732, 0.000000000000000, 0.443483799695969, -0.070090144872665, 0.434448301792145, -0.301343917846680, 0.191017732024193, -0.402615368366241, 0.251028001308441, -0.017670223489404, 0.095304995775223, -0.102497301995754, -1.215338706970215
-0.866704046726227, -0.040383793413639, 0.070374526083469, 0.363941252231598, 0.286009937524796, 0.000000000000000, -0.325733304023743, 0.042221840471029, -0.431936979293823, 0.385460048913956, 0.203944236040115, 0.000000000000000, 0.449142903089523, -0.070809595286846, 0.434406787157059, -0.299773901700974, 0.193060100078583, -0.411598891019821, 0.244745314121246, -0.018011510372162, 0.093722470104694, -0.105013675987720, -1.221617698669434
-0.865350544452667, -0.037036791443825, 0.072956122457981, 0.359224349260330, 0.286843687295914, 0.000000000000000, -0.331139773130417, 0.034229435026646, -0.440696686506271, 0.374113410711288, 0.200647860765457, 0.000000000000000, 0.451908409595490, -0.071687534451485, 0.434784114360809, -0.299020439386368, 0.195173338055611, -0.419212013483047, 0.239939317107201, -0.018270472064614, 0.092662930488586, -0.107127964496613, -1.225329041481018
-0.862826943397522, -0.032876241952181, 0.076285086572170, 0.354155421257019, 0.287483990192413, 0.000000000000000, -0.336506962776184, 0.025977553799748, -0.449334442615509, 0.361836999654770, 0.197188898921013, 0.000000000000000, 0.451845079660416, -0.072540506720543, 0.435317873954773, -0.299341499805450, 0.197168260812759, -0.425373882055283, 0.236212253570557, -0.018455393612385, 0.091958537697792, -0.108825325965881, -1.226475000381470
-0.859027385711670, -0.027860883623362, 0.080261930823326, 0.348544567823410, 0.287934929132462, 0.000000000000000, -0.342046588659286, 0.017875917255878, -0.457912743091583, 0.348578035831451, 0.193725481629372, 0.000000000000000, 0.449311882257462, -0.073183707892895, 0.435772448778152, -0.300572633743286, 0.198899179697037, -0.430171787738800, 0.233248010277748, -0.018579566851258, 0.091480009257793, -0.110140778124332, -1.224957823753357
-0.853918433189392, -0.021936876699328, 0.084770947694778, 0.342261195182800, 0.288200348615646, 0.000000000000000, -0.348111450672150, 0.010348465293646, -0.466500312089920, 0.334226369857788, 0.190453454852104, 0.000000000000000, 0.444790661334991, -0.073565222322941, 0.436031162738800, -0.302068591117859, 0.200193345546722, -0.433955490589142, 0.230940848588943, -0.018661212176085, 0.091192044317722, -0.111177369952202, -1.220754861831665
-0.847645044326782, -0.015125479549170, 0.089736379683018, 0.335203409194946, 0.288285940885544, 0.000000000000000, -0.355286568403244, 0.003838331671432, -0.475195616483688, 0.318577468395233, 0.187613338232040, 0.000000000000000, 0.438274025917053, -0.073525898158550, 0.435842424631119, -0.303122758865356, 0.201094284653664, -0.436938673257828, 0.229343309998512, -0.018708704039454, 0.091126278042793, -0.112003356218338, -1.213827610015869
-0.840433835983276, -0.007277241908014, 0.095040269196033, 0.327281326055527, 0.288191527128220, 0.000000000000000, -0.364424079656601, -0.001215415773913, -0.484146803617477, 0.301349073648453, 0.185456633567810, 0.000000000000000, 0.429656416177750, -0.073034927248955, 0.434962838888168, -0.303472280502319, 0.201683357357979, -0.439063221216202, 0.228530257940292, -0.018718006089330, 0.091318927705288, -0.112607225775719, -1.204350471496582
-0.832529246807098, 0.001644423115067, 0.100614912807941, 0.318405836820602, 0.287906616926193, 0.000000000000000, -0.376156836748123, -0.004662637598813, -0.493417590856552, 0.282382100820541, 0.184255287051201, 0.000000000000000, 0.418768227100372, -0.071847565472126, 0.432956993579865, -0.303442090749741, 0.202218100428581, -0.439790934324265, 0.228393420577049, -0.018670609220862, 0.091721467673779, -0.112853735685349, -1.192391872406006
-0.824077963829041, 0.011620546691120, 0.106391020119190, 0.308499664068222, 0.287409603595734, 0.000000000000000, -0.390552163124084, -0.006626696791500, -0.502972483634949, 0.261796116828918, 0.184315577149391, 0.000000000000000, 0.405333876609802, -0.069545157253742, 0.429349750280380, -0.303467869758606, 0.203250721096992, -0.438247710466385, 0.228902608156204, -0.018532035872340, 0.092315904796124, -0.112523533403873, -1.177745223045349
-0.815092742443085, 0.022729406133294, 0.112235464155674, 0.297513067722321, 0.286667287349701, 0.000000000000000, -0.406971246004105, -0.007450256496668, -0.512683093547821, 0.240049004554749, 0.185944005846977, 0.000000000000000, 0.389106363058090, -0.065923430025578, 0.423776715993881, -0.303704202175140, 0.205204010009766, -0.433859586715698, 0.230164393782616, -0.018275240436196, 0.093146212399006, -0.111471220850945, -1.159994721412659
-0.805502116680145, 0.034976296126842, 0.118029780685902, 0.285440415143967, 0.285640627145767, 0.000000000000000, -0.424343079328537, -0.007494903635234, -0.522376537322998, 0.217832580208778, 0.189345613121986, 0.000000000000000, 0.369974613189697, -0.060959901660681, 0.416294455528259, -0.304141253232956, 0.208188459277153, -0.426535874605179, 0.232264131307602, -0.017892753705382, 0.094251602888107, -0.109672829508781, -1.138318061828613
-0.795214653015137, 0.048183396458626, 0.123723790049553, 0.272339254617691, 0.284294128417969, 0.000000000000000, -0.441845566034317, -0.006763640791178, -0.531948029994965, 0.195772677659988, 0.194551944732666, 0.000000000000000, 0.348066180944443, -0.054699897766113, 0.407966822385788, -0.304712504148483, 0.212125375866890, -0.416505575180054, 0.235310509800911, -0.017389373853803, 0.095683895051479, -0.107183299958706, -1.111589074134827
-0.784128844738007, 0.061973184347153, 0.129341274499893, 0.258336961269379, 0.282600909471512, 0.000000000000000, -0.459119439125061, -0.004933731630445, -0.541344583034515, 0.174313485622406, 0.201447308063507, 0.000000000000000, 0.323605328798294, -0.047504939138889, 0.399976730346680, -0.305214494466782, 0.216947674751282, -0.404107838869095, 0.239536076784134, -0.016771320253611, 0.097549200057983, -0.104084402322769, -1.079486608505249
-0.772160589694977, 0.075978167355061, 0.134910151362419, 0.243618562817574, 0.280541837215424, 0.000000000000000, -0.475950241088867, -0.001665828516707, -0.550490796566010, 0.153755664825439, 0.209869205951691, 0.000000000000000, 0.297114074230194, -0.040190532803535, 0.392643034458160, -0.305493801832199, 0.222489044070244, -0.389757215976715, 0.245127305388451, -0.016049498692155, 0.099933981895447, -0.100475959479809, -1.043082237243652
-0.759302914142609, 0.089791864156723, 0.140476778149605, 0.228406429290771, 0.278102576732635, 0.000000000000000, -0.491854816675186, 0.003194961929694, -0.559250593185425, 0.134393915534019, 0.219653904438019, 0.000000000000000, 0.269122630357742, -0.033117555081844, 0.386342734098434, -0.305568903684616, 0.228451505303383, -0.373907238245010, 0.252088963985443, -0.015241602435708, 0.102846428751945, -0.096468761563301, -1.003466963768005
-0.745501458644867, 0.103009529411793, 0.146091938018799, 0.212974548339844, 0.275282263755798, 0.000000000000000, -0.505789697170258, 0.009478155523539, -0.567396640777588, 0.116640098392963, 0.230644896626472, 0.000000000000000, 0.239936754107475, -0.026161050423980, 0.381702065467834, -0.305469423532486, 0.234497472643852, -0.357021212577820, 0.260328620672226, -0.014368593692780, 0.106253527104855, -0.092179112136364, -0.961226403713226
-0.730704247951508, 0.115441225469112, 0.151755273342133, 0.197628796100616, 0.272100329399109, 0.000000000000000, -0.516533255577087, 0.016947036609054, -0.574709057807922, 0.100878976285458, 0.242669403553009, 0.000000000000000, 0.209975466132164, -0.019367860630155, 0.379128485918045, -0.305312007665634, 0.240351840853691, -0.339444965124130, 0.269742876291275, -0.013446475379169, 0.110116340219975, -0.087693214416504, -0.917132616043091
-0.715106189250946, 0.126950904726982, 0.157468110322952, 0.182671949267387, 0.268595755100250, 0.000000000000000, -0.523059666156769, 0.025246210396290, -0.580987453460693, 0.087347775697708, 0.255513131618500, 0.000000000000000, 0.179760828614235, -0.012759588658810, 0.378966957330704, -0.305479526519775, 0.245817661285400, -0.321344822645187, 0.280073434114456, -0.012486404739320, 0.114327557384968, -0.083053395152092, -0.872213840484619
-0.699274778366089, 0.137416616082191, 0.163254052400589, 0.168380022048950, 0.264828592538834, 0.000000000000000, -0.524954259395599, 0.034003663808107, -0.586108148097992, 0.075998134911060, 0.268892586231232, 0.000000000000000, 0.149689614772797, -0.006311288103461, 0.381429791450500, -0.306915998458862, 0.250779598951340, -0.302649706602097, 0.290829688310623, -0.011492467485368, 0.118675053119659, -0.078240111470222, -0.827757000923157
-0.683984756469727, 0.146752163767815, 0.169153288006783, 0.154991582036018, 0.260896474123001, 0.000000000000000, -0.522652328014374, 0.043013237416744, -0.590090811252594, 0.066430352628231, 0.282458215951920, 0.000000000000000, 0.120172336697578, -0.000271050899755, 0.386419653892517, -0.310695648193359, 0.255167692899704, -0.283233046531677, 0.301553755998611, -0.010464274324477, 0.122958086431026, -0.073216579854488, -0.785353481769562
-0.670168101787567, 0.154543384909630, 0.175300642848015, 0.142626821994781, 0.256957203149796, 0.000000000000000, -0.518074393272400, 0.051622059196234, -0.593046009540558, 0.057664465159178, 0.295830816030502, 0.000000000000000, 0.092321224510670, 0.005066699814051, 0.393538117408752, -0.317242801189423, 0.259043693542480, -0.263051062822342, 0.311981827020645, -0.009401079267263, 0.127066791057587, -0.067973688244820, -0.746714651584625
-0.658665359020233, 0.160381659865379, 0.181845247745514, 0.131312996149063, 0.253303796052933, 0.000000000000000, -0.514005601406097, 0.058497793972492, -0.595052778720856, 0.048368450254202, 0.308675736188889, 0.000000000000000, 0.067746251821518, 0.009644809179008, 0.402033954858780, -0.326358288526535, 0.262612581253052, -0.242120847105980, 0.321931451559067, -0.008305012248456, 0.130935311317444, -0.062528386712074, -0.713333189487457
-0.649315834045410, 0.165647894144058, 0.188506796956062, 0.121271841228008, 0.250447630882263, 0.000000000000000, -0.510025322437286, 0.064646460115910, -0.596327126026154, 0.038627129048109, 0.320835113525391, 0.000000000000000, 0.046598263084888, 0.012997276149690, 0.412074387073517, -0.337653368711472, 0.265463501214981, -0.221056148409843, 0.331577390432358, -0.007206479087472, 0.134647235274315, -0.057038228958845, -0.685763359069824
-0.642101287841797, 0.170700639486313, 0.195204496383667, 0.112648621201515, 0.248759075999260, 0.000000000000000, -0.506235301494598, 0.070516467094421, -0.597030401229858, 0.028421863913536, 0.332227319478989, 0.000000000000000, 0.029164303094149, 0.014559207484126, 0.423217058181763, -0.350677162408829, 0.267131358385086, -0.200516790151596, 0.341050207614899, -0.006141139194369, 0.138269782066345, -0.051674503833055, -0.664801299571991
-0.637171626091003, 0.175260573625565, 0.201978743076324, 0.105421870946884, 0.248322337865829, 0.000000000000000, -0.503096520900726, 0.076026968657970, -0.597252666950226, 0.017696628347039, 0.342829287052155, 0.000000000000000, 0.016021147370338, 0.014355081133544, 0.434657245874405, -0.364895164966583, 0.267351239919662, -0.181006804108620, 0.350227892398834, -0.005142207723111, 0.141770377755165, -0.046578656882048, -0.650721371173859
-0.634323120117188, 0.179038941860199, 0.208838701248169, 0.099567443132401, 0.249025240540504, 0.000000000000000, -0.500708639621735, 0.081060044467449, -0.597042441368103, 0.006574149243534, 0.352663010358810, 0.000000000000000, 0.007251913659275, 0.013083241879940, 0.445278644561768, -0.379945248365402, 0.265898734331131, -0.162978529930115, 0.358598172664642, -0.004246622789651, 0.144955426454544, -0.041885100305080, -0.642908871173859
-0.633066236972809, 0.182010725140572, 0.215721547603607, 0.095029436051846, 0.250657737255096, 0.000000000000000, -0.498909652233124, 0.085491441190243, -0.596429169178009, -0.004681203979999, 0.361772924661636, 0.000000000000000, 0.002325395122170, 0.011379835195839, 0.454022049903870, -0.395544022321701, 0.262770116329193, -0.146703988313675, 0.365784466266632, -0.003478390863165, 0.147683277726173, -0.037677388638258, -0.640447258949280
-0.632831931114197, 0.184354960918427, 0.222522631287575, 0.091694906353951, 0.252976655960083, 0.000000000000000, -0.497444689273834, 0.089264623820782, -0.595454335212708, -0.015660669654608, 0.370213001966476, 0.000000000000000, 0.000533694343176, 0.009410056285560, 0.460545450448990, -0.411044925451279, 0.258177042007446, -0.132321894168854, 0.371985375881195, -0.002846573945135, 0.150049224495888, -0.033997584134340, -0.642356097698212
-0.633169829845428, 0.186270192265511, 0.229151174426079, 0.089401699602604, 0.255771219730377, 0.000000000000000, -0.496195852756500, 0.092302925884724, -0.594172894954681, -0.025913506746292, 0.378037154674530, 0.000000000000000, 0.001063764677383, 0.007213815581053, 0.465203523635864, -0.425923377275467, 0.252233564853668, -0.120004683732986, 0.377492010593414, -0.002361798426136, 0.152180448174477, -0.030892807990313, -0.647371709346771
-0.633801043033600, 0.187921717762947, 0.235549271106720, 0.087968885898590, 0.258888363838196, 0.000000000000000, -0.495234817266464, 0.094770945608616, -0.592699646949768, -0.034996114671230, 0.385300099849701, 0.000000000000000, 0.002465794794261, 0.005016131326556, 0.468751341104507, -0.440168678760529, 0.244820177555084, -0.109994530677795, 0.382346868515015, -0.002042054198682, 0.154090702533722, -0.028426174074411, -0.653836429119110
-0.634619593620300, 0.189383283257484, 0.241698026657104, 0.087195381522179, 0.262213289737701, 0.000000000000000, -0.494728326797485, 0.096927486360073, -0.591166496276855, -0.042578913271427, 0.392051756381989, 0.000000000000000, 0.003652412677184, 0.002724060788751, 0.471788167953491, -0.453474730253220, 0.236105695366859, -0.102241180837154, 0.386958926916122, -0.001882352400571, 0.155946716666222, -0.026581740006804, -0.660800576210022
-0.635846138000488, 0.190347775816917, 0.247654512524605, 0.086794354021549, 0.265580326318741, 0.000000000000000, -0.495382517576218, 0.098445378243923, -0.589641392230988, -0.048877410590649, 0.398306876420975, 0.000000000000000, 0.005159696098417, 0.000392013171222, 0.474598973989487, -0.465426594018936, 0.227130547165871, -0.095960885286331, 0.391883313655853, -0.001824134495109, 0.157974660396576, -0.025150662288070, -0.667635560035706
-0.637457191944122, 0.191292539238930, 0.253320306539536, 0.086519442498684, 0.268849849700928, 0.000000000000000, -0.496935009956360, 0.099866263568401, -0.588222205638885, -0.053819142282009, 0.404093891382217, 0.000000000000000, 0.006932883057743, -0.001690177596174, 0.476431101560593, -0.476215362548828, 0.219064906239510, -0.090221017599106, 0.397200852632523, -0.001799611258321, 0.160192996263504, -0.023884307593107, -0.673444211483002
-0.639191210269928, 0.192588746547699, 0.258599311113358, 0.086304798722267, 0.271937817335129, 0.000000000000000, -0.498692840337753, 0.101393111050129, -0.586890995502472, -0.057449281215668, 0.409429728984833, 0.000000000000000, 0.008076684549451, -0.003228771034628, 0.476893454790115, -0.486179053783417, 0.212302416563034, -0.084670498967171, 0.402744174003601, -0.001783320563845, 0.162515312433243, -0.022686006501317, -0.677425324916840
-0.640811741352081, 0.194382250308990, 0.263442516326904, 0.086169317364693, 0.274802446365356, 0.000000000000000, -0.500203490257263, 0.103065170347691, -0.585614383220673, -0.059941805899143, 0.414327055215836, 0.000000000000000, 0.008075062185526, -0.004229295533150, 0.476458221673965, -0.495408415794373, 0.206728309392929, -0.079329587519169, 0.408498048782349, -0.001775629818439, 0.164920628070831, -0.021555297076702, -0.679319143295288
-0.642190933227539, 0.196378707885742, 0.267887324094772, 0.086177937686443, 0.277437418699265, 0.000000000000000, -0.501881897449493, 0.104719310998917, -0.584396421909332, -0.061765603721142, 0.418789744377136, 0.000000000000000, 0.007064009085298, -0.004738782532513, 0.475532889366150, -0.503653347492218, 0.202227786183357, -0.074187636375427, 0.414435803890228, -0.001774438424036, 0.167390376329422, -0.020484233275056, -0.678894460201263
-0.643393397331238, 0.198559939861298, 0.271934479475021, 0.086306452751160, 0.279837161302567, 0.000000000000000, -0.503561854362488, 0.106579937040806, -0.583271384239197, -0.063033953309059, 0.422843337059021, 0.000000000000000, 0.005209105554968, -0.004720579367131, 0.474211841821671, -0.510675549507141, 0.198871836066246, -0.069066226482391, 0.420369863510132, -0.001765226596035, 0.169843778014183, -0.019421393051744, -0.675469934940338
-0.644575715065002, 0.200713723897934, 0.275625795125961, 0.086528666317463, 0.282000273466110, 0.000000000000000, -0.505062878131866, 0.108305044472218, -0.582198679447174, -0.063965395092964, 0.426506251096725, 0.000000000000000, 0.002612371696159, -0.004295045044273, 0.472509771585464, -0.516494691371918, 0.196606710553169, -0.063830420374870, 0.426085978746414, -0.001736082602292, 0.172189041972160, -0.018325289711356, -0.668439567089081
-0.645658135414124, 0.203061446547508, 0.278925269842148, 0.086829803884029, 0.283933371305466, 0.000000000000000, -0.506159603595734, 0.110063999891281, -0.581211984157562, -0.064588584005833, 0.429812133312225, 0.000000000000000, -0.000646543223411, -0.003799822414294, 0.470263719558716, -0.521094322204590, 0.195264801383018, -0.058473315089941, 0.431484133005142, -0.001684998976998, 0.174383640289307, -0.017189793288708, -0.657754838466644
-0.646550059318542, 0.205598413944244, 0.281838387250900, 0.087213702499866, 0.285657137632370, 0.000000000000000, -0.506887197494507, 0.111713103950024, -0.580307066440582, -0.065081648528576, 0.432784140110016, 0.000000000000000, -0.004302649758756, -0.003572555724531, 0.467419981956482, -0.524407923221588, 0.194653332233429, -0.053068287670612, 0.436540633440018, -0.001617019297555, 0.176420152187347, -0.016032841056585, -0.643996357917786
-0.647342324256897, 0.208119943737984, 0.284409284591675, 0.087649002671242, 0.287204295396805, 0.000000000000000, -0.507236838340759, 0.113355040550232, -0.579509794712067, -0.065512865781784, 0.435451894998550, 0.000000000000000, -0.007996510714293, -0.003499656217173, 0.464821100234985, -0.526555240154266, 0.194534018635750, -0.047700248658657, 0.441175609827042, -0.001538431970403, 0.178271174430847, -0.014875696040690, -0.627797484397888
-0.648183822631836, 0.210109889507294, 0.286738365888596, 0.088139601051807, 0.288621395826340, 0.000000000000000, -0.507369160652161, 0.114447146654129, -0.578747928142548, -0.066121913492680, 0.437836736440659, 0.000000000000000, -0.011351269669831, -0.003396208863705, 0.463233798742294, -0.527720034122467, 0.194722518324852, -0.042404323816299, 0.445317924022675, -0.001451322808862, 0.179913192987442, -0.013725846074522, -0.610411643981934
-0.649089694023132, 0.211643248796463, 0.288828223943710, 0.088658347725868, 0.289931386709213, 0.000000000000000, -0.507500112056732, 0.114977978169918, -0.578034460544586, -0.066983498632908, 0.439973741769791, 0.000000000000000, -0.014533591456711, -0.003150305943564, 0.462695002555847, -0.528049945831299, 0.195159018039703, -0.037142794579268, 0.448958128690720, -0.001351596089080, 0.181346789002419, -0.012571253813803, -0.593597769737244
-0.650062263011932, 0.212922424077988, 0.290665298700333, 0.089162521064281, 0.291136920452118, 0.000000000000000, -0.507821917533875, 0.115273401141167, -0.577434003353119, -0.068050742149353, 0.441902726888657, 0.000000000000000, -0.017727186903358, -0.002789485035464, 0.462717145681381, -0.527676701545715, 0.195811927318573, -0.031867910176516, 0.452130466699600, -0.001234251074493, 0.182590380311012, -0.011397258378565, -0.578978180885315
-0.651135385036469, 0.214011102914810, 0.292262196540833, 0.089615866541862, 0.292241871356964, 0.000000000000000, -0.508405148983002, 0.115541778504848, -0.576981842517853, -0.069255702197552, 0.443655788898468, 0.000000000000000, -0.020781937986612, -0.002411731285974, 0.462845683097839, -0.526804924011230, 0.196644976735115, -0.026534508913755, 0.454859465360641, -0.001094449078664, 0.183657780289650, -0.010189667344093, -0.567746102809906
-0.652331113815308, 0.214893981814384, 0.293641507625580, 0.089997000992298, 0.293260633945465, 0.000000000000000, -0.509258449077606, 0.115811355412006, -0.576680362224579, -0.070563614368439, 0.445252478122711, 0.000000000000000, -0.023470295593143, -0.002058137441054, 0.462777048349380, -0.525735795497894, 0.197668701410294, -0.021072747185826, 0.457123994827271, -0.000925317755900, 0.184542819857597, -0.008927666582167, -0.560712397098541
-0.653647899627686, 0.215519919991493, 0.294826298952103, 0.090298160910606, 0.294210761785507, 0.000000000000000, -0.510367453098297, 0.116052009165287, -0.576519131660461, -0.071961343288422, 0.446701794862747, 0.000000000000000, -0.025684397667646, -0.001732507022098, 0.462360411882401, -0.524724423885345, 0.198887929320335, -0.015450939536095, 0.458914667367935, -0.000723722972907, 0.185244455933571, -0.007601970806718, -0.558388531208038
-0.655072271823883, 0.215904593467712, 0.295825511217117, 0.090508967638016, 0.295098394155502, 0.000000000000000, -0.511666059494019, 0.116285614669323, -0.576486408710480, -0.073415972292423, 0.448008775711060, 0.000000000000000, -0.027492439374328, -0.001508354558609, 0.461653202772141, -0.523784160614014, 0.200163826346397, -0.009789299219847, 0.460326403379440, -0.000500604102854, 0.185807839035988, -0.006246830802411, -0.561038136482239
-0.656567931175232, 0.216149568557739, 0.296631187200546, 0.090623721480370, 0.295913904905319, 0.000000000000000, -0.513080596923828, 0.116566233336926, -0.576570391654968, -0.074893675744534, 0.449177056550980, 0.000000000000000, -0.029101323336363, -0.001536102034152, 0.460870742797852, -0.522699236869812, 0.201217591762543, -0.004337707534432, 0.461537718772888, -0.000279008381767, 0.186315208673477, -0.004933419637382, -0.568689227104187
-0.658057808876038, 0.216364502906799, 0.297229826450348, 0.090663537383080, 0.296642005443573, 0.000000000000000, -0.514498054981232, 0.116905525326729, -0.576750218868256, -0.076353810727596, 0.450210243463516, 0.000000000000000, -0.030711056664586, -0.001890285871923, 0.460200160741806, -0.521312296390533, 0.201855778694153, 0.000728702987544, 0.462636768817902, -0.000075363692304, 0.186809256672859, -0.003711780533195, -0.581105768680573
-0.659439027309418, 0.216573268175125, 0.297618031501770, 0.090682797133923, 0.297273457050323, 0.000000000000000, -0.515700638294220, 0.117189712822437, -0.576981723308563, -0.077726192772388, 0.451112776994705, 0.000000000000000, -0.032401017844677, -0.002472293330356, 0.459746509790421, -0.519774496555328, 0.202115565538406, 0.005441423971206, 0.463496834039688, 0.000112986861495, 0.187236413359642, -0.002572944620624, -0.597753047943115
-0.660674750804901, 0.216694295406342, 0.297812074422836, 0.090732149779797, 0.297803163528442, 0.000000000000000, -0.516531288623810, 0.117304392158985, -0.577236890792847, -0.078937970101833, 0.451888650655746, 0.000000000000000, -0.034104060381651, -0.003100317204371, 0.459697186946869, -0.518501818180084, 0.202163860201836, 0.009952412918210, 0.463849991559982, 0.000300210434943, 0.187476605176926, -0.001472920179367, -0.617800593376160
-0.661817789077759, 0.216629147529602, 0.297837287187576, 0.090828880667686, 0.298220813274384, 0.000000000000000, -0.517146110534668, 0.117124266922474, -0.577523827552795, -0.080031782388687, 0.452535301446915, 0.000000000000000, -0.035393882542849, -0.003650162136182, 0.460183292627335, -0.517900943756104, 0.202201187610626, 0.014422280713916, 0.463459879159927, 0.000501376169268, 0.187418550252914, -0.000365534157027, -0.640125036239624
-0.662890970706940, 0.216364517807961, 0.297704547643661, 0.090979672968388, 0.298513799905777, 0.000000000000000, -0.517738759517670, 0.116712786257267, -0.577884793281555, -0.081065125763416, 0.453049272298813, 0.000000000000000, -0.035685267299414, -0.004324295558035, 0.461462587118149, -0.517971634864807, 0.202139765024185, 0.018801078200340, 0.462500542402267, 0.000712201348506, 0.187119424343109, 0.000736522371881, -0.662665307521820
-0.663834393024445, 0.215812206268311, 0.297429382801056, 0.091222986578941, 0.298676580190659, 0.000000000000000, -0.517879724502563, 0.116258263587952, -0.578319072723389, -0.081896819174290, 0.453436255455017, 0.000000000000000, -0.035294450819492, -0.005530418362468, 0.463888347148895, -0.518330872058868, 0.201392874121666, 0.022698139771819, 0.461618393659592, 0.000897111662198, 0.186829030513763, 0.001726194866933, -0.682387351989746
-0.664611399173737, 0.215148091316223, 0.296983838081360, 0.091529347002506, 0.298689067363739, 0.000000000000000, -0.517705261707306, 0.115903638303280, -0.578868389129639, -0.082626260817051, 0.453691124916077, 0.000000000000000, -0.034867394715548, -0.007095574866980, 0.466069161891937, -0.518866240978241, 0.200033217668533, 0.026078805327415, 0.461094796657562, 0.001051662839018, 0.186643362045288, 0.002590637886897, -0.698007404804230
-0.665201365947723, 0.214584410190582, 0.296333461999893, 0.091848231852055, 0.298522531986237, 0.000000000000000, -0.517358064651489, 0.115701131522655, -0.579557478427887, -0.083345830440521, 0.453811645507812, 0.000000000000000, -0.034883219748735, -0.008486648090184, 0.467383861541748, -0.519444406032562, 0.198371559381485, 0.029016017913818, 0.461023658514023, 0.001180309685878, 0.186587437987328, 0.003343977034092, -0.709342122077942
-0.665557086467743, 0.214249685406685, 0.295454800128937, 0.092152662575245, 0.298154413700104, 0.000000000000000, -0.516805708408356, 0.115677312016487, -0.580389380455017, -0.084051966667175, 0.453802019357681, 0.000000000000000, -0.035443786531687, -0.009369870647788, 0.468105822801590, -0.519822597503662, 0.196615114808083, 0.031518045812845, 0.461549699306488, 0.001281426753849, 0.186712682247162, 0.003982258029282, -0.716327548027039
-0.665589749813080, 0.214223906397820, 0.294329494237900, 0.092447958886623, 0.297576963901520, 0.000000000000000, -0.515996992588043, 0.115884155035019, -0.581368267536163, -0.084705002605915, 0.453668713569641, 0.000000000000000, -0.036571320146322, -0.009642102755606, 0.468375712633133, -0.519795775413513, 0.194997683167458, 0.033649913966656, 0.462835729122162, 0.001358776120469, 0.187080785632133, 0.004518292844296, -0.718970119953156
-0.665196716785431, 0.214529767632484, 0.292945653200150, 0.092768110334873, 0.296798348426819, 0.000000000000000, -0.514894902706146, 0.116358555853367, -0.582496762275696, -0.085271313786507, 0.453417122364044, 0.000000000000000, -0.038348075002432, -0.009343432262540, 0.468028843402863, -0.519251048564911, 0.193788200616837, 0.035564918071032, 0.465045213699341, 0.001424800022505, 0.187756553292274, 0.004991525318474, -0.717349529266357
-0.664340794086456, 0.215169861912727, 0.291292846202850, 0.093139231204987, 0.295837104320526, 0.000000000000000, -0.513420045375824, 0.117119714617729, -0.583773791790009, -0.085721150040627, 0.453050613403320, 0.000000000000000, -0.040908563882113, -0.008609394542873, 0.466636121273041, -0.518210172653198, 0.193129643797874, 0.037386327981949, 0.468253135681152, 0.001490138936788, 0.188774138689041, 0.005435724742711, -0.711581110954285
-0.663020431995392, 0.216086789965630, 0.289365559816360, 0.093594908714294, 0.294729918241501, 0.000000000000000, -0.511436164379120, 0.118208937346935, -0.585199534893036, -0.086017161607742, 0.452572166919708, 0.000000000000000, -0.044264938682318, -0.007681027986109, 0.463757097721100, -0.516791641712189, 0.192813903093338, 0.039028570055962, 0.472348719835281, 0.001547197578475, 0.190101459622383, 0.005829093512148, -0.701752424240112
-0.661298573017120, 0.217098623514175, 0.287175536155701, 0.094174608588219, 0.293533742427826, 0.000000000000000, -0.508697330951691, 0.119653381407261, -0.586765289306641, -0.086091853678226, 0.451986849308014, 0.000000000000000, -0.048051811754704, -0.006976963952184, 0.459749519824982, -0.515104532241821, 0.192346617579460, 0.040247168391943, 0.477157622575760, 0.001574157853611, 0.191688418388367, 0.006107494700700, -0.687975585460663
-0.659422636032104, 0.217901706695557, 0.284759759902954, 0.094871260225773, 0.292307317256927, 0.000000000000000, -0.505222618579865, 0.121245078742504, -0.588455915451050, -0.086005009710789, 0.451295167207718, 0.000000000000000, -0.051194813102484, -0.006910338532180, 0.456038415431976, -0.513370215892792, 0.191431358456612, 0.040948804467916, 0.482413202524185, 0.001563376514241, 0.193446233868599, 0.006249385420233, -0.671364247798920
-0.657872378826141, 0.218307405710220, 0.282150089740753, 0.095568023622036, 0.291085839271545, 0.000000000000000, -0.502063453197479, 0.122371174395084, -0.590295910835266, -0.086235560476780, 0.450479894876480, 0.000000000000000, -0.052597980946302, -0.007441466208547, 0.453671753406525, -0.512157738208771, 0.190243840217590, 0.041300129145384, 0.487489491701126, 0.001531671616249, 0.195133969187737, 0.006304332055151, -0.654784560203552
-0.656806766986847, 0.218356162309647, 0.279334187507629, 0.096241965889931, 0.289933651685715, 0.000000000000000, -0.499278157949448, 0.123122945427895, -0.592321395874023, -0.086656123399734, 0.449561029672623, 0.000000000000000, -0.053059853613377, -0.008391544222832, 0.452515095472336, -0.511952757835388, 0.188775002956390, 0.041314676403999, 0.491893023252487, 0.001480826991610, 0.196560516953468, 0.006277848035097, -0.640957176685333
-0.656099200248718, 0.218242809176445, 0.276274591684341, 0.096937924623489, 0.288925796747208, 0.000000000000000, -0.496506601572037, 0.123889662325382, -0.594563841819763, -0.086914949119091, 0.448568046092987, 0.000000000000000, -0.053244445472956, -0.009850472211838, 0.451752394437790, -0.512724459171295, 0.186888545751572, 0.040924802422523, 0.495614171028137, 0.001403668429703, 0.197732716798782, 0.006150995381176, -0.631814181804657
-0.655746877193451, 0.217992365360260, 0.272977888584137, 0.097649343311787, 0.288111716508865, 0.000000000000000, -0.493910312652588, 0.124663129448891, -0.597033560276031, -0.087005756795406, 0.447505593299866, 0.000000000000000, -0.052969794720411, -0.011987313628197, 0.450891792774200, -0.514194369316101, 0.184553369879723, 0.040135771036148, 0.498909503221512, 0.001299377647229, 0.198764279484749, 0.005924207158387, -0.628647387027740
-0.655869007110596, 0.217535942792892, 0.269475281238556, 0.098321832716465, 0.287516564130783, 0.000000000000000, -0.491829931735992, 0.125270128250122, -0.599726080894470, -0.087086148560047, 0.446366459131241, 0.000000000000000, -0.051959145814180, -0.014920658431947, 0.449807524681091, -0.516144216060638, 0.181805193424225, 0.038997799158096, 0.502039134502411, 0.001171664451249, 0.199766784906387, 0.005610672757030, -0.632142245769501
-0.656518220901489, 0.216830790042877, 0.265793204307556, 0.098930671811104, 0.287151962518692, 0.000000000000000, -0.490364521741867, 0.125524356961250, -0.602607667446136, -0.087204046547413, 0.445146024227142, 0.000000000000000, -0.050079971551895, -0.018644293770194, 0.448457360267639, -0.518496334552765, 0.178692445158958, 0.037562392652035, 0.505089461803436, 0.001024826662615, 0.200779244303703, 0.005224371794611, -0.642389416694641
-0.657643496990204, 0.215851724147797, 0.261953145265579, 0.099507398903370, 0.287018001079559, 0.000000000000000, -0.489403158426285, 0.125401616096497, -0.605652630329132, -0.087258674204350, 0.443847239017487, 0.000000000000000, -0.047332689166069, -0.022961974143982, 0.446722626686096, -0.521284043788910, 0.175265237689018, 0.035872869193554, 0.507917046546936, 0.000862801505718, 0.201747596263885, 0.004777364432812, -0.658963263034821
-0.659127652645111, 0.214601755142212, 0.257971346378326, 0.100113660097122, 0.287101477384567, 0.000000000000000, -0.488742828369141, 0.124982565641403, -0.608846604824066, -0.087266638875008, 0.442479133605957, 0.000000000000000, -0.043859671801329, -0.027534056454897, 0.444452881813049, -0.524508416652679, 0.171526223421097, 0.033944159746170, 0.510248303413391, 0.000686916697305, 0.202567189931870, 0.004273987375200, -0.681045591831207
-0.660842061042786, 0.213109001517296, 0.253859817981720, 0.100802972912788, 0.287372261285782, 0.000000000000000, -0.488187223672867, 0.124356679618359, -0.612177371978760, -0.087266996502876, 0.441055983304977, 0.000000000000000, -0.039921112358570, -0.032006304711103, 0.441685616970062, -0.527936875820160, 0.167423769831657, 0.031769037246704, 0.511874258518219, 0.000496137421578, 0.203163623809814, 0.003712251083925, -0.707549154758453
-0.662691235542297, 0.211412519216537, 0.249628946185112, 0.101597554981709, 0.287784188985825, 0.000000000000000, -0.487626761198044, 0.123564310371876, -0.615631222724915, -0.087266996502876, 0.439595729112625, 0.000000000000000, -0.035837300121784, -0.036075878888369, 0.438728600740433, -0.531073093414307, 0.162948995828629, 0.029369229450822, 0.512736678123474, 0.000291940523311, 0.203526660799980, 0.003097658278421, -0.737222373485565
-0.664632678031921, 0.209572345018387, 0.245283395051956, 0.102480359375477, 0.288280516862869, 0.000000000000000, -0.487073004245758, 0.122606553137302, -0.619197189807892, -0.087266996502876, 0.438115417957306, 0.000000000000000, -0.032038673758507, -0.039464652538300, 0.435965508222580, -0.533422231674194, 0.158238872885704, 0.026828367263079, 0.512811541557312, 0.000081595237134, 0.203657075762749, 0.002451853128150, -0.768712103366852
-0.666691064834595, 0.207666754722595, 0.240818962454796, 0.103385217487812, 0.288796156644821, 0.000000000000000, -0.486622780561447, 0.121646538376808, -0.622894406318665, -0.087266996502876, 0.436626940965652, 0.000000000000000, -0.029255492612720, -0.041947852820158, 0.433903872966766, -0.534757673740387, 0.153613328933716, 0.024295719340444, 0.512024521827698, -0.000121368801047, 0.203523740172386, 0.001813547569327, -0.800436198711395
-0.668923377990723, 0.205833017826080, 0.236214742064476, 0.104210801422596, 0.289267539978027, 0.000000000000000, -0.486399382352829, 0.120808646082878, -0.626737952232361, -0.087266996502876, 0.435131639242172, 0.000000000000000, -0.027821112424135, -0.043641068041325, 0.433439761400223, -0.535103321075439, 0.149543955922127, 0.021979693323374, 0.510319948196411, -0.000297668972053, 0.203088387846947, 0.001237298478372, -0.830063998699188
-0.671220600605011, 0.204404175281525, 0.231408432126045, 0.104909792542458, 0.289662599563599, 0.000000000000000, -0.486207783222198, 0.120241247117519, -0.630721151828766, -0.087266996502876, 0.433636605739594, 0.000000000000000, -0.026895830407739, -0.045146401971579, 0.434453219175339, -0.534500539302826, 0.146522164344788, 0.020091183483601, 0.507757604122162, -0.000428057304816, 0.202352955937386, 0.000777944107540, -0.854730665683746
-0.673247754573822, 0.203672304749489, 0.226342394948006, 0.105556555092335, 0.290010750293732, 0.000000000000000, -0.485579222440720, 0.120039284229279, -0.634808480739594, -0.087266996502876, 0.432153314352036, 0.000000000000000, -0.026968915015459, -0.046363510191441, 0.435192614793777, -0.532976686954498, 0.144738405942917, 0.018683660775423, 0.504587113857269, -0.000508868834004, 0.201394304633141, 0.000447127094958, -0.872997939586639
-0.675076425075531, 0.203093618154526, 0.221130445599556, 0.106194570660591, 0.290357559919357, 0.000000000000000, -0.484646260738373, 0.119889192283154, -0.638973593711853, -0.087266996502876, 0.430661112070084, 0.000000000000000, -0.028485730290413, -0.046571485698223, 0.436094194650650, -0.530938029289246, 0.143625080585480, 0.017428534105420, 0.501244962215424, -0.000572987715714, 0.200355499982834, 0.000153700748342, -0.885391950607300
-0.676898419857025, 0.202309027314186, 0.215871214866638, 0.106824189424515, 0.290768414735794, 0.000000000000000, -0.483595132827759, 0.119643419981003, -0.643213927745819, -0.087266996502876, 0.429145693778992, 0.000000000000000, -0.030722927302122, -0.046117279678583, 0.437343209981918, -0.529088795185089, 0.142565459012985, 0.015999864786863, 0.498137265443802, -0.000651921553072, 0.199359834194183, -0.000190131409909, -0.894218504428864
-0.678824722766876, 0.201277494430542, 0.210617616772652, 0.107455149292946, 0.291315019130707, 0.000000000000000, -0.482502043247223, 0.119376502931118, -0.647529602050781, -0.087266996502876, 0.427607655525208, 0.000000000000000, -0.033026251941919, -0.045721113681793, 0.438519537448883, -0.527961373329163, 0.141255587339401, 0.014278910122812, 0.495645642280579, -0.000756336783525, 0.198529094457626, -0.000613474345300, -0.901938498020172
-0.680929422378540, 0.200067818164825, 0.205408677458763, 0.108093857765198, 0.292056649923325, 0.000000000000000, -0.481445163488388, 0.119223721325397, -0.651910066604614, -0.087266996502876, 0.426054507493973, 0.000000000000000, -0.035099245607853, -0.045848838984966, 0.439279437065125, -0.527749419212341, 0.139635667204857, 0.012306895107031, 0.494147449731827, -0.000881342566572, 0.197997674345970, -0.001101050642319, -0.910292327404022
-0.683241546154022, 0.198799371719360, 0.200272887945175, 0.108738571405411, 0.293032526969910, 0.000000000000000, -0.480487793684006, 0.119264237582684, -0.656324148178101, -0.087266996502876, 0.424495935440063, 0.000000000000000, -0.036798901855946, -0.046666488051414, 0.439465463161469, -0.528375267982483, 0.137801945209503, 0.010212562978268, 0.493954151868820, -0.001013954286464, 0.197886049747467, -0.001614300068468, -0.920128524303436
-0.685721933841705, 0.197561860084534, 0.195236817002296, 0.109393000602722, 0.294260889291763, 0.000000000000000, -0.479748070240021, 0.119534708559513, -0.660742223262787, -0.087266996502876, 0.422940731048584, 0.000000000000000, -0.038085713982582, -0.048102237284184, 0.439079105854034, -0.529638528823853, 0.135851547122002, 0.008098840713501, 0.495237082242966, -0.001144213485532, 0.198267221450806, -0.002123418962583, -0.931472480297089
-0.688256919384003, 0.196399688720703, 0.190325438976288, 0.110072441399097, 0.295743048191071, 0.000000000000000, -0.479570627212524, 0.120227694511414, -0.665184319019318, -0.087266996502876, 0.421399593353271, 0.000000000000000, -0.039009153842926, -0.049881808459759, 0.438109099864960, -0.531413078308105, 0.133750319480896, 0.005947000812739, 0.497916579246521, -0.001274534850381, 0.199118569493294, -0.002634324831888, -0.943739056587219
-0.690750062465668, 0.195385739207268, 0.185551449656487, 0.110765382647514, 0.297459512948990, 0.000000000000000, -0.480073213577271, 0.122021503746510, -0.669716477394104, -0.087266996502876, 0.419907420873642, 0.000000000000000, -0.039609532803297, -0.051551043987274, 0.436461240053177, -0.533725738525391, 0.131396576762199, 0.003664553631097, 0.501659631729126, -0.001414984348230, 0.200318083167076, -0.003174952464178, -0.955960154533386
-0.693148255348206, 0.194606825709343, 0.180920913815498, 0.111447036266327, 0.299372225999832, 0.000000000000000, -0.480059057474136, 0.125055640935898, -0.674184322357178, -0.087266996502876, 0.418532192707062, 0.000000000000000, -0.039859861135483, -0.052612196654081, 0.434156596660614, -0.536630213260651, 0.128751605749130, 0.001196997589432, 0.506085634231567, -0.001572071691044, 0.201726794242859, -0.003762985114008, -0.966977477073669
-0.695287346839905, 0.193897753953934, 0.176478579640388, 0.112206138670444, 0.301462173461914, 0.000000000000000, -0.478758543729782, 0.127508178353310, -0.678209364414215, -0.087266996502876, 0.417295545339584, 0.000000000000000, -0.039821188896894, -0.052727192640305, 0.431481957435608, -0.539973378181458, 0.125772491097450, -0.001490962458774, 0.510997474193573, -0.001750401454046, 0.203285753726959, -0.004410566296428, -0.975528597831726
-0.697218477725983, 0.192971378564835, 0.172297075390816, 0.113085635006428, 0.303719073534012, 0.000000000000000, -0.477366536855698, 0.128795996308327, -0.681824445724487, -0.087266996502876, 0.416166961193085, 0.000000000000000, -0.040150128304958, -0.051688160747290, 0.428732931613922, -0.543304264545441, 0.122452661395073, -0.004393745213747, 0.516363024711609, -0.001950482488610, 0.205013319849968, -0.005118524655700, -0.980050206184387
-0.699224352836609, 0.192015692591667, 0.168368503451347, 0.113987609744072, 0.306123554706573, 0.000000000000000, -0.476581484079361, 0.129603818058968, -0.685190975666046, -0.087266996502876, 0.415132254362106, 0.000000000000000, -0.041095186024904, -0.050107944756746, 0.425284832715988, -0.546276092529297, 0.119205400347710, -0.007265036460012, 0.521945536136627, -0.002148616127670, 0.206845581531525, -0.005820352584124, -0.979439318180084
-0.701662540435791, 0.191414505243301, 0.164649486541748, 0.114748090505600, 0.308645874261856, 0.000000000000000, -0.476620703935623, 0.130438774824142, -0.688391089439392, -0.087266996502876, 0.414190411567688, 0.000000000000000, -0.040445894002914, -0.049905177205801, 0.420426607131958, -0.549201488494873, 0.116659887135029, -0.009739910252392, 0.527066230773926, -0.002308887895197, 0.208526238799095, -0.006415305659175, -0.975048840045929
-0.704947471618652, 0.190912306308746, 0.161216184496880, 0.115213848650455, 0.311226397752762, 0.000000000000000, -0.477850437164307, 0.131005004048347, -0.691408157348633, -0.087266996502876, 0.413329809904099, 0.000000000000000, -0.038811199367046, -0.050505839288235, 0.416811794042587, -0.552680194377899, 0.114794269204140, -0.011801760643721, 0.531088590621948, -0.002430478343740, 0.209813714027405, -0.006899382453412, -0.968709230422974
-0.708745598793030, 0.190205991268158, 0.158142402768135, 0.115515150129795, 0.313841789960861, 0.000000000000000, -0.479797005653381, 0.131187409162521, -0.694150388240814, -0.087266996502876, 0.412567347288132, 0.000000000000000, -0.037307616323233, -0.051114838570356, 0.414311856031418, -0.556780278682709, 0.113174535334110, -0.013687130995095, 0.533830225467682, -0.002539081964642, 0.210657060146332, -0.007341766264290, -0.962720334529877
-0.712455630302429, 0.189193800091743, 0.155467659235001, 0.115856423974037, 0.316475659608841, 0.000000000000000, -0.481792598962784, 0.130965977907181, -0.696512341499329, -0.087266996502876, 0.411927431821823, 0.000000000000000, -0.035533174872398, -0.051773749291897, 0.412419706583023, -0.561006605625153, 0.111244477331638, -0.015694135800004, 0.535614132881165, -0.002666257321835, 0.211209163069725, -0.007828569039702, -0.958808302879333
-0.715795338153839, 0.187907859683037, 0.153214007616043, 0.116321176290512, 0.319099426269531, 0.000000000000000, -0.483568400144577, 0.130315735936165, -0.698436200618744, -0.087266996502876, 0.411425769329071, 0.000000000000000, -0.033161018043756, -0.052699174731970, 0.411213725805283, -0.564913332462311, 0.108596011996269, -0.017995115369558, 0.536908745765686, -0.002829019911587, 0.211667865514755, -0.008406800217927, -0.958100080490112
-0.718927085399628, 0.186438947916031, 0.151395648717880, 0.116862863302231, 0.321673482656479, 0.000000000000000, -0.485345751047134, 0.129308179020882, -0.699945986270905, -0.087266996502876, 0.411068826913834, 0.000000000000000, -0.030146474018693, -0.053988568484783, 0.410576552152634, -0.568555355072021, 0.105134762823582, -0.020548893138766, 0.537950038909912, -0.003021126613021, 0.212120026350021, -0.009059715084732, -0.961405217647552
-0.722260653972626, 0.184848457574844, 0.150029107928276, 0.117378138005733, 0.324156075716019, 0.000000000000000, -0.487623363733292, 0.128104180097580, -0.701122105121613, -0.087266996502876, 0.410856127738953, 0.000000000000000, -0.026528432965279, -0.055576212704182, 0.410060197114944, -0.572363674640656, 0.101036474108696, -0.023167690262198, 0.538684785366058, -0.003221189836040, 0.212526902556419, -0.009728712029755, -0.969160437583923
-0.726172327995300, 0.183231621980667, 0.149118393659592, 0.117761515080929, 0.326506853103638, 0.000000000000000, -0.490819603204727, 0.126760795712471, -0.702024042606354, -0.087266996502876, 0.410787343978882, 0.000000000000000, -0.022369148209691, -0.057364087551832, 0.409380018711090, -0.576719522476196, 0.096589751541615, -0.025644924491644, 0.539025425910950, -0.003406646195799, 0.212837010622025, -0.010352111421525, -0.981444954872131
-0.730630695819855, 0.181636095046997, 0.148667544126511, 0.118015602231026, 0.328710466623306, 0.000000000000000, -0.494889497756958, 0.125361412763596, -0.702658712863922, -0.087266996502876, 0.410869836807251, 0.000000000000000, -0.017825774848461, -0.059389658272266, 0.408570855855942, -0.581457257270813, 0.091789893805981, -0.028001949191093, 0.539070248603821, -0.003580223303288, 0.213090687990189, -0.010937488637865, -0.998080849647522
-0.735289096832275, 0.180066689848900, 0.148685500025749, 0.118201762437820, 0.330766111612320, 0.000000000000000, -0.499424636363983, 0.123883776366711, -0.702963292598724, -0.087266996502876, 0.411116153001785, 0.000000000000000, -0.013021036982536, -0.061764098703861, 0.407880783081055, -0.585996925830841, 0.086488038301468, -0.030382461845875, 0.539014697074890, -0.003758442122489, 0.213381692767143, -0.011530414223671, -1.018645882606506
-0.739798843860626, 0.178429767489433, 0.149202048778534, 0.118351183831692, 0.332666367292404, 0.000000000000000, -0.504058241844177, 0.122274197638035, -0.702861964702606, -0.087266996502876, 0.411536991596222, 0.000000000000000, -0.007980848662555, -0.064530670642853, 0.407501935958862, -0.589877068996429, 0.080684617161751, -0.032841663807631, 0.538881778717041, -0.003948724362999, 0.213734403252602, -0.012151380069554, -1.042441010475159
-0.743985772132874, 0.176563441753387, 0.150259286165237, 0.118436023592949, 0.334391742944717, 0.000000000000000, -0.508688569068909, 0.120548047125340, -0.702314317226410, -0.087266996502876, 0.412137836217880, 0.000000000000000, -0.002742132404819, -0.067585356533527, 0.407280564308167, -0.593129575252533, 0.074639432132244, -0.035254154354334, 0.538337409496307, -0.004139424301684, 0.214017763733864, -0.012767621316016, -1.068467140197754
-0.747827827930450, 0.174504950642586, 0.151852801442146, 0.118382357060909, 0.335918962955475, 0.000000000000000, -0.513375043869019, 0.118714734911919, -0.701300084590912, -0.087266996502876, 0.412921071052551, 0.000000000000000, 0.002233295235783, -0.070717744529247, 0.406761050224304, -0.596156954765320, 0.068799458444118, -0.037361428141594, 0.536845386028290, -0.004304577596486, 0.214004233479500, -0.013306280598044, -1.095367193222046
-0.751388669013977, 0.172538384795189, 0.153923198580742, 0.118101835250854, 0.337228089570999, 0.000000000000000, -0.518203496932983, 0.116786964237690, -0.699811160564423, -0.087266996502876, 0.413887709379196, 0.000000000000000, 0.006346040870994, -0.073796063661575, 0.406391739845276, -0.599292933940887, 0.063621550798416, -0.038908205926418, 0.534086346626282, -0.004417771007866, 0.213539928197861, -0.013693749904633, -1.121066570281982
-0.754753530025482, 0.170856297016144, 0.156431943178177, 0.117532089352608, 0.338300138711929, 0.000000000000000, -0.523262083530426, 0.114666424691677, -0.697833180427551, -0.087266996502876, 0.415031731128693, 0.000000000000000, 0.010624284856021, -0.076795019209385, 0.407781213521957, -0.602516770362854, 0.059296026825905, -0.039838775992393, 0.530113458633423, -0.004473553504795, 0.212617263197899, -0.013914060778916, -1.142838001251221
-0.757749497890472, 0.169551014900208, 0.159363046288490, 0.116706587374210, 0.339132070541382, 0.000000000000000, -0.528360486030579, 0.112314336001873, -0.695332646369934, -0.087266996502876, 0.416349977254868, 0.000000000000000, 0.015849754214287, -0.079089336097240, 0.410519182682037, -0.605356156826019, 0.055871658027172, -0.040253374725580, 0.525194466114044, -0.004484073724598, 0.211324930191040, -0.013999647460878, -1.158928990364075
-0.759998857975006, 0.168845102190971, 0.162674054503441, 0.115703426301479, 0.339732855558395, 0.000000000000000, -0.533053815364838, 0.110137961804867, -0.692315518856049, -0.087266996502876, 0.417848646640778, 0.000000000000000, 0.020466476678848, -0.079778373241425, 0.414177000522614, -0.607172787189484, 0.053590171039104, -0.040202099829912, 0.519655466079712, -0.004457076545805, 0.209781751036644, -0.013971928507090, -1.168761134147644
-0.761325359344482, 0.168653950095177, 0.166381165385246, 0.114548034965992, 0.340092092752457, 0.000000000000000, -0.537136137485504, 0.108252197504044, -0.688780725002289, -0.087266996502876, 0.419518202543259, 0.000000000000000, 0.023738391697407, -0.078923299908638, 0.418567180633545, -0.607584893703461, 0.052556157112122, -0.039791308343410, 0.513774693012238, -0.004405711777508, 0.208087533712387, -0.013866987079382, -1.172299265861511
-0.761675775051117, 0.168791249394417, 0.170512527227402, 0.113235227763653, 0.340192764997482, 0.000000000000000, -0.540603339672089, 0.106442190706730, -0.684708952903748, -0.087266996502876, 0.421339601278305, 0.000000000000000, 0.025860354304314, -0.077034488320351, 0.423327893018723, -0.606571078300476, 0.052751682698727, -0.039146341383457, 0.507725179195404, -0.004344237502664, 0.206295385956764, -0.013723443262279, -1.170089840888977
-0.761027872562408, 0.169155657291412, 0.175073161721230, 0.111762531101704, 0.340024679899216, 0.000000000000000, -0.543592393398285, 0.104442678391933, -0.680097401142120, -0.087266996502876, 0.423294484615326, 0.000000000000000, 0.027137359604239, -0.074553035199642, 0.428047180175781, -0.604299724102020, 0.054118581116199, -0.038349967449903, 0.501631438732147, -0.004281296394765, 0.204438537359238, -0.013564650900662, -1.163085103034973
-0.759376645088196, 0.169711142778397, 0.180051758885384, 0.110152527689934, 0.339589148759842, 0.000000000000000, -0.546206533908844, 0.101891875267029, -0.674935042858124, -0.087266996502876, 0.425369352102280, 0.000000000000000, 0.027823351323605, -0.071742638945580, 0.432365417480469, -0.600968003273010, 0.056574311107397, -0.037430763244629, 0.495603680610657, -0.004218874964863, 0.202549234032631, -0.013396001420915, -1.152175903320312
-0.756764888763428, 0.170526549220085, 0.185413897037506, 0.108440637588501, 0.338896691799164, 0.000000000000000, -0.547936081886292, 0.098548643290997, -0.669162333011627, -0.087266996502876, 0.427560865879059, 0.000000000000000, 0.028089733794332, -0.068668767809868, 0.436045557260513, -0.596753537654877, 0.060053486377001, -0.036362048238516, 0.489703059196472, -0.004152941517532, 0.200646132230759, -0.013206253759563, -1.137858390808105
-0.753374874591827, 0.171782240271568, 0.191104173660278, 0.106623627245426, 0.337953299283981, 0.000000000000000, -0.548278570175171, 0.095429599285126, -0.662900924682617, -0.087266996502876, 0.429859071969986, 0.000000000000000, 0.028070205822587, -0.065294399857521, 0.439008414745331, -0.591857135295868, 0.064504571259022, -0.035092879086733, 0.483927547931671, -0.004077142570168, 0.198725044727325, -0.012977309525013, -1.120323419570923
-0.749359250068665, 0.173444509506226, 0.197104722261429, 0.104730866849422, 0.336770802736282, 0.000000000000000, -0.548201143741608, 0.093634717166424, -0.656455636024475, -0.087266996502876, 0.432197093963623, 0.000000000000000, 0.027902161702514, -0.061589214950800, 0.441492825746536, -0.586483895778656, 0.069813281297684, -0.033615857362747, 0.478282958269119, -0.003989508841187, 0.196784690022469, -0.012703379616141, -1.099707126617432
-0.744774699211121, 0.175364002585411, 0.203409329056740, 0.102815404534340, 0.335363805294037, 0.000000000000000, -0.548289895057678, 0.092964142560959, -0.649910807609558, -0.087266996502876, 0.434492737054825, 0.000000000000000, 0.027748662978411, -0.057524446398020, 0.443901240825653, -0.580754876136780, 0.075804412364960, -0.031978897750378, 0.472805231809616, -0.003893521148711, 0.194838315248489, -0.012394717894495, -1.076253533363342
-0.739669919013977, 0.177441149950027, 0.209993124008179, 0.100898399949074, 0.333740234375000, 0.000000000000000, -0.548172593116760, 0.093183062970638, -0.643249094486237, -0.087245784699917, 0.436693638563156, 0.000000000000000, 0.027721701189876, -0.053090862929821, 0.446504443883896, -0.574677586555481, 0.082247801125050, -0.030284648761153, 0.467550903558731, -0.003797885729000, 0.192911893129349, -0.012077584862709, -1.050368547439575
-0.734103977680206, 0.179634883999825, 0.216814011335373, 0.098983660340309, 0.331906825304031, 0.000000000000000, -0.547477662563324, 0.094231911003590, -0.636481106281281, -0.086904272437096, 0.438758373260498, 0.000000000000000, 0.027861041948199, -0.048315748572350, 0.449427247047424, -0.568264544010162, 0.088870219886303, -0.028654241934419, 0.462588876485825, -0.003712647128850, 0.191037490963936, -0.011782753281295, -1.022635936737061
-0.728170812129974, 0.181889653205872, 0.223830163478851, 0.097088903188705, 0.329877316951752, 0.000000000000000, -0.546130597591400, 0.095342017710209, -0.629537999629974, -0.085591562092304, 0.440647482872009, 0.000000000000000, 0.028111975640059, -0.043259460479021, 0.452747762203217, -0.561709582805634, 0.095430254936218, -0.027130510658026, 0.457994759082794, -0.003639695467427, 0.189245387911797, -0.011516753584146, -0.993831634521484
-0.722022414207458, 0.184037506580353, 0.231019973754883, 0.095259703695774, 0.327675640583038, 0.000000000000000, -0.543986618518829, 0.095763206481934, -0.622340083122253, -0.083266697824001, 0.442358285188675, 0.000000000000000, 0.028221007436514, -0.038056395947933, 0.456515699625015, -0.555381596088409, 0.101771384477615, -0.025644503533840, 0.453863948583603, -0.003569951048121, 0.187569528818130, -0.011253027245402, -0.964753925800323
-0.715821564197540, 0.185918226838112, 0.238356471061707, 0.093549363315105, 0.325333505868912, 0.000000000000000, -0.541545748710632, 0.095936723053455, -0.615057647228241, -0.080289795994759, 0.443922549486160, 0.000000000000000, 0.027889581397176, -0.032871123403311, 0.460782319307327, -0.549668669700623, 0.107793033123016, -0.024119092151523, 0.450304657220840, -0.003493932774290, 0.186048015952110, -0.010963807813823, -0.936067879199982
-0.709698855876923, 0.187583222985268, 0.245768323540688, 0.091964773833752, 0.322878479957581, 0.000000000000000, -0.540191531181335, 0.096374742686749, -0.607962191104889, -0.077296659350395, 0.445367366075516, 0.000000000000000, 0.027278615161777, -0.027823692187667, 0.465482205152512, -0.544831275939941, 0.113449782133102, -0.022555405274034, 0.447418957948685, -0.003410503035411, 0.184717148542404, -0.010646972805262, -0.908518671989441
-0.703734874725342, 0.189138516783714, 0.253168940544128, 0.090467356145382, 0.320332616567612, 0.000000000000000, -0.540207922458649, 0.096676349639893, -0.601070404052734, -0.074684917926788, 0.446712404489517, 0.000000000000000, 0.026919282972813, -0.023121459409595, 0.470118761062622, -0.540863156318665, 0.118791408836842, -0.021000478416681, 0.445366054773331, -0.003323906566948, 0.183639690279961, -0.010317270644009, -0.883038759231567
-0.697967767715454, 0.190590530633926, 0.260487139225006, 0.089015468955040, 0.317716687917709, 0.000000000000000, -0.540971636772156, 0.096576690673828, -0.594334065914154, -0.072433046996593, 0.447971642017365, 0.000000000000000, 0.027084225788713, -0.019162006676197, 0.473945945501328, -0.537422537803650, 0.124076724052429, -0.019363554194570, 0.444502770900726, -0.003226326312870, 0.182963997125626, -0.009952777065337, -0.860285341739655
-0.692417681217194, 0.191925853490829, 0.267658561468124, 0.087584860622883, 0.315047800540924, 0.000000000000000, -0.541971981525421, 0.096152245998383, -0.587768435478210, -0.070446871221066, 0.449148416519165, 0.000000000000000, 0.027611115947366, -0.016274411231279, 0.476347446441650, -0.534073114395142, 0.129772394895554, -0.017342360690236, 0.445238351821899, -0.003090780228376, 0.182863667607307, -0.009472338482738, -0.840111792087555
-0.687079489231110, 0.193310707807541, 0.274592995643616, 0.086164556443691, 0.312339276075363, 0.000000000000000, -0.542932808399200, 0.095688991248608, -0.581435203552246, -0.068633772432804, 0.450243055820465, 0.000000000000000, 0.027864327654243, -0.014623491093516, 0.476642161607742, -0.530708611011505, 0.136056661605835, -0.014799494296312, 0.447653919458389, -0.002905059140176, 0.183380678296089, -0.008839046582580, -0.821624398231506
-0.681893408298492, 0.195002540946007, 0.281185984611511, 0.084762655198574, 0.309609740972519, 0.000000000000000, -0.543660402297974, 0.095438823103905, -0.575391948223114, -0.066906012594700, 0.451255232095718, 0.000000000000000, 0.027169313281775, -0.014581153169274, 0.474048584699631, -0.527213931083679, 0.142754778265953, -0.011839496903121, 0.451676696538925, -0.002678458811715, 0.184504479169846, -0.008082551881671, -0.803618490695953
-0.676948666572571, 0.197048038244247, 0.287374764680862, 0.083333656191826, 0.306865721940994, 0.000000000000000, -0.544106006622314, 0.095659852027893, -0.569713771343231, -0.065205916762352, 0.452183157205582, 0.000000000000000, 0.025048352777958, -0.016749083995819, 0.468206763267517, -0.523310542106628, 0.149465307593346, -0.008707377128303, 0.457252025604248, -0.002432286972180, 0.186240613460541, -0.007270497269928, -0.784929692745209
-0.672209560871124, 0.199420422315598, 0.293107688426971, 0.081856735050678, 0.304121851921082, 0.000000000000000, -0.544176995754242, 0.096520863473415, -0.564458310604095, -0.063447952270508, 0.453030109405518, 0.000000000000000, 0.021751808002591, -0.021395994350314, 0.459513217210770, -0.518925070762634, 0.155842468142509, -0.005610102787614, 0.464115530252457, -0.002184763317928, 0.188504457473755, -0.006459870375693, -0.765001237392426
-0.667594611644745, 0.202084496617317, 0.298345923423767, 0.080328710377216, 0.301407992839813, 0.000000000000000, -0.543919682502747, 0.098005995154381, -0.559658586978912, -0.061617303639650, 0.453799396753311, 0.000000000000000, 0.018443455919623, -0.027872437611222, 0.449268162250519, -0.514370977878571, 0.161775350570679, -0.002610810101032, 0.471642136573792, -0.001941897324286, 0.191056251525879, -0.005668548401445, -0.744318127632141
-0.663351178169250, 0.204600170254707, 0.303151458501816, 0.078730657696724, 0.298761695623398, 0.000000000000000, -0.543666303157806, 0.099697649478912, -0.555298328399658, -0.059921935200691, 0.454481899738312, 0.000000000000000, 0.016292031854391, -0.034565322101116, 0.439835578203201, -0.510210335254669, 0.167292907834053, 0.000315625482472, 0.479007005691528, -0.001702023902908, 0.193573474884033, -0.004890200681984, -0.724051237106323
-0.659682631492615, 0.206614062190056, 0.307589411735535, 0.077119804918766, 0.296233028173447, 0.000000000000000, -0.543534100055695, 0.101225443184376, -0.551337659358978, -0.058498460799456, 0.455075383186340, 0.000000000000000, 0.014639633707702, -0.039982646703720, 0.432831346988678, -0.506963908672333, 0.172222375869751, 0.003026403253898, 0.485438436269760, -0.001479850150645, 0.195759624242783, -0.004166380036622, -0.705308139324188
-0.656488895416260, 0.208245262503624, 0.311647742986679, 0.075629040598869, 0.293871939182281, 0.000000000000000, -0.543317854404449, 0.102597251534462, -0.547756612300873, -0.057272769510746, 0.455596655607224, 0.000000000000000, 0.013183129951358, -0.043755304068327, 0.427911847829819, -0.504904568195343, 0.176240608096123, 0.005238583311439, 0.490485727787018, -0.001303989673033, 0.197447776794434, -0.003579172305763, -0.689313054084778
-0.653697848320007, 0.209666669368744, 0.315312176942825, 0.074343807995319, 0.291711241006851, 0.000000000000000, -0.542920351028442, 0.103882677853107, -0.544542908668518, -0.056190475821495, 0.456065803766251, 0.000000000000000, 0.012248538434505, -0.046023417264223, 0.424670159816742, -0.504032731056213, 0.179182991385460, 0.006775675807148, 0.494097739458084, -0.001192766358145, 0.198628187179565, -0.003180879866704, -0.677139222621918
-0.651313364505768, 0.210957065224648, 0.318589329719543, 0.073289260268211, 0.289777576923370, 0.000000000000000, -0.542378187179565, 0.105070106685162, -0.541674971580505, -0.055262520909309, 0.456500798463821, 0.000000000000000, 0.012097145430744, -0.046992525458336, 0.423116058111191, -0.504211604595184, 0.181043639779091, 0.007594308350235, 0.496442139148712, -0.001151108765043, 0.199374973773956, -0.002985414816067, -0.669596731662750
-0.649283587932587, 0.212121739983559, 0.321496844291687, 0.072493098676205, 0.288106828927994, 0.000000000000000, -0.541697084903717, 0.106105089187622, -0.539119482040405, -0.054501563310623, 0.456918358802795, 0.000000000000000, 0.012880275957286, -0.046823754906654, 0.423324972391129, -0.505311906337738, 0.181841850280762, 0.007699194829911, 0.497688949108124, -0.001178747857921, 0.199760198593140, -0.002991929883137, -0.667233824729919
-0.647493183612823, 0.213110581040382, 0.324058622121811, 0.072001993656158, 0.286746829748154, 0.000000000000000, -0.540828824043274, 0.106923520565033, -0.536840140819550, -0.053901750594378, 0.457331210374832, 0.000000000000000, 0.014700676314533, -0.045595984905958, 0.425314277410507, -0.507265448570251, 0.181565076112747, 0.007102349773049, 0.497915178537369, -0.001274281297810, 0.199815779924393, -0.003196397097781, -0.670301854610443
-0.645856320858002, 0.213864624500275, 0.326300829648972, 0.071847982704639, 0.285750538110733, 0.000000000000000, -0.539768934249878, 0.107469797134399, -0.534811139106750, -0.053453478962183, 0.457746058702469, 0.000000000000000, 0.017625294625759, -0.043326534330845, 0.429063558578491, -0.510063946247101, 0.180166557431221, 0.005816036835313, 0.497102946043015, -0.001435943297110, 0.199532777070999, -0.003593795932829, -0.678748965263367
-0.644390225410461, 0.214340299367905, 0.328253835439682, 0.072019189596176, 0.285165518522263, 0.000000000000000, -0.538630127906799, 0.107685491442680, -0.533020496368408, -0.053162425756454, 0.458162963390350, 0.000000000000000, 0.021689828485250, -0.039997570216656, 0.434571802616119, -0.513745486736298, 0.177578642964363, 0.003851065877825, 0.495167940855026, -0.001661919406615, 0.198872551321983, -0.004179010633379, -0.692254543304443
-0.643232524394989, 0.214478582143784, 0.329960584640503, 0.072451263666153, 0.285023063421249, 0.000000000000000, -0.537617802619934, 0.107491865754128, -0.531460106372833, -0.053056612610817, 0.458576947450638, 0.000000000000000, 0.026868002489209, -0.035568807274103, 0.441881835460663, -0.518384933471680, 0.173731490969658, 0.001212867675349, 0.491993039846420, -0.001950958860107, 0.197780340909958, -0.004948601592332, -0.710293591022491
-0.642648577690125, 0.214143723249435, 0.331484586000443, 0.073022335767746, 0.285329550504684, 0.000000000000000, -0.537002086639404, 0.106889076530933, -0.530137240886688, -0.053184390068054, 0.458979845046997, 0.000000000000000, 0.032952494919300, -0.029984949156642, 0.451116025447845, -0.524103701114655, 0.168639630079269, -0.002060679486021, 0.487483412027359, -0.002298860345036, 0.196206346154213, -0.005890814121813, -0.732187926769257
-0.642948389053345, 0.213051393628120, 0.332914322614670, 0.073587663471699, 0.286048859357834, 0.000000000000000, -0.537089526653290, 0.105784013867378, -0.529036819934845, -0.053655449301004, 0.459358155727386, 0.000000000000000, 0.039991091936827, -0.023432482033968, 0.462529987096786, -0.530837714672089, 0.162558630108833, -0.005800838582218, 0.481822043657303, -0.002688819076866, 0.194208621978760, -0.006958061363548, -0.757135212421417
-0.644122898578644, 0.211317121982574, 0.334261506795883, 0.074045345187187, 0.287083178758621, 0.000000000000000, -0.538019120693207, 0.104299850761890, -0.528155863285065, -0.054482635110617, 0.459704726934433, 0.000000000000000, 0.048716910183430, -0.017028987407684, 0.475135445594788, -0.538105785846710, 0.155929982662201, -0.009761695750058, 0.475621134042740, -0.003096925094724, 0.192016825079918, -0.008082662709057, -0.784098625183105
-0.645694136619568, 0.209802448749542, 0.335399985313416, 0.074374027550220, 0.288299351930618, 0.000000000000000, -0.539428055286407, 0.103115752339363, -0.527541816234589, -0.055372711271048, 0.460031479597092, 0.000000000000000, 0.058647707104683, -0.012751895934343, 0.485894799232483, -0.545213580131531, 0.148980021476746, -0.013869247399271, 0.469708234071732, -0.003515756689012, 0.189949303865433, -0.009245358407497, -0.811508297920227
-0.647478640079498, 0.208584606647491, 0.336340814828873, 0.074622325599194, 0.289571613073349, 0.000000000000000, -0.540948033332825, 0.102275662124157, -0.527143776416779, -0.056214433163404, 0.460335016250610, 0.000000000000000, 0.068108014762402, -0.011508748866618, 0.492971688508987, -0.551784574985504, 0.141777023673058, -0.018071651458740, 0.464833706617355, -0.003938970156014, 0.188288912177086, -0.010428842157125, -0.837615787982941
-0.649526894092560, 0.207713395357132, 0.337115287780762, 0.074763789772987, 0.290784388780594, 0.000000000000000, -0.542603492736816, 0.101885512471199, -0.526957631111145, -0.057029798626900, 0.460604459047318, 0.000000000000000, 0.075818359851837, -0.012475027702749, 0.496561348438263, -0.557731866836548, 0.135004624724388, -0.021858127787709, 0.461463361978531, -0.004318079445511, 0.187193796038628, -0.011487226001918, -0.861314654350281
-0.651654064655304, 0.207159191370010, 0.337753266096115, 0.074873067438602, 0.291866630315781, 0.000000000000000, -0.544290304183960, 0.101796537637711, -0.526919245719910, -0.057840686291456, 0.460831820964813, 0.000000000000000, 0.082133717834949, -0.014427271671593, 0.497974514961243, -0.562939941883087, 0.129505813121796, -0.024632459506392, 0.459790915250778, -0.004598018247634, 0.186716347932816, -0.012253101915121, -0.882632195949554
