isaac-sim2real/sage/motion_files/g1/amass/0-KIT_3_lean_over_table04_poses.txt
/g1/pelvis/left_hip_yaw_joint, /g1/left_hip_yaw_link/left_hip_pitch_joint, /g1/left_hip_pitch_link/left_hip_roll_joint, /g1/left_hip_roll_link/left_knee_joint, /g1/left_knee_link/left_ankle_pitch_joint, /g1/left_ankle_pitch_link/left_ankle_roll_joint, /g1/pelvis/right_hip_yaw_joint, /g1/right_hip_yaw_link/right_hip_pitch_joint, /g1/right_hip_pitch_link/right_hip_roll_joint, /g1/right_hip_roll_link/right_knee_joint, /g1/right_knee_link/right_ankle_pitch_joint, /g1/right_ankle_pitch_link/right_ankle_roll_joint, /g1/pelvis/torso_joint, /g1/torso_link/left_shoulder_pitch_joint, /g1/left_shoulder_pitch_link/left_shoulder_roll_joint, /g1/left_shoulder_roll_link/left_shoulder_yaw_joint, /g1/left_shoulder_yaw_link/left_elbow_joint, /g1/left_elbow_link/left_wrist_roll_joint, /g1/torso_link/right_shoulder_pitch_joint, /g1/right_shoulder_pitch_link/right_shoulder_roll_joint, /g1/right_shoulder_roll_link/right_shoulder_yaw_joint, /g1/right_shoulder_yaw_link/right_elbow_joint, /g1/right_elbow_link/right_wrist_roll_joint
0.089061886072159, 0.159985199570656, 0.692591369152069, -0.011866986751556, 0.087675958871841, 0.000000000000000, -0.112855561077595, -0.166459143161774, -0.318707317113876, 0.214581876993179, -0.121759407222271, 0.000000000000000, -0.041514299809933, 0.068542256951332, 0.221827581524849, -0.015973338857293, 0.316242218017578, 0.378342449665070, 1.083854794502258, 0.024015944451094, 0.262648344039917, 0.071235001087189, -0.096303008496761
0.089810252189636, 0.159913450479507, 0.692505240440369, -0.011627916246653, 0.087542198598385, 0.000000000000000, -0.112736575305462, -0.167170017957687, -0.318588346242905, 0.214429780840874, -0.121900424361229, 0.000000000000000, -0.041436474770308, 0.067901760339737, 0.221815913915634, -0.015669740736485, 0.315883487462997, 0.378277838230133, 1.083965420722961, 0.023991858586669, 0.262701421976089, 0.071193993091583, -0.096181996166706
0.090235985815525, 0.160020738840103, 0.692379891872406, -0.011523786000907, 0.087340272963047, 0.000000000000000, -0.112533405423164, -0.167537003755569, -0.318564206361771, 0.214304402470589, -0.121998906135559, 0.000000000000000, -0.041281189769506, 0.067022792994976, 0.221816122531891, -0.015317318029702, 0.315260231494904, 0.378151327371597, 1.084069728851318, 0.023948701098561, 0.262756764888763, 0.071118094027042, -0.096084728837013
0.090364061295986, 0.160316675901413, 0.692210555076599, -0.011488105170429, 0.087115369737148, 0.000000000000000, -0.112330749630928, -0.167347952723503, -0.318683028221130, 0.214214518666267, -0.121973931789398, 0.000000000000000, -0.041041616350412, 0.066240340471268, 0.221909031271935, -0.015206889249384, 0.314341902732849, 0.377937078475952, 1.084065318107605, 0.023883011192083, 0.262769669294357, 0.070995733141899, -0.096190802752972
0.090124912559986, 0.160862579941750, 0.691998183727264, -0.011559511534870, 0.086857825517654, 0.000000000000000, -0.112185455858707, -0.166731819510460, -0.318924993276596, 0.214129060506821, -0.121823549270630, 0.000000000000000, -0.040718667209148, 0.065682865679264, 0.222154021263123, -0.015503798611462, 0.313073039054871, 0.377612411975861, 1.083911180496216, 0.023789944127202, 0.262721568346024, 0.070814326405525, -0.096606828272343
0.089799672365189, 0.161588072776794, 0.691733956336975, -0.011638907715678, 0.086558796465397, 0.000000000000000, -0.112036220729351, -0.165905773639679, -0.319239318370819, 0.214049801230431, -0.121562875807285, 0.000000000000000, -0.040321901440620, 0.065335825085640, 0.222573444247246, -0.016204727813601, 0.311480730772018, 0.377183407545090, 1.083618164062500, 0.023670820519328, 0.262617349624634, 0.070576392114162, -0.097324438393116
0.089547470211983, 0.162450700998306, 0.691417753696442, -0.011684246361256, 0.086205497384071, 0.000000000000000, -0.111832655966282, -0.164985328912735, -0.319594472646713, 0.213991448283195, -0.121209420263767, 0.000000000000000, -0.039857137948275, 0.065153568983078, 0.223160862922668, -0.017212240025401, 0.309691041707993, 0.376682609319687, 1.083214759826660, 0.023533666506410, 0.262470066547394, 0.070299565792084, -0.098272912204266
0.089356161653996, 0.163412824273109, 0.691064894199371, -0.011698150075972, 0.085796102881432, 0.000000000000000, -0.111582182347775, -0.164024576544762, -0.319973707199097, 0.213954865932465, -0.120781496167183, 0.000000000000000, -0.039334665983915, 0.065089799463749, 0.223883077502251, -0.018411928787827, 0.307879179716110, 0.376153051853180, 1.082723259925842, 0.023389464244246, 0.262290328741074, 0.070007540285587, -0.099366307258606
0.089103586971760, 0.164462208747864, 0.690695822238922, -0.011716491542757, 0.085339061915874, 0.000000000000000, -0.111323073506355, -0.162991419434547, -0.320378720760345, 0.213943853974342, -0.120297282934189, 0.000000000000000, -0.038770388811827, 0.065107889473438, 0.224680766463280, -0.019701732322574, 0.306214630603790, 0.375635653734207, 1.082155942916870, 0.023248968645930, 0.262084156274796, 0.069723114371300, -0.100526064634323
0.088777653872967, 0.165558919310570, 0.690325081348419, -0.011726045981050, 0.084853529930115, 0.000000000000000, -0.111089214682579, -0.161877498030663, -0.320805579423904, 0.213960647583008, -0.119776032865047, 0.000000000000000, -0.038176730275154, 0.065177470445633, 0.225487977266312, -0.020990023389459, 0.304827690124512, 0.375164449214935, 1.081525802612305, 0.023121230304241, 0.261857599020004, 0.069465391337872, -0.101691618561745
0.088355705142021, 0.166656047105789, 0.689967036247253, -0.011726977303624, 0.084356531500816, 0.000000000000000, -0.110903933644295, -0.160725504159927, -0.321239739656448, 0.214002087712288, -0.119242891669273, 0.000000000000000, -0.037567753344774, 0.065260075032711, 0.226245373487473, -0.022201593965292, 0.303805321455002, 0.374764949083328, 1.080850958824158, 0.023013072088361, 0.261618435382843, 0.069248899817467, -0.102820374071598
0.087838791310787, 0.167691960930824, 0.689634084701538, -0.011720377020538, 0.083862334489822, 0.000000000000000, -0.110784985125065, -0.159628570079803, -0.321656107902527, 0.214053362607956, -0.118729032576084, 0.000000000000000, -0.036953773349524, 0.065310738980770, 0.226911604404449, -0.023279622197151, 0.303191632032394, 0.374452829360962, 1.080153226852417, 0.022928567603230, 0.261376053094864, 0.069082498550415, -0.103885583579540
0.087315201759338, 0.168604746460915, 0.689330756664276, -0.011683886870742, 0.083385355770588, 0.000000000000000, -0.110724002122879, -0.158679649233818, -0.322027862071991, 0.214103728532791, -0.118260227143764, 0.000000000000000, -0.036348026245832, 0.065291538834572, 0.227473124861717, -0.024189356714487, 0.302986025810242, 0.374233245849609, 1.079455137252808, 0.022868813946843, 0.261139601469040, 0.068968713283539, -0.104861676692963
0.086879841983318, 0.169366210699081, 0.689056277275085, -0.011602022685111, 0.082936391234398, 0.000000000000000, -0.110692113637924, -0.157931759953499, -0.322335094213486, 0.214154288172722, -0.117850445210934, 0.000000000000000, -0.035764392465353, 0.065188437700272, 0.227935537695885, -0.024920964613557, 0.303151518106461, 0.374101907014847, 1.078773260116577, 0.022832585498691, 0.260915338993073, 0.068904966115952, -0.105727136135101
0.086593970656395, 0.169970199465752, 0.688809394836426, -0.011468258686364, 0.082522511482239, 0.000000000000000, -0.110655061900616, -0.157376721501350, -0.322571307420731, 0.214219108223915, -0.117502138018608, 0.000000000000000, -0.035210676491261, 0.065010704100132, 0.228308841586113, -0.025488346815109, 0.303619861602783, 0.374046206474304, 1.078116536140442, 0.022816630080342, 0.260706245899200, 0.068884208798409, -0.106477074325085
0.086431629955769, 0.170409142971039, 0.688595354557037, -0.011292182840407, 0.082149103283882, 0.000000000000000, -0.110625602304935, -0.157007977366447, -0.322735935449600, 0.214294418692589, -0.117211461067200, 0.000000000000000, -0.034690272063017, 0.064773261547089, 0.228605508804321, -0.025929870083928, 0.304293900728226, 0.374045461416245, 1.077487349510193, 0.022815631702542, 0.260512173175812, 0.068894788622856, -0.107128463685513
0.086308024823666, 0.170684307813644, 0.688422322273254, -0.011095566675067, 0.081820800900459, 0.000000000000000, -0.110640838742256, -0.156811892986298, -0.322833180427551, 0.214368745684624, -0.116969741880894, 0.000000000000000, -0.034203905612230, 0.064491562545300, 0.228850975632668, -0.026296850293875, 0.305062919855118, 0.374074608087540, 1.076885342597961, 0.022823125123978, 0.260331779718399, 0.068922519683838, -0.107708089053631
0.086169116199017, 0.170800268650055, 0.688295900821686, -0.010886651463807, 0.081541895866394, 0.000000000000000, -0.110721081495285, -0.156771287322044, -0.322866469621658, 0.214437246322632, -0.116763949394226, 0.000000000000000, -0.033748064190149, 0.064174667000771, 0.229080572724342, -0.026632463559508, 0.305823892354965, 0.374110162258148, 1.076314210891724, 0.022832939401269, 0.260165393352509, 0.068954087793827, -0.108239755034447
0.086019255220890, 0.170758366584778, 0.688216924667358, -0.010653794743121, 0.081314027309418, 0.000000000000000, -0.110873579978943, -0.156885728240013, -0.322833746671677, 0.214495077729225, -0.116580665111542, 0.000000000000000, -0.033316176384687, 0.063822470605373, 0.229325622320175, -0.026961563155055, 0.306500196456909, 0.374135196208954, 1.075780987739563, 0.022840421646833, 0.260015219449997, 0.068979673087597, -0.108739741146564
0.085835248231888, 0.170591905713081, 0.688182830810547, -0.010408214293420, 0.081130959093571, 0.000000000000000, -0.111117228865623, -0.157136544585228, -0.322738021612167, 0.214534953236580, -0.116409413516521, 0.000000000000000, -0.032904129475355, 0.063440270721912, 0.229605674743652, -0.027297897264361, 0.307051897048950, 0.374140352010727, 1.075291037559509, 0.022842934355140, 0.259883046150208, 0.068993844091892, -0.109215863049030
0.085572533309460, 0.170357793569565, 0.688190042972565, -0.010178124532104, 0.080981016159058, 0.000000000000000, -0.111472547054291, -0.157480508089066, -0.322588056325912, 0.214554697275162, -0.116241224110126, 0.000000000000000, -0.032508678734303, 0.063046276569366, 0.229926437139511, -0.027650913223624, 0.307473152875900, 0.374123007059097, 1.074844002723694, 0.022839736193419, 0.259768277406693, 0.068995080888271, -0.109672866761684
0.085238739848137, 0.170079886913300, 0.688234329223633, -0.009963264688849, 0.080855868756771, 0.000000000000000, -0.111950397491455, -0.157905161380768, -0.322385698556900, 0.214551717042923, -0.116066232323647, 0.000000000000000, -0.032123725861311, 0.062654562294483, 0.230277940630913, -0.028025522828102, 0.307779550552368, 0.374085068702698, 1.074435353279114, 0.022831359878182, 0.259668886661530, 0.068984530866146, -0.110117733478546
0.084828741848469, 0.169769972562790, 0.688314557075500, -0.009765558876097, 0.080750055611134, 0.000000000000000, -0.112557835876942, -0.158391997218132, -0.322134792804718, 0.214524284005165, -0.115872450172901, 0.000000000000000, -0.031745549291372, 0.062265407294035, 0.230639830231667, -0.028422312811017, 0.307998687028885, 0.374031037092209, 1.074058413505554, 0.022819040343165, 0.259581983089447, 0.068964771926403, -0.110552929341793
0.084301136434078, 0.169450715184212, 0.688430190086365, -0.009607560001314, 0.080657996237278, 0.000000000000000, -0.113292574882507, -0.158880367875099, -0.321849584579468, 0.214476600289345, -0.115648299455643, 0.000000000000000, -0.031377185136080, 0.061878874897957, 0.230994835495949, -0.028833946213126, 0.308165073394775, 0.373967170715332, 1.073707580566406, 0.022804457694292, 0.259505271911621, 0.068939372897148, -0.110964253544807
0.083651617169380, 0.169133335351944, 0.688579797744751, -0.009501115418971, 0.080573566257954, 0.000000000000000, -0.114136613905430, -0.159330859780312, -0.321539402008057, 0.214412122964859, -0.115386687219143, 0.000000000000000, -0.031021159142256, 0.061504952609539, 0.231335669755936, -0.029240217059851, 0.308315485715866, 0.373901486396790, 1.073381781578064, 0.022789539769292, 0.259438574314117, 0.068912595510483, -0.111324429512024
0.082925558090210, 0.168820992112160, 0.688759505748749, -0.009437439963222, 0.080490477383137, 0.000000000000000, -0.115054808557034, -0.159744873642921, -0.321202367544174, 0.214335694909096, -0.115086011588573, 0.000000000000000, -0.030674230307341, 0.061153002083302, 0.231659874320030, -0.029613977298141, 0.308481514453888, 0.373841315507889, 1.073082447052002, 0.022776057943702, 0.259382784366608, 0.068888448178768, -0.111608535051346
0.082201279699802, 0.168513819575310, 0.688965320587158, -0.009387271478772, 0.080402821302414, 0.000000000000000, -0.116004265844822, -0.160142362117767, -0.320829927921295, 0.214257210493088, -0.114749193191528, 0.000000000000000, -0.030327767133713, 0.060824889689684, 0.231964230537415, -0.029930885881186, 0.308679550886154, 0.373791158199310, 1.072811126708984, 0.022765003144741, 0.259338706731796, 0.068869218230247, -0.111804410815239
0.081524513661861, 0.168204218149185, 0.689197659492493, -0.009323132224381, 0.080304764211178, 0.000000000000000, -0.116966389119625, -0.160561829805374, -0.320411205291748, 0.214179158210754, -0.114384897053242, 0.000000000000000, -0.029974164441228, 0.060512553900480, 0.232242450118065, -0.030173297971487, 0.308909595012665, 0.373751431703568, 1.072568535804749, 0.022756377235055, 0.259306877851486, 0.068855009973049, -0.111911170184612
0.080903932452202, 0.167873069643974, 0.689461648464203, -0.009225334040821, 0.080192528665066, 0.000000000000000, -0.117939591407776, -0.161021828651428, -0.319941371679306, 0.214104413986206, -0.114004328846931, 0.000000000000000, -0.029609199613333, 0.060199078172445, 0.232486233115196, -0.030332673341036, 0.309167504310608, 0.373721122741699, 1.072354555130005, 0.022749781608582, 0.259287446737289, 0.068845011293888, -0.111939087510109
0.080293104052544, 0.167521700263023, 0.689763128757477, -0.009104012511671, 0.080060422420502, 0.000000000000000, -0.118936173617840, -0.161504283547401, -0.319424122571945, 0.214038848876953, -0.113620206713676, 0.000000000000000, -0.029234338551760, 0.059869661927223, 0.232690483331680, -0.030410759150982, 0.309456765651703, 0.373700350522995, 1.072165966033936, 0.022745257243514, 0.259279251098633, 0.068839319050312, -0.111903369426727
0.079662442207336, 0.167174518108368, 0.690102696418762, -0.008973320014775, 0.079901993274689, 0.000000000000000, -0.119961701333523, -0.161960139870644, -0.318868666887283, 0.213996767997742, -0.113242842257023, 0.000000000000000, -0.028854867443442, 0.059520516544580, 0.232853993773460, -0.030418889597058, 0.309784352779388, 0.373690187931061, 1.071994781494141, 0.022743422538042, 0.259279310703278, 0.068839147686958, -0.111819855868816
0.079022862017155, 0.166845649480820, 0.690477550029755, -0.008829416707158, 0.079715885221958, 0.000000000000000, -0.121010236442089, -0.162368819117546, -0.318278193473816, 0.213990882039070, -0.112874582409859, 0.000000000000000, -0.028476018458605, 0.059152882546186, 0.232974529266357, -0.030376136302948, 0.310147374868393, 0.373689591884613, 1.071828246116638, 0.022744627669454, 0.259282290935516, 0.068844974040985, -0.111705593764782
0.078385621309280, 0.166522249579430, 0.690887570381165, -0.008662064559758, 0.079504854977131, 0.000000000000000, -0.122075468301773, -0.162739366292953, -0.317650377750397, 0.214026004076004, -0.112513251602650, 0.000000000000000, -0.028099175542593, 0.058768644928932, 0.233047306537628, -0.030306903645396, 0.310536146163940, 0.373695284128189, 1.071649909019470, 0.022748643532395, 0.259281516075134, 0.068855889141560, -0.111580155789852
0.077769309282303, 0.166170597076416, 0.691333770751953, -0.008455570787191, 0.079272627830505, 0.000000000000000, -0.123157359659672, -0.163094967603683, -0.316980063915253, 0.214097946882248, -0.112160295248032, 0.000000000000000, -0.027720797806978, 0.058374837040901, 0.233070939779282, -0.030236314982176, 0.310944706201553, 0.373704016208649, 1.071444511413574, 0.022755132988095, 0.259270787239075, 0.068870767951012, -0.111463874578476
0.077203340828419, 0.165778547525406, 0.691811740398407, -0.008196198381484, 0.079023331403732, 0.000000000000000, -0.124252803623676, -0.163430318236351, -0.316267549991608, 0.214205846190453, -0.111817292869091, 0.000000000000000, -0.027334958314896, 0.057988509535789, 0.233054950833321, -0.030188910663128, 0.311373084783554, 0.373713672161102, 1.071201443672180, 0.022763872519135, 0.259245693683624, 0.068888917565346, -0.111374326050282
0.076665446162224, 0.165381655097008, 0.692313194274902, -0.007900410331786, 0.078760154545307, 0.000000000000000, -0.125364363193512, -0.163701802492142, -0.315522044897079, 0.214353889226913, -0.111479967832565, 0.000000000000000, -0.026940010488033, 0.057628531008959, 0.233021587133408, -0.030196327716112, 0.311816960573196, 0.373720496892929, 1.070911049842834, 0.022774219512939, 0.259202212095261, 0.068908773362637, -0.111327320337296
0.076105408370495, 0.165022075176239, 0.692831039428711, -0.007597136776894, 0.078484952449799, 0.000000000000000, -0.126508504152298, -0.163907393813133, -0.314746946096420, 0.214535623788834, -0.111141689121723, 0.000000000000000, -0.026536794379354, 0.057302419096231, 0.232999742031097, -0.030294170603156, 0.312257647514343, 0.373717516660690, 1.070566058158875, 0.022784648463130, 0.259137213230133, 0.068926855921745, -0.111341454088688
0.075491510331631, 0.164727360010147, 0.693358778953552, -0.007306709419936, 0.078196458518505, 0.000000000000000, -0.127702251076698, -0.164073705673218, -0.313940614461899, 0.214738816022873, -0.110799551010132, 0.000000000000000, -0.026120545342565, 0.057005546987057, 0.233014300465584, -0.030509063974023, 0.312665373086929, 0.373696297407150, 1.070164918899536, 0.022793050855398, 0.259050071239471, 0.068938583135605, -0.111439935863018
0.074788935482502, 0.164524540305138, 0.693890273571014, -0.007054506801069, 0.077885940670967, 0.000000000000000, -0.128951445221901, -0.164195224642754, -0.313106268644333, 0.214959055185318, -0.110452584922314, 0.000000000000000, -0.025679744780064, 0.056729454547167, 0.233079403638840, -0.030854335054755, 0.313006877899170, 0.373648613691330, 1.069713234901428, 0.022797292098403, 0.258942991495132, 0.068939529359341, -0.111647389829159
0.074002027511597, 0.164427563548088, 0.694418907165527, -0.006855073384941, 0.077537223696709, 0.000000000000000, -0.130239337682724, -0.164275944232941, -0.312242269515991, 0.215197727084160, -0.110092051327229, 0.000000000000000, -0.025200402364135, 0.056470338255167, 0.233202159404755, -0.031324248760939, 0.313250541687012, 0.373568475246429, 1.069222807884216, 0.022795615717769, 0.258821070194244, 0.068926222622395, -0.111975178122520
0.073160462081432, 0.164419665932655, 0.694940507411957, -0.006708608474582, 0.077139973640442, 0.000000000000000, -0.131528094410896, -0.164278313517570, -0.311354011297226, 0.215466111898422, -0.109709732234478, 0.000000000000000, -0.024666661396623, 0.056233916431665, 0.233390703797340, -0.031897388398647, 0.313361614942551, 0.373450458049774, 1.068710923194885, 0.022786380723119, 0.258691608905792, 0.068895615637302, -0.112420931458473
0.072356067597866, 0.164434671401978, 0.695452392101288, -0.006580088287592, 0.076689869165421, 0.000000000000000, -0.132762208580971, -0.164175093173981, -0.310445070266724, 0.215778768062592, -0.109296247363091, 0.000000000000000, -0.024061350151896, 0.056035745888948, 0.233657717704773, -0.032525930553675, 0.313303261995316, 0.373291224241257, 1.068203687667847, 0.022768292576075, 0.258565783500671, 0.068845592439175, -0.112959407269955
0.071710236370564, 0.164384499192238, 0.695953309535980, -0.006415489129722, 0.076174862682819, 0.000000000000000, -0.133892357349396, -0.164029076695442, -0.309504181146622, 0.216143563389778, -0.108827248215675, 0.000000000000000, -0.023367000743747, 0.055896472185850, 0.234009414911270, -0.033132590353489, 0.313055306673050, 0.373093038797379, 1.067731142044067, 0.022741390392184, 0.258456736803055, 0.068777106702328, -0.113539740443230
0.071241863071918, 0.164210975170135, 0.696447670459747, -0.006194717716426, 0.075575478374958, 0.000000000000000, -0.134923204779625, -0.163875624537468, -0.308530300855637, 0.216569349169731, -0.108272179961205, 0.000000000000000, -0.022575188428164, 0.055824488401413, 0.234427526593208, -0.033641330897808, 0.312632262706757, 0.372864484786987, 1.067312240600586, 0.022707551717758, 0.258373022079468, 0.068694710731506, -0.114106044173241
0.070913337171078, 0.163894101977348, 0.696941792964935, -0.005913247354329, 0.074874222278595, 0.000000000000000, -0.135911777615547, -0.163779601454735, -0.307519495487213, 0.217057883739471, -0.107600711286068, 0.000000000000000, -0.021694088354707, 0.055801108479500, 0.234863623976707, -0.033999446779490, 0.312084257602692, 0.372618317604065, 1.066947698593140, 0.022670114412904, 0.258315473794937, 0.068605504930019, -0.114612959325314
0.070536196231842, 0.163498997688293, 0.697443723678589, -0.005637066904455, 0.074058838188648, 0.000000000000000, -0.136923462152481, -0.163621112704277, -0.306503891944885, 0.217646569013596, -0.106808044016361, 0.000000000000000, -0.020737707614899, 0.055802218616009, 0.235260814428329, -0.034215103834867, 0.311472833156586, 0.372364521026611, 1.066615462303162, 0.022632274776697, 0.258275121450424, 0.068515412509441, -0.115064367651939
0.070003710687160, 0.163076847791672, 0.697956681251526, -0.005406441632658, 0.073122583329678, 0.000000000000000, -0.138007313013077, -0.163407221436501, -0.305487573146820, 0.218361213803291, -0.105896301567554, 0.000000000000000, -0.019718099385500, 0.055815596133471, 0.235580191016197, -0.034303989261389, 0.310853421688080, 0.372111946344376, 1.066297650337219, 0.022596912458539, 0.258244693279266, 0.068429850041866, -0.115470938384533
0.069405421614647, 0.162638023495674, 0.698471486568451, -0.005195701029152, 0.072061389684677, 0.000000000000000, -0.139188289642334, -0.163279548287392, -0.304444402456284, 0.219210356473923, -0.104862608015537, 0.000000000000000, -0.018643882125616, 0.055847249925137, 0.235817313194275, -0.034259919077158, 0.310266673564911, 0.371869266033173, 1.065992474555969, 0.022566594183445, 0.258224457502365, 0.068354077637196, -0.115820012986660
0.068895101547241, 0.162214115262032, 0.698967695236206, -0.004967302083969, 0.070878088474274, 0.000000000000000, -0.140463054180145, -0.163285106420517, -0.303364366292953, 0.220219999551773, -0.103701613843441, 0.000000000000000, -0.017523676156998, 0.055916629731655, 0.235995844006538, -0.034082937985659, 0.309736222028732, 0.371641457080841, 1.065699696540833, 0.022542944177985, 0.258214652538300, 0.068291366100311, -0.116092152893543
0.068502068519592, 0.161877632141113, 0.699426352977753, -0.004730386659503, 0.069585680961609, 0.000000000000000, -0.141822844743729, -0.163331821560860, -0.302267223596573, 0.221435919404030, -0.102408587932587, 0.000000000000000, -0.016369057819247, 0.056049440056086, 0.236147627234459, -0.033802326768637, 0.309271365404129, 0.371427118778229, 1.065405130386353, 0.022526212036610, 0.258209764957428, 0.068241469562054, -0.116280227899551
0.068151421844959, 0.161657050251961, 0.699840068817139, -0.004507100675255, 0.068205922842026, 0.000000000000000, -0.143299862742424, -0.163352683186531, -0.301172316074371, 0.222887888550758, -0.100988082587719, 0.000000000000000, -0.015186673961580, 0.056272380053997, 0.236298233270645, -0.033469770103693, 0.308871626853943, 0.371220022439957, 1.065082550048828, 0.022515639662743, 0.258198767900467, 0.068201534450054, -0.116400063037872
0.067773364484310, 0.161516353487968, 0.700208842754364, -0.004295748658478, 0.066757231950760, 0.000000000000000, -0.144962653517723, -0.163386821746826, -0.300080388784409, 0.224589750170708, -0.099452257156372, 0.000000000000000, -0.013976659625769, 0.056602753698826, 0.236462920904160, -0.033144801855087, 0.308531433343887, 0.371011972427368, 1.064701557159424, 0.022510090842843, 0.258168786764145, 0.068167716264725, -0.116487190127373
0.067327372729778, 0.161421790719032, 0.700531959533691, -0.004086798056960, 0.065242826938629, 0.000000000000000, -0.146851032972336, -0.163508698344231, -0.298984795808792, 0.226583972573280, -0.097801499068737, 0.000000000000000, -0.012740584090352, 0.057039406150579, 0.236652448773384, -0.032883364707232, 0.308232456445694, 0.370792567729950, 1.064235687255859, 0.022507872432470, 0.258108466863632, 0.068135075271130, -0.116581134498119
0.066780351102352, 0.161321520805359, 0.700813114643097, -0.003860581433401, 0.063667371869087, 0.000000000000000, -0.148942023515701, -0.163774237036705, -0.297880500555038, 0.228960707783699, -0.096035502851009, 0.000000000000000, -0.011478899978101, 0.057562716305256, 0.236881271004677, -0.032733116298914, 0.307931780815125, 0.370547622442245, 1.063668489456177, 0.022506127133965, 0.258010834455490, 0.068096466362476, -0.116726279258728
0.066147595643997, 0.161128029227257, 0.701057136058807, -0.003573437919840, 0.062038473784924, 0.000000000000000, -0.151118353009224, -0.164182245731354, -0.296768724918365, 0.231872871518135, -0.094150885939598, 0.000000000000000, -0.010190932080150, 0.058142304420471, 0.237163782119751, -0.032720264047384, 0.307575374841690, 0.370262622833252, 1.062999010086060, 0.022501626983285, 0.257875174283981, 0.068044357001781, -0.116960078477859
0.065553866326809, 0.160773038864136, 0.701257109642029, -0.003156211925671, 0.060351323336363, 0.000000000000000, -0.153224259614944, -0.164594873785973, -0.295667499303818, 0.235519051551819, -0.092120058834553, 0.000000000000000, -0.008881400339305, 0.058741610497236, 0.237502872943878, -0.032842554152012, 0.307124376296997, 0.369928479194641, 1.062236905097961, 0.022492283955216, 0.257705509662628, 0.067974016070366, -0.117295764386654
0.065022356808186, 0.160208195447922, 0.701408982276917, -0.002569141564891, 0.058605473488569, 0.000000000000000, -0.155116394162178, -0.164621934294701, -0.294621795415878, 0.240133076906204, -0.089914515614510, 0.000000000000000, -0.007563932333142, 0.059314161539078, 0.237890109419823, -0.033092893660069, 0.306558340787888, 0.369540542364120, 1.061390161514282, 0.022477302700281, 0.257505297660828, 0.067883506417274, -0.117735691368580
0.064335174858570, 0.159360364079475, 0.701531529426575, -0.001828772714362, 0.056824643164873, 0.000000000000000, -0.156323999166489, -0.164198413491249, -0.293581277132034, 0.246052443981171, -0.087515749037266, 0.000000000000000, -0.006249796599150, 0.059803437441587, 0.238317117094994, -0.033469233661890, 0.305862039327621, 0.369095236063004, 1.060464501380920, 0.022456383332610, 0.257276922464371, 0.067771762609482, -0.118288271129131
0.063405983150005, 0.158193230628967, 0.701629519462585, -0.000929796311539, 0.055030182003975, 0.000000000000000, -0.156846880912781, -0.164485633373260, -0.292321652173996, 0.253190904855728, -0.084922611713409, 0.000000000000000, -0.004897641018033, 0.060182251036167, 0.238788977265358, -0.033931516110897, 0.305032312870026, 0.368594735860825, 1.059480309486389, 0.022430380806327, 0.257029026746750, 0.067640714347363, -0.118971489369869
0.062158320099115, 0.156832844018936, 0.701684415340424, 0.000063361629145, 0.053230702877045, 0.000000000000000, -0.159253165125847, -0.166130945086479, -0.290914267301559, 0.260294467210770, -0.082212880253792, 0.000000000000000, -0.003488705027848, 0.060456823557615, 0.239320039749146, -0.034447815269232, 0.304097741842270, 0.368046849966049, 1.058448553085327, 0.022401791065931, 0.256766498088837, 0.067495539784431, -0.119771450757980
0.060313403606415, 0.155374526977539, 0.701695740222931, 0.001035380875692, 0.051468316465616, 0.000000000000000, -0.165274187922478, -0.168145686388016, -0.289688318967819, 0.266737371683121, -0.079472266137600, 0.000000000000000, -0.002116172341630, 0.060605075210333, 0.239918038249016, -0.035064578056335, 0.303104609251022, 0.367456227540970, 1.057345986366272, 0.022373255342245, 0.256478905677795, 0.067340448498726, -0.120627947151661
0.057903498411179, 0.153813257813454, 0.701644301414490, 0.001998187042773, 0.049800503998995, 0.000000000000000, -0.173246741294861, -0.170674473047256, -0.288513153791428, 0.273335367441177, -0.076764404773712, 0.000000000000000, -0.000847932707984, 0.060606189072132, 0.240600034594536, -0.035817191004753, 0.302103340625763, 0.366830080747604, 1.056158065795898, 0.022347988560796, 0.256159991025925, 0.067181274294853, -0.121501900255680
0.055155258625746, 0.152165949344635, 0.701489806175232, 0.002982736099511, 0.048244204372168, 0.000000000000000, -0.181067347526550, -0.173961117863655, -0.287202984094620, 0.281148135662079, -0.073921710252762, 0.000000000000000, 0.000267122086370, 0.060438454151154, 0.241378590464592, -0.036687996238470, 0.301157832145691, 0.366184443235397, 1.054901838302612, 0.022330736741424, 0.255816996097565, 0.067028351128101, -0.122341044247150
0.052467603236437, 0.150150895118713, 0.701199710369110, 0.004173036664724, 0.046817801892757, 0.000000000000000, -0.186103627085686, -0.177794039249420, -0.285638332366943, 0.291580855846405, -0.070601426064968, 0.000000000000000, 0.001163742854260, 0.060063011944294, 0.242268636822701, -0.037637781351805, 0.300344467163086, 0.365541309118271, 1.053612351417542, 0.022327417507768, 0.255465209484100, 0.066895350813866, -0.123072385787964
0.049385450780392, 0.147941306233406, 0.700785756111145, 0.005322518758476, 0.045511733740568, 0.000000000000000, -0.195834025740623, -0.182096883654594, -0.284274846315384, 0.301301181316376, -0.066961213946342, 0.000000000000000, 0.001868786057457, 0.059447906911373, 0.243244543671608, -0.038599710911512, 0.299749642610550, 0.364927142858505, 1.052333474159241, 0.022344844415784, 0.255123913288116, 0.066798426210880, -0.123705916106701
0.046851508319378, 0.145169392228127, 0.700186371803284, 0.006887950468808, 0.044359859079123, 0.000000000000000, -0.202947974205017, -0.186728283762932, -0.282675653696060, 0.313915371894836, -0.062680453062057, 0.000000000000000, 0.002159472322091, 0.058556467294693, 0.244365483522415, -0.039605204015970, 0.299442708492279, 0.364355593919754, 1.051069974899292, 0.022387428209186, 0.254794955253601, 0.066747151315212, -0.124059297144413
0.043814849108458, 0.142195194959641, 0.699471652507782, 0.008442242629826, 0.043362189084291, 0.000000000000000, -0.214010775089264, -0.192799091339111, -0.280959099531174, 0.326342791318893, -0.058067120611668, 0.000000000000000, 0.002083781873807, 0.057346772402525, 0.245582222938538, -0.040640838444233, 0.299487948417664, 0.363839983940125, 1.049832463264465, 0.022459022700787, 0.254482686519623, 0.066750288009644, -0.124210096895695
0.040801841765642, 0.138917967677116, 0.698614120483398, 0.010288623161614, 0.042543604969978, 0.000000000000000, -0.225185886025429, -0.199781328439713, -0.278945922851562, 0.340616375207901, -0.052901878952980, 0.000000000000000, 0.001541435485706, 0.055808965116739, 0.246920332312584, -0.041751530021429, 0.299926131963730, 0.363382101058960, 1.048607349395752, 0.022561036050320, 0.254180818796158, 0.066810548305511, -0.124106548726559
0.037321660667658, 0.135544732213020, 0.697656571865082, 0.012266920879483, 0.041890926659107, 0.000000000000000, -0.236444175243378, -0.207550033926964, -0.276590049266815, 0.356882244348526, -0.047128278762102, 0.000000000000000, 0.000429573585279, 0.053919296711683, 0.248342573642731, -0.043013006448746, 0.300776451826096, 0.362974166870117, 1.047360777854919, 0.022692762315273, 0.253874003887177, 0.066925428807735, -0.123727038502693
0.033248614519835, 0.132182091474533, 0.696618199348450, 0.014335162006319, 0.041368585079908, 0.000000000000000, -0.248372286558151, -0.215360566973686, -0.274048119783401, 0.375024795532227, -0.040743358433247, 0.000000000000000, -0.001391397207044, 0.051679644733667, 0.249810993671417, -0.044515818357468, 0.302042096853256, 0.362602472305298, 1.046048045158386, 0.022852296009660, 0.253541946411133, 0.067089632153511, -0.123013176023960
0.028677521273494, 0.128925114870071, 0.695505082607269, 0.016472278162837, 0.040914971381426, 0.000000000000000, -0.261045902967453, -0.222836524248123, -0.271385878324509, 0.395015567541122, -0.033845510333776, 0.000000000000000, -0.004035561345518, 0.049116294831038, 0.251295208930969, -0.046323027461767, 0.303705453872681, 0.362250894308090, 1.044635534286499, 0.023036845028400, 0.253168970346451, 0.067296467721462, -0.121898256242275
0.023713827133179, 0.125972703099251, 0.694319307804108, 0.018557939678431, 0.040415853261948, 0.000000000000000, -0.274575620889664, -0.229846596717834, -0.268652349710464, 0.416629225015640, -0.026660852134228, 0.000000000000000, -0.007515243254602, 0.046294014900923, 0.252767980098724, -0.048425249755383, 0.305732816457748, 0.361905753612518, 1.043118953704834, 0.023243440315127, 0.252752035856247, 0.067540124058723, -0.120341911911964
0.018708838149905, 0.123580880463123, 0.693048357963562, 0.020481536164880, 0.039700590074062, 0.000000000000000, -0.287542581558228, -0.236802279949188, -0.265653669834137, 0.440079540014267, -0.019505389034748, 0.000000000000000, -0.011673561297357, 0.043336920440197, 0.254210859537125, -0.050705261528492, 0.308086216449738, 0.361561626195908, 1.041535973548889, 0.023470085114241, 0.252306431531906, 0.067818686366081, -0.118364602327347
0.013979651965201, 0.122269421815872, 0.691677570343018, 0.022020781412721, 0.038566153496504, 0.000000000000000, -0.298630982637405, -0.243908211588860, -0.262303471565247, 0.465372473001480, -0.013038970530033, 0.000000000000000, -0.016169639304280, 0.040437407791615, 0.255604147911072, -0.052954558283091, 0.310729026794434, 0.361221998929977, 1.039956092834473, 0.023716077208519, 0.251861304044724, 0.068134635686874, -0.116080872714520
0.009775629267097, 0.122316472232342, 0.690234541893005, 0.023067118600011, 0.036879684776068, 0.000000000000000, -0.311740636825562, -0.248452678322792, -0.259917944669724, 0.490045130252838, -0.008081000298262, 0.000000000000000, -0.020769547671080, 0.037748001515865, 0.256927818059921, -0.055027313530445, 0.313568353652954, 0.360872000455856, 1.038425922393799, 0.023977013304830, 0.251435250043869, 0.068481341004372, -0.113551333546638
0.006313010118902, 0.123283535242081, 0.688801705837250, 0.023810323327780, 0.034599252045155, 0.000000000000000, -0.328386783599854, -0.248376980423927, -0.259568750858307, 0.511758685112000, -0.004183438606560, 0.000000000000000, -0.025406096130610, 0.035334970802069, 0.258165687322617, -0.056890353560448, 0.316404432058334, 0.360462337732315, 1.036956787109375, 0.024241177365184, 0.251030802726746, 0.068834461271763, -0.110776625573635
0.003548566019163, 0.125088378787041, 0.687449276447296, 0.024314956739545, 0.031734649091959, 0.000000000000000, -0.347114950418472, -0.243515163660049, -0.261517018079758, 0.529134273529053, -0.000514529179782, 0.000000000000000, -0.030057238414884, 0.033269181847572, 0.259302705526352, -0.058603823184967, 0.318961769342422, 0.359916657209396, 1.035524487495422, 0.024491416290402, 0.250634193420410, 0.069155879318714, -0.107789710164070
0.001629128120840, 0.127432033419609, 0.686267793178558, 0.024835851043463, 0.028368981555104, 0.000000000000000, -0.367917686700821, -0.234619557857513, -0.265790551900864, 0.540329217910767, 0.003633159678429, 0.000000000000000, -0.034730274230242, 0.031553026288748, 0.260304838418961, -0.060296382755041, 0.320909559726715, 0.359137326478958, 1.034079313278198, 0.024706095457077, 0.250219792127609, 0.069396071135998, -0.104675352573395
0.000706694147084, 0.129872664809227, 0.685334920883179, 0.025628848001361, 0.024488579481840, 0.000000000000000, -0.390839040279388, -0.223135739564896, -0.272127211093903, 0.543953120708466, 0.008903724141419, 0.000000000000000, -0.039247930049896, 0.030172418802977, 0.261114597320557, -0.062022015452385, 0.321976602077484, 0.358045250177383, 1.032595157623291, 0.024867303669453, 0.249772697687149, 0.069514550268650, -0.101674810051918
0.000747533631511, 0.132218942046165, 0.684695303440094, 0.026804750785232, 0.020026700571179, 0.000000000000000, -0.415547311306000, -0.210686177015305, -0.280050963163376, 0.539508759975433, 0.015664760023355, 0.000000000000000, -0.043318748474121, 0.029116665944457, 0.261682242155075, -0.063757821917534, 0.322027444839478, 0.356600582599640, 1.031075000762939, 0.024965727701783, 0.249291405081749, 0.069491170346737, -0.099112711846828
0.001406382536516, 0.134617656469345, 0.684359788894653, 0.028325216844678, 0.014935423620045, 0.000000000000000, -0.441769570112228, -0.197936594486237, -0.289254754781723, 0.527414441108704, 0.023872200399637, 0.000000000000000, -0.046801015734673, 0.028359966352582, 0.261997848749161, -0.065508060157299, 0.321066439151764, 0.354795932769775, 1.029517173767090, 0.025000063702464, 0.248773649334908, 0.069323532283306, -0.097201071679592
0.002371716313064, 0.137219786643982, 0.684303283691406, 0.030214456841350, 0.009185099042952, 0.000000000000000, -0.468778997659683, -0.184473171830177, -0.299601823091507, 0.509177386760712, 0.033120989799500, 0.000000000000000, -0.049779765307903, 0.027851521968842, 0.262092351913452, -0.067320026457310, 0.319196939468384, 0.352647036314011, 1.027915716171265, 0.024974824860692, 0.248215585947037, 0.069022014737129, -0.095955908298492
0.003557176329195, 0.139880225062370, 0.684498906135559, 0.032716564834118, 0.002833329839632, 0.000000000000000, -0.495907127857208, -0.170135110616684, -0.310769051313400, 0.486657023429871, 0.042761653661728, 0.000000000000000, -0.052370868623257, 0.027539126574993, 0.262005597352982, -0.069194734096527, 0.316572278738022, 0.350189328193665, 1.026292085647583, 0.024898536503315, 0.247626066207886, 0.068606935441494, -0.095312662422657
0.004811704624444, 0.142317250370979, 0.684924066066742, 0.036149829626083, -0.003977069165558, 0.000000000000000, -0.522497534751892, -0.154959484934807, -0.322363168001175, 0.461756944656372, 0.052141360938549, 0.000000000000000, -0.054578553885221, 0.027422519400716, 0.261757880449295, -0.071056120097637, 0.313363760709763, 0.347470879554749, 1.024697303771973, 0.024781934916973, 0.247026816010475, 0.068104535341263, -0.095225997269154
0.006215198896825, 0.144475474953651, 0.685503900051117, 0.040891569107771, -0.011054841801524, 0.000000000000000, -0.547005236148834, -0.139109298586845, -0.333933770656586, 0.436573773622513, 0.060831785202026, 0.000000000000000, -0.056262999773026, 0.027565680444241, 0.261351227760315, -0.072743996977806, 0.309729844331741, 0.344545632600784, 1.023209810256958, 0.024636194109917, 0.246451586484909, 0.067542985081673, -0.095685921609402
0.008348952047527, 0.146740123629570, 0.686063945293427, 0.047374915331602, -0.018251765519381, 0.000000000000000, -0.566568970680237, -0.123703591525555, -0.344695478677750, 0.413233637809753, 0.068774893879890, 0.000000000000000, -0.057321000844240, 0.028051918372512, 0.260791122913361, -0.074075430631638, 0.305783629417419, 0.341459542512894, 1.021910786628723, 0.024470549076796, 0.245934948325157, 0.066946022212505, -0.096578769385815
0.011785407550633, 0.149466335773468, 0.686410248279572, 0.056049264967442, -0.025490157306194, 0.000000000000000, -0.579369068145752, -0.109885551035404, -0.354025065898895, 0.392998307943344, 0.076122403144836, 0.000000000000000, -0.057698071002960, 0.028933392837644, 0.260076314210892, -0.074842751026154, 0.301566302776337, 0.338243246078491, 1.020884037017822, 0.024290505796671, 0.245512366294861, 0.066328845918179, -0.097698912024498
0.016890032216907, 0.152747243642807, 0.686360836029053, 0.067440405488014, -0.032681055366993, 0.000000000000000, -0.584355592727661, -0.098110072314739, -0.361570239067078, 0.376620858907700, 0.083072885870934, 0.000000000000000, -0.057391297072172, 0.030244143679738, 0.259210288524628, -0.074855022132397, 0.297064304351807, 0.334913045167923, 1.020198345184326, 0.024098547175527, 0.245212763547897, 0.065699212253094, -0.098791718482971
0.023782309144735, 0.156423375010490, 0.685758888721466, 0.082215376198292, -0.039570733904839, 0.000000000000000, -0.580863237380981, -0.088554985821247, -0.367046386003494, 0.364502549171448, 0.089772917330265, 0.000000000000000, -0.056385416537523, 0.032046794891357, 0.258221924304962, -0.073957175016403, 0.292269557714462, 0.331484466791153, 1.019900321960449, 0.023897551000118, 0.245055690407753, 0.065065175294876, -0.099636606872082
0.032265912741423, 0.160208389163017, 0.684479653835297, 0.101124711334705, -0.045694690197706, 0.000000000000000, -0.569203019142151, -0.081327445805073, -0.370266735553741, 0.356479644775391, 0.096277736127377, 0.000000000000000, -0.054578382521868, 0.034437973052263, 0.257170766592026, -0.072028458118439, 0.287189513444901, 0.327974826097488, 1.020021557807922, 0.023691039532423, 0.245055064558983, 0.064435981214046, -0.100133597850800
0.042149405926466, 0.163854032754898, 0.682386040687561, 0.124965615570545, -0.050473690032959, 0.000000000000000, -0.551124870777130, -0.076460860669613, -0.371247082948685, 0.351783990859985, 0.102534614503384, 0.000000000000000, -0.051785971969366, 0.037479586899281, 0.256148427724838, -0.069022208452225, 0.281763404607773, 0.324378788471222, 1.020580649375916, 0.023477610200644, 0.245218902826309, 0.063809156417847, -0.100359372794628
0.052957460284233, 0.167371973395348, 0.679319322109222, 0.154265120625496, -0.053425356745720, 0.000000000000000, -0.529994487762451, -0.073620602488518, -0.370354145765305, 0.349110752344131, 0.108307376503944, 0.000000000000000, -0.047750160098076, 0.041163370013237, 0.255279958248138, -0.065021485090256, 0.275813907384872, 0.320650726556778, 1.021569371223450, 0.023247024044394, 0.245543286204338, 0.063160896301270, -0.100619383156300
0.062721118330956, 0.170897349715233, 0.675242185592651, 0.188796743750572, -0.054375715553761, 0.000000000000000, -0.509580969810486, -0.072114549577236, -0.368191242218018, 0.346926510334015, 0.113170549273491, 0.000000000000000, -0.042151071131229, 0.045413058251143, 0.254645049571991, -0.060237862169743, 0.269113004207611, 0.316717356443405, 1.022944092750549, 0.022982889786363, 0.246008634567261, 0.062451958656311, -0.101445630192757
0.069256760179996, 0.175081223249435, 0.670054793357849, 0.227936938405037, -0.053445920348167, 0.000000000000000, -0.491062223911285, -0.070797987282276, -0.365315169095993, 0.344426125288010, 0.116819068789482, 0.000000000000000, -0.034685682505369, 0.050184525549412, 0.254192471504211, -0.054900914430618, 0.261582791805267, 0.312533825635910, 1.024641990661621, 0.022674461826682, 0.246588364243507, 0.061655793339014, -0.103415302932262
0.071256875991821, 0.180956706404686, 0.663512229919434, 0.271060287952423, -0.050958979874849, 0.000000000000000, -0.473583549261093, -0.068124353885651, -0.362224161624908, 0.341484218835831, 0.119137711822987, 0.000000000000000, -0.025116626173258, 0.055588331073523, 0.253845661878586, -0.049186259508133, 0.253357380628586, 0.308111310005188, 1.026609897613525, 0.022323068231344, 0.247262060642242, 0.060774400830269, -0.107026122510433
0.067911170423031, 0.189089924097061, 0.655490994453430, 0.317548871040344, -0.047330256551504, 0.000000000000000, -0.456873029470444, -0.063261054456234, -0.359223216772079, 0.337966084480286, 0.120042264461517, 0.000000000000000, -0.013254989869893, 0.061796087771654, 0.253532290458679, -0.043173130601645, 0.244646459817886, 0.303497374057770, 1.028832554817200, 0.021938407793641, 0.248027086257935, 0.059830360114574, -0.112729586660862
0.058806516230106, 0.199573382735252, 0.646072745323181, 0.366663366556168, -0.042983181774616, 0.000000000000000, -0.441966086626053, -0.056594282388687, -0.356368243694305, 0.333602011203766, 0.119395859539509, 0.000000000000000, 0.000920207297895, 0.068883739411831, 0.253156870603561, -0.036875996738672, 0.235608205199242, 0.298742890357971, 1.031314969062805, 0.021531676873565, 0.248890385031700, 0.058850288391113, -0.120840676128864
0.044004213064909, 0.212331429123878, 0.635523915290833, 0.417289733886719, -0.038384173065424, 0.000000000000000, -0.429893851280212, -0.049290381371975, -0.353526979684830, 0.328334242105484, 0.117057830095291, 0.000000000000000, 0.017109585925937, 0.076755188405514, 0.252661645412445, -0.030363475903869, 0.226240366697311, 0.293857753276825, 1.034045815467834, 0.021105118095875, 0.249851033091545, 0.057839479297400, -0.131395250558853
0.024185717105865, 0.226968064904213, 0.624340236186981, 0.467669934034348, -0.034050375223160, 0.000000000000000, -0.420360803604126, -0.042454835027456, -0.350524246692657, 0.322550982236862, 0.112986095249653, 0.000000000000000, 0.034507520496845, 0.085143990814686, 0.252052277326584, -0.023856464773417, 0.216402307152748, 0.288800328969955, 1.036959528923035, 0.020649075508118, 0.250883668661118, 0.056774262338877, -0.143945530056953
-0.000316850870149, 0.242189809679985, 0.613548517227173, 0.514974892139435, -0.030385840684175, 0.000000000000000, -0.412545889616013, -0.036655280739069, -0.347322762012482, 0.316623568534851, 0.107182733714581, 0.000000000000000, 0.051831621676683, 0.093676880002022, 0.251331567764282, -0.017683630809188, 0.205934569239616, 0.283509582281113, 1.039943695068359, 0.020148999989033, 0.251942217350006, 0.055618409067392, -0.157547473907471
-0.030381808057427, 0.255999237298965, 0.604724168777466, 0.555406212806702, -0.027376828715205, 0.000000000000000, -0.405180543661118, -0.031947262585163, -0.343971848487854, 0.310972034931183, 0.099742747843266, 0.000000000000000, 0.067805856466293, 0.102021925151348, 0.250476568937302, -0.012050497345626, 0.194707617163658, 0.277940660715103, 1.042932033538818, 0.019592560827732, 0.253001242876053, 0.054342284798622, -0.171096503734589
-0.067014984786510, 0.267195522785187, 0.599232554435730, 0.585174381732941, -0.024425627663732, 0.000000000000000, -0.397138327360153, -0.028495710343122, -0.340479105710983, 0.305909216403961, 0.090819537639618, 0.000000000000000, 0.081558190286160, 0.109958574175835, 0.249382212758064, -0.006928837858140, 0.182631835341454, 0.272079914808273, 1.045945405960083, 0.018973417580128, 0.254074186086655, 0.052932314574718, -0.183703854680061
-0.109252750873566, 0.275850772857666, 0.597506999969482, 0.601900339126587, -0.020675087347627, 0.000000000000000, -0.387904435396194, -0.026615992188454, -0.336852878332138, 0.301528304815292, 0.080550357699394, 0.000000000000000, 0.092526517808437, 0.117386348545551, 0.247842460870743, -0.002142629353330, 0.169716328382492, 0.265951007604599, 1.049039602279663, 0.018294105306268, 0.255190640687943, 0.051395628601313, -0.194691091775894
-0.154670342803001, 0.282291173934937, 0.599346697330475, 0.604911208152771, -0.015429592691362, 0.000000000000000, -0.377407640218735, -0.026474479585886, -0.333148121833801, 0.297841101884842, 0.069016411900520, 0.000000000000000, 0.100388862192631, 0.124303802847862, 0.245625749230385, 0.002517474582419, 0.156122073531151, 0.259614616632462, 1.052250981330872, 0.017567068338394, 0.256373137235641, 0.049760572612286, -0.203611329197884
-0.200916349887848, 0.286620080471039, 0.604372620582581, 0.594618141651154, -0.008266397751868, 0.000000000000000, -0.365820109844208, -0.027941541746259, -0.329457968473434, 0.294880956411362, 0.056239362806082, 0.000000000000000, 0.105148397386074, 0.130758956074715, 0.242596641182899, 0.007225995417684, 0.142135649919510, 0.253154724836349, 1.055583119392395, 0.016811361536384, 0.257630914449692, 0.048068888485432, -0.210369035601616
-0.246254667639732, 0.288677990436554, 0.612180411815643, 0.572118818759918, 0.001018280163407, 0.000000000000000, -0.353388935327530, -0.030708899721503, -0.325863152742386, 0.292727917432785, 0.042230349034071, 0.000000000000000, 0.107110567390919, 0.136815771460533, 0.238793820142746, 0.012104401364923, 0.128101959824562, 0.246660560369492, 1.059016704559326, 0.016047846525908, 0.258963465690613, 0.046365182846785, -0.215155571699142
-0.289435297250748, 0.287857532501221, 0.622375726699829, 0.539227247238159, 0.012434180825949, 0.000000000000000, -0.340364992618561, -0.034279618412256, -0.322444200515747, 0.291540563106537, 0.027063596993685, 0.000000000000000, 0.106746859848499, 0.142578884959221, 0.234425857663155, 0.017229346558452, 0.114359520375729, 0.240212723612785, 1.062520861625671, 0.015295440331101, 0.260365307331085, 0.044689100235701, -0.218238651752472
-0.329388707876205, 0.283192604780197, 0.634465396404266, 0.498560249805450, 0.025741187855601, 0.000000000000000, -0.326862990856171, -0.038335919380188, -0.319195389747620, 0.291580200195312, 0.010952354408801, 0.000000000000000, 0.104598395526409, 0.148224547505379, 0.229805499315262, 0.022660547867417, 0.101192869246006, 0.233876198530197, 1.066064715385437, 0.014569208025932, 0.261830866336823, 0.043071605265141, -0.219842046499252
-0.365074872970581, 0.274169713258743, 0.647632122039795, 0.453253209590912, 0.040378503501415, 0.000000000000000, -0.312479048967361, -0.043818298727274, -0.315752744674683, 0.293243974447250, -0.005764545872808, 0.000000000000000, 0.101163573563099, 0.153925076127052, 0.225241422653198, 0.028421919792891, 0.088834792375565, 0.227701440453529, 1.069603323936462, 0.013881050981581, 0.263348609209061, 0.041536405682564, -0.220162257552147
-0.395758718252182, 0.261541545391083, 0.660769999027252, 0.406310617923737, 0.055549506098032, 0.000000000000000, -0.296400308609009, -0.050923362374306, -0.311907440423965, 0.297334700822830, -0.022645540535450, 0.000000000000000, 0.096681244671345, 0.159700006246567, 0.220937401056290, 0.034410189837217, 0.077506728470325, 0.221729323267937, 1.073034167289734, 0.013241695240140, 0.264881908893585, 0.040103621780872, -0.219371706247330
-0.420915246009827, 0.246918931603432, 0.672855734825134, 0.360380649566650, 0.070498153567314, 0.000000000000000, -0.279420316219330, -0.055802356451750, -0.308547139167786, 0.304503321647644, -0.038997024297714, 0.000000000000000, 0.090991012752056, 0.165432393550873, 0.217038571834564, 0.040369588881731, 0.067441172897816, 0.215995043516159, 1.076188921928406, 0.012661793269217, 0.266365766525269, 0.038792215287685, -0.217501655220985
-0.439587146043777, 0.231766119599342, 0.683232009410858, 0.317929357290268, 0.084724567830563, 0.000000000000000, -0.262920558452606, -0.058448858559132, -0.305727809667587, 0.314366221427917, -0.054018527269363, 0.000000000000000, 0.083780154585838, 0.171045586466789, 0.213718265295029, 0.046015243977308, 0.058867406100035, 0.210532352328300, 1.078896880149841, 0.012151836417615, 0.267733633518219, 0.037621207535267, -0.214483425021172
-0.450937479734421, 0.216933146119118, 0.691774010658264, 0.280840456485748, 0.097992271184921, 0.000000000000000, -0.246512234210968, -0.060350190848112, -0.303006500005722, 0.327158510684967, -0.066989183425903, 0.000000000000000, 0.075016468763351, 0.176502063870430, 0.211052060127258, 0.051167365163565, 0.051958709955215, 0.205369114875793, 1.081046342849731, 0.011719836853445, 0.268944680690765, 0.036606058478355, -0.210505262017250
-0.454155415296555, 0.202758654952049, 0.698578357696533, 0.250326335430145, 0.110262937843800, 0.000000000000000, -0.229291230440140, -0.062872722744942, -0.299879997968674, 0.343402594327927, -0.077387049794197, 0.000000000000000, 0.064759515225887, 0.181752562522888, 0.209108993411064, 0.055749665945768, 0.046793509274721, 0.200518682599068, 1.082587718963623, 0.011368660256267, 0.269984245300293, 0.035753034055233, -0.205763339996338
-0.448460936546326, 0.189523071050644, 0.703621864318848, 0.226967811584473, 0.121594607830048, 0.000000000000000, -0.211420834064484, -0.066339232027531, -0.296137094497681, 0.363251268863678, -0.085018895566463, 0.000000000000000, 0.052966050803661, 0.186692774295807, 0.208025962114334, 0.059732183814049, 0.043359354138374, 0.195976629853249, 1.083507299423218, 0.011095232330263, 0.270852684974670, 0.035057086497545, -0.200231686234474
-0.433911830186844, 0.177714705467224, 0.706836879253387, 0.210536584258080, 0.132008776068687, 0.000000000000000, -0.193349689245224, -0.070390231907368, -0.291743904352188, 0.386777907609940, -0.089835390448570, 0.000000000000000, 0.039551839232445, 0.191091746091843, 0.207897409796715, 0.063042350113392, 0.041550237685442, 0.191715821623802, 1.083788752555847, 0.010889525525272, 0.271548658609390, 0.034499119967222, -0.193833172321320
-0.412306964397430, 0.167947337031364, 0.708386719226837, 0.199831590056419, 0.141367226839066, 0.000000000000000, -0.175431534647942, -0.074930898845196, -0.286597073078156, 0.414016157388687, -0.091803297400475, 0.000000000000000, 0.024407947435975, 0.194571420550346, 0.208699613809586, 0.065458662807941, 0.041193865239620, 0.187687605619431, 1.083364725112915, 0.010735690593719, 0.272047638893127, 0.034047521650791, -0.186601608991623
-0.387170016765594, 0.160627558827400, 0.708756923675537, 0.192893013358116, 0.149323001503944, 0.000000000000000, -0.158442839980125, -0.079727374017239, -0.280698299407959, 0.444833815097809, -0.090927898883820, 0.000000000000000, 0.007388988044113, 0.196727186441422, 0.210407152771950, 0.066577017307281, 0.042136531323195, 0.183837935328484, 1.082090497016907, 0.010617048479617, 0.272290706634521, 0.033668193966150, -0.178598791360855
-0.361597746610641, 0.155588924884796, 0.708439767360687, 0.187842741608620, 0.155453354120255, 0.000000000000000, -0.143677279353142, -0.084329530596733, -0.274175763130188, 0.478949636220932, -0.087329231202602, 0.000000000000000, -0.011618901044130, 0.197273895144463, 0.213079780340195, 0.065891042351723, 0.044251609593630, 0.180113092064857, 1.079764008522034, 0.010517699643970, 0.272192895412445, 0.033328074961901, -0.169834375381470
-0.336484938859940, 0.151647344231606, 0.707741916179657, 0.183569222688675, 0.159460186958313, 0.000000000000000, -0.132810652256012, -0.089002892374992, -0.266944646835327, 0.515903830528259, -0.081285826861858, 0.000000000000000, -0.032626833766699, 0.196034595370293, 0.216672301292419, 0.062923334538937, 0.047375418245792, 0.176453411579132, 1.076172709465027, 0.010420484468341, 0.271663278341293, 0.032991439104080, -0.160433903336525
-0.311826020479202, 0.147271066904068, 0.706899106502533, 0.179388254880905, 0.161156550049782, 0.000000000000000, -0.127954721450806, -0.095009878277779, -0.258663177490234, 0.554988026618958, -0.073217742145061, 0.000000000000000, -0.055652342736721, 0.192866086959839, 0.221002802252769, 0.057266883552074, 0.051303878426552, 0.172793388366699, 1.071116209030151, 0.010306881740689, 0.270614594221115, 0.032619718462229, -0.150552555918694
-0.288436472415924, 0.141930326819420, 0.706115722656250, 0.174618512392044, 0.160420894622803, 0.000000000000000, -0.130955949425697, -0.103349216282368, -0.249339312314987, 0.595435440540314, -0.063707031309605, 0.000000000000000, -0.080557905137539, 0.187654629349709, 0.225760206580162, 0.048604134470224, 0.055859323590994, 0.169074773788452, 1.064421772956848, 0.010160504840314, 0.268970161676407, 0.032178841531277, -0.140473067760468
-0.267663121223450, 0.136567905545235, 0.705473124980927, 0.168651729822159, 0.157195597887039, 0.000000000000000, -0.141910567879677, -0.113539084792137, -0.239814564585686, 0.636543273925781, -0.053659569472075, 0.000000000000000, -0.106555975973606, 0.180587992072105, 0.230710923671722, 0.036835219711065, 0.060950689017773, 0.165264993906021, 1.056000828742981, 0.009971536695957, 0.266688197851181, 0.031649332493544, -0.130800694227219
-0.250413209199905, 0.132737115025520, 0.704964637756348, 0.161067664623260, 0.151521757245064, 0.000000000000000, -0.159544885158539, -0.124510347843170, -0.231227651238441, 0.676638782024384, -0.044435687363148, 0.000000000000000, -0.132209315896034, 0.172294646501541, 0.235826134681702, 0.022190414369106, 0.066534824669361, 0.161357790231705, 1.045896410942078, 0.009736766107380, 0.263783216476440, 0.031027175486088, -0.122425459325314
-0.235498234629631, 0.131032392382622, 0.704533874988556, 0.152149811387062, 0.143675372004509, 0.000000000000000, -0.186475038528442, -0.135123580694199, -0.224940866231918, 0.710189163684845, -0.037149459123611, 0.000000000000000, -0.156276866793633, 0.163651973009109, 0.241357043385506, 0.005189704243094, 0.072538182139397, 0.157359808683395, 1.034268856048584, 0.009456591680646, 0.260319352149963, 0.030317302793264, -0.115699991583824
-0.220070913434029, 0.130477041006088, 0.704199850559235, 0.142901480197906, 0.134201139211655, 0.000000000000000, -0.226033166050911, -0.143947288393974, -0.222147673368454, 0.729826927185059, -0.030917108058929, 0.000000000000000, -0.178086116909981, 0.155398353934288, 0.247519358992577, -0.013464572839439, 0.078829914331436, 0.153281465172768, 1.021346688270569, 0.009133071638644, 0.256388694047928, 0.029528759419918, -0.110335156321526
-0.202459603548050, 0.130266785621643, 0.704068958759308, 0.133918195962906, 0.123588293790817, 0.000000000000000, -0.273881077766418, -0.149240821599960, -0.223205804824829, 0.733169615268707, -0.023726664483547, 0.000000000000000, -0.197370544075966, 0.148019731044769, 0.254219084978104, -0.033082842826843, 0.085283391177654, 0.149138972163200, 1.007335543632507, 0.008770583197474, 0.252071648836136, 0.028674926608801, -0.105844289064407
-0.182993054389954, 0.130524367094040, 0.704269230365753, 0.125151947140694, 0.112053737044334, 0.000000000000000, -0.326252818107605, -0.150963291525841, -0.227644667029381, 0.720392942428589, -0.014722145162523, 0.000000000000000, -0.214074075222015, 0.141794815659523, 0.261131137609482, -0.053148712962866, 0.091773748397827, 0.144938513636589, 0.992368578910828, 0.008371596224606, 0.247415199875832, 0.027763366699219, -0.101839974522591
-0.162423834204674, 0.131348937749863, 0.704913198947906, 0.116695784032345, 0.099674969911575, 0.000000000000000, -0.380891263484955, -0.149114698171616, -0.235051289200783, 0.692971408367157, -0.003752884455025, 0.000000000000000, -0.228430807590485, 0.136767074465752, 0.267952978610992, -0.073334425687790, 0.098093390464783, 0.140647783875465, 0.976538717746735, 0.007929775863886, 0.242447137832642, 0.026780281215906, -0.097886323928833
-0.141529917716980, 0.132381469011307, 0.706142902374268, 0.108872935175896, 0.086504727602005, 0.000000000000000, -0.435235649347305, -0.142572402954102, -0.245363563299179, 0.654120445251465, 0.009020057506859, 0.000000000000000, -0.240859076380730, 0.132809713482857, 0.274512827396393, -0.093406483530998, 0.103932633996010, 0.136193484067917, 0.959960579872131, 0.007430124096572, 0.237203240394592, 0.025690697133541, -0.093527987599373
-0.121252924203873, 0.133265867829323, 0.708101868629456, 0.101927697658539, 0.072602771222591, 0.000000000000000, -0.486464262008667, -0.130275487899780, -0.258298933506012, 0.608488082885742, 0.022900465875864, 0.000000000000000, -0.251673042774200, 0.129771322011948, 0.280756264925003, -0.113066621124744, 0.108933754265308, 0.131485208868980, 0.942838609218597, 0.006854726932943, 0.231757178902626, 0.024451846256852, -0.088481962680817
-0.101340018212795, 0.134216949343681, 0.710724532604218, 0.096266098320484, 0.058098606765270, 0.000000000000000, -0.531992197036743, -0.113770335912704, -0.272424399852753, 0.560606062412262, 0.037010449916124, 0.000000000000000, -0.260871708393097, 0.127581655979156, 0.286743819713593, -0.131771937012672, 0.112731099128723, 0.126439049839973, 0.925535917282104, 0.006187684368342, 0.226251423358917, 0.023025266826153, -0.082705616950989
-0.080491781234741, 0.135302826762199, 0.713847100734711, 0.092683039605618, 0.043327022343874, 0.000000000000000, -0.569986641407013, -0.095922507345676, -0.285919398069382, 0.514085948467255, 0.050825513899326, 0.000000000000000, -0.268332391977310, 0.126137346029282, 0.292617529630661, -0.148818418383598, 0.114927373826504, 0.120969034731388, 0.908531427383423, 0.005414149723947, 0.220878228545189, 0.021373484283686, -0.076233707368374
-0.057980179786682, 0.136205181479454, 0.717394709587097, 0.091965198516846, 0.028796808794141, 0.000000000000000, -0.598882436752319, -0.078897155821323, -0.297398358583450, 0.472190082073212, 0.064119905233383, 0.000000000000000, -0.273976415395737, 0.125233367085457, 0.298514306545258, -0.163564741611481, 0.115141198039055, 0.114989995956421, 0.892303228378296, 0.004521431867033, 0.215830028057098, 0.019461169838905, -0.069139756262302
-0.034142132848501, 0.136709630489349, 0.721372425556183, 0.094563379883766, 0.015014221891761, 0.000000000000000, -0.617228388786316, -0.063873589038849, -0.306055337190628, 0.437801212072372, 0.076807454228401, 0.000000000000000, -0.277714967727661, 0.124616809189320, 0.304480552673340, -0.175526052713394, 0.113130360841751, 0.108454242348671, 0.877263128757477, 0.003504783846438, 0.211271956562996, 0.017269885167480, -0.061632823199034
-0.009681579656899, 0.136810094118118, 0.725783288478851, 0.100763276219368, 0.002410840475932, 0.000000000000000, -0.623926103115082, -0.051585376262665, -0.311525315046310, 0.412834882736206, 0.088926903903484, 0.000000000000000, -0.279394328594208, 0.124065101146698, 0.310472428798676, -0.184343799948692, 0.108886331319809, 0.101391211152077, 0.863752901554108, 0.002372433664277, 0.207341536879539, 0.014812911860645, -0.054043803364038
0.015120263211429, 0.136444538831711, 0.730563342571259, 0.111047662794590, -0.008571409620345, 0.000000000000000, -0.618702173233032, -0.042755968868732, -0.313683509826660, 0.397803097963333, 0.100594125688076, 0.000000000000000, -0.278849005699158, 0.123387895524502, 0.316436082124710, -0.189761132001877, 0.102629020810127, 0.093912690877914, 0.852055609226227, 0.001144709065557, 0.204153686761856, 0.012135032564402, -0.046712923794985
0.040370125323534, 0.135467365384102, 0.735570907592773, 0.126082777976990, -0.017467292025685, 0.000000000000000, -0.603509426116943, -0.037940040230751, -0.312722504138947, 0.391428768634796, 0.111818216741085, 0.000000000000000, -0.275953739881516, 0.122364543378353, 0.322373449802399, -0.191660702228546, 0.094723582267761, 0.086184680461884, 0.842382609844208, -0.000151112864842, 0.201795354485512, 0.009299858473241, -0.039976418018341
0.065339945256710, 0.133760765194893, 0.740696072578430, 0.146215200424194, -0.023939685896039, 0.000000000000000, -0.582936942577362, -0.036990236490965, -0.309319823980331, 0.390902370214462, 0.122338488698006, 0.000000000000000, -0.270543277263641, 0.120782025158405, 0.328311741352081, -0.190108940005302, 0.085631668567657, 0.078411839902401, 0.834840238094330, -0.001483237720095, 0.200311198830605, 0.006383681669831, -0.034308370202780
0.087853774428368, 0.131340801715851, 0.745951116085052, 0.171208783984184, -0.027918037027121, 0.000000000000000, -0.562094509601593, -0.039094213396311, -0.304391413927078, 0.393096297979355, 0.131658747792244, 0.000000000000000, -0.262325137853622, 0.118588857352734, 0.334198445081711, -0.185343667864799, 0.075953990221024, 0.070855841040611, 0.829400837421417, -0.002812809310853, 0.199691057205200, 0.003482997650281, -0.030387219041586
0.105325721204281, 0.128785446286201, 0.751342177391052, 0.200429007411003, -0.029610170051455, 0.000000000000000, -0.543902099132538, -0.043321993201971, -0.298686027526855, 0.395791083574295, 0.139279559254646, 0.000000000000000, -0.250945866107941, 0.115999639034271, 0.339857429265976, -0.177722126245499, 0.066484086215496, 0.063855841755867, 0.825905323028564, -0.004091228824109, 0.199870705604553, 0.000722503231373, -0.028936255723238
0.115793064236641, 0.127607539296150, 0.756708562374115, 0.232934609055519, -0.029427058994770, 0.000000000000000, -0.529008567333221, -0.048524927347898, -0.292834818363190, 0.397839963436127, 0.144891113042831, 0.000000000000000, -0.236250028014183, 0.113479845225811, 0.345047026872635, -0.167779862880707, 0.058137129992247, 0.057797085493803, 0.824046134948730, -0.005264172330499, 0.200723826885223, -0.001756197307259, -0.030442116782069
0.118167899549007, 0.129701048135757, 0.761825203895569, 0.267438292503357, -0.027896307408810, 0.000000000000000, -0.517617285251617, -0.053728900849819, -0.287322312593460, 0.398650020360947, 0.148385539650917, 0.000000000000000, -0.218525364995003, 0.111574344336987, 0.349515259265900, -0.156309530138969, 0.051710423082113, 0.053018890321255, 0.823365449905396, -0.006283333059400, 0.202060967683792, -0.003827902488410, -0.035036388784647
0.112781986594200, 0.136096566915512, 0.766599714756012, 0.302485734224319, -0.025603381916881, 0.000000000000000, -0.510254979133606, -0.058813013136387, -0.282305657863617, 0.397948890924454, 0.149791523814201, 0.000000000000000, -0.198566064238548, 0.110668040812016, 0.353023529052734, -0.144245475530624, 0.047625757753849, 0.049724817276001, 0.823344767093658, -0.007117906119674, 0.203668668866158, -0.005415952764452, -0.042506374418736
0.101589888334274, 0.145941227674484, 0.771197378635406, 0.336607336997986, -0.023214640095830, 0.000000000000000, -0.507237493991852, -0.064446695148945, -0.277632325887680, 0.395798444747925, 0.149211898446083, 0.000000000000000, -0.177695855498314, 0.110823497176170, 0.355360567569733, -0.132483497262001, 0.045795902609825, 0.047934748232365, 0.823509991168976, -0.007761104498059, 0.205355226993561, -0.006509913131595, -0.052174989134073
0.086889125406742, 0.156803011894226, 0.776110172271729, 0.368106007575989, -0.021505627781153, 0.000000000000000, -0.508016824722290, -0.071388319134712, -0.273037374019623, 0.392583727836609, 0.146799921989441, 0.000000000000000, -0.157474398612976, 0.111783862113953, 0.356427222490311, -0.121614679694176, 0.045756775885820, 0.047531556338072, 0.823572397232056, -0.008224450983107, 0.207011535763741, -0.007149168755859, -0.062964916229248
0.068683333694935, 0.167619794607162, 0.781979024410248, 0.394000262022018, -0.021044528111815, 0.000000000000000, -0.511235773563385, -0.079755455255508, -0.268369972705841, 0.388886332511902, 0.142763093113899, 0.000000000000000, -0.139229208230972, 0.113108791410923, 0.356285393238068, -0.111776903271675, 0.046935912221670, 0.048354774713516, 0.823502957820892, -0.008525633253157, 0.208642289042473, -0.007389131002128, -0.073722667992115
0.045442707836628, 0.180035710334778, 0.789112091064453, 0.410418033599854, -0.021281767636538, 0.000000000000000, -0.515311121940613, -0.088899821043015, -0.263678371906281, 0.385313242673874, 0.137385949492455, 0.000000000000000, -0.123889766633511, 0.114329516887665, 0.355096727609634, -0.102861180901527, 0.048851031810045, 0.050262313336134, 0.823414325714111, -0.008680567145348, 0.210313916206360, -0.007279098499566, -0.083415195345879
0.018013561144471, 0.194051191210747, 0.797500550746918, 0.415751963853836, -0.020558509975672, 0.000000000000000, -0.519037663936615, -0.097600504755974, -0.259215682744980, 0.382352709770203, 0.131070181727409, 0.000000000000000, -0.112041033804417, 0.115065366029739, 0.353065073490143, -0.094849750399590, 0.051203478127718, 0.053156618028879, 0.823369562625885, -0.008700017817318, 0.212071627378464, -0.006852610036731, -0.091191112995148
-0.011253040283918, 0.208282619714737, 0.806844770908356, 0.410592555999756, -0.017891414463520, 0.000000000000000, -0.522150754928589, -0.105048388242722, -0.255186975002289, 0.380102962255478, 0.124242119491100, 0.000000000000000, -0.103910692036152, 0.115013077855110, 0.350415319204330, -0.087984047830105, 0.053868163377047, 0.056981869041920, 0.823288440704346, -0.008589755743742, 0.213898703455925, -0.006127963308245, -0.096552655100822
-0.041170828044415, 0.221820458769798, 0.816729307174683, 0.396103501319885, -0.013361073099077, 0.000000000000000, -0.524629354476929, -0.111071698367596, -0.251623660326004, 0.378545314073563, 0.117288000881672, 0.000000000000000, -0.099326528608799, 0.113976299762726, 0.347484022378922, -0.082751788198948, 0.056862920522690, 0.061718076467514, 0.822959005832672, -0.008350929245353, 0.215721711516380, -0.005109772551805, -0.099443435668945
-0.070331878960133, 0.233624354004860, 0.826555669307709, 0.374535530805588, -0.007399122696370, 0.000000000000000, -0.526115298271179, -0.116166397929192, -0.248328298330307, 0.377706706523895, 0.110476292669773, 0.000000000000000, -0.097877986729145, 0.111817859113216, 0.344675362110138, -0.079841412603855, 0.060320071876049, 0.067373014986515, 0.822070896625519, -0.007980861701071, 0.217424347996712, -0.003791680792347, -0.100147679448128
-0.096877641975880, 0.243138507008553, 0.835484087467194, 0.349076211452484, -0.000474609289085, 0.000000000000000, -0.526358902454376, -0.120836347341537, -0.245154500007629, 0.377530097961426, 0.103927910327911, 0.000000000000000, -0.099091477692127, 0.108327142894268, 0.342207372188568, -0.080027535557747, 0.064532160758972, 0.074001938104630, 0.820274114608765, -0.007469982840121, 0.218872562050819, -0.002148912288249, -0.099211446940899
-0.118872359395027, 0.250730067491531, 0.842580318450928, 0.323282986879349, 0.007035183254629, 0.000000000000000, -0.525822222232819, -0.124832905828953, -0.242333114147186, 0.377625286579132, 0.097733788192272, 0.000000000000000, -0.102424718439579, 0.103173799812794, 0.340029209852219, -0.083877556025982, 0.070031493902206, 0.081745445728302, 0.817331373691559, -0.006796285975724, 0.219980135560036, -0.000124242811580, -0.097330801188946
-0.133718699216843, 0.256784945726395, 0.846985936164856, 0.300705611705780, 0.014988247305155, 0.000000000000000, -0.524717330932617, -0.128334090113640, -0.240035608410835, 0.377308189868927, 0.092146620154381, 0.000000000000000, -0.107585780322552, 0.095953285694122, 0.337972491979599, -0.091666936874390, 0.077561043202877, 0.090819150209427, 0.813161134719849, -0.005927130114287, 0.220727488398552, 0.002367226174101, -0.094774246215820
-0.142598986625671, 0.262439429759979, 0.848705649375916, 0.282472312450409, 0.023357380181551, 0.000000000000000, -0.524007022380829, -0.128678083419800, -0.239340186119080, 0.376049011945724, 0.087552398443222, 0.000000000000000, -0.114194661378860, 0.086403861641884, 0.335118204355240, -0.103554800152779, 0.088061824440956, 0.101508438587189, 0.807719051837921, -0.004820306785405, 0.221109792590141, 0.005436226259917, -0.092482939362526
-0.145776882767677, 0.267461121082306, 0.847940027713776, 0.269290149211884, 0.032374251633883, 0.000000000000000, -0.522725880146027, -0.127725347876549, -0.239731714129448, 0.373663067817688, 0.084369018673897, 0.000000000000000, -0.121752165257931, 0.074793428182602, 0.331128895282745, -0.119472563266754, 0.101976647973061, 0.113899312913418, 0.801120936870575, -0.003463827306405, 0.221193745732307, 0.009117409586906, -0.092307440936565
-0.147143453359604, 0.272025406360626, 0.845481395721436, 0.259935408830643, 0.041879639029503, 0.000000000000000, -0.520684659481049, -0.124287530779839, -0.241665199398994, 0.370241284370422, 0.083117976784706, 0.000000000000000, -0.129227057099342, 0.063118562102318, 0.327528834342957, -0.139742091298103, 0.119467876851559, 0.127941668033600, 0.793270945549011, -0.001865423866548, 0.220950633287430, 0.013395890593529, -0.096601083874702
-0.148197367787361, 0.276261746883392, 0.841679394245148, 0.253588438034058, 0.051231153309345, 0.000000000000000, -0.517751514911652, -0.119808226823807, -0.244772508740425, 0.365615844726562, 0.084164731204510, 0.000000000000000, -0.136952936649323, 0.052512876689434, 0.326023221015930, -0.165039151906967, 0.140034854412079, 0.143295437097549, 0.784000396728516, -0.000073795490607, 0.220306500792503, 0.018151221796870, -0.107467673718929
-0.150852277874947, 0.281650215387344, 0.836706876754761, 0.248731896281242, 0.059369951486588, 0.000000000000000, -0.514646649360657, -0.114480443298817, -0.249103054404259, 0.359666198492050, 0.087797962129116, 0.000000000000000, -0.146068200469017, 0.042909678071737, 0.327477812767029, -0.196087986230850, 0.163414433598518, 0.159728378057480, 0.773237109184265, 0.001879833987914, 0.219199776649475, 0.023306230083108, -0.126070067286491
-0.155321374535561, 0.288991421461105, 0.830513656139374, 0.244652673602104, 0.065657302737236, 0.000000000000000, -0.512088358402252, -0.108340770006180, -0.254736721515656, 0.352406769990921, 0.094099208712578, 0.000000000000000, -0.157518699765205, 0.033734340220690, 0.332492351531982, -0.232716962695122, 0.189562335610390, 0.177182033658028, 0.761429309844971, 0.003987526521087, 0.217784911394119, 0.028848359361291, -0.151653006672859
-0.162760421633720, 0.298518359661102, 0.823284924030304, 0.240586832165718, 0.069898374378681, 0.000000000000000, -0.510988593101501, -0.100724086165428, -0.261950999498367, 0.343841075897217, 0.102937936782837, 0.000000000000000, -0.171433240175247, 0.024798065423965, 0.340494334697723, -0.273753315210342, 0.218698605895042, 0.195810750126839, 0.749344825744629, 0.006267481949180, 0.216382607817650, 0.034843109548092, -0.182705014944077
-0.174124017357826, 0.310160249471664, 0.815237045288086, 0.235978707671165, 0.072189584374428, 0.000000000000000, -0.512503564357758, -0.091095656156540, -0.270964473485947, 0.333736091852188, 0.113885395228863, 0.000000000000000, -0.187782227993011, 0.016347700729966, 0.350373417139053, -0.317788630723953, 0.250646322965622, 0.215636193752289, 0.737682580947876, 0.008717777207494, 0.215315729379654, 0.041311793029308, -0.217585489153862
-0.190197199583054, 0.323798954486847, 0.806612789630890, 0.230370044708252, 0.072812169790268, 0.000000000000000, -0.517674803733826, -0.079287722706795, -0.281826972961426, 0.321899235248566, 0.126312315464020, 0.000000000000000, -0.206203639507294, 0.008840164169669, 0.361001253128052, -0.363406360149384, 0.284821838140488, 0.236511036753654, 0.727029442787170, 0.011312692426145, 0.214877948164940, 0.048220220953226, -0.255032181739807
-0.210804626345634, 0.338963955640793, 0.797590732574463, 0.223753079771996, 0.072162613272667, 0.000000000000000, -0.526298701763153, -0.065585777163506, -0.294296264648438, 0.308801889419556, 0.139550298452377, 0.000000000000000, -0.226036638021469, 0.002576803788543, 0.371688067913055, -0.409257739782333, 0.320147722959518, 0.258055746555328, 0.717909455299377, 0.013995714485645, 0.215342983603477, 0.055458396673203, -0.294371187686920
-0.234887123107910, 0.355051308870316, 0.788230657577515, 0.216462567448616, 0.070623196661472, 0.000000000000000, -0.536778986454010, -0.050607025623322, -0.307883173227310, 0.295581996440887, 0.152990937232971, 0.000000000000000, -0.246448412537575, -0.002455881098285, 0.382432550191879, -0.454310029745102, 0.355157911777496, 0.279675722122192, 0.710694432258606, 0.016684258356690, 0.216915518045425, 0.062847942113876, -0.335523277521133
-0.260746002197266, 0.370847046375275, 0.778574407100677, 0.209284633398056, 0.068551614880562, 0.000000000000000, -0.547801613807678, -0.035930797457695, -0.321873366832733, 0.282941043376923, 0.166041716933250, 0.000000000000000, -0.266648501157761, -0.006645626854151, 0.393351346254349, -0.497832715511322, 0.388163805007935, 0.300654709339142, 0.705607831478119, 0.019282093271613, 0.219729319214821, 0.070174299180508, -0.378953009843826
-0.286422133445740, 0.384502202272415, 0.768736124038696, 0.203383758664131, 0.066331788897514, 0.000000000000000, -0.559131503105164, -0.024091772735119, -0.335425168275833, 0.270683616399765, 0.178238958120346, 0.000000000000000, -0.285616487264633, -0.010519164614379, 0.403703182935715, -0.539025783538818, 0.417671620845795, 0.320422589778900, 0.702824473381042, 0.021711509674788, 0.223894089460373, 0.077275224030018, -0.425670653581619
-0.311030000448227, 0.396932125091553, 0.758520781993866, 0.198636353015900, 0.064056254923344, 0.000000000000000, -0.569485485553741, -0.013284127227962, -0.348783671855927, 0.259450793266296, 0.189647749066353, 0.000000000000000, -0.303069353103638, -0.013978340663016, 0.413050234317780, -0.577021896839142, 0.442720383405685, 0.338737249374390, 0.702323079109192, 0.023940401151776, 0.229436263442039, 0.084103025496006, -0.476078629493713
-0.334082305431366, 0.408354789018631, 0.747898936271667, 0.195060864090919, 0.061849277466536, 0.000000000000000, -0.577959358692169, -0.003227638313547, -0.361857414245605, 0.249436333775520, 0.200351759791374, 0.000000000000000, -0.319166332483292, -0.016862917691469, 0.420879155397415, -0.610989928245544, 0.462371885776520, 0.355444788932800, 0.703806698322296, 0.025955166667700, 0.236260369420052, 0.090644478797913, -0.529966235160828
-0.355642527341843, 0.418342560529709, 0.737033665180206, 0.192692786455154, 0.059869412332773, 0.000000000000000, -0.584605097770691, 0.005320420488715, -0.374369382858276, 0.240404337644577, 0.210344478487968, 0.000000000000000, -0.334060251712799, -0.019118212163448, 0.426531165838242, -0.640186190605164, 0.475810199975967, 0.370539009571075, 0.706631600856781, 0.027774346992373, 0.244117334485054, 0.096943512558937, -0.586673319339752
-0.375800341367722, 0.427548825740814, 0.725924551486969, 0.191122755408287, 0.058174908161163, 0.000000000000000, -0.589612603187561, 0.012947148643434, -0.386394172906876, 0.232386916875839, 0.219715431332588, 0.000000000000000, -0.347965061664581, -0.020773662254214, 0.429801881313324, -0.663868129253387, 0.482559651136398, 0.384295821189880, 0.710081636905670, 0.029464276507497, 0.252725660800934, 0.103144578635693, -0.645156383514404
-0.394710868597031, 0.435751885175705, 0.714720487594604, 0.190168976783752, 0.056864254176617, 0.000000000000000, -0.593663096427917, 0.019548038020730, -0.397854089736938, 0.225254654884338, 0.228524073958397, 0.000000000000000, -0.360728502273560, -0.022075919434428, 0.430102139711380, -0.681547224521637, 0.482656419277191, 0.397250950336456, 0.713607966899872, 0.031132617965341, 0.261876702308655, 0.109480828046799, -0.704658865928650
-0.412703126668930, 0.442443400621414, 0.703635394573212, 0.189666882157326, 0.056062407791615, 0.000000000000000, -0.597559332847595, 0.024840062484145, -0.408638745546341, 0.218825906515121, 0.236825406551361, 0.000000000000000, -0.372142523527145, -0.022959060966969, 0.426689863204956, -0.693468272686005, 0.476707369089127, 0.410044163465500, 0.716789126396179, 0.032907582819462, 0.271416813135147, 0.116219386458397, -0.764732122421265
-0.429940193891525, 0.447509497404099, 0.692785143852234, 0.189374595880508, 0.055910069495440, 0.000000000000000, -0.601716339588165, 0.028909398242831, -0.418726503849030, 0.213036969304085, 0.244709357619286, 0.000000000000000, -0.382226109504700, -0.022710304707289, 0.419380336999893, -0.700673401355743, 0.465637296438217, 0.423175811767578, 0.719289064407349, 0.034898292273283, 0.281229555606842, 0.123574100434780, -0.825120449066162
-0.446685135364532, 0.450965672731400, 0.682256996631622, 0.188972249627113, 0.056599032133818, 0.000000000000000, -0.606282472610474, 0.031810496002436, -0.428105324506760, 0.207824245095253, 0.252261906862259, 0.000000000000000, -0.390976577997208, -0.020439671352506, 0.408752948045731, -0.704846501350403, 0.450322240591049, 0.436798006296158, 0.720904707908630, 0.037151478230953, 0.291255265474319, 0.131626769900322, -0.885920345783234
-0.463180810213089, 0.452646046876907, 0.672140181064606, 0.188211277127266, 0.058397509157658, 0.000000000000000, -0.611111938953400, 0.033351432532072, -0.436709791421890, 0.203098863363266, 0.259558945894241, 0.000000000000000, -0.397868067026138, -0.016239285469055, 0.395975142717361, -0.707878708839417, 0.431265234947205, 0.450688362121582, 0.721704185009003, 0.039633091539145, 0.301540225744247, 0.140308856964111, -0.947834372520447
-0.479024261236191, 0.452394068241119, 0.662439465522766, 0.187104493379593, 0.061632022261620, 0.000000000000000, -0.615616440773010, 0.033256255090237, -0.444423556327820, 0.198839828372002, 0.266696035861969, 0.000000000000000, -0.402380526065826, -0.011387347243726, 0.382132053375244, -0.711448967456818, 0.408657640218735, 0.464438825845718, 0.722056508064270, 0.042253490537405, 0.312214255332947, 0.149451270699501, -1.012239813804626
-0.493032246828079, 0.450323820114136, 0.653061032295227, 0.185934513807297, 0.066625706851482, 0.000000000000000, -0.619198441505432, 0.031345099210739, -0.451131194829941, 0.195088356733322, 0.273793399333954, 0.000000000000000, -0.404630720615387, -0.007592204492539, 0.368026852607727, -0.717011034488678, 0.382970482110977, 0.477753758430481, 0.722397685050964, 0.044930092990398, 0.323352456092834, 0.158877342939377, -1.080936074256897
-0.504216909408569, 0.446770459413528, 0.643920838832855, 0.184933140873909, 0.073615707457066, 0.000000000000000, -0.621796250343323, 0.027861302718520, -0.456845581531525, 0.191925525665283, 0.280989646911621, 0.000000000000000, -0.405113339424133, -0.006139652337879, 0.354766875505447, -0.725399434566498, 0.355209052562714, 0.490636527538300, 0.722983896732330, 0.047637920826674, 0.334894329309464, 0.168485224246979, -1.155226349830627
-0.513060808181763, 0.441900134086609, 0.635129213333130, 0.183909237384796, 0.082669869065285, 0.000000000000000, -0.624115109443665, 0.022997288033366, -0.461634844541550, 0.189378038048744, 0.288387030363083, 0.000000000000000, -0.404250860214233, -0.007173110265285, 0.343228667974472, -0.736068010330200, 0.326480060815811, 0.503305852413177, 0.723858237266541, 0.050400048494339, 0.346710354089737, 0.178253754973412, -1.235484480857849
-0.520748615264893, 0.435689389705658, 0.626865446567535, 0.182501122355461, 0.093670964241028, 0.000000000000000, -0.626986801624298, 0.016736807301641, -0.465554058551788, 0.187496170401573, 0.296034038066864, 0.000000000000000, -0.402277231216431, -0.009866106323898, 0.333826661109924, -0.747580468654633, 0.297713726758957, 0.515956461429596, 0.724765241146088, 0.053248345851898, 0.358595132827759, 0.188177198171616, -1.321403741836548
-0.527821719646454, 0.428197443485260, 0.619165897369385, 0.180565774440765, 0.106357648968697, 0.000000000000000, -0.630660831928253, 0.009059663861990, -0.468645066022873, 0.186446636915207, 0.303940415382385, 0.000000000000000, -0.399194508790970, -0.013631358742714, 0.326523840427399, -0.758923888206482, 0.269680261611938, 0.528619647026062, 0.725118935108185, 0.056203085929155, 0.370212405920029, 0.198211222887039, -1.412642717361450
-0.534217536449432, 0.419751286506653, 0.611911654472351, 0.178109407424927, 0.120370924472809, 0.000000000000000, -0.634982526302338, 0.000485260883579, -0.471086531877518, 0.186435207724571, 0.312091737985611, 0.000000000000000, -0.394802719354630, -0.018761530518532, 0.320958882570267, -0.769882678985596, 0.242861270904541, 0.541138291358948, 0.724257826805115, 0.059256426990032, 0.381188154220581, 0.208255857229233, -1.508383750915527
-0.539928972721100, 0.410571962594986, 0.605013430118561, 0.175175413489342, 0.135287657380104, 0.000000000000000, -0.639961063861847, -0.008249408565462, -0.473139703273773, 0.187487795948982, 0.320427805185318, 0.000000000000000, -0.388893276453018, -0.025862831622362, 0.316633731126785, -0.780454814434052, 0.217543944716454, 0.553286194801331, 0.721803486347198, 0.062369436025620, 0.391281783580780, 0.218184709548950, -1.606525778770447
-0.544955432415009, 0.400629550218582, 0.598439633846283, 0.171955451369286, 0.150667667388916, 0.000000000000000, -0.645325005054474, -0.016936296597123, -0.474886208772659, 0.189470142126083, 0.328854829072952, 0.000000000000000, -0.382048010826111, -0.035202570259571, 0.312916189432144, -0.790450692176819, 0.193617239594460, 0.564778149127960, 0.717951357364655, 0.065444827079773, 0.400504469871521, 0.227828532457352, -1.704427599906921
-0.549404680728912, 0.390117704868317, 0.592140972614288, 0.168627664446831, 0.166061624884605, 0.000000000000000, -0.650692939758301, -0.025575466454029, -0.476313591003418, 0.192066982388496, 0.337247580289841, 0.000000000000000, -0.375426232814789, -0.046001613140106, 0.307810723781586, -0.799560487270355, 0.171024158596992, 0.575444698333740, 0.713192820549011, 0.068387545645237, 0.409006297588348, 0.237052038311958, -1.800277471542358
-0.553331494331360, 0.379599392414093, 0.586000740528107, 0.165322095155716, 0.181023955345154, 0.000000000000000, -0.655631959438324, -0.033879723399878, -0.477460503578186, 0.194846123456955, 0.345462560653687, 0.000000000000000, -0.370302110910416, -0.056389141827822, 0.299888014793396, -0.807538568973541, 0.149941727519035, 0.585280239582062, 0.707983136177063, 0.071146458387375, 0.416926741600037, 0.245785996317863, -1.892269611358643
-0.557064414024353, 0.369757443666458, 0.579909563064575, 0.161942601203918, 0.195110380649567, 0.000000000000000, -0.659810960292816, -0.041130401194096, -0.478492170572281, 0.197265714406967, 0.353343009948730, 0.000000000000000, -0.366998374462128, -0.065406508743763, 0.290242373943329, -0.813992798328400, 0.130490988492966, 0.594358026981354, 0.702750265598297, 0.073692888021469, 0.424377739429474, 0.253984540700912, -1.977974772453308
-0.560789525508881, 0.361185669898987, 0.573763966560364, 0.158308520913124, 0.207932502031326, 0.000000000000000, -0.662856876850128, -0.046618733555079, -0.479569971561432, 0.198736801743507, 0.360739588737488, 0.000000000000000, -0.364569634199142, -0.073825761675835, 0.280915200710297, -0.818233489990234, 0.112705625593662, 0.602816522121429, 0.697919785976410, 0.076014004647732, 0.431468307971954, 0.261622309684753, -2.055759906768799
-0.564189612865448, 0.354792028665543, 0.567365109920502, 0.154178142547607, 0.219160512089729, 0.000000000000000, -0.663894176483154, -0.049795050173998, -0.480734527111053, 0.198955193161964, 0.367597341537476, 0.000000000000000, -0.362913846969604, -0.081295490264893, 0.272904127836227, -0.820177435874939, 0.096365779638290, 0.610656619071960, 0.693653047084808, 0.078091844916344, 0.438227474689484, 0.268666237592697, -2.125311851501465
-0.566323339939117, 0.350785583257675, 0.560609519481659, 0.149663776159286, 0.228626012802124, 0.000000000000000, -0.662075400352478, -0.051211565732956, -0.481694906949997, 0.197866380214691, 0.373945862054825, 0.000000000000000, -0.362198472023010, -0.087072126567364, 0.266411721706390, -0.820338785648346, 0.081109903752804, 0.617741167545319, 0.689867258071899, 0.079900115728378, 0.444611698389053, 0.275072365999222, -2.187005281448364
-0.566121160984039, 0.348629355430603, 0.553560674190521, 0.145187586545944, 0.236376672983170, 0.000000000000000, -0.657324492931366, -0.052230663597584, -0.482005417346954, 0.195620596408844, 0.379884958267212, 0.000000000000000, -0.362013041973114, -0.091105110943317, 0.261612415313721, -0.819214761257172, 0.066734142601490, 0.623965620994568, 0.686429560184479, 0.081425033509731, 0.450573056936264, 0.280818641185760, -2.241489648818970
-0.563456833362579, 0.347361952066422, 0.546469807624817, 0.141110584139824, 0.242651507258415, 0.000000000000000, -0.650630295276642, -0.054044194519520, -0.481414049863815, 0.192526817321777, 0.385565370321274, 0.000000000000000, -0.361751466989517, -0.093821465969086, 0.258575856685638, -0.817247807979584, 0.053236130625010, 0.629264533519745, 0.683225572109222, 0.082658566534519, 0.456077694892883, 0.285895287990570, -2.289566040039062
-0.559165120124817, 0.346143394708633, 0.539628863334656, 0.137624055147171, 0.247901767492294, 0.000000000000000, -0.643585801124573, -0.056736256927252, -0.480106055736542, 0.189037457108498, 0.391171693801880, 0.000000000000000, -0.361074239015579, -0.095582254230976, 0.257278263568878, -0.814969539642334, 0.040725760161877, 0.633571505546570, 0.680177986621857, 0.083587363362312, 0.461108654737473, 0.290289938449860, -2.331951379776001
-0.555184125900269, 0.344609707593918, 0.533290982246399, 0.134453803300858, 0.252685219049454, 0.000000000000000, -0.638091385364532, -0.059231679886580, -0.478674471378326, 0.185480058193207, 0.396845757961273, 0.000000000000000, -0.360009491443634, -0.096394143998623, 0.257317125797272, -0.813087701797485, 0.029294833540916, 0.636782288551331, 0.677214980125427, 0.084187656641006, 0.465650647878647, 0.293978631496429, -2.369211435317993
-0.553017795085907, 0.342762976884842, 0.527543187141418, 0.131333753466606, 0.257501691579819, 0.000000000000000, -0.635126173496246, -0.060766033828259, -0.477560192346573, 0.182007089257240, 0.402631133794785, 0.000000000000000, -0.358613550662994, -0.096381232142448, 0.258190125226974, -0.812090754508972, 0.018901305273175, 0.638777911663055, 0.674345552921295, 0.084420837461948, 0.469722628593445, 0.296926498413086, -2.401821613311768
-0.553322255611420, 0.340907841920853, 0.522308051586151, 0.128093644976616, 0.262630969285965, 0.000000000000000, -0.634701669216156, -0.061217755079269, -0.476907163858414, 0.178601101040840, 0.408472985029221, 0.000000000000000, -0.356701016426086, -0.095703549683094, 0.259398669004440, -0.812041044235229, 0.009547288529575, 0.639468550682068, 0.671589076519012, 0.084248438477516, 0.473348855972290, 0.299101382493973, -2.430262804031372
-0.555963516235352, 0.339219182729721, 0.517469108104706, 0.124747484922409, 0.268146753311157, 0.000000000000000, -0.636178255081177, -0.061079386621714, -0.476592779159546, 0.175248444080353, 0.414279729127884, 0.000000000000000, -0.353994518518448, -0.094506978988647, 0.260571330785751, -0.812617301940918, 0.001223398256116, 0.638798773288727, 0.668968200683594, 0.083636857569218, 0.476555585861206, 0.300478905439377, -2.455053329467773
-0.560153841972351, 0.337609857320786, 0.512933254241943, 0.121496751904488, 0.273982405662537, 0.000000000000000, -0.638813376426697, -0.061094377189875, -0.476375401020050, 0.172076746821404, 0.419993519783020, 0.000000000000000, -0.350269764661789, -0.093091771006584, 0.261482566595078, -0.813242197036743, -0.006189744453877, 0.636773049831390, 0.666514396667480, 0.082570381462574, 0.479375422000885, 0.301058679819107, -2.476762056350708
-0.565044999122620, 0.335676074028015, 0.508707582950592, 0.118535362184048, 0.280000001192093, 0.000000000000000, -0.642426252365112, -0.062059659510851, -0.476031303405762, 0.169154152274132, 0.425551891326904, 0.000000000000000, -0.345289975404739, -0.092088520526886, 0.261660814285278, -0.813287854194641, -0.012780164368451, 0.633502840995789, 0.664225935935974, 0.081073403358459, 0.481831789016724, 0.300888001918793, -2.496119260787964
-0.569940388202667, 0.333164244890213, 0.504828691482544, 0.115931272506714, 0.286042094230652, 0.000000000000000, -0.646640002727509, -0.064286991953850, -0.475459247827530, 0.166683271527290, 0.430936753749847, 0.000000000000000, -0.339443355798721, -0.091697946190834, 0.260886251926422, -0.812336266040802, -0.018797494471073, 0.629166185855865, 0.662158071994781, 0.079195007681847, 0.483976721763611, 0.300049453973770, -2.513725996017456
-0.574161887168884, 0.330128937959671, 0.501313149929047, 0.113732621073723, 0.291989386081696, 0.000000000000000, -0.650864660739899, -0.067430876195431, -0.474742889404297, 0.164930596947670, 0.436158120632172, 0.000000000000000, -0.333447337150574, -0.091888941824436, 0.259305149316788, -0.810241520404816, -0.024395667016506, 0.624018669128418, 0.660385429859161, 0.077012501657009, 0.485874921083450, 0.298662096261978, -2.529965400695801
-0.577482521533966, 0.326625227928162, 0.498229563236237, 0.111873745918274, 0.297736197710037, 0.000000000000000, -0.654799520969391, -0.070962563157082, -0.474051445722580, 0.163988143205643, 0.441200703382492, 0.000000000000000, -0.328029543161392, -0.092616535723209, 0.257103174924850, -0.807171165943146, -0.029537661001086, 0.618360042572021, 0.658884525299072, 0.074632205069065, 0.487552016973495, 0.296873390674591, -2.545087099075317
-0.579683780670166, 0.322779774665833, 0.495627552270889, 0.110328212380409, 0.303178697824478, 0.000000000000000, -0.658161878585815, -0.074404582381248, -0.473504185676575, 0.163867577910423, 0.446050792932510, 0.000000000000000, -0.323831349611282, -0.093671955168247, 0.254651516675949, -0.803346872329712, -0.034217599779367, 0.612485468387604, 0.657543957233429, 0.072171516716480, 0.488995611667633, 0.294837832450867, -2.559148788452148
-0.580524563789368, 0.318784087896347, 0.493515163660049, 0.109136775135994, 0.308232069015503, 0.000000000000000, -0.660616874694824, -0.077527843415737, -0.473099708557129, 0.164500534534454, 0.450688719749451, 0.000000000000000, -0.321089535951614, -0.094840146601200, 0.252264916896820, -0.798764824867249, -0.038496341556311, 0.606651782989502, 0.656217753887177, 0.069736741483212, 0.490174561738968, 0.292693167924881, -2.572128057479858
-0.580042362213135, 0.314848870038986, 0.491868764162064, 0.108310788869858, 0.312847584486008, 0.000000000000000, -0.661910474300385, -0.080336794257164, -0.472750961780548, 0.165740355849266, 0.455083906650543, 0.000000000000000, -0.319687396287918, -0.095922380685806, 0.250076264142990, -0.793333709239960, -0.042456496506929, 0.601048052310944, 0.654778122901917, 0.067407146096230, 0.491059452295303, 0.290543973445892, -2.583978176116943
-0.578529000282288, 0.311150193214417, 0.490629732608795, 0.107838466763496, 0.317047834396362, 0.000000000000000, -0.662079989910126, -0.082970954477787, -0.472362190485001, 0.167377471923828, 0.459198951721191, 0.000000000000000, -0.319321304559708, -0.096835948526859, 0.248029798269272, -0.787085890769958, -0.046164989471436, 0.595786213874817, 0.653138637542725, 0.065231584012508, 0.491631805896759, 0.288459330797195, -2.594668388366699
-0.576265573501587, 0.308022350072861, 0.489650040864944, 0.107701107859612, 0.320929288864136, 0.000000000000000, -0.661343753337860, -0.085231885313988, -0.471945762634277, 0.169329300522804, 0.463047951459885, 0.000000000000000, -0.319857954978943, -0.097471222281456, 0.246238753199577, -0.780233144760132, -0.049735836684704, 0.590894460678101, 0.651248931884766, 0.063228465616703, 0.491882562637329, 0.286472082138062, -2.604144811630249
-0.573622643947601, 0.305495679378510, 0.488802343606949, 0.107906326651573, 0.324690699577332, 0.000000000000000, -0.659982860088348, -0.087115757167339, -0.471499264240265, 0.171539455652237, 0.466672629117966, 0.000000000000000, -0.321187049150467, -0.097921222448349, 0.244782209396362, -0.773010849952698, -0.053220074623823, 0.586351275444031, 0.649071156978607, 0.061395399272442, 0.491803824901581, 0.284589171409607, -2.612462282180786
-0.571223735809326, 0.303589522838593, 0.487984359264374, 0.108326129615307, 0.328574240207672, 0.000000000000000, -0.658531785011292, -0.088589519262314, -0.471056580543518, 0.173869967460632, 0.470125287771225, 0.000000000000000, -0.323072701692581, -0.098284028470516, 0.243545711040497, -0.765613138675690, -0.056525394320488, 0.582140564918518, 0.646589577198029, 0.059725623577833, 0.491396039724350, 0.282812237739563, -2.619762420654297
-0.569700300693512, 0.302367478609085, 0.487121909856796, 0.108784295618534, 0.332796216011047, 0.000000000000000, -0.657447516918182, -0.089682377874851, -0.470623165369034, 0.176169127225876, 0.473475784063339, 0.000000000000000, -0.325311124324799, -0.098537407815456, 0.242398232221603, -0.758327603340149, -0.059479568153620, 0.578256726264954, 0.643879890441895, 0.058206137269735, 0.490698158740997, 0.281140297651291, -2.626172065734863
-0.569508075714111, 0.301794379949570, 0.486200630664825, 0.109164625406265, 0.337519347667694, 0.000000000000000, -0.657006800174713, -0.090502560138702, -0.470165282487869, 0.178293079137802, 0.476787418127060, 0.000000000000000, -0.327659606933594, -0.098644964396954, 0.241159766912460, -0.751599073410034, -0.061830904334784, 0.574720025062561, 0.641095340251923, 0.056826066225767, 0.489783048629761, 0.279578804969788, -2.631772756576538
-0.570805191993713, 0.301785200834274, 0.485251098871231, 0.109449274837971, 0.342846691608429, 0.000000000000000, -0.657274127006531, -0.091099396348000, -0.469638854265213, 0.180196061730385, 0.480113178491592, 0.000000000000000, -0.329944163560867, -0.098653167486191, 0.239753171801567, -0.745879948139191, -0.063436158001423, 0.571577250957489, 0.638391256332397, 0.055587273091078, 0.488725960254669, 0.278147608041763, -2.636619091033936
-0.573393046855927, 0.302224159240723, 0.484328955411911, 0.109762936830521, 0.348852306604385, 0.000000000000000, -0.658250212669373, -0.091494850814342, -0.468991309404373, 0.181968778371811, 0.483497291803360, 0.000000000000000, -0.332045763731003, -0.098750278353691, 0.238241419196129, -0.741269171237946, -0.064386852085590, 0.568888306617737, 0.635840654373169, 0.054505486041307, 0.487567096948624, 0.276876837015152, -2.640784978866577
-0.577094554901123, 0.302901238203049, 0.483542144298553, 0.110243469476700, 0.355602979660034, 0.000000000000000, -0.660172879695892, -0.091772936284542, -0.468174636363983, 0.183724209666252, 0.486951529979706, 0.000000000000000, -0.333748936653137, -0.099115028977394, 0.236617416143417, -0.737524926662445, -0.064766436815262, 0.566718280315399, 0.633409261703491, 0.053604103624821, 0.486299693584442, 0.275797575712204, -2.644372224807739
-0.581825375556946, 0.303620159626007, 0.483016312122345, 0.110970728099346, 0.363143742084503, 0.000000000000000, -0.663421332836151, -0.092009633779526, -0.467160999774933, 0.185578823089600, 0.490475386381149, 0.000000000000000, -0.334903359413147, -0.099761046469212, 0.234793707728386, -0.734463930130005, -0.064486831426620, 0.565152049064636, 0.631059348583221, 0.052910722792149, 0.484915226697922, 0.274944573640823, -2.647487401962280
-0.587328433990479, 0.304349392652512, 0.482817918062210, 0.112037479877472, 0.371485352516174, 0.000000000000000, -0.668142259120941, -0.092132538557053, -0.465951770544052, 0.187750205397606, 0.494107455015182, 0.000000000000000, -0.335655987262726, -0.100548960268497, 0.232780158519745, -0.732245087623596, -0.063377834856510, 0.564305782318115, 0.628844439983368, 0.052457939833403, 0.483445554971695, 0.274363875389099, -2.650213003158569
-0.593392789363861, 0.305194497108459, 0.482953637838364, 0.113499157130718, 0.380617022514343, 0.000000000000000, -0.674309909343719, -0.092012375593185, -0.464584231376648, 0.190431281924248, 0.497879475355148, 0.000000000000000, -0.336225718259811, -0.101394340395927, 0.230618447065353, -0.731133282184601, -0.061235137283802, 0.564312636852264, 0.626847207546234, 0.052282210439444, 0.481935322284698, 0.274106800556183, -2.652636766433716
-0.600105881690979, 0.306328326463699, 0.483397513628006, 0.115331552922726, 0.390522629022598, 0.000000000000000, -0.681867718696594, -0.091416716575623, -0.463171243667603, 0.193683460354805, 0.501765191555023, 0.000000000000000, -0.336874723434448, -0.102298490703106, 0.228441983461380, -0.731174588203430, -0.057951975613832, 0.565267741680145, 0.625083029270172, 0.052412666380405, 0.480396896600723, 0.274209231138229, -2.654849529266357
-0.607776761054993, 0.307974845170975, 0.484101593494415, 0.117444202303886, 0.401143103837967, 0.000000000000000, -0.690711677074432, -0.089985437691212, -0.461881220340729, 0.197479084134102, 0.505696356296539, 0.000000000000000, -0.337937593460083, -0.103273928165436, 0.226534366607666, -0.732093989849091, -0.053684063255787, 0.567212283611298, 0.623503923416138, 0.052867852151394, 0.478811353445053, 0.274687409400940, -2.656903266906738
-0.616474747657776, 0.310368061065674, 0.484989672899246, 0.119791261851788, 0.412315607070923, 0.000000000000000, -0.700498282909393, -0.087511792778969, -0.460801064968109, 0.201766997575760, 0.509589433670044, 0.000000000000000, -0.339634299278259, -0.104293607175350, 0.225117638707161, -0.733603537082672, -0.048738319426775, 0.570166349411011, 0.622102200984955, 0.053659170866013, 0.477174907922745, 0.275549054145813, -2.658782720565796
-0.625764906406403, 0.313641577959061, 0.485977381467819, 0.122436009347439, 0.423748791217804, 0.000000000000000, -0.710684895515442, -0.084233738481998, -0.459837287664413, 0.206450358033180, 0.513334095478058, 0.000000000000000, -0.342001438140869, -0.105278775095940, 0.224260091781616, -0.735777080059052, -0.043275360018015, 0.574128806591034, 0.620989859104156, 0.054781388491392, 0.475532114505768, 0.276786744594574, -2.660412311553955
