isaac-sim2real/sage/motion_files/g1/amass/0-MPI_mosh_50020_shake_hips_poses.txt
/g1/pelvis/left_hip_yaw_joint, /g1/left_hip_yaw_link/left_hip_pitch_joint, /g1/left_hip_pitch_link/left_hip_roll_joint, /g1/left_hip_roll_link/left_knee_joint, /g1/left_knee_link/left_ankle_pitch_joint, /g1/left_ankle_pitch_link/left_ankle_roll_joint, /g1/pelvis/right_hip_yaw_joint, /g1/right_hip_yaw_link/right_hip_pitch_joint, /g1/right_hip_pitch_link/right_hip_roll_joint, /g1/right_hip_roll_link/right_knee_joint, /g1/right_knee_link/right_ankle_pitch_joint, /g1/right_ankle_pitch_link/right_ankle_roll_joint, /g1/pelvis/torso_joint, /g1/torso_link/left_shoulder_pitch_joint, /g1/left_shoulder_pitch_link/left_shoulder_roll_joint, /g1/left_shoulder_roll_link/left_shoulder_yaw_joint, /g1/left_shoulder_yaw_link/left_elbow_joint, /g1/left_elbow_link/left_wrist_roll_joint, /g1/torso_link/right_shoulder_pitch_joint, /g1/right_shoulder_pitch_link/right_shoulder_roll_joint, /g1/right_shoulder_roll_link/right_shoulder_yaw_joint, /g1/right_shoulder_yaw_link/right_elbow_joint, /g1/right_elbow_link/right_wrist_roll_joint
-0.049246501177549, 0.242903247475624, 0.599020779132843, 0.023544801399112, 0.164430916309357, 0.000000000000000, -0.071729451417923, -0.133422404527664, -0.378660887479782, -0.007180655840784, 0.218523025512695, 0.000000000000000, -0.013949265703559, -0.006143555045128, 0.104867793619633, -0.103205062448978, 0.608264744281769, 0.589422166347504, 1.323699831962585, 0.014322546310723, 0.297243058681488, 0.092854052782059, -0.022263130173087
-0.049453254789114, 0.242437452077866, 0.598630428314209, 0.025752170011401, 0.163390919566154, 0.000000000000000, -0.070870071649551, -0.134959951043129, -0.378617763519287, -0.004435155075043, 0.216667726635933, 0.000000000000000, -0.013677710667253, -0.006236345041543, 0.105053953826427, -0.101298712193966, 0.607443273067474, 0.589922428131104, 1.321882486343384, 0.014417944476008, 0.297239601612091, 0.093260511755943, -0.020415620878339
-0.050242252647877, 0.241982638835907, 0.597864985466003, 0.029865011572838, 0.161299556493759, 0.000000000000000, -0.070523075759411, -0.137387141585350, -0.378617435693741, 0.000597003672738, 0.213097885251045, 0.000000000000000, -0.013573451898992, -0.006310058292001, 0.105408854782581, -0.098040573298931, 0.606030046939850, 0.590869128704071, 1.318017840385437, 0.014605979435146, 0.297083020210266, 0.094041742384434, -0.016900958493352
-0.052044238895178, 0.241916164755821, 0.596722900867462, 0.035836968570948, 0.158089682459831, 0.000000000000000, -0.071295045316219, -0.140335693955421, -0.378674298524857, 0.008041787892580, 0.207903012633324, 0.000000000000000, -0.013926129788160, -0.006271105725318, 0.105939149856567, -0.093742281198502, 0.604123473167419, 0.592235147953033, 1.311698079109192, 0.014892004430294, 0.296595990657806, 0.095194838941097, -0.011721542105079
-0.055212274193764, 0.242421120405197, 0.595215857028961, 0.043790388852358, 0.153721958398819, 0.000000000000000, -0.073379546403885, -0.143677011132240, -0.378749221563339, 0.018259897828102, 0.201218083500862, 0.000000000000000, -0.014915826730430, -0.006144270766526, 0.106631793081760, -0.088617540895939, 0.601600110530853, 0.593974590301514, 1.302503824234009, 0.015272281132638, 0.295589804649353, 0.096698366105556, -0.004839069675654
-0.060002833604813, 0.243598073720932, 0.593359470367432, 0.053982757031918, 0.148154258728027, 0.000000000000000, -0.076933108270168, -0.147415235638618, -0.378772854804993, 0.031718373298645, 0.193193852901459, 0.000000000000000, -0.016751367598772, -0.005958677269518, 0.107443660497665, -0.082827195525169, 0.598216414451599, 0.596027553081512, 1.289973974227905, 0.015742907300591, 0.293853759765625, 0.098528951406479, 0.003859851509333
-0.066638819873333, 0.245480537414551, 0.591176211833954, 0.066734015941620, 0.141332209110260, 0.000000000000000, -0.082079440355301, -0.151556521654129, -0.378648042678833, 0.048991594463587, 0.184000208973885, 0.000000000000000, -0.019701113924384, -0.005778641905636, 0.108215481042862, -0.076588973402977, 0.593627870082855, 0.598310828208923, 1.273529410362244, 0.016299786046147, 0.291119992733002, 0.100656740367413, 0.014511896297336
-0.075128510594368, 0.248026087880135, 0.588659942150116, 0.082431912422180, 0.133185654878616, 0.000000000000000, -0.088886082172394, -0.156188458204269, -0.378210932016373, 0.070685453712940, 0.173798099160194, 0.000000000000000, -0.024109993129969, -0.005686925724149, 0.108565688133240, -0.070253998041153, 0.587525308132172, 0.600717842578888, 1.252407431602478, 0.016943691298366, 0.287031710147858, 0.103050544857979, 0.027264399453998
-0.085285365581512, 0.251086801290512, 0.585747241973877, 0.101506583392620, 0.123643316328526, 0.000000000000000, -0.097694180905819, -0.161572039127350, -0.377215445041656, 0.097229242324829, 0.162705317139626, 0.000000000000000, -0.030390566214919, -0.005769792944193, 0.107882678508759, -0.064507327973843, 0.579669535160065, 0.603102624416351, 1.225640177726746, 0.017674800008535, 0.281130909919739, 0.105663567781448, 0.042098153382540
-0.097250640392303, 0.254448682069778, 0.582358121871948, 0.124204523861408, 0.112596295773983, 0.000000000000000, -0.109149768948555, -0.168170914053917, -0.375322222709656, 0.128812313079834, 0.150795236229897, 0.000000000000000, -0.038802664726973, -0.006213944405317, 0.105454854667187, -0.060259640216827, 0.569776117801666, 0.605268776416779, 1.192265033721924, 0.018484881147742, 0.272948354482651, 0.108424693346024, 0.058681346476078
-0.111487440764904, 0.257561206817627, 0.578487396240234, 0.150620505213737, 0.099889248609543, 0.000000000000000, -0.124279119074345, -0.176407977938652, -0.372168570756912, 0.165295705199242, 0.138046368956566, 0.000000000000000, -0.049276333302259, -0.007691679056734, 0.100604526698589, -0.058386590331793, 0.557036459445953, 0.606924891471863, 1.151677846908569, 0.019330669194460, 0.262157708406448, 0.111198551952839, 0.076287657022476
-0.128339648246765, 0.259803563356400, 0.574145138263702, 0.180780038237572, 0.085345581173897, 0.000000000000000, -0.143977388739586, -0.186443522572517, -0.367406010627747, 0.206320762634277, 0.124333545565605, 0.000000000000000, -0.061410330235958, -0.011286616325378, 0.092928670346737, -0.059252999722958, 0.540348827838898, 0.607743680477142, 1.103813290596008, 0.020158600062132, 0.248658582568169, 0.113844469189644, 0.094196438789368
-0.147704288363457, 0.261168271303177, 0.569203674793243, 0.214613765478134, 0.068792238831520, 0.000000000000000, -0.168302580714226, -0.197951063513756, -0.360742330551147, 0.251473605632782, 0.109486155211926, 0.000000000000000, -0.074537612497807, -0.017823012545705, 0.082555420696735, -0.062630392611027, 0.519051790237427, 0.607461333274841, 1.048913836479187, 0.020943792536855, 0.232476070523262, 0.116287820041180, 0.111904777586460
-0.168480128049850, 0.262759506702423, 0.563239753246307, 0.252081066370010, 0.050079029053450, 0.000000000000000, -0.196360081434250, -0.209784924983978, -0.352121293544769, 0.300061911344528, 0.093378469347954, 0.000000000000000, -0.087820179760456, -0.027138153091073, 0.070130787789822, -0.067787408828735, 0.493642121553421, 0.605992794036865, 0.987252414226532, 0.021706085652113, 0.213638722896576, 0.118551336228848, 0.129179060459137
-0.189384073019028, 0.267008870840073, 0.555576264858246, 0.293011546134949, 0.029105041176081, 0.000000000000000, -0.226127371191978, -0.220369860529900, -0.341787129640579, 0.350652873516083, 0.076102681457996, 0.000000000000000, -0.099811896681786, -0.037465531378984, 0.056453227996826, -0.073443114757538, 0.466367870569229, 0.603587627410889, 0.919052958488464, 0.022518649697304, 0.192144364118576, 0.120791025459766, 0.145856365561485
-0.210442975163460, 0.276264816522598, 0.545750916004181, 0.336929887533188, 0.006062533240765, 0.000000000000000, -0.255459159612656, -0.227967694401741, -0.330394685268402, 0.400585591793060, 0.058278106153011, 0.000000000000000, -0.108591206371784, -0.045738369226456, 0.042539421468973, -0.077658429741859, 0.440031409263611, 0.600653469562531, 0.845055460929871, 0.023436514660716, 0.168201103806496, 0.123170763254166, 0.162027910351753
-0.232169017195702, 0.290950953960419, 0.533849000930786, 0.383371442556381, -0.018251052126288, 0.000000000000000, -0.282219439744949, -0.230300679802895, -0.319054096937180, 0.446767687797546, 0.041304200887680, 0.000000000000000, -0.111927442252636, -0.049408271908760, 0.029492324218154, -0.077491946518421, 0.416110485792160, 0.597435951232910, 0.767165005207062, 0.024437941610813, 0.142502009868622, 0.125740051269531, 0.178171187639236
-0.254096001386642, 0.309814900159836, 0.520293176174164, 0.431779056787491, -0.042514227330685, 0.000000000000000, -0.304033935070038, -0.226202130317688, -0.308678150177002, 0.486860305070877, 0.026863699778914, 0.000000000000000, -0.106753028929234, -0.048883110284805, 0.017735339701176, -0.070049576461315, 0.392702698707581, 0.593111813068390, 0.688360929489136, 0.025383835658431, 0.116168707609177, 0.128181427717209, 0.191969752311707
-0.275833398103714, 0.331038028001785, 0.505750656127930, 0.480561465024948, -0.065557353198528, 0.000000000000000, -0.320029199123383, -0.216820180416107, -0.299509137868881, 0.519530773162842, 0.015892874449492, 0.000000000000000, -0.092888161540031, -0.042995821684599, 0.007880425080657, -0.055007264018059, 0.365344971418381, 0.585164189338684, 0.611143887042999, 0.026074834167957, 0.090079918503761, 0.129688173532486, 0.198638185858727
-0.294953882694244, 0.353051453828812, 0.490693390369415, 0.527882874011993, -0.086674988269806, 0.000000000000000, -0.331118345260620, -0.204059019684792, -0.291477859020233, 0.544416308403015, 0.008469780907035, 0.000000000000000, -0.072306476533413, -0.026334822177887, 0.001296296366490, -0.032260861247778, 0.332003057003021, 0.571834564208984, 0.537256658077240, 0.026437576860189, 0.064812555909157, 0.129728525876999, 0.196857348084450
-0.308532118797302, 0.375603079795837, 0.475312888622284, 0.571407437324524, -0.105388022959232, 0.000000000000000, -0.337020426988602, -0.188952043652534, -0.284524142742157, 0.562507271766663, 0.004332861863077, 0.000000000000000, -0.046803098171949, -0.003610269399360, -0.003647105768323, -0.002262230729684, 0.294867277145386, 0.553181231021881, 0.467863470315933, 0.026515070348978, 0.040767036378384, 0.128247290849686, 0.185686752200127
-0.314889430999756, 0.397274374961853, 0.460423380136490, 0.609311878681183, -0.121264427900314, 0.000000000000000, -0.337909609079361, -0.172262936830521, -0.278556108474731, 0.575088083744049, 0.003012713743374, 0.000000000000000, -0.018781745806336, 0.016940549015999, -0.008863117545843, 0.032164830714464, 0.258811384439468, 0.530236005783081, 0.403720706701279, 0.026369841769338, 0.018276618793607, 0.125357627868652, 0.165008738636971
-0.314133614301682, 0.414855718612671, 0.447776407003403, 0.640993714332581, -0.134208440780640, 0.000000000000000, -0.335694104433060, -0.155575081706047, -0.273064821958542, 0.583420038223267, 0.003838516771793, 0.000000000000000, 0.009360706433654, 0.031763672828674, -0.014673207886517, 0.065873831510544, 0.230422794818878, 0.505121409893036, 0.344475001096725, 0.026081500574946, -0.002690679393709, 0.121442429721355, 0.136920034885406
-0.307417750358582, 0.425403177738190, 0.439364433288574, 0.666518211364746, -0.144450828433037, 0.000000000000000, -0.332669198513031, -0.141369894146919, -0.267021656036377, 0.589198410511017, 0.005977131891996, 0.000000000000000, 0.035907570272684, 0.041657146066427, -0.020819041877985, 0.095108732581139, 0.214250370860100, 0.481202542781830, 0.289057016372681, 0.025711251422763, -0.022460209205747, 0.117334365844727, 0.106370702385902
-0.296981871128082, 0.427924633026123, 0.436608105897903, 0.685591638088226, -0.152265191078186, 0.000000000000000, -0.330670207738876, -0.132516801357269, -0.259295552968979, 0.594153344631195, 0.008426877669990, 0.000000000000000, 0.060060087591410, 0.047635626047850, -0.025752944871783, 0.117744974792004, 0.209041684865952, 0.461826235055923, 0.237049803137779, 0.025238791480660, -0.041116256266832, 0.113982498645782, 0.078381724655628
-0.284976929426193, 0.422532409429550, 0.440229415893555, 0.698099255561829, -0.157947614789009, 0.000000000000000, -0.330448061227798, -0.132124692201614, -0.248660549521446, 0.599456369876862, 0.010176889598370, 0.000000000000000, 0.081374354660511, 0.051198814064264, -0.027965450659394, 0.132090523838997, 0.208934113383293, 0.448995172977448, 0.188108891248703, 0.024608142673969, -0.058752216398716, 0.112049214541912, 0.056819971650839
-0.271658420562744, 0.409916251897812, 0.450034618377686, 0.704772531986237, -0.161781430244446, 0.000000000000000, -0.331024020910263, -0.141028791666031, -0.234706059098244, 0.605994582176208, 0.010602203197777, 0.000000000000000, 0.099366061389446, 0.052454680204391, -0.028570342808962, 0.137627631425858, 0.208153724670410, 0.442376822233200, 0.141151949763298, 0.023820072412491, -0.075860589742661, 0.111602731049061, 0.043948285281658
-0.256916135549545, 0.391974776983261, 0.464883565902710, 0.706510841846466, -0.164121627807617, 0.000000000000000, -0.331675350666046, -0.156826853752136, -0.218426927924156, 0.613838970661163, 0.009449618868530, 0.000000000000000, 0.114524126052856, 0.048705190420151, -0.028826331719756, 0.135494783520699, 0.201921328902245, 0.439325749874115, 0.096003584563732, 0.022925050929189, -0.092612206935883, 0.112104155123234, 0.038768664002419
-0.240726649761200, 0.371837973594666, 0.482712835073471, 0.704237520694733, -0.165336742997169, 0.000000000000000, -0.331638306379318, -0.175872921943665, -0.201285123825073, 0.622267127037048, 0.006841863039881, 0.000000000000000, 0.130414664745331, 0.038500335067511, -0.029902976006269, 0.129567965865135, 0.189201056957245, 0.439102053642273, 0.054050732403994, 0.021868089213967, -0.108488887548447, 0.113383136689663, 0.039950754493475
-0.223705917596817, 0.352660059928894, 0.501237213611603, 0.698968946933746, -0.165707945823669, 0.000000000000000, -0.330044865608215, -0.194060027599335, -0.184851080179214, 0.630084931850433, 0.003522190731019, 0.000000000000000, 0.149893611669540, 0.026590602472425, -0.034142419695854, 0.122033081948757, 0.174344047904015, 0.442867040634155, 0.014939340762794, 0.020584369078279, -0.123631559312344, 0.115630321204662, 0.047244727611542
-0.208184614777565, 0.336733996868134, 0.518750071525574, 0.691695272922516, -0.165533691644669, 0.000000000000000, -0.327330052852631, -0.207598507404327, -0.170784443616867, 0.635908961296082, 0.000715055444743, 0.000000000000000, 0.161723002791405, 0.019772646948695, -0.039736960083246, 0.109933093190193, 0.159650534391403, 0.445570051670074, -0.022562304511666, 0.019360018894076, -0.138477608561516, 0.117539696395397, 0.062296867370605
-0.196518778800964, 0.325974702835083, 0.533977448940277, 0.683364093303680, -0.165078237652779, 0.000000000000000, -0.324696719646454, -0.214033171534538, -0.160496860742569, 0.638382673263550, -0.000289347546641, 0.000000000000000, 0.167537108063698, 0.015332173556089, -0.043582644313574, 0.096727520227432, 0.146584033966064, 0.445922046899796, -0.056040592491627, 0.018227571621537, -0.151934891939163, 0.118720717728138, 0.079036988317966
-0.186930492520332, 0.322543263435364, 0.545168280601501, 0.675618529319763, -0.164334118366241, 0.000000000000000, -0.321224480867386, -0.213334456086159, -0.154194101691246, 0.636643052101135, 0.001499654725194, 0.000000000000000, 0.171925172209740, 0.012596048414707, -0.044019494205713, 0.085088983178139, 0.138255074620247, 0.445664077997208, -0.084067814052105, 0.017070136964321, -0.163247406482697, 0.119485653936863, 0.092349633574486
-0.177817150950432, 0.326951652765274, 0.551747620105743, 0.669442415237427, -0.163311436772346, 0.000000000000000, -0.316446632146835, -0.206341668963432, -0.151534065604210, 0.629873335361481, 0.006480013485998, 0.000000000000000, 0.176244050264359, 0.012615620158613, -0.039721529930830, 0.076189249753952, 0.136996343731880, 0.445889830589294, -0.105608761310577, 0.015797438099980, -0.171811237931252, 0.120009988546371, 0.100137107074261
-0.168560355901718, 0.337888985872269, 0.554153501987457, 0.665297985076904, -0.162168711423874, 0.000000000000000, -0.310750752687454, -0.192948773503304, -0.152458131313324, 0.618444859981537, 0.014429802075028, 0.000000000000000, 0.180475890636444, 0.015074153430760, -0.031144564971328, 0.070200175046921, 0.144236341118813, 0.446791827678680, -0.120671637356281, 0.014399870298803, -0.177549943327904, 0.120299167931080, 0.101834543049335
-0.160528436303139, 0.352741241455078, 0.553645133972168, 0.663081169128418, -0.161214694380760, 0.000000000000000, -0.305441737174988, -0.173763841390610, -0.156453520059586, 0.604078888893127, 0.024398861452937, 0.000000000000000, 0.185037955641747, 0.019200690090656, -0.020436443388462, 0.066605865955353, 0.160373628139496, 0.447998136281967, -0.130990698933601, 0.012956188991666, -0.181278556585312, 0.120290286839008, 0.097499802708626
-0.157080039381981, 0.368333041667938, 0.552056014537811, 0.662201821804047, -0.160851046442986, 0.000000000000000, -0.302848696708679, -0.152083992958069, -0.161727815866470, 0.588969528675079, 0.034856334328651, 0.000000000000000, 0.190672188997269, 0.023721836507320, -0.009176394902170, 0.066498525440693, 0.182589203119278, 0.447656005620956, -0.138251662254333, 0.011655685491860, -0.184035092592239, 0.119674526154995, 0.087389193475246
-0.159584999084473, 0.382135838270187, 0.550586402416229, 0.662592649459839, -0.161276757717133, 0.000000000000000, -0.304954379796982, -0.132521748542786, -0.165912583470345, 0.574898660182953, 0.044497374445200, 0.000000000000000, 0.194706097245216, 0.029343537986279, 0.002667473861948, 0.070220343768597, 0.206274017691612, 0.442832797765732, -0.144322082400322, 0.010772109963000, -0.186960637569427, 0.117919020354748, 0.074769921600819
-0.167112305760384, 0.392243564128876, 0.550160408020020, 0.664270281791687, -0.162414014339447, 0.000000000000000, -0.313740640878677, -0.118872947990894, -0.167268976569176, 0.562540769577026, 0.052588693797588, 0.000000000000000, 0.195690512657166, 0.039885617792606, 0.014237866736948, 0.075795873999596, 0.227448984980583, 0.431935518980026, -0.152593851089478, 0.010511573404074, -0.191740512847900, 0.114788323640823, 0.063422203063965
-0.178822562098503, 0.396330088376999, 0.552495539188385, 0.666342735290527, -0.163974300026894, 0.000000000000000, -0.328315109014511, -0.114036336541176, -0.164680704474449, 0.552735209465027, 0.058951389044523, 0.000000000000000, 0.203960210084915, 0.049636002629995, 0.019916255027056, 0.084520027041435, 0.242191806435585, 0.417305707931519, -0.164368748664856, 0.010707881301641, -0.199215039610863, 0.111009217798710, 0.047363698482513
-0.193402737379074, 0.393341034650803, 0.558787107467651, 0.667403936386108, -0.165578171610832, 0.000000000000000, -0.346157371997833, -0.117510311305523, -0.158529043197632, 0.546558916568756, 0.063674062490463, 0.000000000000000, 0.215662479400635, 0.054606702178717, 0.022490072995424, 0.096103213727474, 0.246660932898521, 0.398820936679840, -0.177911251783371, 0.011305887252092, -0.208651259541512, 0.106628842651844, 0.030909566208720
-0.208056867122650, 0.383890718221664, 0.568890094757080, 0.666639387607574, -0.166876435279846, 0.000000000000000, -0.365021765232086, -0.127020537853241, -0.149790182709694, 0.544806122779846, 0.066766962409019, 0.000000000000000, 0.225619465112686, 0.054448984563351, 0.024726444855332, 0.107926867902279, 0.240926146507263, 0.377551317214966, -0.192256957292557, 0.012177500873804, -0.219402119517326, 0.101868718862534, 0.020561292767525
-0.219440072774887, 0.370046436786652, 0.581493377685547, 0.664131879806519, -0.167697504162788, 0.000000000000000, -0.382681638002396, -0.140076518058777, -0.139384567737579, 0.548048615455627, 0.068173073232174, 0.000000000000000, 0.231226682662964, 0.048285689204931, 0.026797899976373, 0.115891009569168, 0.228587001562119, 0.356580615043640, -0.206659853458405, 0.013021701946855, -0.230636283755302, 0.097338378429413, 0.018802518025041
-0.225054457783699, 0.354208767414093, 0.594989478588104, 0.660656094551086, -0.168087765574455, 0.000000000000000, -0.397001028060913, -0.155542671680450, -0.127613097429276, 0.556433498859406, 0.067854441702366, 0.000000000000000, 0.230418086051941, 0.037887826561928, 0.027374424040318, 0.116318784654140, 0.213460907340050, 0.337303429841995, -0.221640989184380, 0.013719473965466, -0.242157518863678, 0.093251325190067, 0.025560757145286
-0.224588900804520, 0.338713258504868, 0.608024299144745, 0.657004535198212, -0.168235763907433, 0.000000000000000, -0.406826674938202, -0.172087535262108, -0.114891394972801, 0.569348275661469, 0.066007770597935, 0.000000000000000, 0.222883731126785, 0.026512917131186, 0.025568783283234, 0.108548469841480, 0.198295965790749, 0.319898366928101, -0.237547248601913, 0.014268885366619, -0.253932297229767, 0.089576609432697, 0.039659071713686
-0.220052927732468, 0.325827568769455, 0.619505822658539, 0.653810739517212, -0.168383270502090, 0.000000000000000, -0.413347005844116, -0.186018407344818, -0.102792128920555, 0.584803164005280, 0.063227131962776, 0.000000000000000, 0.209616228938103, 0.017411032691598, 0.021950252354145, 0.094074584543705, 0.185025230050087, 0.304278165102005, -0.254200518131256, 0.014687163755298, -0.265840828418732, 0.086248308420181, 0.059474524110556
-0.214849591255188, 0.318133562803268, 0.628280520439148, 0.651604533195496, -0.168789073824883, 0.000000000000000, -0.417952001094818, -0.193759083747864, -0.093036822974682, 0.600010573863983, 0.060545045882463, 0.000000000000000, 0.192757666110992, 0.012273125350475, 0.017168080434203, 0.074221059679985, 0.175404414534569, 0.290453046560287, -0.272020548582077, 0.014991655945778, -0.278042823076248, 0.083233371376991, 0.081616468727589
-0.211720049381256, 0.317929655313492, 0.633190393447876, 0.650958776473999, -0.169622018933296, 0.000000000000000, -0.420259654521942, -0.193872615695000, -0.086565643548965, 0.612332582473755, 0.059211537241936, 0.000000000000000, 0.174470424652100, 0.009457227773964, 0.012415531091392, 0.051214210689068, 0.170477375388145, 0.278777688741684, -0.290167570114136, 0.015127818100154, -0.290155947208405, 0.080599173903465, 0.101522319018841
-0.211319610476494, 0.325757354497910, 0.633726835250854, 0.652439355850220, -0.170864149928093, 0.000000000000000, -0.421001225709915, -0.187128499150276, -0.083539910614491, 0.618883192539215, 0.060100466012955, 0.000000000000000, 0.155871450901031, 0.008913767524064, 0.011471461504698, 0.029155265539885, 0.170331180095673, 0.269747525453568, -0.305830717086792, 0.014980835840106, -0.301024109125137, 0.078473255038261, 0.117312081158161
-0.212566897273064, 0.340816646814346, 0.629989266395569, 0.656341254711151, -0.172420561313629, 0.000000000000000, -0.419683992862701, -0.174810588359833, -0.083903223276138, 0.618626356124878, 0.063609704375267, 0.000000000000000, 0.138949617743492, 0.012603404000401, 0.015594148077071, 0.011133569292724, 0.175339058041573, 0.263676971197128, -0.317642301321030, 0.014486696571112, -0.310176670551300, 0.076941601932049, 0.128520697355270
-0.213068902492523, 0.361052989959717, 0.622481584548950, 0.662866055965424, -0.174146980047226, 0.000000000000000, -0.414473354816437, -0.157654091715813, -0.087597750127316, 0.612759828567505, 0.069633483886719, 0.000000000000000, 0.125600397586823, 0.021313147619367, 0.021450037136674, -0.001608829130419, 0.186281472444534, 0.260466098785400, -0.326500773429871, 0.013683130033314, -0.318171888589859, 0.075981616973877, 0.134075120091438
-0.211878165602684, 0.383561164140701, 0.612452745437622, 0.671598076820374, -0.176098093390465, 0.000000000000000, -0.405228853225708, -0.136934831738472, -0.093967549502850, 0.603233873844147, 0.077405042946339, 0.000000000000000, 0.117319591343403, 0.033313866704702, 0.026553368195891, -0.006478075403720, 0.202578827738762, 0.258876264095306, -0.332487732172012, 0.012752032838762, -0.325402408838272, 0.075312353670597, 0.133143082261086
-0.209589689970016, 0.405527204275131, 0.601511120796204, 0.681576192378998, -0.178441524505615, 0.000000000000000, -0.394206434488297, -0.115330636501312, -0.101404279470444, 0.592062950134277, 0.085703045129776, 0.000000000000000, 0.114141084253788, 0.046135764569044, 0.030437188223004, -0.003251277841628, 0.223347932100296, 0.258106946945190, -0.335353910923004, 0.011792206205428, -0.331845790147781, 0.074753224849701, 0.125691026449203
-0.206645756959915, 0.424801319837570, 0.591117739677429, 0.691699981689453, -0.181158691644669, 0.000000000000000, -0.383952826261520, -0.096035659313202, -0.107791520655155, 0.581185638904572, 0.093577496707439, 0.000000000000000, 0.114566884934902, 0.057645980268717, 0.031436994671822, 0.004112352151424, 0.247879743576050, 0.258594781160355, -0.336664110422134, 0.010733596980572, -0.337904542684555, 0.074423387646675, 0.113120168447495
-0.204105719923973, 0.439673125743866, 0.582940280437469, 0.700551331043243, -0.184009611606598, 0.000000000000000, -0.376417130231857, -0.080446466803551, -0.111850626766682, 0.572095692157745, 0.100606322288513, 0.000000000000000, 0.116525322198868, 0.065619856119156, 0.029377229511738, 0.011191888712347, 0.273802578449249, 0.260627001523972, -0.337929785251617, 0.009502554312348, -0.343964129686356, 0.074442677199841, 0.098313704133034
-0.203467592597008, 0.448861688375473, 0.578673541545868, 0.706751286983490, -0.186688691377640, 0.000000000000000, -0.372607767581940, -0.068861618638039, -0.113236308097839, 0.565844714641571, 0.106660142540932, 0.000000000000000, 0.118754498660564, 0.068189375102520, 0.027133250609040, 0.014841029420495, 0.297472387552261, 0.264536768198013, -0.339297652244568, 0.007979028858244, -0.349910974502563, 0.074978761374950, 0.084705241024494
-0.204663306474686, 0.451646506786346, 0.579198479652405, 0.709828674793243, -0.188913658261299, 0.000000000000000, -0.372476100921631, -0.062473766505718, -0.111575856804848, 0.563217103481293, 0.111652113497257, 0.000000000000000, 0.120749466121197, 0.065574198961258, 0.027457736432552, 0.013798044994473, 0.315542161464691, 0.270571649074554, -0.340447932481766, 0.006059001665562, -0.355592936277390, 0.076178334653378, 0.075632952153683
-0.205800026655197, 0.448098927736282, 0.584195017814636, 0.710515975952148, -0.190535083413124, 0.000000000000000, -0.375494927167892, -0.062341995537281, -0.106535129249096, 0.564667642116547, 0.115441106259823, 0.000000000000000, 0.121982887387276, 0.059315335005522, 0.029988247901201, 0.008330699987710, 0.325603902339935, 0.277621984481812, -0.342415571212769, 0.003910151310265, -0.361697286367416, 0.077815547585487, 0.073185361921787
-0.204785302281380, 0.438908547163010, 0.592549264431000, 0.710323750972748, -0.191606730222702, 0.000000000000000, -0.380637407302856, -0.068977080285549, -0.097784548997879, 0.570282220840454, 0.117868974804878, 0.000000000000000, 0.121621802449226, 0.052319858223200, 0.031400773674250, -0.000215241627302, 0.325715303421021, 0.281970649957657, -0.348589092493057, 0.002211339538917, -0.370241105556488, 0.078966170549393, 0.077247262001038
-0.200725957751274, 0.425950646400452, 0.602406740188599, 0.710835576057434, -0.192384734749794, 0.000000000000000, -0.387128829956055, -0.080592915415764, -0.085987947881222, 0.579468965530396, 0.118766091763973, 0.000000000000000, 0.119295835494995, 0.045182958245277, 0.030408462509513, -0.008434681221843, 0.315026700496674, 0.280613750219345, -0.359885305166245, 0.001517385244370, -0.382135689258575, 0.078862652182579, 0.087023280560970
-0.194763258099556, 0.412294536828995, 0.611472368240356, 0.713168144226074, -0.193254947662354, 0.000000000000000, -0.393479645252228, -0.093650959432125, -0.072751723229885, 0.591256320476532, 0.118229694664478, 0.000000000000000, 0.116678759455681, 0.038625430315733, 0.025800850242376, -0.015337633900344, 0.296687304973602, 0.275412648916245, -0.375631839036942, 0.001549881882966, -0.396958738565445, 0.077912546694279, 0.100308492779732
-0.190921992063522, 0.400718569755554, 0.618403553962708, 0.717318892478943, -0.194530606269836, 0.000000000000000, -0.399450659751892, -0.103313453495502, -0.060502618551254, 0.603531181812286, 0.116723529994488, 0.000000000000000, 0.116294071078300, 0.033720862120390, 0.018724093213677, -0.021485315635800, 0.275644153356552, 0.269669830799103, -0.393633604049683, 0.001726356334984, -0.413169920444489, 0.076858803629875, 0.112660311162472
-0.192118749022484, 0.393261939287186, 0.622512459754944, 0.723170459270477, -0.196271523833275, 0.000000000000000, -0.406390279531479, -0.106268152594566, -0.051217392086983, 0.613138318061829, 0.115057155489922, 0.000000000000000, 0.118779040873051, 0.030708577483892, 0.013531657867134, -0.026876181364059, 0.255972295999527, 0.265598982572556, -0.409435272216797, 0.001568149542436, -0.428106546401978, 0.076184354722500, 0.118967443704605
-0.197047755122185, 0.391193181276321, 0.623035430908203, 0.731301426887512, -0.198278740048409, 0.000000000000000, -0.413827836513519, -0.103290371596813, -0.045148201286793, 0.617794275283813, 0.114215165376663, 0.000000000000000, 0.123315811157227, 0.030539467930794, 0.012756456620991, -0.029832351952791, 0.240098819136620, 0.264224559068680, -0.419454127550125, 0.000817053194623, -0.439886033535004, 0.076115041971207, 0.117249593138695
-0.203019604086876, 0.394847065210342, 0.619703233242035, 0.741759240627289, -0.200308322906494, 0.000000000000000, -0.419722616672516, -0.096574001014233, -0.041873767971992, 0.616680920124054, 0.114981181919575, 0.000000000000000, 0.129031747579575, 0.034049797803164, 0.017151542007923, -0.029066290706396, 0.229750379920006, 0.265721768140793, -0.421705365180969, -0.000589590519667, -0.447499245405197, 0.076663352549076, 0.107483178377151
-0.206856518983841, 0.403402715921402, 0.612728655338287, 0.754069745540619, -0.202159360051155, 0.000000000000000, -0.421942383050919, -0.086838401854038, -0.041419416666031, 0.610477566719055, 0.117720678448677, 0.000000000000000, 0.135039821267128, 0.040326479822397, 0.025092288851738, -0.025458138436079, 0.226766571402550, 0.269601881504059, -0.416513919830322, -0.002526318654418, -0.450897544622421, 0.077637054026127, 0.090426176786423
-0.206709608435631, 0.414983600378036, 0.603020846843719, 0.767456412315369, -0.203778758645058, 0.000000000000000, -0.419843494892120, -0.074075244367123, -0.043765675276518, 0.601032137870789, 0.122104570269585, 0.000000000000000, 0.140362799167633, 0.047791812568903, 0.033200383186340, -0.021879069507122, 0.232823669910431, 0.274700552225113, -0.407006561756134, -0.004662313498557, -0.451279282569885, 0.078640602529049, 0.067554146051407
-0.204158946871758, 0.427475661039352, 0.592307448387146, 0.780460238456726, -0.205290541052818, 0.000000000000000, -0.415380746126175, -0.058819260448217, -0.048309288918972, 0.590620636940002, 0.127056285738945, 0.000000000000000, 0.143860131502151, 0.055066436529160, 0.039419949054718, -0.021559678018093, 0.248462781310081, 0.278976351022720, -0.397537112236023, -0.006459337193519, -0.450556814670563, 0.079059883952141, 0.040490135550499
-0.201961040496826, 0.439402729272842, 0.582165420055389, 0.791552543640137, -0.206865459680557, 0.000000000000000, -0.410587936639786, -0.043535221368074, -0.053443130105734, 0.581648588180542, 0.131433859467506, 0.000000000000000, 0.144839823246002, 0.061096612364054, 0.043845094740391, -0.026634935289621, 0.272242039442062, 0.281016945838928, -0.391630470752716, -0.007560571189970, -0.450495481491089, 0.078527413308620, 0.012431296519935
-0.202277764678001, 0.449437916278839, 0.573830127716064, 0.799669086933136, -0.208579614758492, 0.000000000000000, -0.406921386718750, -0.031611386686563, -0.057298049330711, 0.575790047645569, 0.134600326418877, 0.000000000000000, 0.144103199243546, 0.065132305026054, 0.047910399734974, -0.037538886070251, 0.300224453210831, 0.281627237796783, -0.390061855316162, -0.008192588575184, -0.451738983392715, 0.077385783195496, -0.013045273721218
-0.205476149916649, 0.455175995826721, 0.568596541881561, 0.804575860500336, -0.210318714380264, 0.000000000000000, -0.406988173723221, -0.024859765544534, -0.059033166617155, 0.573396980762482, 0.136254176497459, 0.000000000000000, 0.142349034547806, 0.067292727530003, 0.052885871380568, -0.053374264389277, 0.326734691858292, 0.281797707080841, -0.391677320003510, -0.008690256625414, -0.454130589962006, 0.076083220541477, -0.034046869724989
-0.210599109530449, 0.454076170921326, 0.567616820335388, 0.806418538093567, -0.211848989129066, 0.000000000000000, -0.412255883216858, -0.024526203051209, -0.058318659663200, 0.574631214141846, 0.136320501565933, 0.000000000000000, 0.139915183186531, 0.067972615361214, 0.058856636285782, -0.071761898696423, 0.346584916114807, 0.280889451503754, -0.395788788795471, -0.008999243378639, -0.457912683486938, 0.074597299098969, -0.049719542264938
-0.215928599238396, 0.444559156894684, 0.571391463279724, 0.805715084075928, -0.212952300906181, 0.000000000000000, -0.421870470046997, -0.031458817422390, -0.055009502917528, 0.579885601997375, 0.134742066264153, 0.000000000000000, 0.136328607797623, 0.067666254937649, 0.064502149820328, -0.089506842195988, 0.356293469667435, 0.276076346635818, -0.403533607721329, -0.008495180867612, -0.464289784431458, 0.072233825922012, -0.059548441320658
-0.220593437552452, 0.427314013242722, 0.579417228698730, 0.802837729454041, -0.213553369045258, 0.000000000000000, -0.434632748365402, -0.045350186526775, -0.049329854547977, 0.589025974273682, 0.131238713860512, 0.000000000000000, 0.130547598004341, 0.066085956990719, 0.069643348455429, -0.104820899665356, 0.354604393243790, 0.264548271894455, -0.415897041559219, -0.006513254716992, -0.474037796258926, 0.068220868706703, -0.063882708549500
-0.224509760737419, 0.404818028211594, 0.590287744998932, 0.798126637935638, -0.213652521371841, 0.000000000000000, -0.448956668376923, -0.064822733402252, -0.041900020092726, 0.601517081260681, 0.125445604324341, 0.000000000000000, 0.122015990316868, 0.062639988958836, 0.074424587190151, -0.117484077811241, 0.342565059661865, 0.245816111564636, -0.432977557182312, -0.002887475071475, -0.487113028764725, 0.062370005995035, -0.063057988882065
-0.226950362324715, 0.380461126565933, 0.601630628108978, 0.792691648006439, -0.213236227631569, 0.000000000000000, -0.462548732757568, -0.088355623185635, -0.033436238765717, 0.616852223873138, 0.117275319993496, 0.000000000000000, 0.111299991607666, 0.057857859879732, 0.076913140714169, -0.129198342561722, 0.323758035898209, 0.222851157188416, -0.454000264406204, 0.001742732827552, -0.502560436725616, 0.055422168225050, -0.058164265006781
-0.228847786784172, 0.357681781053543, 0.611444413661957, 0.787424623966217, -0.212318837642670, 0.000000000000000, -0.473639339208603, -0.112414218485355, -0.025636341422796, 0.634143173694611, 0.106992818415165, 0.000000000000000, 0.099368579685688, 0.051956463605165, 0.076714135706425, -0.141424432396889, 0.302467644214630, 0.199419274926186, -0.476055115461349, 0.006475755013525, -0.518246591091156, 0.048365246504545, -0.051554907113314
-0.231848120689392, 0.339987933635712, 0.618161857128143, 0.782810866832733, -0.210917547345161, 0.000000000000000, -0.481545537710190, -0.132548317313194, -0.020688679069281, 0.651760995388031, 0.095335572957993, 0.000000000000000, 0.086245425045490, 0.044863417744637, 0.075941532850266, -0.154203459620476, 0.282198816537857, 0.177937880158424, -0.495186030864716, 0.010688503272831, -0.531742513179779, 0.041843544691801, -0.045574910938740
-0.236085906624794, 0.330336511135101, 0.620431959629059, 0.779076099395752, -0.208972334861755, 0.000000000000000, -0.486456274986267, -0.146936759352684, -0.019729027524590, 0.667659699916840, 0.083340287208557, 0.000000000000000, 0.070708423852921, 0.037554312497377, 0.076266087591648, -0.166934758424759, 0.265477716922760, 0.159699872136116, -0.508788049221039, 0.014046840369701, -0.541514337062836, 0.036201123148203, -0.040761150419712
-0.239481806755066, 0.329697370529175, 0.617568790912628, 0.775806546211243, -0.206296339631081, 0.000000000000000, -0.488026499748230, -0.155875653028488, -0.023097956553102, 0.680210113525391, 0.072100020945072, 0.000000000000000, 0.051785625517368, 0.030770348384976, 0.077736720442772, -0.179227814078331, 0.254056036472321, 0.145366773009300, -0.515954732894897, 0.016395632177591, -0.546964645385742, 0.031609043478966, -0.036489706486464
-0.240539789199829, 0.336827516555786, 0.610383868217468, 0.771417975425720, -0.202588394284248, 0.000000000000000, -0.485185414552689, -0.159976065158844, -0.031054494902492, 0.688381373882294, 0.062585026025772, 0.000000000000000, 0.029661867767572, 0.024957355111837, 0.080411963164806, -0.191167235374451, 0.249119654297829, 0.134859457612038, -0.516545653343201, 0.017787933349609, -0.547908246517181, 0.028019044548273, -0.032014627009630
-0.238787963986397, 0.349129617214203, 0.600579977035522, 0.764134645462036, -0.197463810443878, 0.000000000000000, -0.476178854703903, -0.159754231572151, -0.043706819415092, 0.692043304443359, 0.055446438491344, 0.000000000000000, 0.005145185627043, 0.019835114479065, 0.083908483386040, -0.203215926885605, 0.251442104578018, 0.127633631229401, -0.511465787887573, 0.018412755802274, -0.544733703136444, 0.025244941934943, -0.025916730985045
-0.233700796961784, 0.363468766212463, 0.589695751667023, 0.753257274627686, -0.190660357475281, 0.000000000000000, -0.460513085126877, -0.155926629900932, -0.060674142092466, 0.691654562950134, 0.050708554685116, 0.000000000000000, -0.020680816844106, 0.015627257525921, 0.087286368012428, -0.216102510690689, 0.261231601238251, 0.122415944933891, -0.503377497196198, 0.018665583804250, -0.538816094398499, 0.022888181731105, -0.016034699976444
-0.225582063198090, 0.377167582511902, 0.578760564327240, 0.739115715026855, -0.182266652584076, 0.000000000000000, -0.439242482185364, -0.149908900260925, -0.080883979797363, 0.688503742218018, 0.047641683369875, 0.000000000000000, -0.046018421649933, 0.013245939277112, 0.088937371969223, -0.230125218629837, 0.277863383293152, 0.117617040872574, -0.496571093797684, 0.019014816731215, -0.532621979713440, 0.020481159910560, -0.000263058842393
-0.216651245951653, 0.388450324535370, 0.568602263927460, 0.722215235233307, -0.172687754034996, 0.000000000000000, -0.414624899625778, -0.144386604428291, -0.102392338216305, 0.684243202209473, 0.045124504715204, 0.000000000000000, -0.068341217935085, 0.012512781657279, 0.088393643498421, -0.245203688740730, 0.299423128366470, 0.112288795411587, -0.493706852197647, 0.019698984920979, -0.527904152870178, 0.017792185768485, 0.020774936303496
-0.209219008684158, 0.395866215229034, 0.559873998165131, 0.703396260738373, -0.162408590316772, 0.000000000000000, -0.389901250600815, -0.142141342163086, -0.123003698885441, 0.680054664611816, 0.042232543230057, 0.000000000000000, -0.086002878844738, 0.013328565284610, 0.086163625121117, -0.262265115976334, 0.322696596384048, 0.106559045612812, -0.495426774024963, 0.020605070516467, -0.525099575519562, 0.014955385588109, 0.045102804899216
-0.204717829823494, 0.398295223712921, 0.552919805049896, 0.683854043483734, -0.151858776807785, 0.000000000000000, -0.368329614400864, -0.144348978996277, -0.141220539808273, 0.676803767681122, 0.038470029830933, 0.000000000000000, -0.098440170288086, 0.015209632925689, 0.083305731415749, -0.281951427459717, 0.343695670366287, 0.100806802511215, -0.501499235630035, 0.021531308069825, -0.524156153202057, 0.012197913601995, 0.070861622691154
-0.203907921910286, 0.395219027996063, 0.547795653343201, 0.664814591407776, -0.141383364796638, 0.000000000000000, -0.352042406797409, -0.150910973548889, -0.156320512294769, 0.675474107265472, 0.033651929348707, 0.000000000000000, -0.105154111981392, 0.017015438526869, 0.081231787800789, -0.303145200014114, 0.358779549598694, 0.094961740076542, -0.511226713657379, 0.022416064515710, -0.524994552135468, 0.009590987116098, 0.095983818173409
-0.206551074981689, 0.386681526899338, 0.544214129447937, 0.647619605064392, -0.131270334124565, 0.000000000000000, -0.342179238796234, -0.161304250359535, -0.168203547596931, 0.676884710788727, 0.027728857472539, 0.000000000000000, -0.105690032243729, 0.017894679680467, 0.080903515219688, -0.323260664939880, 0.365588217973709, 0.088595271110535, -0.523796498775482, 0.023333130404353, -0.527658402919769, 0.007053615525365, 0.118113204836845
-0.211492091417313, 0.373979538679123, 0.541270911693573, 0.633568584918976, -0.121831059455872, 0.000000000000000, -0.338258624076843, -0.175542175769806, -0.176815211772919, 0.681402802467346, 0.020779484882951, 0.000000000000000, -0.099851578474045, 0.018297268077731, 0.082258984446526, -0.339334964752197, 0.363314449787140, 0.081311061978340, -0.538959145545959, 0.024385081604123, -0.532577514648438, 0.004472441039979, 0.135401651263237
-0.218409717082977, 0.359505832195282, 0.537973523139954, 0.623213648796082, -0.113398812711239, 0.000000000000000, -0.338088095188141, -0.192699804902077, -0.182726636528969, 0.688469409942627, 0.013051267713308, 0.000000000000000, -0.087252512574196, 0.019314503297210, 0.085617288947105, -0.349402695894241, 0.353053182363510, 0.073279626667500, -0.555940926074982, 0.025552909821272, -0.539711475372314, 0.001864420250058, 0.145807147026062
-0.227829128503799, 0.346404016017914, 0.533425390720367, 0.616359949111938, -0.106255874037743, 0.000000000000000, -0.339067846536636, -0.209094911813736, -0.187973573803902, 0.696683883666992, 0.005026490893215, 0.000000000000000, -0.067862287163734, 0.021310085430741, 0.091845370829105, -0.353044986724854, 0.338042914867401, 0.065603226423264, -0.572409510612488, 0.026587704196572, -0.547785520553589, -0.000507789023686, 0.146360397338867
-0.239001557230949, 0.337401449680328, 0.526880443096161, 0.612943172454834, -0.100520305335522, 0.000000000000000, -0.339810013771057, -0.220979377627373, -0.194527477025986, 0.704489648342133, -0.002698949771002, 0.000000000000000, -0.043917343020439, 0.024954376742244, 0.100072324275970, -0.350541740655899, 0.322639137506485, 0.060507845133543, -0.585585057735443, 0.026919333264232, -0.555094718933105, -0.002035420620814, 0.136382445693016
-0.250015676021576, 0.334271609783173, 0.517923116683960, 0.613004863262177, -0.096256330609322, 0.000000000000000, -0.340632617473602, -0.227129504084587, -0.202990353107452, 0.710784554481506, -0.009751883335412, 0.000000000000000, -0.018605465069413, 0.030206738039851, 0.108537375926971, -0.343814998865128, 0.310642480850220, 0.059869591146708, -0.593161165714264, 0.026047784835100, -0.559856891632080, -0.002190954983234, 0.116505049169064
-0.258340358734131, 0.337944298982620, 0.506344676017761, 0.616469144821167, -0.093529857695103, 0.000000000000000, -0.341596096754074, -0.228212907910347, -0.212838172912598, 0.715614795684814, -0.016031743958592, 0.000000000000000, 0.005400781519711, 0.037341877818108, 0.115267924964428, -0.336087346076965, 0.304336518049240, 0.063865274190903, -0.594461441040039, 0.023945858702064, -0.560914337635040, -0.000957426207606, 0.087320134043694
-0.262920826673508, 0.347628265619278, 0.492736279964447, 0.622738718986511, -0.092317834496498, 0.000000000000000, -0.342275917530060, -0.225337535142899, -0.223137512803078, 0.719953179359436, -0.021591259166598, 0.000000000000000, 0.027099298313260, 0.045269563794136, 0.119261950254440, -0.329314470291138, 0.304701089859009, 0.071962244808674, -0.589914977550507, 0.020784245803952, -0.558083176612854, 0.001470804796554, 0.050835251808167
-0.265371948480606, 0.360507071018219, 0.478820741176605, 0.630539357662201, -0.092512078583241, 0.000000000000000, -0.343312978744507, -0.219617605209351, -0.232873082160950, 0.724875807762146, -0.026637308299541, 0.000000000000000, 0.046128496527672, 0.051529332995415, 0.121932514011860, -0.324312984943390, 0.311723947525024, 0.083145298063755, -0.579806625843048, 0.016872232779860, -0.551478505134583, 0.004750845953822, 0.009899716824293
-0.267472863197327, 0.372787624597549, 0.466599524021149, 0.638613224029541, -0.093895085155964, 0.000000000000000, -0.345810085535049, -0.212983459234238, -0.240635856986046, 0.731410086154938, -0.031480479985476, 0.000000000000000, 0.062355350703001, 0.054557159543037, 0.124424971640110, -0.321997255086899, 0.324135482311249, 0.095349498093128, -0.566061258316040, 0.012805902399123, -0.542110264301300, 0.008228528313339, -0.032104093581438
-0.269524395465851, 0.381070375442505, 0.457553923130035, 0.646041333675385, -0.096100553870201, 0.000000000000000, -0.350801110267639, -0.209024578332901, -0.244430482387543, 0.740358114242554, -0.036484539508820, 0.000000000000000, 0.075692094862461, 0.055266246199608, 0.125880077481270, -0.323218405246735, 0.339010208845139, 0.105805695056915, -0.552827358245850, 0.009338890202343, -0.532182097434998, 0.011074090376496, -0.071611590683460
-0.271325290203094, 0.382913857698441, 0.452733695507050, 0.651947915554047, -0.098542124032974, 0.000000000000000, -0.359846860170364, -0.210583597421646, -0.243096590042114, 0.751649081707001, -0.042009528726339, 0.000000000000000, 0.086458191275597, 0.054545864462852, 0.126428276300430, -0.327456325292587, 0.352433025836945, 0.113651074469090, -0.542475163936615, 0.006620869506150, -0.523238897323608, 0.013112592510879, -0.105520218610764
-0.272701531648636, 0.377141177654266, 0.452844232320786, 0.655468702316284, -0.100461401045322, 0.000000000000000, -0.372885614633560, -0.218891158699989, -0.236375674605370, 0.764870464801788, -0.048249717801809, 0.000000000000000, 0.095778539776802, 0.052495740354061, 0.126332908868790, -0.332975417375565, 0.360563755035400, 0.119420982897282, -0.535957753658295, 0.004405387677252, -0.516297101974487, 0.014614321291447, -0.131501704454422
-0.273736983537674, 0.363973110914230, 0.458136945962906, 0.655703723430634, -0.101135440170765, 0.000000000000000, -0.388153284788132, -0.233632296323776, -0.224765583872795, 0.779364347457886, -0.055126257240772, 0.000000000000000, 0.104572795331478, 0.049426872283220, 0.125771775841713, -0.338237345218658, 0.360516726970673, 0.123273186385632, -0.534233808517456, 0.002590566873550, -0.512294888496399, 0.015696715563536, -0.148127555847168
-0.274127066135406, 0.344376862049103, 0.468356221914291, 0.651983737945557, -0.100044935941696, 0.000000000000000, -0.403760373592377, -0.252936899662018, -0.209663271903992, 0.793919444084167, -0.062244821339846, 0.000000000000000, 0.112991154193878, 0.046281218528748, 0.125054031610489, -0.342135012149811, 0.350885570049286, 0.124941349029541, -0.538339734077454, 0.001230650814250, -0.512069642543793, 0.016301685944200, -0.154168486595154
-0.272795915603638, 0.320035725831985, 0.482532471418381, 0.644375860691071, -0.096973747014999, 0.000000000000000, -0.418172389268875, -0.274657905101776, -0.192599520087242, 0.807216763496399, -0.068966932594776, 0.000000000000000, 0.120795056223869, 0.044482536613941, 0.124719426035881, -0.343984812498093, 0.332705885171890, 0.124952018260956, -0.547771871089935, 0.000201726885280, -0.515401542186737, 0.016562294214964, -0.148560747504234
-0.268342465162277, 0.293606966733932, 0.498960077762604, 0.633786380290985, -0.092047855257988, 0.000000000000000, -0.430105030536652, -0.296605110168457, -0.175029590725899, 0.818184912204742, -0.074525944888592, 0.000000000000000, 0.127593770623207, 0.044718146324158, 0.123536609113216, -0.344331920146942, 0.309967964887619, 0.124881312251091, -0.560755491256714, -0.000868690491188, -0.520991802215576, 0.016877390444279, -0.131907731294632
-0.261581778526306, 0.268216997385025, 0.516041159629822, 0.621079981327057, -0.085865490138531, 0.000000000000000, -0.439360201358795, -0.315880745649338, -0.158769175410271, 0.825716972351074, -0.078277572989464, 0.000000000000000, 0.133241415023804, 0.044625904411077, 0.119975462555885, -0.344261348247528, 0.287942320108414, 0.126601532101631, -0.574769556522369, -0.002432043664157, -0.527007639408112, 0.017720194533467, -0.106777764856815
-0.253940999507904, 0.246886536478996, 0.532358646392822, 0.607235252857208, -0.079281568527222, 0.000000000000000, -0.446210473775864, -0.330195665359497, -0.145286992192268, 0.828903853893280, -0.079784423112869, 0.000000000000000, 0.137804180383682, 0.041364494711161, 0.113471977412701, -0.345393478870392, 0.271360188722610, 0.131556242704391, -0.586974740028381, -0.004851907491684, -0.531352043151855, 0.019451776519418, -0.078065194189548
-0.246568500995636, 0.231199964880943, 0.547198653221130, 0.593123316764832, -0.072969034314156, 0.000000000000000, -0.451579600572586, -0.338548839092255, -0.135424450039864, 0.826819419860840, -0.078808993101120, 0.000000000000000, 0.140377953648567, 0.036184340715408, 0.105850912630558, -0.348602384328842, 0.263459146022797, 0.140281811356544, -0.594062387943268, -0.008270029909909, -0.531888842582703, 0.022180929780006, -0.050824835896492
-0.239483535289764, 0.221859797835350, 0.560122489929199, 0.579572558403015, -0.067277930676937, 0.000000000000000, -0.455537348985672, -0.340625703334808, -0.129597008228302, 0.819022774696350, -0.075145632028580, 0.000000000000000, 0.140482202172279, 0.031032804399729, 0.098567135632038, -0.354104518890381, 0.266285121440887, 0.152599349617958, -0.593390643596649, -0.012632988393307, -0.527097165584564, 0.025806328281760, -0.029265524819493
-0.231660559773445, 0.219624921679497, 0.570547640323639, 0.567357003688812, -0.062417414039373, 0.000000000000000, -0.456785768270493, -0.336624264717102, -0.127745166420937, 0.805936813354492, -0.068613477051258, 0.000000000000000, 0.138641223311424, 0.026311526075006, 0.091433234512806, -0.362363487482071, 0.281287282705307, 0.167973682284355, -0.583929955959320, -0.017779631540179, -0.516392171382904, 0.030114905908704, -0.015976453199983
-0.222352072596550, 0.224709421396255, 0.578207015991211, 0.556864440441132, -0.058598946779966, 0.000000000000000, -0.454871356487274, -0.326850742101669, -0.129567191004753, 0.788436770439148, -0.059333529323339, 0.000000000000000, 0.135808676481247, 0.021818317472935, 0.084662564098835, -0.373874992132187, 0.309335619211197, 0.185784935951233, -0.565696001052856, -0.023530725389719, -0.499832242727280, 0.034877382218838, -0.011252625845373
-0.211819007992744, 0.235783174633980, 0.583556771278381, 0.548137724399567, -0.056003991514444, 0.000000000000000, -0.450636029243469, -0.311664730310440, -0.134455502033234, 0.767946302890778, -0.047931022942066, 0.000000000000000, 0.133075907826424, 0.016772899776697, 0.079119913280010, -0.388368129730225, 0.350025564432144, 0.205442786216736, -0.538937985897064, -0.029739707708359, -0.477807641029358, 0.039910435676575, -0.014605677686632
-0.201085075736046, 0.249798014760017, 0.587716341018677, 0.541264832019806, -0.054730929434299, 0.000000000000000, -0.444687247276306, -0.292827427387238, -0.140699371695518, 0.746798813343048, -0.035436578094959, 0.000000000000000, 0.130712524056435, 0.012026268057525, 0.073087796568871, -0.405288189649582, 0.400203943252563, 0.225263610482216, -0.506154000759125, -0.036013003438711, -0.451946318149567, 0.044749397784472, -0.025442697107792
-0.190764039754868, 0.262807667255402, 0.591947019100189, 0.536755740642548, -0.054797530174255, 0.000000000000000, -0.437289953231812, -0.274490326642990, -0.145247802138329, 0.727600216865540, -0.022925440222025, 0.000000000000000, 0.128544375300407, 0.012561886571348, 0.061157688498497, -0.423674941062927, 0.452286332845688, 0.240788176655769, -0.475436925888062, -0.041308857500553, -0.426764786243439, 0.048160050064325, -0.043125454336405
-0.181657865643501, 0.272171974182129, 0.597089350223541, 0.534815251827240, -0.056141868233681, 0.000000000000000, -0.430895417928696, -0.259848147630692, -0.146132349967957, 0.711418688297272, -0.011173652485013, 0.000000000000000, 0.129499793052673, 0.015679286792874, 0.047003977000713, -0.438205868005753, 0.496045857667923, 0.248479083180428, -0.451159596443176, -0.044982537627220, -0.405534088611603, 0.049346469342709, -0.064765378832817
-0.176725640892982, 0.277085483074188, 0.604000806808472, 0.534469902515411, -0.058683656156063, 0.000000000000000, -0.428381323814392, -0.250177681446075, -0.142940506339073, 0.698380529880524, -0.000566864153370, 0.000000000000000, 0.132270157337189, 0.019239027053118, 0.038307458162308, -0.445534884929657, 0.525096118450165, 0.246564850211143, -0.434855669736862, -0.046825084835291, -0.389553695917130, 0.047981668263674, -0.083603277802467
-0.175694197416306, 0.277954399585724, 0.612498164176941, 0.535631179809570, -0.062179345637560, 0.000000000000000, -0.430076897144318, -0.245365977287292, -0.135975241661072, 0.688705980777740, 0.008785326033831, 0.000000000000000, 0.136370122432709, 0.022566923871636, 0.036125656217337, -0.444483816623688, 0.537143111228943, 0.233516022562981, -0.427553862333298, -0.046645481139421, -0.379390776157379, 0.043706260621548, -0.097562670707703
-0.176676943898201, 0.276633024215698, 0.621385931968689, 0.539140284061432, -0.066455148160458, 0.000000000000000, -0.435629129409790, -0.244300410151482, -0.126001507043839, 0.682046294212341, 0.016760617494583, 0.000000000000000, 0.141598060727119, 0.024063745513558, 0.037405479699373, -0.434367656707764, 0.531694114208221, 0.208295643329620, -0.429063796997070, -0.044334676116705, -0.374925792217255, 0.036258906126022, -0.108277440071106
-0.179143816232681, 0.275064110755920, 0.629537582397461, 0.546032667160034, -0.071490064263344, 0.000000000000000, -0.442272007465363, -0.245287030935287, -0.114145793020725, 0.677760243415833, 0.023495502769947, 0.000000000000000, 0.148281976580620, 0.023471569642425, 0.039111919701099, -0.414536744356155, 0.510071277618408, 0.172486796975136, -0.438194960355759, -0.040223907679319, -0.375602334737778, 0.026064036414027, -0.116146631538868
-0.184986919164658, 0.274841576814651, 0.636290132999420, 0.556542813777924, -0.077164456248283, 0.000000000000000, -0.448123931884766, -0.244019389152527, -0.102956734597683, 0.673685967922211, 0.029910432174802, 0.000000000000000, 0.157973408699036, 0.020926209166646, 0.040804438292980, -0.383949190378189, 0.475899070501328, 0.129273429512978, -0.450927317142487, -0.034912485629320, -0.379501610994339, 0.013963683508337, -0.123219706118107
-0.193817168474197, 0.277841508388519, 0.640391111373901, 0.570912957191467, -0.083282023668289, 0.000000000000000, -0.454082429409027, -0.237002968788147, -0.094723463058472, 0.666615307331085, 0.037436902523041, 0.000000000000000, 0.169707596302032, 0.015899088233709, 0.045635011047125, -0.342296183109283, 0.435342818498611, 0.081742778420448, -0.459083020687103, -0.028970329090953, -0.382421314716339, 0.000762685318477, -0.133168697357178
-0.203906595706940, 0.285089761018753, 0.641138076782227, 0.589129090309143, -0.089856162667274, 0.000000000000000, -0.462537527084351, -0.224192917346954, -0.090128503739834, 0.654888927936554, 0.046536587178707, 0.000000000000000, 0.179870545864105, 0.013987680897117, 0.057025328278542, -0.293233931064606, 0.395196735858917, 0.031575590372086, -0.456450194120407, -0.022641813382506, -0.380505114793777, -0.013154438696802, -0.147901549935341
-0.213099479675293, 0.297484517097473, 0.638137638568878, 0.610653996467590, -0.097005054354668, 0.000000000000000, -0.472422599792480, -0.206374675035477, -0.089147605001926, 0.640635430812836, 0.056685727089643, 0.000000000000000, 0.187914788722992, 0.017452463507652, 0.073894180357456, -0.239401623606682, 0.360492259263992, -0.019247831776738, -0.441683650016785, -0.016171591356397, -0.372712612152100, -0.027328353375196, -0.167707487940788
-0.220104634761810, 0.314783632755280, 0.631671071052551, 0.634358108043671, -0.104784004390240, 0.000000000000000, -0.479674696922302, -0.185996949672699, -0.090566605329514, 0.628261446952820, 0.066940166056156, 0.000000000000000, 0.194971159100533, 0.022098898887634, 0.090717755258083, -0.182940587401390, 0.335550099611282, -0.066482350230217, -0.417119055986404, -0.010206488892436, -0.360197186470032, -0.040683481842279, -0.191237062215805
-0.226846516132355, 0.334582746028900, 0.623677730560303, 0.658103287220001, -0.113178782165051, 0.000000000000000, -0.483761698007584, -0.166467279195786, -0.092507921159267, 0.620150864124298, 0.076395712792873, 0.000000000000000, 0.200755849480629, 0.022417472675443, 0.103044204413891, -0.126708149909973, 0.323599219322205, -0.107368163764477, -0.387371689081192, -0.005140564404428, -0.345253229141235, -0.052567284554243, -0.214866772294044
-0.236398607492447, 0.352654665708542, 0.617274224758148, 0.679436206817627, -0.122005835175514, 0.000000000000000, -0.488156020641327, -0.148992002010345, -0.094132758677006, 0.616102039813995, 0.084487520158291, 0.000000000000000, 0.204192072153091, 0.016467209905386, 0.109877236187458, -0.075477786362171, 0.325290769338608, -0.140060827136040, -0.356882095336914, -0.001216454780661, -0.329869151115417, -0.062527239322662, -0.234110042452812
-0.249654918909073, 0.365285813808441, 0.615148246288300, 0.696579396724701, -0.130924582481384, 0.000000000000000, -0.496043860912323, -0.135389462113380, -0.094566330313683, 0.615141749382019, 0.090921096503735, 0.000000000000000, 0.202841460704803, 0.007735608145595, 0.112243846058846, -0.036068052053452, 0.335310071706772, -0.161328956484795, -0.328531652688980, 0.001050291000865, -0.314974904060364, -0.069567069411278, -0.243666172027588
-0.265709161758423, 0.371919780969620, 0.618391156196594, 0.708487629890442, -0.139575675129890, 0.000000000000000, -0.509363055229187, -0.127983421087265, -0.092875748872757, 0.616228938102722, 0.095392458140850, 0.000000000000000, 0.194381579756737, -0.001226265216246, 0.111488357186317, -0.014363619498909, 0.341364502906799, -0.171529367566109, -0.304666012525558, 0.001596340793185, -0.301195591688156, -0.073471598327160, -0.242037937045097
-0.281451910734177, 0.374171674251556, 0.626141667366028, 0.715483903884888, -0.147628918290138, 0.000000000000000, -0.526405990123749, -0.127839490771294, -0.088711239397526, 0.619221448898315, 0.097656473517418, 0.000000000000000, 0.178144007921219, -0.009975556284189, 0.107551597058773, -0.012078300118446, 0.335399985313416, -0.175933450460434, -0.288148254156113, 0.001072224928066, -0.289707124233246, -0.075437702238560, -0.229356333613396
-0.292103022336960, 0.374699831008911, 0.635867118835449, 0.719192504882812, -0.154853716492653, 0.000000000000000, -0.540977537631989, -0.133974075317383, -0.082576557993889, 0.625073015689850, 0.097831286489964, 0.000000000000000, 0.155306547880173, -0.016106490045786, 0.097193241119385, -0.025644568726420, 0.319150239229202, -0.179434731602669, -0.281222671270370, 0.000143848912558, -0.281892448663712, -0.076829016208649, -0.203672528266907
-0.295882463455200, 0.377875238656998, 0.644581794738770, 0.720623970031738, -0.161169201135635, 0.000000000000000, -0.548424422740936, -0.141493827104568, -0.076797321438789, 0.633606493473053, 0.096452951431274, 0.000000000000000, 0.124963298439980, -0.017232926562428, 0.079570643603802, -0.048821363598108, 0.301918715238571, -0.186279520392418, -0.281784534454346, -0.000505247444380, -0.277269959449768, -0.079008832573891, -0.164317935705185
-0.294021755456924, 0.387934714555740, 0.649939596652985, 0.720243394374847, -0.166519597172737, 0.000000000000000, -0.548693060874939, -0.143646031618118, -0.074772648513317, 0.641897797584534, 0.094485841691494, 0.000000000000000, 0.083475507795811, -0.017170274630189, 0.062854744493961, -0.070228047668934, 0.288761705160141, -0.204684659838676, -0.280489623546600, 0.000360554957297, -0.272154778242111, -0.084268309175968, -0.114494420588017
-0.287763088941574, 0.406171768903732, 0.651008844375610, 0.718481540679932, -0.170727252960205, 0.000000000000000, -0.542507231235504, -0.137879669666290, -0.078226096928120, 0.645966529846191, 0.093174964189529, 0.000000000000000, 0.034659232944250, -0.020088549703360, 0.050792939960957, -0.082000695168972, 0.281990587711334, -0.236378863453865, -0.272749692201614, 0.003031011437997, -0.264967650175095, -0.093164227902889, -0.056868016719818
-0.277173727750778, 0.430744826793671, 0.648293793201447, 0.715036094188690, -0.173313409090042, 0.000000000000000, -0.528179883956909, -0.126092836260796, -0.086889468133450, 0.643650949001312, 0.093615502119064, 0.000000000000000, -0.014391861855984, -0.023957734927535, 0.045394338667393, -0.079262442886829, 0.283050000667572, -0.280746906995773, -0.258305102586746, 0.007408526726067, -0.256066530942917, -0.105642423033714, 0.007188325747848
-0.261376678943634, 0.458524465560913, 0.642786145210266, 0.708729267120361, -0.173492893576622, 0.000000000000000, -0.503031075000763, -0.110663533210754, -0.099968388676643, 0.635201275348663, 0.096412949264050, 0.000000000000000, -0.058516141027212, -0.028272643685341, 0.040608901530504, -0.060199890285730, 0.293682008981705, -0.335404455661774, -0.240163207054138, 0.013118418864906, -0.247200489044189, -0.121213488280773, 0.071097083389759
-0.240762248635292, 0.485397905111313, 0.636084318161011, 0.698164403438568, -0.170643717050552, 0.000000000000000, -0.468221217393875, -0.093514479696751, -0.116419710218906, 0.621275186538696, 0.101169846951962, 0.000000000000000, -0.095810137689114, -0.030286559835076, 0.032624192535877, -0.027227548882365, 0.314582347869873, -0.396411687135696, -0.222995981574059, 0.019561955705285, -0.240548104047775, -0.138924121856689, 0.133101150393486
-0.217580080032349, 0.506940186023712, 0.630118429660797, 0.683073580265045, -0.164749786257744, 0.000000000000000, -0.426896482706070, -0.076130107045174, -0.134996131062508, 0.603581547737122, 0.106691785156727, 0.000000000000000, -0.123361513018608, -0.030348399654031, 0.019528836011887, 0.013160089030862, 0.343659549951553, -0.458238065242767, -0.210795149207115, 0.025994976982474, -0.237494274973869, -0.157253295183182, 0.190425783395767
-0.195624917745590, 0.519770205020905, 0.626662075519562, 0.664666950702667, -0.156642451882362, 0.000000000000000, -0.384660720825195, -0.060783430933952, -0.153874412178993, 0.583750188350677, 0.111748993396759, 0.000000000000000, -0.138998866081238, -0.029655264690518, 0.004110851325095, 0.051186349242926, 0.375890821218491, -0.512563169002533, -0.204217061400414, 0.031522046774626, -0.237369164824486, -0.173772305250168, 0.239171311259270
-0.178401753306389, 0.523303151130676, 0.626339554786682, 0.645156264305115, -0.147853359580040, 0.000000000000000, -0.347106873989105, -0.049977220594883, -0.171039402484894, 0.563542246818542, 0.115546606481075, 0.000000000000000, -0.144392386078835, -0.029280358925462, -0.008845449425280, 0.077948763966560, 0.403336018323898, -0.553793311119080, -0.201100647449493, 0.035643041133881, -0.238142028450966, -0.186621069908142, 0.276757478713989
-0.166643455624580, 0.519567370414734, 0.628293633460999, 0.627058982849121, -0.139787361025810, 0.000000000000000, -0.317635655403137, -0.045602347701788, -0.184951752424240, 0.545212924480438, 0.117642752826214, 0.000000000000000, -0.141133680939674, -0.030344702303410, -0.016931064426899, 0.091279774904251, 0.419708222150803, -0.581854522228241, -0.199122771620750, 0.038431625813246, -0.238365560770035, -0.195519194006920, 0.302158355712891
-0.160456344485283, 0.511305689811707, 0.631517827510834, 0.611942291259766, -0.133309498429298, 0.000000000000000, -0.298382520675659, -0.048691213130951, -0.194782242178917, 0.530541539192200, 0.117799893021584, 0.000000000000000, -0.129720106720924, -0.032427642494440, -0.019210202619433, 0.092169992625713, 0.423150330781937, -0.597358524799347, -0.196704238653183, 0.040026757866144, -0.237301066517830, -0.200562626123428, 0.314758896827698
-0.159825652837753, 0.501235365867615, 0.635083734989166, 0.600429654121399, -0.128878921270370, 0.000000000000000, -0.290778577327728, -0.058361023664474, -0.200798854231834, 0.519586086273193, 0.115953154861927, 0.000000000000000, -0.110940381884575, -0.034094154834747, -0.014428462833166, 0.081958666443825, 0.416038423776627, -0.599687337875366, -0.192799329757690, 0.040448840707541, -0.234515070915222, -0.201651468873024, 0.313936561346054
-0.164717808365822, 0.491820275783539, 0.638233661651611, 0.592443764209747, -0.126710444688797, 0.000000000000000, -0.293345868587494, -0.071162715554237, -0.204458191990852, 0.511029005050659, 0.112202025949955, 0.000000000000000, -0.085908383131027, -0.034287251532078, -0.001509900786914, 0.062473013997078, 0.404938638210297, -0.587541878223419, -0.187445878982544, 0.039616610854864, -0.230257630348206, -0.198681548237801, 0.298632770776749
-0.173330098390579, 0.484984934329987, 0.640105068683624, 0.587940990924835, -0.126752436161041, 0.000000000000000, -0.299920827150345, -0.082884050905704, -0.207212090492249, 0.504485666751862, 0.106934502720833, 0.000000000000000, -0.056463543325663, -0.031668033450842, 0.017101306468248, 0.039144665002823, 0.397602319717407, -0.563566803932190, -0.182838782668114, 0.037707336246967, -0.226300165057182, -0.192739203572273, 0.270180523395538
-0.181316584348679, 0.480830371379852, 0.640048980712891, 0.587260961532593, -0.128626659512520, 0.000000000000000, -0.305868238210678, -0.091345816850662, -0.209627807140350, 0.500587224960327, 0.100621722638607, 0.000000000000000, -0.026752047240734, -0.022995339706540, 0.036736164242029, 0.018918247893453, 0.396981298923492, -0.536857604980469, -0.182686343789101, 0.035412535071373, -0.225224241614342, -0.186412617564201, 0.233097940683365
-0.184667140245438, 0.478064507246017, 0.638237535953522, 0.589844584465027, -0.131816670298576, 0.000000000000000, -0.310318648815155, -0.098016962409019, -0.211067244410515, 0.500450968742371, 0.093414060771465, 0.000000000000000, -0.001179232145660, -0.005212633870542, 0.051353912800550, 0.004066375084221, 0.401725351810455, -0.514963209629059, -0.191246494650841, 0.033241748809814, -0.229349076747894, -0.181637212634087, 0.191193357110023
-0.180802956223488, 0.473784983158112, 0.635776937007904, 0.594806015491486, -0.135485500097275, 0.000000000000000, -0.313834160566330, -0.105240277945995, -0.210640564560890, 0.505096316337585, 0.085184521973133, 0.000000000000000, 0.018678437918425, 0.019993325695395, 0.057371437549591, -0.003454230958596, 0.410983324050903, -0.500632524490356, -0.207043990492821, 0.031537681818008, -0.238039791584015, -0.179070889949799, 0.147041887044907
-0.174268409609795, 0.466231584548950, 0.634821534156799, 0.599831759929657, -0.139236420392990, 0.000000000000000, -0.317807435989380, -0.113494716584682, -0.208291769027710, 0.515080690383911, 0.075807690620422, 0.000000000000000, 0.036140203475952, 0.044152330607176, 0.058148510754108, -0.001857553026639, 0.425339996814728, -0.489632189273834, -0.221309110522270, 0.030313231050968, -0.246988415718079, -0.177587941288948, 0.103079393506050
-0.169317796826363, 0.455894827842712, 0.636386215686798, 0.603161752223969, -0.143200427293777, 0.000000000000000, -0.323275685310364, -0.122692905366421, -0.204347386956215, 0.530509471893311, 0.065150044858456, 0.000000000000000, 0.051825217902660, 0.057774648070335, 0.059498589485884, 0.006428715772927, 0.440049856901169, -0.478415876626968, -0.227315202355385, 0.029509522020817, -0.252329856157303, -0.175951495766640, 0.063516430556774
-0.165472015738487, 0.443231105804443, 0.640218496322632, 0.604794025421143, -0.147396281361580, 0.000000000000000, -0.330778390169144, -0.134649395942688, -0.198444530367851, 0.550680220127106, 0.052962619811296, 0.000000000000000, 0.064202718436718, 0.058165270835161, 0.062591411173344, 0.016011543571949, 0.446807533502579, -0.467269361019135, -0.226885825395584, 0.029033003374934, -0.254125565290451, -0.173799753189087, 0.032698642462492
-0.160557925701141, 0.428219646215439, 0.645767748355865, 0.605405032634735, -0.151461586356163, 0.000000000000000, -0.339958965778351, -0.150933295488358, -0.190187409520149, 0.573810279369354, 0.039078928530216, 0.000000000000000, 0.072750210762024, 0.048468019813299, 0.065492436289787, 0.024215739220381, 0.439729064702988, -0.459764033555984, -0.224434077739716, 0.029032552614808, -0.254091322422028, -0.171788200736046, 0.011731234379113
-0.154379487037659, 0.411745220422745, 0.652610361576080, 0.604893445968628, -0.154695257544518, 0.000000000000000, -0.348929643630981, -0.169729813933372, -0.180427521467209, 0.596814155578613, 0.024076521396637, 0.000000000000000, 0.077889353036880, 0.034812089055777, 0.066163539886475, 0.031058443710208, 0.419132351875305, -0.457341849803925, -0.222548738121986, 0.029545256868005, -0.253525823354721, -0.170318067073822, 0.001080722198822
-0.147780299186707, 0.395515173673630, 0.660246729850769, 0.602569401264191, -0.156203582882881, 0.000000000000000, -0.355452656745911, -0.186294242739677, -0.171491250395775, 0.616003096103668, 0.009907660074532, 0.000000000000000, 0.080369137227535, 0.022991843521595, 0.063889473676682, 0.035895343869925, 0.391915738582611, -0.455557286739349, -0.221505165100098, 0.030118383467197, -0.252824544906616, -0.168541163206100, 0.000233814629610
-0.140613093972206, 0.382044196128845, 0.667672276496887, 0.597798645496368, -0.155273452401161, 0.000000000000000, -0.358507066965103, -0.197457253932953, -0.165532946586609, 0.628863215446472, -0.001276570605114, 0.000000000000000, 0.081152930855751, 0.015701549127698, 0.063609287142754, 0.039440128952265, 0.367633193731308, -0.449613779783249, -0.218906536698341, 0.030405219644308, -0.251309514045715, -0.165636718273163, 0.008870244026184
-0.130061104893684, 0.374016851186752, 0.673287332057953, 0.590746879577637, -0.151536136865616, 0.000000000000000, -0.356394290924072, -0.203478440642357, -0.162908732891083, 0.634976208209991, -0.008364770561457, 0.000000000000000, 0.079885862767696, 0.014903240837157, 0.066359028220177, 0.040945582091808, 0.351515650749207, -0.438584655523300, -0.217993780970573, 0.030204545706511, -0.250846534967422, -0.161623924970627, 0.026399325579405
-0.113867424428463, 0.371549338102341, 0.676496446132660, 0.581931591033936, -0.145237684249878, 0.000000000000000, -0.349411934614182, -0.205725654959679, -0.163167342543602, 0.634247541427612, -0.011375519447029, 0.000000000000000, 0.074407428503036, 0.018488956615329, 0.068304985761642, 0.039020292460918, 0.346472322940826, -0.421298682689667, -0.221367120742798, 0.029303673654795, -0.252766638994217, -0.156328588724136, 0.045912437140942
-0.092633925378323, 0.371908873319626, 0.678087472915649, 0.571314573287964, -0.137018218636513, 0.000000000000000, -0.337227314710617, -0.206281542778015, -0.165230080485344, 0.628201663494110, -0.010762166231871, 0.000000000000000, 0.065263405442238, 0.024001350626349, 0.066029883921146, 0.033195059746504, 0.354039311408997, -0.396885365247726, -0.230545014142990, 0.027552554383874, -0.257868200540543, -0.149603664875031, 0.063840463757515
-0.069385372102261, 0.370253145694733, 0.679820239543915, 0.558838486671448, -0.127666607499123, 0.000000000000000, -0.323656886816025, -0.206527054309845, -0.168229684233665, 0.618037164211273, -0.007588763255626, 0.000000000000000, 0.056249529123306, 0.027330929413438, 0.058951903134584, 0.023843226954341, 0.373381227254868, -0.365354835987091, -0.243817403912544, 0.024993112310767, -0.265280842781067, -0.141407445073128, 0.077295161783695
-0.051035113632679, 0.363129764795303, 0.683769702911377, 0.543838620185852, -0.117976047098637, 0.000000000000000, -0.312792092561722, -0.206692785024643, -0.171685859560966, 0.605923175811768, -0.003380278358236, 0.000000000000000, 0.050772748887539, 0.025077125057578, 0.050597626715899, 0.009740390814841, 0.401128113269806, -0.324579060077667, -0.256653249263763, 0.021494453772902, -0.272474497556686, -0.131013870239258, 0.085196182131767
-0.041371140629053, 0.350320070981979, 0.690319418907166, 0.526633679866791, -0.108449697494507, 0.000000000000000, -0.304344475269318, -0.209851384162903, -0.174017578363419, 0.594898641109467, 0.000604763452429, 0.000000000000000, 0.050648894160986, 0.017352277413011, 0.042340762913227, -0.012331580743194, 0.430496990680695, -0.272731870412827, -0.267571359872818, 0.016798445954919, -0.278223276138306, -0.117685429751873, 0.088889360427856
-0.039733529090881, 0.333937764167786, 0.698374092578888, 0.508614003658295, -0.099463790655136, 0.000000000000000, -0.299183219671249, -0.218910068273544, -0.174035444855690, 0.585760474205017, 0.003643896430731, 0.000000000000000, 0.056073945015669, 0.005543218459934, 0.033908139914274, -0.044384013861418, 0.455171138048172, -0.211252838373184, -0.277795970439911, 0.010935623198748, -0.282837778329849, -0.101605050265789, 0.089626789093018
-0.044443462044001, 0.316146284341812, 0.706813335418701, 0.491666734218597, -0.091323956847191, 0.000000000000000, -0.298879295587540, -0.232416272163391, -0.172328323125839, 0.577514529228210, 0.005588014144450, 0.000000000000000, 0.066282622516155, -0.007939863018692, 0.025515541434288, -0.085418514907360, 0.474048018455505, -0.143564134836197, -0.288214981555939, 0.004250195808709, -0.286853492259979, -0.083666272461414, 0.087681353092194
-0.053339343518019, 0.298872619867325, 0.714668989181519, 0.477653712034225, -0.084157824516296, 0.000000000000000, -0.301141619682312, -0.246747910976410, -0.170049563050270, 0.569275319576263, 0.007159111555666, 0.000000000000000, 0.080885246396065, -0.018648076802492, 0.015276543796062, -0.133254289627075, 0.492252320051193, -0.072022728621960, -0.299978435039520, -0.002968929708004, -0.291156232357025, -0.064673483371735, 0.082596562802792
-0.065356999635696, 0.284045666456223, 0.721539974212646, 0.467518359422684, -0.078256651759148, 0.000000000000000, -0.304121255874634, -0.257504224777222, -0.168655619025230, 0.560350120067596, 0.009639045223594, 0.000000000000000, 0.097412474453449, -0.022551950067282, 0.005565823055804, -0.187597244977951, 0.517242312431335, 0.002387064276263, -0.311694860458374, -0.010520606301725, -0.295131981372833, -0.045079953968525, 0.072729922831059
-0.076784506440163, 0.274858325719833, 0.726293861865997, 0.462020993232727, -0.074072673916817, 0.000000000000000, -0.309759944677353, -0.260794281959534, -0.169565960764885, 0.550938785076141, 0.013380080461502, 0.000000000000000, 0.108620360493660, -0.021143980324268, 0.001057674875483, -0.249340131878853, 0.552621960639954, 0.076230950653553, -0.319013178348541, -0.017892599105835, -0.296341747045517, -0.025831360369921, 0.054998029023409
-0.084740914404392, 0.273373931646347, 0.728139638900757, 0.461337000131607, -0.072097197175026, 0.000000000000000, -0.318398296833038, -0.256686687469482, -0.172511532902718, 0.543351471424103, 0.017427716404200, 0.000000000000000, 0.110991343855858, -0.014810496941209, 0.000473196269013, -0.316567480564117, 0.598906159400940, 0.144819661974907, -0.318191885948181, -0.024481672793627, -0.292909920215607, -0.008168735541403, 0.026791457086802
-0.089478127658367, 0.279409676790237, 0.727026224136353, 0.464891076087952, -0.072700724005699, 0.000000000000000, -0.327939450740814, -0.249628767371178, -0.175455749034882, 0.540304183959961, 0.020550014451146, 0.000000000000000, 0.107292041182518, -0.004687491338700, -0.001950352685526, -0.386912077665329, 0.654940724372864, 0.206058293581009, -0.307577282190323, -0.030096592381597, -0.284168124198914, 0.007365914061666, -0.012524726800621
-0.094741426408291, 0.289617419242859, 0.724299430847168, 0.471535801887512, -0.075843960046768, 0.000000000000000, -0.340353906154633, -0.243088945746422, -0.177186578512192, 0.541676282882690, 0.021859532222152, 0.000000000000000, 0.098997861146927, 0.006900338456035, -0.006681255064905, -0.459891021251678, 0.715170204639435, 0.256660819053650, -0.288756787776947, -0.034466713666916, -0.270839542150497, 0.020026538521051, -0.064896680414677
-0.105265408754349, 0.299213111400604, 0.722255587577820, 0.479814499616623, -0.080984041094780, 0.000000000000000, -0.358686864376068, -0.238369047641754, -0.177722036838531, 0.546146094799042, 0.021011848002672, 0.000000000000000, 0.087676219642162, 0.017192834988236, -0.008195907808840, -0.532661139965057, 0.769790947437286, 0.291902959346771, -0.265449345111847, -0.037198700010777, -0.254871129989624, 0.028786672279239, -0.129894390702248
-0.121916443109512, 0.305273354053497, 0.722214937210083, 0.488894134759903, -0.087369024753571, 0.000000000000000, -0.378885895013809, -0.236696630716324, -0.176857978105545, 0.554592967033386, 0.018516622483730, 0.000000000000000, 0.076825864613056, 0.022411290556192, -0.002150530228391, -0.598375380039215, 0.810342967510223, 0.308250755071640, -0.243847191333771, -0.037999138236046, -0.239952713251114, 0.032882831990719, -0.202180787920952
-0.141078427433968, 0.308120340108871, 0.723488390445709, 0.498926401138306, -0.094501234591007, 0.000000000000000, -0.397210210561752, -0.240029200911522, -0.174012154340744, 0.566616594791412, 0.014610937796533, 0.000000000000000, 0.069157250225544, 0.023124089464545, 0.006208560895175, -0.656225025653839, 0.835085690021515, 0.309392213821411, -0.230104118585587, -0.037301581352949, -0.229500427842140, 0.033263966441154, -0.276021361351013
-0.158868446946144, 0.310227096080780, 0.724414050579071, 0.510579705238342, -0.102284990251064, 0.000000000000000, -0.412870377302170, -0.247107714414597, -0.170013383030891, 0.579236090183258, 0.009469433687627, 0.000000000000000, 0.064601376652718, 0.021211003884673, 0.013777849264443, -0.707421958446503, 0.844818174839020, 0.301302462816238, -0.224885612726212, -0.035760574042797, -0.224059969186783, 0.031430475413799, -0.347580462694168
-0.174554646015167, 0.314218878746033, 0.724061071872711, 0.523872494697571, -0.110733464360237, 0.000000000000000, -0.424915671348572, -0.252676665782928, -0.167433753609657, 0.588906824588776, 0.004446954466403, 0.000000000000000, 0.063345491886139, 0.016941389068961, 0.021107669919729, -0.752519726753235, 0.840813994407654, 0.289054274559021, -0.224365174770355, -0.033930625766516, -0.221915826201439, 0.028656680136919, -0.415410131216049
-0.187941834330559, 0.322301119565964, 0.722096323966980, 0.537688374519348, -0.119478851556778, 0.000000000000000, -0.431720316410065, -0.251896053552628, -0.168653234839439, 0.592986702919006, 0.001796723576263, 0.000000000000000, 0.064084269106388, 0.011588444933295, 0.028144059702754, -0.790540456771851, 0.824912667274475, 0.275673866271973, -0.223006993532181, -0.032154023647308, -0.220496520400047, 0.025693146511912, -0.475900173187256
-0.196344375610352, 0.336645662784576, 0.718058586120605, 0.549530684947968, -0.127398595213890, 0.000000000000000, -0.429717987775803, -0.243841290473938, -0.174191892147064, 0.590282797813416, 0.003474242752418, 0.000000000000000, 0.060864172875881, 0.009165060706437, 0.031060934066772, -0.818207085132599, 0.800420582294464, 0.263869017362595, -0.213768944144249, -0.030727218836546, -0.216634824872017, 0.023182768374681, -0.519790112972260
-0.194781139492989, 0.357366561889648, 0.711584568023682, 0.556631147861481, -0.132860615849495, 0.000000000000000, -0.415524631738663, -0.230633318424225, -0.183190822601318, 0.580431520938873, 0.010549018159509, 0.000000000000000, 0.051269982010126, 0.012091864831746, 0.028936544433236, -0.830379188060760, 0.770340800285339, 0.254272937774658, -0.189696818590164, -0.029730441048741, -0.207240536808968, 0.021247563883662, -0.541944444179535
-0.180223926901817, 0.381626993417740, 0.703004956245422, 0.557254850864410, -0.134616136550903, 0.000000000000000, -0.389604866504669, -0.213261142373085, -0.195253655314445, 0.562968432903290, 0.023156953975558, 0.000000000000000, 0.035380482673645, 0.018738454207778, 0.024931546300650, -0.822697222232819, 0.736433506011963, 0.244369164109230, -0.146013379096985, -0.028938988223672, -0.190064996480942, 0.019237654283643, -0.541781246662140
-0.157007306814194, 0.404917627573013, 0.694307982921600, 0.550229012966156, -0.132410377264023, 0.000000000000000, -0.355237305164337, -0.192083597183228, -0.210025072097778, 0.537491679191589, 0.040654599666595, 0.000000000000000, 0.016633493825793, 0.026603886857629, 0.025982957333326, -0.794723033905029, 0.700067043304443, 0.232111722230911, -0.082035444676876, -0.028174357488751, -0.164630055427551, 0.016619941219687, -0.519331932067871
-0.132929250597954, 0.423014909029007, 0.688078641891479, 0.535406053066254, -0.126709118485451, 0.000000000000000, -0.316908478736877, -0.168644636869431, -0.226560026407242, 0.504318833351135, 0.061593007296324, 0.000000000000000, 0.001039616530761, 0.031935598701239, 0.038446631282568, -0.748499035835266, 0.661748528480530, 0.216781884431839, -0.000549641554244, -0.027379380539060, -0.132125332951546, 0.013195906765759, -0.479900091886520
-0.111296206712723, 0.433865636587143, 0.685233056545258, 0.514192521572113, -0.118064381182194, 0.000000000000000, -0.278875738382339, -0.146017193794250, -0.243505433201790, 0.465261310338974, 0.083867378532887, 0.000000000000000, -0.009184929542243, 0.032537829130888, 0.060252226889133, -0.688468694686890, 0.621910393238068, 0.199196964502335, 0.093552127480507, -0.026584846898913, -0.094735071063042, 0.009140153415501, -0.431510746479034
-0.094804503023624, 0.437853246927261, 0.685808002948761, 0.487851560115814, -0.107154302299023, 0.000000000000000, -0.244851037859917, -0.128499537706375, -0.259260654449463, 0.422859609127045, 0.105481445789337, 0.000000000000000, -0.013651063665748, 0.031526282429695, 0.090544305741787, -0.621298074722290, 0.581427991390228, 0.181445807218552, 0.195681080222130, -0.025855507701635, -0.054443173110485, 0.004951776005328, -0.380068391561508
-0.085355825722218, 0.435784220695496, 0.689549326896667, 0.457680374383926, -0.094539709389210, 0.000000000000000, -0.218614950776100, -0.118342719972134, -0.272993445396423, 0.378785103559494, 0.125380158424377, 0.000000000000000, -0.012670919299126, 0.032355278730392, 0.130881577730179, -0.553651273250580, 0.540911853313446, 0.165751636028290, 0.302335023880005, -0.025207424536347, -0.012733753770590, 0.001210463466123, -0.330513030290604
-0.081552959978580, 0.428133010864258, 0.695664346218109, 0.425597488880157, -0.080552183091640, 0.000000000000000, -0.200567752122879, -0.114444717764854, -0.284811317920685, 0.334900319576263, 0.143335580825806, 0.000000000000000, -0.007338152267039, 0.034039031714201, 0.178070753812790, -0.490125775337219, 0.500821530818939, 0.154034242033958, 0.409986019134521, -0.024592842906713, 0.028846710920334, -0.001539615099318, -0.287318289279938
-0.080043293535709, 0.416480422019958, 0.702759504318237, 0.393285572528839, -0.065484061837196, 0.000000000000000, -0.188038542866707, -0.113532081246376, -0.295400887727737, 0.293249726295471, 0.159475162625313, 0.000000000000000, -0.000949300010689, 0.031350098550320, 0.222854554653168, -0.430992573499680, 0.461422324180603, 0.147221580147743, 0.515661895275116, -0.023924052715302, 0.068956919014454, -0.002991433953866, -0.249565273523331
-0.079248242080212, 0.403099626302719, 0.709743201732635, 0.361289024353027, -0.049810718744993, 0.000000000000000, -0.179121181368828, -0.113430708646774, -0.305166751146317, 0.254666656255722, 0.173815026879311, 0.000000000000000, 0.005045660305768, 0.023754177615047, 0.259569317102432, -0.373394578695297, 0.423200428485870, 0.145349577069283, 0.618023693561554, -0.023101525381207, 0.107033178210258, -0.003059720154852, -0.212235912680626
-0.078167259693146, 0.389105588197708, 0.716012835502625, 0.330208033323288, -0.034022007137537, 0.000000000000000, -0.171870261430740, -0.114218391478062, -0.313832551240921, 0.219508022069931, 0.186366111040115, 0.000000000000000, 0.010448880493641, 0.014918511733413, 0.283928781747818, -0.314831435680389, 0.386873632669449, 0.147890076041222, 0.715735137462616, -0.022045196965337, 0.142623260617256, -0.001811647787690, -0.172678172588348
-0.075949318706989, 0.374623894691467, 0.721277832984924, 0.300685018301010, -0.018282277509570, 0.000000000000000, -0.164659261703491, -0.116537213325500, -0.321038901805878, 0.187839284539223, 0.197175249457359, 0.000000000000000, 0.015349796973169, 0.009152148850262, 0.292360484600067, -0.254938632249832, 0.352488905191422, 0.153274923563004, 0.806154191493988, -0.020780857652426, 0.174793586134911, 0.000313541881042, -0.131791785359383
-0.072088591754436, 0.359782278537750, 0.725363790988922, 0.272983193397522, -0.002627551788464, 0.000000000000000, -0.156582400202751, -0.120249196887016, -0.326758384704590, 0.159502163529396, 0.206308856606483, 0.000000000000000, 0.018839797005057, 0.007731533609331, 0.284169733524323, -0.196068763732910, 0.319639533758163, 0.159678667783737, 0.886341869831085, -0.019432336091995, 0.202492386102676, 0.002700703451410, -0.091121353209019
-0.066595628857613, 0.344970434904099, 0.728195130825043, 0.246925830841064, 0.012835740111768, 0.000000000000000, -0.147635295987129, -0.124574653804302, -0.331213533878326, 0.134121417999268, 0.213838905096054, 0.000000000000000, 0.020998323336244, 0.008665346540511, 0.262517809867859, -0.140469044446945, 0.289296954870224, 0.166602835059166, 0.955233037471771, -0.018038650974631, 0.225423827767372, 0.005166628398001, -0.051452286541462
-0.060009527951479, 0.330613642930984, 0.729811429977417, 0.222205668687820, 0.027951648458838, 0.000000000000000, -0.138145849108696, -0.128853514790535, -0.334641814231873, 0.111385613679886, 0.219877004623413, 0.000000000000000, 0.022897576913238, 0.009429495781660, 0.232501178979874, -0.089885197579861, 0.263511598110199, 0.174380004405975, 1.012847900390625, -0.016530733555555, 0.243719488382339, 0.007875312119722, -0.013587213121355
-0.053245313465595, 0.317148596048355, 0.730322837829590, 0.198566287755966, 0.042546559125185, 0.000000000000000, -0.128511369228363, -0.133032083511353, -0.337184280157089, 0.091077499091625, 0.224555268883705, 0.000000000000000, 0.025348499417305, 0.008455312810838, 0.199547469615936, -0.045792594552040, 0.243383884429932, 0.183160632848740, 1.059535622596741, -0.014848242513835, 0.257637262344360, 0.010953970253468, 0.021473826840520
-0.047054138034582, 0.304773539304733, 0.729885041713715, 0.176048681139946, 0.056451179087162, 0.000000000000000, -0.119514331221581, -0.137062609195709, -0.339002192020416, 0.073055207729340, 0.228064045310020, 0.000000000000000, 0.028664710000157, 0.005644024349749, 0.168129116296768, -0.009056989103556, 0.228629916906357, 0.192765489220619, 1.096063256263733, -0.012996348552406, 0.267609864473343, 0.014374366030097, 0.052689921110868
-0.041889835149050, 0.293575644493103, 0.728669345378876, 0.154888138175011, 0.069488525390625, 0.000000000000000, -0.111550889909267, -0.140709042549133, -0.340257734060287, 0.057553779333830, 0.230658203363419, 0.000000000000000, 0.032912116497755, 0.001891556661576, 0.141088187694550, 0.020211782306433, 0.218567669391632, 0.202965125441551, 1.123571991920471, -0.011012829840183, 0.274220615625381, 0.018049979582429, 0.079198800027370
-0.037904806435108, 0.283502906560898, 0.726871192455292, 0.135412737727165, 0.081483051180840, 0.000000000000000, -0.105151444673538, -0.143786266446114, -0.341089546680450, 0.044756200164557, 0.232546836137772, 0.000000000000000, 0.037927322089672, -0.001769669353962, 0.119625151157379, 0.041983790695667, 0.212226122617722, 0.213508516550064, 1.143220901489258, -0.008968160487711, 0.278040945529938, 0.021839421242476, 0.099984429776669
-0.035079829394817, 0.274514049291611, 0.724700689315796, 0.117947109043598, 0.092243187129498, 0.000000000000000, -0.100426241755486, -0.146125897765160, -0.341591924428940, 0.034883048385382, 0.233896389603615, 0.000000000000000, 0.043508060276508, -0.004794923588634, 0.103840775787830, 0.056684672832489, 0.208228662610054, 0.224120542407036, 1.156201720237732, -0.006963212508708, 0.279637157917023, 0.025549262762070, 0.114439956843853
-0.033139806240797, 0.266795307397842, 0.722327768802643, 0.102835886180401, 0.101534858345985, 0.000000000000000, -0.097430035471916, -0.147731438279152, -0.341787457466125, 0.027927944436669, 0.234785720705986, 0.000000000000000, 0.049424428492785, -0.007087123114616, 0.093057528138161, 0.065037593245506, 0.205367296934128, 0.234591171145439, 1.163600564002991, -0.005090493243188, 0.279509991407394, 0.029008518904448, 0.122501187026501
-0.031925857067108, 0.260667890310287, 0.719900190830231, 0.090338647365570, 0.109148442745209, 0.000000000000000, -0.095909908413887, -0.148704960942268, -0.341628551483154, 0.023835148662329, 0.235232472419739, 0.000000000000000, 0.055538121610880, -0.008752225898206, 0.086121454834938, 0.067948147654533, 0.202934280037880, 0.244820356369019, 1.166311979293823, -0.003404276678339, 0.278060436248779, 0.032124124467373, 0.124393999576569
-0.031204599887133, 0.256338596343994, 0.717522561550140, 0.080728471279144, 0.114958219230175, 0.000000000000000, -0.095810711383820, -0.149180948734283, -0.341035276651382, 0.022370738908648, 0.235207065939903, 0.000000000000000, 0.061724208295345, -0.009961115196347, 0.081799678504467, 0.066316626966000, 0.200735524296761, 0.254799067974091, 1.164964795112610, -0.001919134054333, 0.275561630725861, 0.034879893064499, 0.120806336402893
-0.030994368717074, 0.253776580095291, 0.715289175510406, 0.074138648808002, 0.118909686803818, 0.000000000000000, -0.097110599279404, -0.149375841021538, -0.339901089668274, 0.023263104259968, 0.234638109803200, 0.000000000000000, 0.068010456860065, -0.010985729284585, 0.079176165163517, 0.061105780303478, 0.198759958148003, 0.264554351568222, 1.160089015960693, -0.000630109396297, 0.272236049175262, 0.037296831607819, 0.112634703516960
-0.031277831643820, 0.252728193998337, 0.713250935077667, 0.070616677403450, 0.120999969542027, 0.000000000000000, -0.099563427269459, -0.149410307407379, -0.338127434253693, 0.026414487510920, 0.233445018529892, 0.000000000000000, 0.074512287974358, -0.012101373635232, 0.077641993761063, 0.053382027894258, 0.196919932961464, 0.274106383323669, 1.152223706245422, 0.000468249461846, 0.268304616212845, 0.039395634084940, 0.100949704647064
-0.031968712806702, 0.252973705530167, 0.711399734020233, 0.070090524852276, 0.121219582855701, 0.000000000000000, -0.103167384862900, -0.149371370673180, -0.335636138916016, 0.031774092465639, 0.231532275676727, 0.000000000000000, 0.081275165081024, -0.013419139198959, 0.076872184872627, 0.044190715998411, 0.194985762238503, 0.283451050519943, 1.141905069351196, 0.001375285326503, 0.263982355594635, 0.041182663291693, 0.087027192115784
-0.033153180032969, 0.254442989826202, 0.709709227085114, 0.072395592927933, 0.119543671607971, 0.000000000000000, -0.107989080250263, -0.149194478988647, -0.332383394241333, 0.039476033300161, 0.228823229670525, 0.000000000000000, 0.088293731212616, -0.014945215545595, 0.076751321554184, 0.034458480775356, 0.192739337682724, 0.292578667402267, 1.129603505134583, 0.002090641064569, 0.259452372789383, 0.042662292718887, 0.072034470736980
-0.034925710409880, 0.257147967815399, 0.708135843276978, 0.077539719641209, 0.115985609591007, 0.000000000000000, -0.113977931439877, -0.148728504776955, -0.328340321779251, 0.049849268049002, 0.225263938307762, 0.000000000000000, 0.095583491027355, -0.016604155302048, 0.077249735593796, 0.025037065148354, 0.190058916807175, 0.301495492458344, 1.115718603134155, 0.002621817635372, 0.254865229129791, 0.043853402137756, 0.056934893131256
-0.037377726286650, 0.261021047830582, 0.706619858741760, 0.085854329168797, 0.110631018877029, 0.000000000000000, -0.121404193341732, -0.148013874888420, -0.323463112115860, 0.063140355050564, 0.220773264765739, 0.000000000000000, 0.103218458592892, -0.018207611516118, 0.078382961452007, 0.016595222055912, 0.186879470944405, 0.310229182243347, 1.100536346435547, 0.002989041386172, 0.250321358442307, 0.044800162315369, 0.042448725551367
-0.040900766849518, 0.266239553689957, 0.705059111118317, 0.097728773951530, 0.103561133146286, 0.000000000000000, -0.130677461624146, -0.147113293409348, -0.317709535360336, 0.079617999494076, 0.215287506580353, 0.000000000000000, 0.111308589577675, -0.019437637180090, 0.080226078629494, 0.009751606732607, 0.183167159557343, 0.318827748298645, 1.084207415580750, 0.003222210798413, 0.245862632989883, 0.045565690845251, 0.029349470511079
-0.045744121074677, 0.272900670766830, 0.703317642211914, 0.113708883523941, 0.094831831753254, 0.000000000000000, -0.142240136861801, -0.146142914891243, -0.311024069786072, 0.099595546722412, 0.208771109580994, 0.000000000000000, 0.119996465742588, -0.019834483042359, 0.082619816064835, 0.004976665601134, 0.178884118795395, 0.327333778142929, 1.066695690155029, 0.003350524464622, 0.241449117660522, 0.046207942068577, 0.018152179196477
-0.052128273993731, 0.280883520841599, 0.701233744621277, 0.134427174925804, 0.084511347115040, 0.000000000000000, -0.156525850296021, -0.145242109894753, -0.303347289562225, 0.123421341180801, 0.201160624623299, 0.000000000000000, 0.129501968622208, -0.019106555730104, 0.085374213755131, 0.002779218833894, 0.173889577388763, 0.335808664560318, 1.047929286956787, 0.003409932367504, 0.237025469541550, 0.046801306307316, 0.009091049432755
-0.060522787272930, 0.289786517620087, 0.698645055294037, 0.160445362329483, 0.072665408253670, 0.000000000000000, -0.173855438828468, -0.144542127847672, -0.294620484113693, 0.151505634188652, 0.192339748144150, 0.000000000000000, 0.140242815017700, -0.017229715362191, 0.088336616754532, 0.003713222453371, 0.168006420135498, 0.344350963830948, 1.027751684188843, 0.003446909133345, 0.232498943805695, 0.047445353120565, 0.001952217309736
-0.071482434868813, 0.298763126134872, 0.695397853851318, 0.192278578877449, 0.059310715645552, 0.000000000000000, -0.194352641701698, -0.144558325409889, -0.284704566001892, 0.184220016002655, 0.182084545493126, 0.000000000000000, 0.152983888983727, -0.014361730776727, 0.091331474483013, 0.008190300315619, 0.161039814352989, 0.353085905313492, 1.005732297897339, 0.003517246805131, 0.227655798196793, 0.048258051276207, -0.003956419881433
-0.085727058351040, 0.306748330593109, 0.691348373889923, 0.230251207947731, 0.044373903423548, 0.000000000000000, -0.218215703964233, -0.146243393421173, -0.273361772298813, 0.221649304032326, 0.170071139931679, 0.000000000000000, 0.168819963932037, -0.010698619298637, 0.094239301979542, 0.016275472939014, 0.152592539787292, 0.362101942300797, 0.981158018112183, 0.003671208862215, 0.222155362367630, 0.049339767545462, -0.009551362134516
-0.104432210326195, 0.312662541866302, 0.686434447765350, 0.274238854646683, 0.027753708884120, 0.000000000000000, -0.245579257607460, -0.150711998343468, -0.260277748107910, 0.263556718826294, 0.155992880463600, 0.000000000000000, 0.189070045948029, -0.006410392001271, 0.096960566937923, 0.027469735592604, 0.142577320337296, 0.371593058109283, 0.953193068504333, 0.003977396991104, 0.215597793459892, 0.050840862095356, -0.016163351014256
-0.128002658486366, 0.315952092409134, 0.680512189865112, 0.323646873235703, 0.009453210048378, 0.000000000000000, -0.276053637266159, -0.158848062157631, -0.245150431990623, 0.309296488761902, 0.139634728431702, 0.000000000000000, 0.214412286877632, -0.001747729489580, 0.098950982093811, 0.040499489754438, 0.132380142807961, 0.382195681333542, 0.920989453792572, 0.004574975930154, 0.207568868994713, 0.053108215332031, -0.025307616218925
-0.155197724699974, 0.317256748676300, 0.673229515552521, 0.377166867256165, -0.010324003174901, 0.000000000000000, -0.308198481798172, -0.170389413833618, -0.228035852313042, 0.357945978641510, 0.121000245213509, 0.000000000000000, 0.243707954883575, 0.003535403870046, 0.098941467702389, 0.052947338670492, 0.124977961182594, 0.394827902317047, 0.883637905120850, 0.005621242336929, 0.197615697979927, 0.056558791548014, -0.037665236741304
-0.184746578335762, 0.318353205919266, 0.664345145225525, 0.432574689388275, -0.031103821471334, 0.000000000000000, -0.340694516897202, -0.182889610528946, -0.209832102060318, 0.408456236124039, 0.100534290075302, 0.000000000000000, 0.273782193660736, 0.009575221687555, 0.096105188131332, 0.062283996492624, 0.122590839862823, 0.409888297319412, 0.840838611125946, 0.007148266769946, 0.185545504093170, 0.061310000717640, -0.052708502858877
-0.215370506048203, 0.320339053869247, 0.654017984867096, 0.488035529851913, -0.052129004150629, 0.000000000000000, -0.373753726482391, -0.193723142147064, -0.191740438342094, 0.459274768829346, 0.079032309353352, 0.000000000000000, 0.300476044416428, 0.015146448276937, 0.090548932552338, 0.067948341369629, 0.124218881130219, 0.426729291677475, 0.793571829795837, 0.009011528454721, 0.171721622347832, 0.067024953663349, -0.068819724023342
-0.245696350932121, 0.324568033218384, 0.642315566539764, 0.542246580123901, -0.072742179036140, 0.000000000000000, -0.406823635101318, -0.200918793678284, -0.174790501594543, 0.508921563625336, 0.057588156312704, 0.000000000000000, 0.319623708724976, 0.019418248906732, 0.081939585506916, 0.069148965179920, 0.129243835806847, 0.444427758455276, 0.742220103740692, 0.011063425801694, 0.156227082014084, 0.073288887739182, -0.084551371634007
-0.273417681455612, 0.332400202751160, 0.629029035568237, 0.594403684139252, -0.092312544584274, 0.000000000000000, -0.437449246644974, -0.203351944684982, -0.159699812531471, 0.555868387222290, 0.037613794207573, 0.000000000000000, 0.328467756509781, 0.023019421845675, 0.069689936935902, 0.065485283732414, 0.138040348887444, 0.462129116058350, 0.686937868595123, 0.013203773647547, 0.139017626643181, 0.079749718308449, -0.098363175988197
-0.295597195625305, 0.344574987888336, 0.613960862159729, 0.643696367740631, -0.110105842351913, 0.000000000000000, -0.462101846933365, -0.200725466012955, -0.147001966834068, 0.598338067531586, 0.020709762349725, 0.000000000000000, 0.327327221632004, 0.026256134733558, 0.054172385483980, 0.058027874678373, 0.150776177644730, 0.479159742593765, 0.629166424274445, 0.015347301028669, 0.120561763644218, 0.086104005575180, -0.108489319682121
-0.309202581644058, 0.361578702926636, 0.596820890903473, 0.689137876033783, -0.125502824783325, 0.000000000000000, -0.476916760206223, -0.193643733859062, -0.137032106518745, 0.635247111320496, 0.008137328550220, 0.000000000000000, 0.318025320768356, 0.028092233464122, 0.037033192813396, 0.048019822686911, 0.167692467570305, 0.495206832885742, 0.571502566337585, 0.017405832186341, 0.101800374686718, 0.092096477746964, -0.111748740077019
-0.312857121229172, 0.382826775312424, 0.577845454216003, 0.729806780815125, -0.138320311903954, 0.000000000000000, -0.479576915502548, -0.183402553200722, -0.129867121577263, 0.666387617588043, 0.000332680472638, 0.000000000000000, 0.301142007112503, 0.028187191113830, 0.020894506946206, 0.035228140652180, 0.189940124750137, 0.510175406932831, 0.516160905361176, 0.019317358732224, 0.083559267222881, 0.097527354955673, -0.104241885244846
-0.308254420757294, 0.405637025833130, 0.558553457260132, 0.765075743198395, -0.148838922381401, 0.000000000000000, -0.472088366746902, -0.170209094882011, -0.125898778438568, 0.691665410995483, -0.003448389004916, 0.000000000000000, 0.277344912290573, 0.027278572320938, 0.010357551276684, 0.017726095393300, 0.217506811022758, 0.523152887821198, 0.464863181114197, 0.021007813513279, 0.066523171961308, 0.102013804018497, -0.086213774979115
-0.299183934926987, 0.426382839679718, 0.540915012359619, 0.794843614101410, -0.157545775175095, 0.000000000000000, -0.458508044481277, -0.155068233609200, -0.124729901552200, 0.711656153202057, -0.004700641147792, 0.000000000000000, 0.252026081085205, 0.027449376881123, 0.006008078809828, -0.003818967845291, 0.249983415007591, 0.534631133079529, 0.417859852313995, 0.022510431706905, 0.050809890031815, 0.105736128985882, -0.064204238355160
