isaac-sim2real/sage/motion_files/g1/amass/0-SSM_synced_20160330_03333_chicken_wings_poses.txt
left_hip_yaw_joint, left_hip_pitch_joint, left_hip_roll_joint, left_knee_joint, left_ankle_pitch_joint, left_ankle_roll_joint, right_hip_yaw_joint, right_hip_pitch_joint, right_hip_roll_joint, right_knee_joint, right_ankle_pitch_joint, right_ankle_roll_joint, torso_joint, left_shoulder_pitch_joint, left_shoulder_roll_joint, left_shoulder_yaw_joint, left_elbow_joint, left_wrist_roll_joint, right_shoulder_pitch_joint, right_shoulder_roll_joint, right_shoulder_yaw_joint, right_elbow_joint, right_wrist_roll_joint
0.092444971203804, 0.142104163765907, 0.509192347526550, -0.043949410319328, 0.367075622081757, 0.000000000000000, 0.076568596065044, -0.028285421431065, -0.199215903878212, -0.087266996502876, 0.443353533744812, 0.000000000000000, 0.048768181353807, 0.046513330191374, 0.164061650633812, -0.018451852723956, 0.314056664705276, 0.312356889247894, 1.201298117637634, 0.021772926673293, 0.274300158023834, 0.061971366405487, 0.016633545979857
0.092378482222557, 0.142116591334343, 0.509195864200592, -0.043912470340729, 0.367112576961517, 0.000000000000000, 0.076502300798893, -0.028270112350583, -0.199217721819878, -0.087266996502876, 0.443433791399002, 0.000000000000000, 0.048768155276775, 0.046488393098116, 0.164110139012337, -0.018500611186028, 0.313977628946304, 0.312431246042252, 1.201188921928406, 0.021740304306149, 0.274315595626831, 0.061953295022249, 0.016604667529464
0.092239297926426, 0.142134279012680, 0.509203314781189, -0.043845996260643, 0.367180943489075, 0.000000000000000, 0.076362513005733, -0.028232267126441, -0.199222639203072, -0.087266996502876, 0.443581491708755, 0.000000000000000, 0.048772491514683, 0.046443235129118, 0.164206370711327, -0.018590198829770, 0.313833236694336, 0.312576413154602, 1.200977563858032, 0.021677630022168, 0.274346113204956, 0.061919339001179, 0.016550227999687
0.092033252120018, 0.142158120870590, 0.509212732315063, -0.043761700391769, 0.367271900177002, 0.000000000000000, 0.076164826750755, -0.028183203190565, -0.199230343103409, -0.087266996502876, 0.443778604269028, 0.000000000000000, 0.048786591738462, 0.046374641358852, 0.164342001080513, -0.018698628991842, 0.313657432794571, 0.312797486782074, 1.200665712356567, 0.021586956456304, 0.274393737316132, 0.061873894184828, 0.016486480832100
0.091788522899151, 0.142190724611282, 0.509220063686371, -0.043670848011971, 0.367375075817108, 0.000000000000000, 0.075948238372803, -0.028142053633928, -0.199238985776901, -0.087266996502876, 0.444003194570541, 0.000000000000000, 0.048813018947840, 0.046273145824671, 0.164498239755630, -0.018795307725668, 0.313493013381958, 0.313100397586823, 1.200256824493408, 0.021471017971635, 0.274461358785629, 0.061822481453419, 0.016438724473119
0.091539390385151, 0.142233669757843, 0.509220778942108, -0.043579645454884, 0.367483645677567, 0.000000000000000, 0.075741820037365, -0.028118977323174, -0.199247628450394, -0.087266996502876, 0.444238305091858, 0.000000000000000, 0.048849117010832, 0.046130936592817, 0.164657831192017, -0.018858149647713, 0.313368171453476, 0.313488095998764, 1.199751257896423, 0.021331548690796, 0.274550855159760, 0.061768423765898, 0.016428725793958
0.091275788843632, 0.142281159758568, 0.509215593338013, -0.043493997305632, 0.367595940828323, 0.000000000000000, 0.075521901249886, -0.028086028993130, -0.199259072542191, -0.087266996502876, 0.444477111101151, 0.000000000000000, 0.048896986991167, 0.045955147594213, 0.164824783802032, -0.018891047686338, 0.313281506299973, 0.313957422971725, 1.199141263961792, 0.021168295294046, 0.274661093950272, 0.061710622161627, 0.016451993957162
0.090995199978352, 0.142327368259430, 0.509204566478729, -0.043420329689980, 0.367709308862686, 0.000000000000000, 0.075280085206032, -0.028028015047312, -0.199274539947510, -0.087266996502876, 0.444711685180664, 0.000000000000000, 0.048958476632833, 0.045752130448818, 0.165001451969147, -0.018891833722591, 0.313232243061066, 0.314505159854889, 1.198420763015747, 0.020981082692742, 0.274791598320007, 0.061648111790419, 0.016509180888534
0.090741008520126, 0.142374724149704, 0.509183049201965, -0.043364897370338, 0.367816984653473, 0.000000000000000, 0.075072862207890, -0.027981173247099, -0.199289605021477, -0.087266996502876, 0.444926559925079, 0.000000000000000, 0.049030318856239, 0.045517083257437, 0.165173143148422, -0.018831836059690, 0.313234567642212, 0.315131008625031, 1.197590231895447, 0.020770808681846, 0.274945616722107, 0.061582367867231, 0.016627438366413
0.090533569455147, 0.142414927482605, 0.509150743484497, -0.043327838182449, 0.367916166782379, 0.000000000000000, 0.074916854500771, -0.027943441644311, -0.199302956461906, -0.087266996502876, 0.445110380649567, 0.000000000000000, 0.049111865460873, 0.045252375304699, 0.165338605642319, -0.018695231527090, 0.313288182020187, 0.315831124782562, 1.196644306182861, 0.020537365227938, 0.275123804807663, 0.061512544751167, 0.016822647303343
0.090395390987396, 0.142440319061279, 0.509108483791351, -0.043301764875650, 0.368006885051727, 0.000000000000000, 0.074836090207100, -0.027939116582274, -0.199310302734375, -0.087266996502876, 0.445253789424896, 0.000000000000000, 0.049199387431145, 0.044954128563404, 0.165498718619347, -0.018462611362338, 0.313375860452652, 0.316599041223526, 1.195577502250671, 0.020279707387090, 0.275327473878860, 0.061435770243406, 0.017116671428084
0.090319424867630, 0.142443761229515, 0.509060502052307, -0.043280106037855, 0.368092805147171, 0.000000000000000, 0.074824921786785, -0.027969921007752, -0.199309453368187, -0.087266996502876, 0.445357978343964, 0.000000000000000, 0.049290843307972, 0.044622853398323, 0.165658414363861, -0.018122086301446, 0.313480257987976, 0.317426830530167, 1.194377660751343, 0.019996616989374, 0.275554925203323, 0.061348609626293, 0.017523493617773
0.090292304754257, 0.142420157790184, 0.509011685848236, -0.043251566588879, 0.368180572986603, 0.000000000000000, 0.074873328208923, -0.028026349842548, -0.199298739433289, -0.087266996502876, 0.445431262254715, 0.000000000000000, 0.049383960664272, 0.044259764254093, 0.165814518928528, -0.017659831792116, 0.313592016696930, 0.318307101726532, 1.193026661872864, 0.019687315449119, 0.275802731513977, 0.061248306185007, 0.018056599423289
0.090300522744656, 0.142369464039803, 0.508967161178589, -0.043199665844440, 0.368278950452805, 0.000000000000000, 0.074979573488235, -0.028102466836572, -0.199275076389313, -0.087266996502876, 0.445483118295670, 0.000000000000000, 0.049477245658636, 0.043862625956535, 0.165956795215607, -0.017055569216609, 0.313709288835526, 0.319232970476151, 1.191503167152405, 0.019351521506906, 0.276066035032272, 0.061132974922657, 0.018731981515884
0.090336523950100, 0.142296612262726, 0.508929133415222, -0.043111294507980, 0.368395954370499, 0.000000000000000, 0.075135037302971, -0.028201380744576, -0.199234321713448, -0.087266996502876, 0.445522427558899, 0.000000000000000, 0.049564503133297, 0.043426346033812, 0.166076868772507, -0.016289792954922, 0.313836067914963, 0.320197522640228, 1.189779877662659, 0.018989311531186, 0.276337951421738, 0.061001237481833, 0.019568515941501
0.090389676392078, 0.142207235097885, 0.508897781372070, -0.042981170117855, 0.368538022041321, 0.000000000000000, 0.075328186154366, -0.028330609202385, -0.199171736836433, -0.087266996502876, 0.445557266473770, 0.000000000000000, 0.049641679972410, 0.042945832014084, 0.166170239448547, -0.015344648621976, 0.313980072736740, 0.321193456649780, 1.187823176383972, 0.018600964918733, 0.276609003543854, 0.060851883143187, 0.020580608397722
0.090443916618824, 0.142104148864746, 0.508872687816620, -0.042810127139091, 0.368710845708847, 0.000000000000000, 0.075548849999905, -0.028492538258433, -0.199083715677261, -0.087266996502876, 0.445594161748886, 0.000000000000000, 0.049709230661392, 0.042417179793119, 0.166237175464630, -0.014202344231308, 0.314150243997574, 0.322212636470795, 1.185593485832214, 0.018186710774899, 0.276867300271988, 0.060683332383633, 0.021779362112284
0.090485833585262, 0.141993150115013, 0.508852541446686, -0.042605396360159, 0.368919491767883, 0.000000000000000, 0.075779989361763, -0.028686698526144, -0.198968350887299, -0.087266996502876, 0.445637941360474, 0.000000000000000, 0.049767427146435, 0.041833966970444, 0.166287034749985, -0.012844868004322, 0.314348220825195, 0.323244512081146, 1.183046221733093, 0.017746137455106, 0.277098923921585, 0.060492455959320, 0.023182528093457
0.090501025319099, 0.141873210668564, 0.508837282657623, -0.042374197393656, 0.369170844554901, 0.000000000000000, 0.075995892286301, -0.028902182355523, -0.198826670646667, -0.087266996502876, 0.445694476366043, 0.000000000000000, 0.049818817526102, 0.041187670081854, 0.166334971785545, -0.011254890821874, 0.314567089080811, 0.324276179075241, 1.180130958557129, 0.017278144136071, 0.277287125587463, 0.060274440795183, 0.024810012429953
0.090479329228401, 0.141745418310165, 0.508826494216919, -0.042123161256313, 0.369474112987518, 0.000000000000000, 0.076179854571819, -0.029133386909962, -0.198661148548126, -0.087266996502876, 0.445770472288132, 0.000000000000000, 0.049869392067194, 0.040466096252203, 0.166391626000404, -0.009415394626558, 0.314791738986969, 0.325292050838470, 1.176789402961731, 0.016781002283096, 0.277411788702011, 0.060022849589586, 0.026677589863539
0.090411014854908, 0.141611173748970, 0.508819401264191, -0.041857693344355, 0.369840443134308, 0.000000000000000, 0.076317682862282, -0.029371611773968, -0.198474720120430, -0.087266996502876, 0.445874840021133, 0.000000000000000, 0.049928199499846, 0.039653941988945, 0.166465103626251, -0.007298727519810, 0.315004438161850, 0.326275676488876, 1.172960162162781, 0.016252949833870, 0.277451127767563, 0.059730947017670, 0.028804723173380
0.090284332633018, 0.141470596194267, 0.508815228939056, -0.041579652577639, 0.370283335447311, 0.000000000000000, 0.076400019228458, -0.029614513739944, -0.198267742991447, -0.087266996502876, 0.446017891168594, 0.000000000000000, 0.050004929304123, 0.038744505494833, 0.166557163000107, -0.004865425638855, 0.315204560756683, 0.327212572097778, 1.168573617935181, 0.015693541616201, 0.277379512786865, 0.059394352138042, 0.031218277290463
0.090078264474869, 0.141327261924744, 0.508813083171844, -0.041288644075394, 0.370818853378296, 0.000000000000000, 0.076413027942181, -0.029862858355045, -0.198038116097450, -0.087266996502876, 0.446212202310562, 0.000000000000000, 0.050108559429646, 0.037730224430561, 0.166664645075798, -0.002068895148113, 0.315393209457397, 0.328087568283081, 1.163549065589905, 0.015102545730770, 0.277166157960892, 0.059008669108152, 0.033950868993998
0.089766748249531, 0.141182616353035, 0.508813083171844, -0.040981009602547, 0.371467113494873, 0.000000000000000, 0.076338566839695, -0.030111446976662, -0.197783485054970, -0.087266996502876, 0.446475297212601, 0.000000000000000, 0.050244413316250, 0.036600567400455, 0.166778862476349, 0.001144801732153, 0.315576255321503, 0.328884989023209, 1.157791376113892, 0.014480103738606, 0.276773184537888, 0.058569662272930, 0.037046898156404
0.089324891567230, 0.141041874885559, 0.508815050125122, -0.040651850402355, 0.372251778841019, 0.000000000000000, 0.076160989701748, -0.030357280746102, -0.197501942515373, -0.087266996502876, 0.446826756000519, 0.000000000000000, 0.050413090735674, 0.035339530557394, 0.166877716779709, 0.004848394077271, 0.315770804882050, 0.329590290784836, 1.151192426681519, 0.013827287591994, 0.276156127452850, 0.058074485510588, 0.040569361299276
0.088741093873978, 0.140921324491501, 0.508816063404083, -0.040303371846676, 0.373199135065079, 0.000000000000000, 0.075861521065235, -0.030598383396864, -0.197193026542664, -0.087266840040684, 0.447286784648895, 0.000000000000000, 0.050608336925507, 0.033925358206034, 0.166917204856873, 0.009135500527918, 0.316008478403091, 0.330190777778625, 1.143628835678101, 0.013146276585758, 0.275262922048569, 0.057521972805262, 0.044601861387491
0.088008455932140, 0.140830606222153, 0.508812725543976, -0.039947807788849, 0.374337315559387, 0.000000000000000, 0.075436249375343, -0.030830871313810, -0.196858167648315, -0.087264358997345, 0.447881102561951, 0.000000000000000, 0.050824251025915, 0.032335788011551, 0.166825115680695, 0.014125869609416, 0.316351383924484, 0.330678582191467, 1.134959697723389, 0.012441363185644, 0.274032413959503, 0.056914698332548, 0.049245115369558
0.087127760052681, 0.140777677297592, 0.508801341056824, -0.039595648646355, 0.375701397657394, 0.000000000000000, 0.074874475598335, -0.031037900596857, -0.196499258279800, -0.087255410850048, 0.448639154434204, 0.000000000000000, 0.051050674170256, 0.030546279624104, 0.166495278477669, 0.019960219040513, 0.316911429166794, 0.331053346395493, 1.125014066696167, 0.011719890870154, 0.272388994693756, 0.056260690093040, 0.054622229188681
0.086092099547386, 0.140776827931404, 0.508781194686890, -0.039245668798685, 0.377337276935577, 0.000000000000000, 0.074165627360344, -0.031192647293210, -0.196117162704468, -0.087242998182774, 0.449595749378204, 0.000000000000000, 0.051277164369822, 0.028523042798042, 0.165790587663651, 0.026797346770763, 0.317871302366257, 0.331326782703400, 1.113585114479065, 0.010993398725986, 0.270238965749741, 0.055575776845217, 0.060872059315443
0.084896147251129, 0.140861108899117, 0.508752405643463, -0.038870546966791, 0.379304975271225, 0.000000000000000, 0.073307931423187, -0.031257681548595, -0.195711255073547, -0.087235510349274, 0.450791418552399, 0.000000000000000, 0.051490917801857, 0.026218468323350, 0.164541646838188, 0.034819122403860, 0.319506257772446, 0.331527531147003, 1.100427269935608, 0.010278729721904, 0.267469286918640, 0.054886221885681, 0.068150870501995
0.083544403314590, 0.141090080142021, 0.508715808391571, -0.038408257067204, 0.381681591272354, 0.000000000000000, 0.072316244244576, -0.031180424615741, -0.195280551910400, -0.087238043546677, 0.452272504568100, 0.000000000000000, 0.051676690578461, 0.023576032370329, 0.162543371319771, 0.044210270047188, 0.322208344936371, 0.331707268953323, 1.085245728492737, 0.009599007666111, 0.263942390680313, 0.054231043905020, 0.076613306999207
0.082056410610676, 0.141550481319427, 0.508673191070557, -0.037750057876110, 0.384564489126205, 0.000000000000000, 0.071233101189137, -0.030891343951225, -0.194826856255531, -0.087238721549511, 0.454085975885391, 0.000000000000000, 0.051827538758516, 0.020561479032040, 0.159559696912766, 0.055108457803726, 0.326533287763596, 0.331948697566986, 1.067673087120056, 0.008985204622149, 0.259484559297562, 0.053665544837713, 0.086362741887569
0.080522142350674, 0.142515107989311, 0.508612513542175, -0.036749433726072, 0.388056933879852, 0.000000000000000, 0.070072390139103, -0.030339317396283, -0.194358333945274, -0.087183132767677, 0.456261664628983, 0.000000000000000, 0.051923297345638, 0.017172325402498, 0.155374526977539, 0.067552998661995, 0.333211332559586, 0.332367777824402, 1.047255277633667, 0.008474873378873, 0.253879219293594, 0.053259473294020, 0.097443513572216
0.078956320881844, 0.144074186682701, 0.508550465106964, -0.035441603511572, 0.392047375440598, 0.000000000000000, 0.068759359419346, -0.029617251828313, -0.193869203329086, -0.087046951055527, 0.458761096000671, 0.000000000000000, 0.051975268870592, 0.013439959846437, 0.149769425392151, 0.081698894500732, 0.342890143394470, 0.333080619573593, 1.023537397384644, 0.008101441897452, 0.246902897953987, 0.053076628595591, 0.110014475882053
0.076981462538242, 0.145305350422859, 0.508619010448456, -0.034201771020889, 0.396038383245468, 0.000000000000000, 0.067148759961128, -0.028908247128129, -0.193322718143463, -0.086970567703247, 0.461469262838364, 0.000000000000000, 0.052153043448925, 0.009423071518540, 0.142474740743637, 0.098016433417797, 0.355807006359100, 0.334146499633789, 0.996161043643951, 0.007878360338509, 0.238367632031441, 0.053142342716455, 0.124403849244118
0.074471533298492, 0.146169736981392, 0.508851766586304, -0.033146597445011, 0.399838835000992, 0.000000000000000, 0.065067417919636, -0.028281897306442, -0.192717984318733, -0.086950510740280, 0.464349299669266, 0.000000000000000, 0.052484512329102, 0.005214305594563, 0.133464753627777, 0.116467639803886, 0.372468709945679, 0.335629045963287, 0.964623332023621, 0.007817262783647, 0.228013560175896, 0.053476307541132, 0.140685945749283
0.071388542652130, 0.146985128521919, 0.509254634380341, -0.032212048768997, 0.403474748134613, 0.000000000000000, 0.062336552888155, -0.027646703645587, -0.192082732915878, -0.086949415504932, 0.467441260814667, 0.000000000000000, 0.052916754037142, 0.000860670348629, 0.122873984277248, 0.136734589934349, 0.393323749303818, 0.337517678737640, 0.928426742553711, 0.007911748252809, 0.215574309229851, 0.054055389016867, 0.158729836344719
0.067660383880138, 0.147922232747078, 0.509847819805145, -0.031328555196524, 0.406998693943024, 0.000000000000000, 0.058815874159336, -0.026904543861747, -0.191443502902985, -0.086965136229992, 0.470813453197479, 0.000000000000000, 0.053400419652462, -0.003623583121225, 0.110878959298134, 0.158477693796158, 0.418509602546692, 0.339675307273865, 0.887193262577057, 0.008132222108543, 0.200826495885849, 0.054798249155283, 0.178296536207199
0.063233725726604, 0.149007260799408, 0.510650217533112, -0.030420118942857, 0.410476446151733, 0.000000000000000, 0.054507229477167, -0.026041330769658, -0.190815970301628, -0.086986735463142, 0.474527031183243, 0.000000000000000, 0.053935848176479, -0.008142936043441, 0.097685627639294, 0.181334927678108, 0.448019742965698, 0.341882348060608, 0.840611040592194, 0.008442667312920, 0.183565437793732, 0.055598158389330, 0.198990672826767
0.058145936578512, 0.150173798203468, 0.511671125888824, -0.029405424371362, 0.413978874683380, 0.000000000000000, 0.049489732831717, -0.025089794769883, -0.190210655331612, -0.087012462317944, 0.478605419397354, 0.000000000000000, 0.054541662335396, -0.012478441931307, 0.083559893071651, 0.204971909523010, 0.481852769851685, 0.343890547752380, 0.788392126560211, 0.008814587257802, 0.163585916161537, 0.056353162974119, 0.220386236906052
0.052539162337780, 0.151340782642365, 0.512905895709991, -0.028224216774106, 0.417563855648041, 0.000000000000000, 0.043906547129154, -0.024082502350211, -0.189644783735275, -0.087014332413673, 0.483023762702942, 0.000000000000000, 0.055232319980860, -0.016354771330953, 0.068790532648563, 0.229120686650276, 0.519992947578430, 0.345411360263824, 0.730260670185089, 0.009227693080902, 0.140676811337471, 0.056962788105011, 0.242090404033661
0.046686340123415, 0.152461737394333, 0.514331996440887, -0.026843445375562, 0.421260893344879, 0.000000000000000, 0.037901110947132, -0.023039940744638, -0.189146414399147, -0.086906954646111, 0.487705856561661, 0.000000000000000, 0.055979728698730, -0.019493764266372, 0.053622294217348, 0.253539979457855, 0.562415778636932, 0.346093893051147, 0.665911853313446, 0.009669938124716, 0.114601917564869, 0.057320203632116, 0.263782888650894
0.040886215865612, 0.153527319431305, 0.515915989875793, -0.025282097980380, 0.425054043531418, 0.000000000000000, 0.031648498028517, -0.021999446675181, -0.188751846551895, -0.086563542485237, 0.492538034915924, 0.000000000000000, 0.056748192757368, -0.021647719666362, 0.038219824433327, 0.278036147356033, 0.609101414680481, 0.345523178577423, 0.595023930072784, 0.010140112601221, 0.085105478763580, 0.057313047349453, 0.285244047641754
0.035461876541376, 0.154518872499466, 0.517614901065826, -0.023575102910399, 0.428897738456726, 0.000000000000000, 0.025497246533632, -0.021034386008978, -0.188499495387077, -0.085900329053402, 0.497393310070038, 0.000000000000000, 0.057467728853226, -0.022634902969003, 0.022583721205592, 0.302391827106476, 0.659976959228516, 0.343171447515488, 0.517225980758667, 0.010650159791112, 0.051898047327995, 0.056811507791281, 0.306331127882004
0.030848419293761, 0.155427843332291, 0.519366562366486, -0.021719710901380, 0.432744383811951, 0.000000000000000, 0.019979227334261, -0.020218368619680, -0.188417926430702, -0.084861434996128, 0.502154767513275, 0.000000000000000, 0.057463932782412, -0.022224418818951, 0.006493697874248, 0.326010435819626, 0.714965879917145, 0.338335573673248, 0.431878268718719, 0.011231351643801, 0.014566848985851, 0.055651962757111, 0.327112168073654
0.027613611891866, 0.156273677945137, 0.521084785461426, -0.019633730873466, 0.436565935611725, 0.000000000000000, 0.015757132321596, -0.019638871774077, -0.188513338565826, -0.083332620561123, 0.506731092929840, 0.000000000000000, 0.055647972971201, -0.019425265491009, -0.010458515025675, 0.347825586795807, 0.774290680885315, 0.330432385206223, 0.338155448436737, 0.011935872025788, -0.027368832379580, 0.053707592189312, 0.347924977540970
0.025946069508791, 0.157185018062592, 0.522690296173096, -0.017312020063400, 0.440326988697052, 0.000000000000000, 0.013070457614958, -0.019248057156801, -0.188798129558563, -0.081311754882336, 0.511023521423340, 0.000000000000000, 0.054085616022348, -0.014281462877989, -0.027665413916111, 0.368336826562881, 0.838091969490051, 0.319874376058578, 0.237983137369156, 0.012775581330061, -0.073112264275551, 0.051074966788292, 0.368752926588058
0.024908622726798, 0.158160358667374, 0.524205148220062, -0.015019275248051, 0.443941593170166, 0.000000000000000, 0.011233046650887, -0.018785636872053, -0.189310520887375, -0.079127430915833, 0.514872252941132, 0.000000000000000, 0.056270927190781, -0.010528966784477, -0.042154598981142, 0.388728022575378, 0.906501352787018, 0.308602929115295, 0.137380316853523, 0.013651130720973, -0.119873717427254, 0.048172470182180, 0.388657271862030
0.023590352386236, 0.159114375710487, 0.525672197341919, -0.012945721857250, 0.447350978851318, 0.000000000000000, 0.009513078257442, -0.018199458718300, -0.190050244331360, -0.077060207724571, 0.518121421337128, 0.000000000000000, 0.060351043939590, -0.008337792940438, -0.051722727715969, 0.406294256448746, 0.980389297008514, 0.299136489629745, 0.039550580084324, 0.014415316283703, -0.165949076414108, 0.045573547482491, 0.406613796949387
0.021733891218901, 0.160149857401848, 0.527078747749329, -0.011086009442806, 0.450545340776443, 0.000000000000000, 0.007404079660773, -0.017381673678756, -0.191005542874336, -0.075201213359833, 0.520658254623413, 0.000000000000000, 0.064857810735703, -0.006505103781819, -0.056233838200569, 0.418713361024857, 1.058808088302612, 0.293269455432892, -0.053906921297312, 0.014894047752023, -0.210373580455780, 0.043726161122322, 0.421870976686478
0.019368631765246, 0.161454305052757, 0.528382539749146, -0.009363058954477, 0.453529030084610, 0.000000000000000, 0.004848988261074, -0.016158523038030, -0.192165106534958, -0.073409326374531, 0.522407650947571, 0.000000000000000, 0.069322139024734, -0.004805509932339, -0.056898806244135, 0.424772769212723, 1.139447569847107, 0.292057782411575, -0.141638189554214, 0.014902499504387, -0.252325743436813, 0.042933356016874, 0.433838218450546
0.016585301607847, 0.163190290331841, 0.529532790184021, -0.007690942846239, 0.456307858228683, 0.000000000000000, 0.001887570484541, -0.014341726899147, -0.193521261215210, -0.071530677378178, 0.523326396942139, 0.000000000000000, 0.073525547981262, -0.003408254124224, -0.055027682334185, 0.424135506153107, 1.219448328018188, 0.295406818389893, -0.222825005650520, 0.014333848841488, -0.291251361370087, 0.043243449181318, 0.442054539918900
0.013336426578462, 0.165422186255455, 0.530496478080750, -0.006031797733158, 0.458876252174377, 0.000000000000000, -0.001462345593609, -0.011947163380682, -0.195047840476036, -0.069499522447586, 0.523575723171234, 0.000000000000000, 0.077478997409344, -0.002366521162912, -0.051445174962282, 0.417127847671509, 1.296121954917908, 0.302483201026917, -0.297184646129608, 0.013167187571526, -0.326864033937454, 0.044530380517244, 0.446344166994095
0.009584012441337, 0.168010622262955, 0.531265735626221, -0.004330527037382, 0.461230158805847, 0.000000000000000, -0.005079768598080, -0.009385767392814, -0.196673035621643, -0.067291252315044, 0.523599267005920, 0.000000000000000, 0.081229358911514, -0.001485103624873, -0.046597402542830, 0.404570728540421, 1.367250680923462, 0.312313854694366, -0.364569246768951, 0.011427752673626, -0.358984112739563, 0.046623516827822, 0.447083294391632
0.005519753787667, 0.170799180865288, 0.531826555728912, -0.002503379713744, 0.463362097740173, 0.000000000000000, -0.009004949592054, -0.006879537366331, -0.198348790407181, -0.064976789057255, 0.523599982261658, 0.000000000000000, 0.084754981100559, -0.000584192981478, -0.040871646255255, 0.387725442647934, 1.431040525436401, 0.323867529630661, -0.424752920866013, 0.009187742136419, -0.387462913990021, 0.049318481236696, 0.444839328527451
0.001190941547975, 0.173770397901535, 0.532161712646484, -0.000627221423201, 0.465198278427124, 0.000000000000000, -0.013432146981359, -0.004392915870994, -0.200077667832375, -0.062731035053730, 0.523599982261658, 0.000000000000000, 0.088162079453468, 0.000521966372617, -0.034320726990700, 0.368158042430878, 1.486096024513245, 0.335939735174179, -0.477647274732590, 0.006593096535653, -0.412263393402100, 0.052339836955070, 0.440094679594040
-0.003812570124865, 0.176864936947823, 0.532289743423462, 0.000988549203612, 0.466593474149704, 0.000000000000000, -0.018203744664788, -0.001940926071256, -0.201866075396538, -0.060629501938820, 0.523599982261658, 0.000000000000000, 0.091204829514027, 0.002210728591308, -0.026563804596663, 0.347063869237900, 1.531719326972961, 0.347434222698212, -0.523834228515625, 0.003821495920420, -0.433604925870895, 0.055407650768757, 0.432909816503525
-0.009267429821193, 0.179966375231743, 0.532191693782806, 0.002201241906732, 0.467457294464111, 0.000000000000000, -0.023124637082219, 0.000363779428881, -0.203692257404327, -0.058749113231897, 0.523599982261658, 0.000000000000000, 0.093734890222549, 0.004304780159146, -0.017903229221702, 0.325807124376297, 1.567205786705017, 0.357342779636383, -0.563668847084045, 0.001076593995094, -0.451737612485886, 0.058245740830898, 0.423384904861450
-0.014710588380694, 0.182922929525375, 0.531831502914429, 0.002934780437499, 0.467738002538681, 0.000000000000000, -0.027960643172264, 0.002384539693594, -0.205505698919296, -0.057179968804121, 0.523599982261658, 0.000000000000000, 0.096042938530445, 0.005945465993136, -0.009137440472841, 0.305948883295059, 1.591706156730652, 0.364627033472061, -0.597354054450989, -0.001394323538989, -0.466991126537323, 0.060553763061762, 0.412024080753326
-0.020010596141219, 0.185550853610039, 0.531188607215881, 0.003048133803532, 0.467404395341873, 0.000000000000000, -0.032463561743498, 0.004140769597143, -0.207262232899666, -0.056003846228123, 0.523599982261658, 0.000000000000000, 0.097927644848824, 0.007040319964290, -0.000508818717208, 0.288173437118530, 1.604678273200989, 0.368952572345734, -0.624937832355499, -0.003493614960462, -0.479574054479599, 0.062232051044703, 0.399208903312683
-0.024977270513773, 0.187581390142441, 0.530257999897003, 0.002487781457603, 0.466460853815079, 0.000000000000000, -0.036462947726250, 0.005573110189289, -0.208893656730652, -0.055334258824587, 0.523599982261658, 0.000000000000000, 0.099392868578434, 0.007685880642384, 0.007481878157705, 0.272545039653778, 1.605608582496643, 0.370597451925278, -0.646279036998749, -0.005276926327497, -0.489653617143631, 0.063377670943737, 0.385508865118027
-0.029143553227186, 0.188794657588005, 0.529033184051514, 0.001346275443211, 0.464940726757050, 0.000000000000000, -0.039868719875813, 0.006434572860599, -0.210294038057327, -0.055300373584032, 0.523599982261658, 0.000000000000000, 0.100909523665905, 0.008107279427350, 0.014141721650958, 0.259130060672760, 1.594029068946838, 0.369817107915878, -0.661668956279755, -0.006789084058255, -0.497635841369629, 0.064081937074661, 0.371935844421387
-0.032379917800426, 0.189215853810310, 0.527518033981323, -0.000330804497935, 0.462862998247147, 0.000000000000000, -0.042578920722008, 0.006761398166418, -0.211401835083961, -0.055946391075850, 0.523599982261658, 0.000000000000000, 0.102455124258995, 0.008220237679780, 0.019155969843268, 0.248187154531479, 1.569761157035828, 0.366521298885345, -0.671444535255432, -0.007981203496456, -0.503823637962341, 0.064311549067497, 0.359108239412308
-0.034752819687128, 0.188979238271713, 0.525745153427124, -0.002467749640346, 0.460248321294785, 0.000000000000000, -0.044474992901087, 0.006652496755123, -0.212168306112289, -0.057240370661020, 0.523599982261658, 0.000000000000000, 0.104039944708347, 0.007873425260186, 0.022691762074828, 0.240172401070595, 1.532852292060852, 0.360370934009552, -0.675947666168213, -0.008730144239962, -0.508443176746368, 0.063939340412617, 0.347558140754700
-0.036268573254347, 0.188268408179283, 0.523773133754730, -0.004900355357677, 0.457134842872620, 0.000000000000000, -0.045517519116402, 0.006171805784106, -0.212542682886124, -0.059115733951330, 0.523599982261658, 0.000000000000000, 0.105569839477539, 0.007180368993431, 0.024714762344956, 0.235622763633728, 1.483516335487366, 0.351020157337189, -0.675469577312469, -0.008907080627978, -0.511673510074615, 0.062830016016960, 0.338231891393661
-0.036970358341932, 0.187105759978294, 0.521708786487579, -0.007404526229948, 0.453580379486084, 0.000000000000000, -0.045905962586403, 0.005226019304246, -0.212467476725578, -0.061568450182676, 0.523599982261658, 0.000000000000000, 0.106824010610580, 0.006367612630129, 0.024634139612317, 0.234953388571739, 1.422241687774658, 0.338417410850525, -0.670115172863007, -0.008470563217998, -0.513577103614807, 0.060944579541683, 0.332099348306656
-0.037043374031782, 0.185328409075737, 0.519686698913574, -0.009773496538401, 0.449655622243881, 0.000000000000000, -0.045797303318977, 0.003589946543798, -0.211891621351242, -0.064573645591736, 0.523599207401276, 0.000000000000000, 0.107775308191776, 0.005111616570503, 0.021798424422741, 0.238375052809715, 1.350128650665283, 0.322918295860291, -0.659821510314941, -0.007495477329940, -0.514067828655243, 0.058369990438223, 0.329763203859329
-0.036487191915512, 0.183104559779167, 0.517760634422302, -0.011824962683022, 0.445461213588715, 0.000000000000000, -0.044945072382689, 0.001232079463080, -0.210813924670219, -0.067896738648415, 0.523575723171234, 0.000000000000000, 0.108560390770435, 0.002692714333534, 0.016247795894742, 0.246215462684631, 1.269361257553101, 0.305008172988892, -0.644382655620575, -0.006075367331505, -0.512914359569550, 0.055206816643476, 0.331386148929596
-0.035171136260033, 0.180579170584679, 0.515947222709656, -0.013363920152187, 0.441180378198624, 0.000000000000000, -0.043128751218319, -0.002030491828918, -0.209256410598755, -0.071252681314945, 0.523344159126282, 0.000000000000000, 0.109897218644619, -0.000957041105721, 0.008815196342766, 0.259074300527573, 1.183439016342163, 0.285319626331329, -0.623443901538849, -0.004316481295973, -0.509809255599976, 0.051568493247032, 0.336923241615295
-0.033418539911509, 0.177963018417358, 0.514256536960602, -0.014414603821933, 0.437042146921158, 0.000000000000000, -0.040246505290270, -0.006134457886219, -0.207290425896645, -0.074320271611214, 0.522537410259247, 0.000000000000000, 0.112235203385353, -0.005960071925074, 0.000903125095647, 0.276970326900482, 1.096996903419495, 0.264906674623489, -0.596255660057068, -0.002427678788081, -0.504124701023102, 0.047676887363195, 0.345541775226593
-0.032532185316086, 0.175592496991158, 0.512765824794769, -0.015383802354336, 0.433273851871490, 0.000000000000000, -0.037695493549109, -0.009718039073050, -0.205147281289101, -0.077235564589500, 0.521204948425293, 0.000000000000000, 0.114834770560265, -0.011744712479413, -0.004638119135052, 0.297244101762772, 1.015253782272339, 0.245745003223419, -0.563060879707336, -0.000859141058754, -0.495253950357437, 0.044028371572495, 0.355082660913467
-0.032646588981152, 0.173695981502533, 0.511510312557220, -0.016254447400570, 0.430195510387421, 0.000000000000000, -0.036680005490780, -0.011930061504245, -0.202981546521187, -0.079975098371506, 0.519838631153107, 0.000000000000000, 0.116365790367126, -0.016149220988154, -0.006752253975719, 0.315800786018372, 0.942889213562012, 0.229146718978882, -0.527623832225800, 0.000173611348146, -0.484156161546707, 0.040892761200666, 0.362981081008911
-0.033275682479143, 0.172252446413040, 0.510537147521973, -0.016734054312110, 0.428030610084534, 0.000000000000000, -0.037270989269018, -0.013026088476181, -0.200881585478783, -0.082119442522526, 0.518956899642944, 0.000000000000000, 0.116948090493679, -0.019320508465171, -0.005455903243273, 0.330746412277222, 0.882668554782867, 0.214303016662598, -0.493868261575699, 0.000990023603663, -0.472433954477310, 0.037931181490421, 0.367602348327637
-0.034192763268948, 0.171252012252808, 0.509905815124512, -0.016592968255281, 0.426773875951767, 0.000000000000000, -0.038883790373802, -0.013433609157801, -0.199012055993080, -0.083115160465240, 0.518794298171997, 0.000000000000000, 0.116837352514267, -0.021703029051423, -0.001291399472393, 0.341435432434082, 0.836001932621002, 0.198747888207436, -0.466057687997818, 0.002273888327181, -0.462147265672684, 0.034358568489552, 0.368213504552841
-0.035360991954803, 0.170876055955887, 0.509630620479584, -0.015698557719588, 0.426311731338501, 0.000000000000000, -0.040648918598890, -0.013390117324889, -0.197571054100990, -0.082476019859314, 0.519309580326080, 0.000000000000000, 0.116151869297028, -0.023536704480648, 0.004536614753306, 0.347032606601715, 0.803573250770569, 0.181109786033630, -0.447733163833618, 0.004385482985526, -0.455133765935898, 0.029766861349344, 0.364536255598068
-0.036606699228287, 0.171248480677605, 0.509683489799500, -0.013987003825605, 0.426550537347794, 0.000000000000000, -0.042653553187847, -0.012881923466921, -0.196707323193550, -0.080332107841969, 0.520266354084015, 0.000000000000000, 0.114818908274174, -0.024664402008057, 0.011056088842452, 0.346050798892975, 0.785854876041412, 0.162201166152954, -0.440933436155319, 0.007142537273467, -0.452483654022217, 0.024409452453256, 0.356401115655899
-0.037968568503857, 0.172270670533180, 0.510026812553406, -0.011591002345085, 0.427417576313019, 0.000000000000000, -0.045370571315289, -0.011766667477787, -0.196498826146126, -0.077165871858597, 0.521385192871094, 0.000000000000000, 0.112902246415615, -0.024872994050384, 0.018145220354199, 0.337006092071533, 0.783209741115570, 0.143866628408432, -0.446390062570572, 0.010121411643922, -0.454588890075684, 0.018838929012418, 0.343722939491272
-0.039771512150764, 0.173924148082733, 0.510581791400909, -0.008915600366890, 0.428814947605133, 0.000000000000000, -0.048589330166578, -0.009968787431717, -0.196949541568756, -0.073337107896805, 0.522425830364227, 0.000000000000000, 0.110166072845459, -0.023607471957803, 0.025334550067782, 0.319049030542374, 0.795790672302246, 0.128132775425911, -0.463894546031952, 0.012847440317273, -0.461375504732132, 0.013664717786014, 0.327221900224686
-0.042273532599211, 0.176246494054794, 0.511262118816376, -0.006505167577416, 0.430614292621613, 0.000000000000000, -0.051663387566805, -0.007718051318079, -0.197971522808075, -0.069120757281780, 0.523181021213531, 0.000000000000000, 0.106436513364315, -0.020659264177084, 0.031130831688643, 0.293906211853027, 0.823210835456848, 0.117651179432869, -0.490164101123810, 0.014675380662084, -0.471665829420090, 0.009690633974969, 0.309538006782532
-0.044681541621685, 0.178870216012001, 0.512006580829620, -0.004501448478550, 0.432803392410278, 0.000000000000000, -0.054579492658377, -0.005525965709239, -0.199368208646774, -0.065004482865334, 0.523523449897766, 0.000000000000000, 0.104083783924580, -0.018794918432832, 0.036276295781136, 0.268213212490082, 0.863754391670227, 0.113646864891052, -0.517523407936096, 0.015261045657098, -0.482869535684586, 0.007316816598177, 0.294460296630859
-0.046426270157099, 0.181561678647995, 0.512774050235748, -0.002984074642882, 0.435436606407166, 0.000000000000000, -0.057117812335491, -0.003543165512383, -0.200952708721161, -0.061173006892204, 0.523595809936523, 0.000000000000000, 0.102646008133888, -0.017034612596035, 0.041443075984716, 0.244759604334831, 0.915806353092194, 0.115353882312775, -0.543011486530304, 0.014718974009156, -0.493897259235382, 0.006369727198035, 0.284082531929016
-0.047797124832869, 0.184696584939957, 0.513520538806915, -0.002198906848207, 0.438552677631378, 0.000000000000000, -0.059762358665466, -0.000879787432496, -0.202681854367256, -0.057784281671047, 0.523599982261658, 0.000000000000000, 0.101337611675262, -0.014909302815795, 0.047589737921953, 0.223959431052208, 0.977527618408203, 0.121992126107216, -0.564845919609070, 0.013160902075469, -0.503769695758820, 0.006682090926915, 0.279260575771332
-0.048791460692883, 0.188325330615044, 0.514225840568542, -0.001966122770682, 0.442155152559280, 0.000000000000000, -0.062374819070101, 0.002633889904246, -0.204418301582336, -0.054643969982862, 0.523599982261658, 0.000000000000000, 0.100028552114964, -0.013088663108647, 0.054327856749296, 0.207173198461533, 1.046011447906494, 0.131487607955933, -0.581975996494293, 0.011046330444515, -0.511973500251770, 0.007688892539591, 0.280621081590652
-0.049299176782370, 0.192196220159531, 0.514921963214874, -0.001861994038336, 0.446110218763351, 0.000000000000000, -0.064656719565392, 0.006524784956127, -0.205967769026756, -0.051540113985538, 0.523599982261658, 0.000000000000000, 0.098613567650318, -0.011457309126854, 0.061458140611649, 0.196222290396690, 1.117190003395081, 0.140702977776527, -0.594203412532806, 0.009134254418314, -0.518475413322449, 0.008494390174747, 0.288409709930420
-0.049126055091619, 0.195801377296448, 0.515679359436035, -0.001405827119015, 0.450166642665863, 0.000000000000000, -0.066533863544464, 0.010162802413106, -0.207161381840706, -0.048458907753229, 0.523599982261658, 0.000000000000000, 0.097225062549114, -0.009204875677824, 0.067532569169998, 0.191780850291252, 1.186232089996338, 0.147515282034874, -0.602143704891205, 0.007913346402347, -0.523649096488953, 0.008536190725863, 0.301383435726166
-0.048468608409166, 0.198543921113014, 0.516579926013947, -0.000353014882421, 0.454047858715057, 0.000000000000000, -0.067972511053085, 0.012960263527930, -0.207884937524796, -0.045531895011663, 0.523599982261658, 0.000000000000000, 0.095794163644314, -0.005964024458081, 0.071076661348343, 0.193130046129227, 1.248568058013916, 0.150944456458092, -0.606974720954895, 0.007563561666757, -0.528093516826630, 0.007616139948368, 0.317061483860016
-0.048126820474863, 0.200238302350044, 0.517650425434113, 0.001114519429393, 0.457498610019684, 0.000000000000000, -0.068835280835629, 0.014777116477489, -0.208128646016121, -0.042922280728817, 0.523599982261658, 0.000000000000000, 0.095306143164635, -0.003975633066148, 0.072374366223812, 0.199560791254044, 1.300931572914124, 0.150071993470192, -0.609589636325836, 0.008287649601698, -0.532293379306793, 0.005515546537936, 0.332304596900940
-0.048146981745958, 0.201886937022209, 0.518697917461395, 0.002700700890273, 0.460352957248688, 0.000000000000000, -0.068982258439064, 0.016471730545163, -0.208034977316856, -0.040690254420042, 0.523599982261658, 0.000000000000000, 0.097930610179901, -0.005195287521929, 0.072600319981575, 0.209514752030373, 1.341886281967163, 0.144811064004898, -0.611582636833191, 0.010077853687108, -0.536790072917938, 0.002251856960356, 0.343727588653564
-0.049144592136145, 0.203301429748535, 0.519754409790039, 0.004048653412610, 0.462492853403091, 0.000000000000000, -0.069053769111633, 0.018002135679126, -0.207622066140175, -0.039236232638359, 0.523599982261658, 0.000000000000000, 0.100025124847889, -0.004180361982435, 0.072393700480461, 0.217551380395889, 1.371948838233948, 0.137793019413948, -0.616107523441315, 0.012112485244870, -0.541870534420013, -0.001257546246052, 0.349079877138138
-0.051102962344885, 0.204336404800415, 0.520813107490540, 0.004907063674182, 0.463811606168747, 0.000000000000000, -0.069450661540031, 0.019140547141433, -0.206871494650841, -0.038749314844608, 0.523599982261658, 0.000000000000000, 0.101925708353519, -0.002037760335952, 0.073167063295841, 0.222586736083031, 1.390933036804199, 0.129868015646935, -0.622042179107666, 0.014117348007858, -0.546736598014832, -0.004705585073680, 0.347650408744812
-0.053711779415607, 0.204599037766457, 0.521893918514252, 0.005165892187506, 0.464243978261948, 0.000000000000000, -0.070526897907257, 0.019486121833324, -0.205728977918625, -0.039342053234577, 0.523599982261658, 0.000000000000000, 0.104556359350681, -0.000201357892365, 0.075129508972168, 0.224195256829262, 1.398667216300964, 0.121668584644794, -0.628597021102905, 0.015884272754192, -0.550956487655640, -0.007860308513045, 0.339234739542007
-0.056582782417536, 0.203923329710960, 0.522981941699982, 0.004775793291628, 0.463781118392944, 0.000000000000000, -0.072366006672382, 0.018885871395469, -0.204170450568199, -0.040990643203259, 0.523599982261658, 0.000000000000000, 0.107738137245178, 0.001693947589956, 0.078593730926514, 0.221574246883392, 1.395217537879944, 0.113729573786259, -0.636455416679382, 0.017234385013580, -0.554670214653015, -0.010522579774261, 0.323869764804840
-0.059600938111544, 0.202369883656502, 0.524057149887085, 0.003685334930196, 0.462439507246017, 0.000000000000000, -0.074677906930447, 0.017472393810749, -0.202203094959259, -0.043522983789444, 0.523599982261658, 0.000000000000000, 0.110838435590267, 0.004406061954796, 0.084013968706131, 0.214475065469742, 1.380550980567932, 0.106254003942013, -0.646247208118439, 0.018090410158038, -0.558164834976196, -0.012608719989657, 0.302505642175674
-0.062415622174740, 0.199729427695274, 0.525150060653687, 0.002126322593540, 0.460296332836151, 0.000000000000000, -0.076851464807987, 0.015024625696242, -0.199753373861313, -0.046637970954180, 0.523599982261658, 0.000000000000000, 0.113807804882526, 0.007806695066392, 0.088810473680496, 0.204052239656448, 1.354310870170593, 0.099303014576435, -0.657706141471863, 0.018431194126606, -0.561961352825165, -0.014105175621808, 0.277562737464905
-0.064201764762402, 0.196101322770119, 0.526258945465088, 0.000507450429723, 0.457473814487457, 0.000000000000000, -0.078107088804245, 0.011422911658883, -0.196769028902054, -0.049813974648714, 0.523598492145538, 0.000000000000000, 0.117466509342194, 0.009098111651838, 0.089907459914684, 0.194162979722023, 1.315800070762634, 0.092111930251122, -0.667277932167053, 0.018549414351583, -0.565813362598419, -0.015336731448770, 0.252540737390518
-0.064304083585739, 0.192229896783829, 0.527341246604919, -0.000979246571660, 0.454079002141953, 0.000000000000000, -0.079260915517807, 0.007349311839789, -0.193387523293495, -0.053038835525513, 0.523559629917145, 0.000000000000000, 0.119713857769966, 0.009298160672188, 0.088012747466564, 0.188091143965721, 1.265237569808960, 0.084024734795094, -0.671805799007416, 0.018718333914876, -0.569098532199860, -0.016599521040916, 0.231856480240822
-0.062447376549244, 0.188936263322830, 0.528326213359833, -0.002281122142449, 0.450216293334961, 0.000000000000000, -0.080018274486065, 0.003323188750073, -0.189768657088280, -0.055962342768908, 0.523230195045471, 0.000000000000000, 0.120254375040531, 0.007784899324179, 0.083292193710804, 0.187957674264908, 1.204802393913269, 0.075173571705818, -0.670191943645477, 0.018974514678121, -0.571648180484772, -0.017936479300261, 0.219013273715973
-0.059117175638676, 0.185768470168114, 0.529323935508728, -0.003252255264670, 0.446071773767471, 0.000000000000000, -0.079700738191605, -0.001275196205825, -0.185950383543968, -0.058289144188166, 0.522129535675049, 0.000000000000000, 0.119877398014069, 0.004963346756995, 0.075175262987614, 0.195755884051323, 1.139618039131165, 0.065888173878193, -0.661215841770172, 0.019372599199414, -0.572994112968445, -0.019403399899602, 0.215683296322823
-0.055557888001204, 0.181744292378426, 0.530551016330719, -0.003861255245283, 0.441907435655594, 0.000000000000000, -0.078617677092552, -0.007176998537034, -0.181952029466629, -0.060203507542610, 0.520235359668732, 0.000000000000000, 0.119533449411392, 0.003406749339774, 0.064955480396748, 0.211344182491302, 1.076609134674072, 0.057488478720188, -0.643340349197388, 0.019677476957440, -0.572043418884277, -0.020741036161780, 0.219783261418343
-0.053201101720333, 0.177360370755196, 0.532033503055573, -0.004428917076439, 0.438076734542847, 0.000000000000000, -0.077727779746056, -0.012957552447915, -0.178045988082886, -0.061855595558882, 0.518005132675171, 0.000000000000000, 0.120621800422668, 0.001158592989668, 0.055715948343277, 0.229774981737137, 1.021327853202820, 0.052720114588737, -0.617037534713745, 0.019097160547972, -0.567676663398743, -0.021091923117638, 0.224837750196457
-0.052511259913445, 0.173597618937492, 0.533691465854645, -0.005049003753811, 0.435046017169952, 0.000000000000000, -0.078276805579662, -0.017031187191606, -0.174530223011971, -0.063335537910461, 0.516122162342072, 0.000000000000000, 0.121173731982708, -0.000842402572744, 0.051060423254967, 0.245540052652359, 0.976959645748138, 0.051365606486797, -0.587142884731293, 0.017730582505465, -0.560508012771606, -0.020540805533528, 0.227495059370995
-0.053322002291679, 0.170741811394691, 0.535528481006622, -0.005433645099401, 0.433172672986984, 0.000000000000000, -0.080509632825851, -0.019386855885386, -0.171564146876335, -0.064371749758720, 0.515141189098358, 0.000000000000000, 0.120766520500183, -0.002196711720899, 0.052151016891003, 0.256969213485718, 0.944894731044769, 0.050748750567436, -0.558979272842407, 0.016426976770163, -0.552518129348755, -0.019999120384455, 0.227315485477448
-0.054997444152832, 0.168705254793167, 0.537559688091278, -0.005106767173856, 0.432588994503021, 0.000000000000000, -0.083774417638779, -0.020523797720671, -0.169253423810005, -0.064519129693508, 0.515207409858704, 0.000000000000000, 0.119686253368855, -0.002763652475551, 0.057620778679848, 0.263405263423920, 0.925755679607391, 0.049202945083380, -0.537079811096191, 0.015678035095334, -0.545950233936310, -0.020020747557282, 0.224430888891220
-0.056700471788645, 0.167334958910942, 0.539719164371490, -0.003756261663511, 0.433214485645294, 0.000000000000000, -0.087226979434490, -0.020961372181773, -0.167669922113419, -0.063587039709091, 0.516088724136353, 0.000000000000000, 0.118026562035084, -0.002160459524021, 0.065180689096451, 0.263626396656036, 0.919968366622925, 0.047256872057915, -0.524749279022217, 0.015301840379834, -0.542577266693115, -0.020434759557247, 0.219008937478065
-0.058003161102533, 0.166679263114929, 0.541851580142975, -0.001570644089952, 0.434798687696457, 0.000000000000000, -0.090176925063133, -0.020965933799744, -0.166877284646034, -0.061679035425186, 0.517429471015930, 0.000000000000000, 0.115860283374786, -0.000701947137713, 0.073053389787674, 0.256968557834625, 0.927773356437683, 0.046216033399105, -0.523238837718964, 0.014909628778696, -0.543238222599030, -0.020833007991314, 0.211758658289909
-0.059094574302435, 0.166915237903595, 0.543788850307465, 0.000825005350634, 0.437033116817474, 0.000000000000000, -0.091897070407867, -0.020701469853520, -0.166874647140503, -0.058962550014257, 0.518932878971100, 0.000000000000000, 0.113318912684917, 0.001139122061431, 0.079447656869888, 0.244445860385895, 0.949130117893219, 0.047567825764418, -0.531223297119141, 0.014082395471632, -0.547762215137482, -0.020767431706190, 0.204933270812035
-0.060175877064466, 0.167714715003967, 0.545476973056793, 0.002850118326023, 0.439703702926636, 0.000000000000000, -0.092224471271038, -0.020619550719857, -0.167515590786934, -0.055786810815334, 0.520376265048981, 0.000000000000000, 0.111111238598824, 0.002352932933718, 0.082547791302204, 0.229028806090355, 0.983631432056427, 0.053560033440590, -0.543793141841888, 0.012193902395666, -0.554670810699463, -0.019564324989915, 0.201751455664635
-0.060640726238489, 0.168906107544899, 0.546864211559296, 0.004236891865730, 0.442749232053757, 0.000000000000000, -0.092348173260689, -0.020470013841987, -0.168639972805977, -0.052841633558273, 0.521598160266876, 0.000000000000000, 0.109506286680698, 0.001968786818907, 0.083582729101181, 0.214032813906670, 1.030250668525696, 0.064538978040218, -0.555567979812622, 0.009146625176072, -0.562013328075409, -0.017123650759459, 0.203825399279594
-0.060207381844521, 0.170554623007774, 0.547925829887390, 0.004875470418483, 0.446162164211273, 0.000000000000000, -0.092828050255775, -0.019630251452327, -0.170114919543266, -0.050312817096710, 0.522573530673981, 0.000000000000000, 0.108045175671577, 0.000354031217285, 0.083013683557510, 0.201142176985741, 1.087542891502380, 0.079374849796295, -0.564364433288574, 0.005238066893071, -0.568854093551636, -0.013774781487882, 0.211374267935753
-0.059079386293888, 0.172846719622612, 0.548664867877960, 0.004818953108042, 0.449894100427628, 0.000000000000000, -0.093886941671371, -0.017293628305197, -0.171869635581970, -0.048121869564056, 0.523244440555573, 0.000000000000000, 0.106389924883842, -0.002206356497481, 0.081063278019428, 0.192247107625008, 1.153302907943726, 0.095396175980568, -0.569334208965302, 0.001224988256581, -0.574763000011444, -0.010330014862120, 0.224585816264153
-0.057685561478138, 0.175349727272987, 0.549182176589966, 0.004420700017363, 0.453840404748917, 0.000000000000000, -0.095389299094677, -0.013559160754085, -0.173771247267723, -0.046113535761833, 0.523536980152130, 0.000000000000000, 0.104931421577930, -0.004633491393179, 0.077520936727524, 0.189177602529526, 1.224230289459229, 0.109378516674042, -0.570773839950562, -0.001974089536816, -0.579804718494415, -0.007761957589537, 0.242734283208847
-0.056797072291374, 0.177259773015976, 0.549642086029053, 0.004072773735970, 0.457826316356659, 0.000000000000000, -0.096715457737446, -0.009885589592159, -0.175571843981743, -0.044089071452618, 0.523596584796906, 0.000000000000000, 0.104394890367985, -0.005895315669477, 0.071744740009308, 0.191788196563721, 1.295835614204407, 0.119578905403614, -0.569501996040344, -0.003934910986573, -0.584065496921539, -0.006514408160001, 0.263261288404465
-0.057104598730803, 0.178763240575790, 0.550068557262421, 0.003902451368049, 0.461632996797562, 0.000000000000000, -0.097713932394981, -0.006874478422105, -0.177170976996422, -0.042019393295050, 0.523599982261658, 0.000000000000000, 0.104057312011719, -0.005858675111085, 0.064917288720608, 0.197834894061089, 1.363283038139343, 0.125256121158600, -0.567047059535980, -0.004573139362037, -0.587525308132172, -0.006670669186860, 0.282266944646835
-0.058536518365145, 0.180442824959755, 0.550385296344757, 0.004021834582090, 0.465098887681961, 0.000000000000000, -0.098586045205593, -0.004277190193534, -0.178571403026581, -0.039984729140997, 0.523599982261658, 0.000000000000000, 0.103870071470737, -0.004831389524043, 0.058117825537920, 0.204524084925652, 1.422996520996094, 0.127029284834862, -0.565132439136505, -0.004209234844893, -0.590403974056244, -0.007897794246674, 0.296697646379471
-0.060902304947376, 0.182488039135933, 0.550567865371704, 0.004462224431336, 0.468110263347626, 0.000000000000000, -0.099449887871742, -0.001776601304300, -0.179772585630417, -0.038075577467680, 0.523599982261658, 0.000000000000000, 0.104183755815029, -0.003989088814706, 0.051652081310749, 0.210251554846764, 1.473084211349487, 0.125759690999985, -0.564263582229614, -0.003185917390510, -0.592687785625458, -0.009840330109000, 0.305054128170013
-0.063873238861561, 0.184687674045563, 0.550646483898163, 0.005168630275875, 0.470557659864426, 0.000000000000000, -0.100356310606003, 0.000559666776098, -0.180727288126945, -0.036444790661335, 0.523599982261658, 0.000000000000000, 0.104961305856705, -0.003925008699298, 0.046221815049648, 0.214220732450485, 1.512822866439819, 0.121993780136108, -0.564690113067627, -0.001708041178063, -0.594276249408722, -0.012282367795706, 0.306893616914749
-0.066897444427013, 0.186697289347649, 0.550659477710724, 0.006040838081390, 0.472323536872864, 0.000000000000000, -0.101483628153801, 0.002424892038107, -0.181378409266472, -0.035358753055334, 0.523599982261658, 0.000000000000000, 0.105978265404701, -0.004178164992481, 0.042375087738037, 0.216076999902725, 1.542036890983582, 0.115868501365185, -0.567722201347351, 0.000167067541042, -0.595544457435608, -0.015158882364631, 0.302351742982864
-0.069605149328709, 0.188204795122147, 0.550631940364838, 0.006901150569320, 0.473316192626953, 0.000000000000000, -0.102761983871460, 0.003636504290625, -0.181713178753853, -0.034949880093336, 0.523599982261658, 0.000000000000000, 0.107145622372627, -0.003739605192095, 0.039800062775612, 0.214843764901161, 1.560752272605896, 0.108444049954414, -0.574181914329529, 0.002080995356664, -0.596756339073181, -0.018100675195456, 0.291895538568497
-0.071980535984039, 0.189010620117188, 0.550569057464600, 0.007483125198632, 0.473473012447357, 0.000000000000000, -0.103954903781414, 0.004150005988777, -0.181743904948235, -0.035225000232458, 0.523599982261658, 0.000000000000000, 0.108495786786079, -0.002598813269287, 0.038696415722370, 0.209769695997238, 1.568913936614990, 0.100757010281086, -0.583614587783813, 0.003683955874294, -0.597690284252167, -0.020745582878590, 0.276221305131912
-0.073881469666958, 0.189176231622696, 0.550423800945282, 0.007612624671310, 0.472787737846375, 0.000000000000000, -0.104831889271736, 0.004056644160300, -0.181481018662453, -0.036113683134317, 0.523599982261658, 0.000000000000000, 0.110000282526016, -0.000777806621045, 0.039348889142275, 0.200648337602615, 1.566422224044800, 0.093214146792889, -0.595793068408966, 0.004831588361412, -0.598235130310059, -0.022940058261156, 0.256442785263062
-0.075163856148720, 0.188847705721855, 0.550149977207184, 0.007260078564286, 0.471317350864410, 0.000000000000000, -0.105479016900063, 0.003432676196098, -0.180908530950546, -0.037599943578243, 0.523599982261658, 0.000000000000000, 0.111033506691456, 0.002958830446005, 0.042063217610121, 0.187394544482231, 1.553193569183350, 0.085992678999901, -0.610876619815826, 0.005452366080135, -0.598439455032349, -0.024605574086308, 0.234191149473190
-0.076111570000648, 0.187957867980003, 0.549781501293182, 0.006448369473219, 0.469148099422455, 0.000000000000000, -0.106023028492928, 0.002205074764788, -0.179982632398605, -0.039646308869123, 0.523599982261658, 0.000000000000000, 0.110765688121319, 0.008502246811986, 0.047822732478380, 0.172027394175529, 1.528863787651062, 0.077506244182587, -0.627825081348419, 0.006101566366851, -0.598151922225952, -0.026298118755221, 0.211723566055298
-0.076858691871166, 0.186107292771339, 0.549417376518250, 0.005390852689743, 0.466397672891617, 0.000000000000000, -0.105655193328857, -0.000082640675828, -0.178602859377861, -0.041812751442194, 0.523599982261658, 0.000000000000000, 0.111429907381535, 0.011040046811104, 0.056670296937227, 0.159090623259544, 1.492670297622681, 0.064843021333218, -0.643015921115875, 0.007849954068661, -0.596961140632629, -0.029105396941304, 0.191569253802299
-0.076918020844460, 0.183397710323334, 0.549087703227997, 0.004297627601773, 0.463162928819656, 0.000000000000000, -0.104040794074535, -0.003309883875772, -0.176769882440567, -0.043755158782005, 0.523595213890076, 0.000000000000000, 0.113452777266502, 0.011252819560468, 0.067956797778606, 0.150581061840057, 1.444543957710266, 0.047599554061890, -0.654321134090424, 0.010901902802289, -0.594840943813324, -0.033244680613279, 0.176392748951912
-0.075181342661381, 0.180490881204605, 0.548727571964264, 0.003322811797261, 0.459530204534531, 0.000000000000000, -0.101904444396496, -0.006837929133326, -0.174575224518776, -0.045549690723419, 0.523503363132477, 0.000000000000000, 0.114282220602036, 0.012902276590466, 0.078031517565250, 0.147492110729218, 1.385231733322144, 0.026502847671509, -0.661278963088989, 0.015057696029544, -0.592271685600281, -0.038531087338924, 0.167854666709900
-0.071610562503338, 0.177737936377525, 0.548350512981415, 0.002309265779331, 0.455548167228699, 0.000000000000000, -0.099160008132458, -0.010465655475855, -0.172076836228371, -0.047113746404648, 0.522961556911469, 0.000000000000000, 0.113343365490437, 0.013169663026929, 0.083994783461094, 0.150586470961571, 1.316684961318970, 0.002497613430023, -0.663283050060272, 0.020061234012246, -0.589285254478455, -0.044708792120218, 0.166374221444130
-0.066726222634315, 0.175238013267517, 0.547996938228607, 0.001018737326376, 0.451308846473694, 0.000000000000000, -0.095839820802212, -0.014153744094074, -0.169328987598419, -0.048549335449934, 0.521453440189362, 0.000000000000000, 0.111212693154812, 0.010579478926957, 0.086631245911121, 0.159791737794876, 1.242609858512878, -0.022495904937387, -0.658479809761047, 0.025381859391928, -0.584998011589050, -0.051214404404163, 0.172048702836037
-0.061367824673653, 0.172235563397408, 0.547819674015045, -0.000586331356317, 0.447034060955048, 0.000000000000000, -0.092288278043270, -0.018402211368084, -0.166306793689728, -0.050154451280832, 0.518960475921631, 0.000000000000000, 0.108355350792408, 0.007875980809331, 0.087202794849873, 0.174093738198280, 1.168158411979675, -0.046045027673244, -0.645432472229004, 0.030359314754605, -0.578464388847351, -0.057334445416927, 0.183013945817947
-0.056367002427578, 0.168336793780327, 0.547902643680573, -0.002492831787094, 0.443044006824493, 0.000000000000000, -0.088569201529026, -0.023169966414571, -0.163059130311012, -0.051924403756857, 0.515911400318146, 0.000000000000000, 0.105946876108646, 0.006608185358346, 0.086264334619045, 0.191822364926338, 1.098450183868408, -0.066309265792370, -0.624952197074890, 0.034533202648163, -0.569648027420044, -0.062558047473431, 0.195402741432190
-0.052127338945866, 0.164151102304459, 0.548184275627136, -0.004682862199843, 0.439697086811066, 0.000000000000000, -0.085661970078945, -0.027316508814692, -0.159810319542885, -0.053921643644571, 0.512894690036774, 0.000000000000000, 0.103858873248100, 0.006422957871109, 0.086112037301064, 0.209497988224030, 1.037348151206970, -0.080978207290173, -0.598100900650024, 0.037276849150658, -0.558344066143036, -0.066169284284115, 0.205912590026855
-0.048674993216991, 0.160171434283257, 0.548634052276611, -0.006919252686203, 0.437256515026093, 0.000000000000000, -0.084116809070110, -0.030381806194782, -0.156745612621307, -0.055962819606066, 0.510460853576660, 0.000000000000000, 0.101550765335560, 0.007615080103278, 0.087189778685570, 0.224158033728600, 0.987070322036743, -0.089750856161118, -0.568938255310059, 0.038517922163010, -0.545890092849731, -0.068074204027653, 0.212625578045845
-0.045862048864365, 0.156714081764221, 0.549264967441559, -0.008859447203577, 0.435800790786743, 0.000000000000000, -0.083736836910248, -0.032350648194551, -0.154032438993454, -0.057655096054077, 0.508934140205383, 0.000000000000000, 0.098291054368019, 0.010045642964542, 0.088959045708179, 0.233705505728722, 0.948517262935638, -0.094440981745720, -0.542786002159119, 0.038766305893660, -0.534316778182983, -0.068830385804176, 0.214556097984314
-0.043423298746347, 0.154175639152527, 0.550057053565979, -0.010207157582045, 0.435274481773376, 0.000000000000000, -0.083814434707165, -0.033220872282982, -0.151854231953621, -0.058565296232700, 0.508372545242310, 0.000000000000000, 0.094317458570004, 0.012333140708506, 0.091091521084309, 0.236717611551285, 0.922043085098267, -0.096491284668446, -0.523436367511749, 0.038395997136831, -0.525227010250092, -0.068872101604939, 0.211483851075172
-0.041145488619804, 0.152686074376106, 0.550981104373932, -0.010791416279972, 0.435547381639481, 0.000000000000000, -0.083538174629211, -0.033223919570446, -0.150336787104607, -0.058424081653357, 0.508617520332336, 0.000000000000000, 0.089662350714207, 0.014223030768335, 0.092709705233574, 0.232007980346680, 0.907865524291992, -0.096229590475559, -0.513914108276367, 0.037447396665812, -0.520073413848877, -0.068286053836346, 0.204352676868439
-0.038898587226868, 0.152092307806015, 0.552017569541931, -0.010671958327293, 0.436448812484741, 0.000000000000000, -0.082062035799026, -0.032917376607656, -0.149483546614647, -0.057134408503771, 0.509438574314117, 0.000000000000000, 0.084109857678413, 0.016502497717738, 0.091813467442989, 0.219960346817970, 0.906543731689453, -0.092148676514626, -0.514612913131714, 0.035522978752851, -0.519505679607391, -0.066664613783360, 0.195186987519264
-0.036203853785992, 0.151670545339584, 0.553195893764496, -0.009938238188624, 0.437870889902115, 0.000000000000000, -0.079740293323994, -0.032884355634451, -0.149166509509087, -0.055237930268049, 0.510572016239166, 0.000000000000000, 0.080268785357475, 0.017696384340525, 0.088620521128178, 0.205120548605919, 0.918857634067535, -0.082767352461815, -0.520983338356018, 0.032360032200813, -0.522514522075653, -0.063730299472809, 0.186368361115456
-0.032742906361818, 0.151674449443817, 0.554418921470642, -0.008989172056317, 0.439700484275818, 0.000000000000000, -0.076743125915527, -0.033059798181057, -0.149279534816742, -0.053126432001591, 0.511907279491425, 0.000000000000000, 0.077286064624786, 0.017214758321643, 0.083320997655392, 0.189695298671722, 0.944856107234955, -0.067781955003738, -0.529655158519745, 0.027951827272773, -0.527858734130859, -0.059458553791046, 0.178825631737709
-0.028941839933395, 0.152282819151878, 0.555648207664490, -0.008256942033768, 0.441881418228149, 0.000000000000000, -0.073768772184849, -0.033001892268658, -0.149739712476730, -0.051259119063616, 0.513431429862976, 0.000000000000000, 0.074710153043270, 0.014990922063589, 0.077229797840118, 0.174389526247978, 0.983968973159790, -0.047816254198551, -0.538739085197449, 0.022481625899673, -0.534522175788879, -0.054032888263464, 0.172970369458199
-0.025376778095961, 0.153496742248535, 0.556876003742218, -0.007882509380579, 0.444441288709641, 0.000000000000000, -0.071758657693863, -0.032203219830990, -0.150473847985268, -0.050008475780487, 0.515186190605164, 0.000000000000000, 0.072962529957294, 0.010995228774846, 0.071870952844620, 0.160416141152382, 1.035171747207642, -0.024407329037786, -0.546767890453339, 0.016365682706237, -0.541708171367645, -0.047909501940012, 0.170324027538300
-0.022462256252766, 0.155468404293060, 0.558059811592102, -0.007732120808214, 0.447396218776703, 0.000000000000000, -0.070902496576309, -0.030226761475205, -0.151428386569023, -0.049272309988737, 0.517208337783813, 0.000000000000000, 0.071999624371529, 0.004944612272084, 0.067670978605747, 0.149596154689789, 1.096931934356689, 0.000030397466617, -0.552474439144135, 0.010266873054206, -0.548748075962067, -0.041818711906672, 0.172834470868111
-0.020416514948010, 0.158100381493568, 0.559186697006226, -0.007460123859346, 0.450695514678955, 0.000000000000000, -0.071295857429504, -0.026782304048538, -0.152571111917496, -0.048876900225878, 0.519363999366760, 0.000000000000000, 0.071346260607243, -0.002110099187121, 0.064767539501190, 0.144303172826767, 1.166882872581482, 0.021689983084798, -0.555703699588776, 0.005248266272247, -0.555395841598511, -0.036919087171555, 0.181555733084679
-0.019366556778550, 0.160706892609596, 0.560311436653137, -0.006624488160014, 0.454234361648560, 0.000000000000000, -0.072035320103168, -0.022672647610307, -0.153768479824066, -0.048329167068005, 0.521358847618103, 0.000000000000000, 0.071621820330620, -0.007000618148595, 0.060996934771538, 0.146051779389381, 1.241541862487793, 0.037536881864071, -0.558052957057953, 0.002119610784575, -0.562208831310272, -0.034092128276825, 0.195789769291878
-0.019802547991276, 0.162866950035095, 0.561474978923798, -0.005119773093611, 0.457837700843811, 0.000000000000000, -0.072691075503826, -0.018742315471172, -0.154910743236542, -0.047421954572201, 0.522784113883972, 0.000000000000000, 0.073435313999653, -0.008861365728080, 0.055865183472633, 0.154255568981171, 1.316003680229187, 0.046974670141935, -0.558890104293823, 0.000953407841735, -0.568524122238159, -0.033388178795576, 0.212738782167435
-0.021860145032406, 0.164937898516655, 0.562586605548859, -0.003129218006507, 0.461288601160049, 0.000000000000000, -0.073022767901421, -0.015403148718178, -0.155935481190681, -0.046091016381979, 0.523445308208466, 0.000000000000000, 0.076127208769321, -0.008629375137389, 0.050485428422689, 0.166425034403801, 1.384994149208069, 0.050294622778893, -0.558675408363342, 0.001522666192614, -0.573849141597748, -0.034530900418758, 0.228594303131104
-0.024925833567977, 0.167420879006386, 0.563494443893433, -0.000854529382195, 0.464402675628662, 0.000000000000000, -0.073314815759659, -0.012414639815688, -0.156830474734306, -0.044523790478706, 0.523591399192810, 0.000000000000000, 0.079172022640705, -0.007996699772775, 0.045657593756914, 0.179572179913521, 1.444982171058655, 0.048844851553440, -0.558375298976898, 0.003303194418550, -0.578024744987488, -0.036942180246115, 0.240269511938095
-0.028359355404973, 0.170419529080391, 0.564116239547729, 0.001469512004405, 0.467027574777603, 0.000000000000000, -0.074254959821701, -0.009357819333673, -0.157611042261124, -0.043129634112120, 0.523599982261658, 0.000000000000000, 0.082165017724037, -0.007525017019361, 0.041226692497730, 0.191177025437355, 1.494425773620605, 0.044443119317293, -0.559021174907684, 0.005667247343808, -0.581139326095581, -0.039949815720320, 0.246146649122238
-0.032021779567003, 0.173495694994926, 0.564479768276215, 0.003579681972042, 0.469039648771286, 0.000000000000000, -0.075944125652313, -0.006369725335389, -0.158257156610489, -0.042151525616646, 0.523599982261658, 0.000000000000000, 0.085062585771084, -0.006891760975122, 0.037075158208609, 0.199432462453842, 1.532789349555969, 0.038807768374681, -0.561439752578735, 0.008040056563914, -0.583428204059601, -0.042950659990311, 0.245840981602669
-0.035902824252844, 0.176056131720543, 0.564634442329407, 0.005277547985315, 0.470348656177521, 0.000000000000000, -0.078171811997890, -0.003935368731618, -0.158730328083038, -0.041726052761078, 0.523599982261658, 0.000000000000000, 0.088001832365990, -0.006159071344882, 0.033816125243902, 0.203375920653343, 1.559865236282349, 0.033102899789810, -0.565783262252808, 0.010037603788078, -0.584947645664215, -0.045541841536760, 0.239638507366180
-0.039931498467922, 0.177909582853317, 0.564574122428894, 0.006375351920724, 0.470874249935150, 0.000000000000000, -0.080621145665646, -0.002313880482689, -0.159032732248306, -0.041870776563883, 0.523599982261658, 0.000000000000000, 0.091034449636936, -0.005552911665291, 0.031922738999128, 0.202576294541359, 1.575560212135315, 0.027962746098638, -0.572248578071594, 0.011446425691247, -0.585786759853363, -0.047498628497124, 0.228264003992081
-0.044057793915272, 0.179170116782188, 0.564273953437805, 0.006744064390659, 0.470587581396103, 0.000000000000000, -0.082862943410873, -0.001381101086736, -0.159196734428406, -0.042411267757416, 0.523599982261658, 0.000000000000000, 0.094139114022255, -0.005141765344888, 0.031611561775208, 0.196798935532570, 1.579824209213257, 0.023788994178176, -0.581145882606506, 0.012125296518207, -0.586082041263580, -0.048672925680876, 0.212858974933624
-0.048266761004925, 0.180022656917572, 0.563735961914062, 0.006366365589201, 0.469523727893829, 0.000000000000000, -0.084788553416729, -0.000843521673232, -0.159230798482895, -0.043169610202312, 0.523599982261658, 0.000000000000000, 0.096934542059898, -0.003943949006498, 0.032961059361696, 0.185800358653069, 1.572632193565369, 0.020950321108103, -0.592921614646912, 0.011937027797103, -0.586015045642853, -0.048923082649708, 0.195301920175552
-0.052276942878962, 0.180604845285416, 0.562979936599731, 0.005443348083645, 0.467785745859146, 0.000000000000000, -0.087059371173382, -0.000450139807072, -0.159097462892532, -0.044194113463163, 0.523599982261658, 0.000000000000000, 0.098235107958317, -0.000330516952090, 0.036636844277382, 0.170422986149788, 1.553881168365479, 0.018660450354218, -0.607951581478119, 0.011129845865071, -0.585742056369781, -0.048503089696169, 0.177914515137672
-0.055751807987690, 0.180769115686417, 0.562067091464996, 0.004360834136605, 0.465514034032822, 0.000000000000000, -0.090111427009106, -0.000531731930096, -0.158677905797958, -0.045474220067263, 0.523599982261658, 0.000000000000000, 0.098097965121269, 0.004374935757369, 0.045074045658112, 0.155181199312210, 1.523152470588684, 0.013016040436924, -0.624788701534271, 0.011041352525353, -0.585123777389526, -0.048793986439705, 0.163216233253479
-0.059113580733538, 0.180157840251923, 0.561137199401855, 0.003318498376757, 0.462791562080383, 0.000000000000000, -0.092876590788364, -0.001612126943655, -0.157878920435905, -0.046477571129799, 0.523599982261658, 0.000000000000000, 0.099311672151089, 0.006981706712395, 0.055700536817312, 0.144141107797623, 1.480193614959717, 0.001841907622293, -0.640404760837555, 0.012493480928242, -0.584169387817383, -0.050680704414845, 0.153436034917831
-0.062340497970581, 0.178548917174339, 0.560311615467072, 0.002441714284942, 0.459661126136780, 0.000000000000000, -0.095501348376274, -0.003798841498792, -0.156709864735603, -0.047247149050236, 0.523599982261658, 0.000000000000000, 0.101362496614456, 0.007181971799582, 0.065356194972992, 0.139687463641167, 1.425302267074585, -0.015773948282003, -0.653058350086212, 0.015878750011325, -0.582899570465088, -0.054588180035353, 0.149500548839569
-0.064353875815868, 0.177070125937462, 0.559442162513733, 0.001695745275356, 0.456111401319504, 0.000000000000000, -0.097738400101662, -0.005926690995693, -0.155373096466064, -0.047645248472691, 0.523599982261658, 0.000000000000000, 0.101243905723095, 0.008786980994046, 0.073612041771412, 0.143215134739876, 1.359693527221680, -0.039800044149160, -0.661535382270813, 0.021273158490658, -0.581197142601013, -0.060600154101849, 0.152289971709251
-0.064284764230251, 0.176322624087334, 0.558440983295441, 0.001002369099297, 0.452145844697952, 0.000000000000000, -0.099035225808620, -0.007564373780042, -0.153967022895813, -0.047584880143404, 0.523599982261658, 0.000000000000000, 0.099461033940315, 0.008549471385777, 0.079766042530537, 0.154791176319122, 1.286438584327698, -0.068607404828072, -0.664068698883057, 0.028256518766284, -0.578403055667877, -0.068264894187450, 0.161351323127747
-0.062589123845100, 0.175598442554474, 0.557468533515930, 0.000182660645805, 0.447811514139175, 0.000000000000000, -0.099456377327442, -0.009550104849041, -0.152416944503784, -0.047427516430616, 0.523590803146362, 0.000000000000000, 0.097014084458351, 0.006189307197928, 0.084207952022552, 0.173463478684425, 1.211051225662231, -0.099258415400982, -0.658150672912598, 0.036054003983736, -0.573325991630554, -0.076734624803066, 0.175358414649963
-0.060499470680952, 0.173976808786392, 0.556739330291748, -0.001024996745400, 0.443234264850616, 0.000000000000000, -0.099651798605919, -0.012568838894367, -0.150660768151283, -0.047747571021318, 0.523442089557648, 0.000000000000000, 0.094555392861366, 0.005219020415097, 0.088651046156883, 0.196675121784210, 1.139917016029358, -0.127711340785027, -0.642489433288574, 0.043541271239519, -0.565164864063263, -0.084785260260105, 0.191625371575356
-0.058125782757998, 0.171669483184814, 0.556203186511993, -0.002622745931149, 0.438719868659973, 0.000000000000000, -0.100068844854832, -0.016191709786654, -0.148767560720444, -0.048779681324959, 0.522870838642120, 0.000000000000000, 0.091947391629219, 0.006486051715910, 0.092945404350758, 0.220382779836655, 1.077594995498657, -0.149817988276482, -0.618252277374268, 0.049498934298754, -0.553981244564056, -0.091078475117683, 0.207110330462456
-0.055986117571592, 0.169610604643822, 0.555747151374817, -0.004674743395299, 0.434663146734238, 0.000000000000000, -0.100724622607231, -0.018928585574031, -0.146989658474922, -0.050280749797821, 0.521972537040710, 0.000000000000000, 0.089485891163349, 0.008470823056996, 0.098254710435867, 0.240164756774902, 1.026388049125671, -0.162829875946045, -0.588453650474548, 0.053115915507078, -0.540421009063721, -0.094680115580559, 0.218862712383270
-0.054419659078121, 0.168429121375084, 0.555343687534332, -0.006919010542333, 0.431479871273041, 0.000000000000000, -0.101777173578739, -0.019869571551681, -0.145570561289787, -0.051918219774961, 0.521231174468994, 0.000000000000000, 0.087425313889980, 0.010161370970309, 0.104371890425682, 0.253390878438950, 0.987262010574341, -0.166689395904541, -0.557674229145050, 0.054366588592529, -0.526131629943848, -0.095540203154087, 0.224899277091026
-0.053181380033493, 0.168005660176277, 0.555078446865082, -0.008654609322548, 0.429456919431686, 0.000000000000000, -0.102878108620644, -0.019268993288279, -0.144641235470772, -0.053183853626251, 0.521025240421295, 0.000000000000000, 0.085579738020897, 0.011607476510108, 0.109375827014446, 0.258399635553360, 0.960301399230957, -0.163296818733215, -0.531892240047455, 0.053706444799900, -0.513585746288300, -0.094195485115051, 0.224268674850464
-0.051824178546667, 0.168065652251244, 0.555021643638611, -0.009214391931891, 0.428638488054276, 0.000000000000000, -0.102821566164494, -0.017916208133101, -0.144273310899734, -0.053395438939333, 0.521391212940216, 0.000000000000000, 0.084182977676392, 0.012566572986543, 0.111649729311466, 0.254251360893250, 0.945426464080811, -0.154400601983070, -0.515809535980225, 0.051533970981836, -0.504900276660919, -0.091147884726524, 0.216808333992958
-0.050105981528759, 0.168559208512306, 0.555164396762848, -0.008381681516767, 0.428860038518906, 0.000000000000000, -0.100770831108093, -0.016455944627523, -0.144521966576576, -0.052209991961718, 0.522097408771515, 0.000000000000000, 0.083208158612251, 0.012791851535439, 0.110235206782818, 0.240625560283661, 0.942864239215851, -0.140332937240601, -0.511424362659454, 0.047925721853971, -0.501131951808929, -0.086518980562687, 0.203556925058365
-0.047998137772083, 0.169295758008957, 0.555486977100372, -0.006361529231071, 0.429901450872421, 0.000000000000000, -0.096819020807743, -0.015396151691675, -0.145355701446533, -0.049786940217018, 0.522841572761536, 0.000000000000000, 0.082388542592525, 0.012666977010667, 0.105405367910862, 0.218861535191536, 0.953086912631989, -0.120917990803719, -0.517570436000824, 0.042915306985378, -0.502070128917694, -0.080347642302513, 0.186942219734192
-0.045751072466373, 0.169895440340042, 0.556009113788605, -0.003678819397464, 0.431586235761642, 0.000000000000000, -0.092110425233841, -0.015078519470990, -0.146646067500114, -0.046807013452053, 0.523356139659882, 0.000000000000000, 0.081831388175488, 0.012517471797764, 0.098925203084946, 0.191974937915802, 0.976420223712921, -0.096499204635620, -0.530563294887543, 0.036728616803885, -0.506427228450775, -0.072864070534706, 0.169809907674789
-0.043540056794882, 0.170326754450798, 0.556696295738220, -0.000981248333119, 0.433818340301514, 0.000000000000000, -0.087847061455250, -0.015410385094583, -0.148244038224220, -0.043959502130747, 0.523560106754303, 0.000000000000000, 0.082124091684818, 0.011718859896064, 0.092198409140110, 0.163295507431030, 1.012735009193420, -0.067956157028675, -0.546222805976868, 0.029711097478867, -0.512610852718353, -0.064432069659233, 0.154492169618607
-0.041746504604816, 0.170981839299202, 0.557473540306091, 0.001076971297152, 0.436529308557510, 0.000000000000000, -0.084787100553513, -0.015676775947213, -0.150058433413506, -0.041648361831903, 0.523597896099091, 0.000000000000000, 0.083530306816101, 0.008838756009936, 0.087599508464336, 0.136526763439178, 1.061146497726440, -0.038193035870790, -0.561286032199860, 0.022709593176842, -0.519252359867096, -0.055996898561716, 0.142932891845703
-0.040416765958071, 0.172325938940048, 0.558251142501831, 0.002177565358579, 0.439642906188965, 0.000000000000000, -0.083908490836620, -0.014659929089248, -0.152075603604317, -0.040248647332191, 0.523599982261658, 0.000000000000000, 0.084366343915462, 0.003381305839866, 0.087498418986797, 0.115101382136345, 1.119989156723022, -0.012280506081879, -0.575019478797913, 0.017113180831075, -0.525798797607422, -0.049128472805023, 0.136951178312302
-0.038457788527012, 0.174788117408752, 0.558845221996307, 0.002659639343619, 0.443100810050964, 0.000000000000000, -0.084453612565994, -0.011887950822711, -0.154224365949631, -0.039360515773296, 0.523599982261658, 0.000000000000000, 0.084068849682808, -0.003789180889726, 0.089026026427746, 0.100602090358734, 1.187580347061157, 0.007818044163287, -0.587927162647247, 0.013457924127579, -0.532362878322601, -0.044427745044231, 0.138225749135017
-0.036391109228134, 0.177522897720337, 0.559343934059143, 0.002901504049078, 0.446750164031982, 0.000000000000000, -0.085561186075211, -0.007941924035549, -0.156374111771584, -0.038721159100533, 0.523599982261658, 0.000000000000000, 0.083292812108994, -0.009349196217954, 0.090517163276672, 0.094234712421894, 1.261314392089844, 0.020579321309924, -0.601053774356842, 0.012156169861555, -0.539320826530457, -0.042344484478235, 0.145801052451134
-0.034867867827415, 0.179274871945381, 0.559880733489990, 0.003408176125959, 0.450420409440994, 0.000000000000000, -0.085878357291222, -0.004822138696909, -0.158254757523537, -0.037950977683067, 0.523599982261658, 0.000000000000000, 0.083977945148945, -0.011242242529988, 0.089028395712376, 0.096677891910076, 1.336847782135010, 0.026035303249955, -0.613893032073975, 0.013141988776624, -0.546636164188385, -0.042791467159986, 0.157660707831383
-0.034650456160307, 0.179902255535126, 0.560475051403046, 0.004309613723308, 0.453915476799011, 0.000000000000000, -0.085522353649139, -0.003206221153960, -0.159795656800270, -0.037113912403584, 0.523599982261658, 0.000000000000000, 0.086713224649429, -0.011051973327994, 0.085084907710552, 0.106166079640388, 1.408636212348938, 0.025531006976962, -0.624694168567657, 0.015922211110592, -0.553286910057068, -0.045177422463894, 0.170360401272774
-0.035909406840801, 0.180715754628181, 0.560932457447052, 0.005415713880211, 0.457039475440979, 0.000000000000000, -0.084918007254601, -0.001888224505819, -0.161172196269035, -0.036215834319592, 0.523599982261658, 0.000000000000000, 0.090095281600952, -0.010729555971920, 0.082289867103100, 0.118734002113342, 1.472374320030212, 0.021105343475938, -0.633017063140869, 0.019767593592405, -0.558239758014679, -0.048642374575138, 0.180112540721893
-0.038047604262829, 0.182300984859467, 0.561128437519073, 0.006725016050041, 0.459693968296051, 0.000000000000000, -0.084570251405239, -0.000215873165871, -0.162453293800354, -0.035364087671041, 0.523599982261658, 0.000000000000000, 0.093388773500919, -0.010706624947488, 0.081009939312935, 0.129673913121223, 1.525945067405701, 0.016382729634643, -0.639264583587646, 0.023452401161194, -0.561025798320770, -0.051823135465384, 0.184586226940155
-0.040603898465633, 0.184339463710785, 0.561085879802704, 0.008216112852097, 0.461804836988449, 0.000000000000000, -0.085047453641891, 0.001741326996125, -0.163623884320259, -0.034839000552893, 0.523599982261658, 0.000000000000000, 0.096646942198277, -0.009826603345573, 0.079432301223278, 0.135392725467682, 1.568531155586243, 0.014627077616751, -0.644938111305237, 0.025849934667349, -0.562033474445343, -0.053508896380663, 0.182896986603737
-0.043699447065592, 0.186330467462540, 0.560873568058014, 0.009637439623475, 0.463257223367691, 0.000000000000000, -0.086155027151108, 0.003457027487457, -0.164648532867432, -0.034724134951830, 0.523599982261658, 0.000000000000000, 0.100096501410007, -0.008361028507352, 0.078034117817879, 0.135036095976830, 1.599744796752930, 0.016662880778313, -0.650776624679565, 0.026650145649910, -0.561548590660095, -0.053371988236904, 0.174785718321800
-0.047354828566313, 0.187968924641609, 0.560507655143738, 0.010713670402765, 0.463966876268387, 0.000000000000000, -0.087570272386074, 0.004592191427946, -0.165530905127525, -0.035041939467192, 0.523599982261658, 0.000000000000000, 0.103839829564095, -0.006961822044104, 0.077833674848080, 0.128589451313019, 1.619443058967590, 0.022571777924895, -0.657199800014496, 0.025802657008171, -0.559769213199615, -0.051362846046686, 0.160190895199776
-0.051464844495058, 0.189326018095016, 0.559947729110718, 0.011141105554998, 0.463883787393570, 0.000000000000000, -0.088956139981747, 0.005318324547261, -0.166323751211166, -0.035714708268642, 0.523599982261658, 0.000000000000000, 0.107754327356815, -0.006162557285279, 0.079902261495590, 0.116232730448246, 1.627629876136780, 0.032224450260401, -0.664720892906189, 0.023330660536885, -0.556916058063507, -0.047512877732515, 0.139522999525070
-0.055818371474743, 0.190419182181358, 0.559189140796661, 0.010739648714662, 0.463010996580124, 0.000000000000000, -0.090481452643871, 0.005851639900357, -0.167027860879898, -0.036781858652830, 0.523599982261658, 0.000000000000000, 0.111107617616653, -0.005463174544275, 0.085036948323250, 0.098229825496674, 1.624383687973022, 0.045453496277332, -0.673902690410614, 0.019270965829492, -0.553292155265808, -0.041875921189785, 0.114588044583797
-0.059659413993359, 0.190637752413750, 0.558307766914368, 0.009838080033660, 0.461478739976883, 0.000000000000000, -0.092825584113598, 0.005729125812650, -0.167478904128075, -0.038458127528429, 0.523599982261658, 0.000000000000000, 0.113638967275620, -0.003354609711096, 0.090735673904419, 0.075793832540512, 1.609632492065430, 0.061746317893267, -0.685108602046967, 0.013785952702165, -0.549769818782806, -0.034674677997828, 0.089244812726974
-0.062361538410187, 0.189840957522392, 0.557304024696350, 0.008830992504954, 0.459433883428574, 0.000000000000000, -0.095361538231373, 0.004785930737853, -0.167566135525703, -0.040381301194429, 0.523599982261658, 0.000000000000000, 0.116293102502823, -0.000798558583483, 0.093521773815155, 0.053763769567013, 1.582801222801208, 0.077963873744011, -0.696550071239471, 0.007968596182764, -0.547267258167267, -0.027157206088305, 0.068927109241486
-0.063586577773094, 0.188803240656853, 0.556049644947052, 0.007917687296867, 0.456974446773529, 0.000000000000000, -0.096999183297157, 0.003429432166740, -0.167334556579590, -0.042000532150269, 0.523599982261658, 0.000000000000000, 0.118318356573582, 0.002559730317444, 0.094576977193356, 0.036954261362553, 1.543357372283936, 0.090749479830265, -0.706050038337708, 0.002990970155224, -0.546083569526672, -0.020628778263927, 0.057414434850216
-0.064396306872368, 0.187504634261131, 0.554649233818054, 0.007038844749331, 0.454151391983032, 0.000000000000000, -0.097641371190548, 0.001749221119098, -0.166831433773041, -0.043236009776592, 0.523599982261658, 0.000000000000000, 0.119965925812721, 0.006270674522966, 0.095236964523792, 0.028034204617143, 1.491147518157959, 0.098508775234222, -0.712648689746857, -0.000588146853261, -0.546409487724304, -0.015711585059762, 0.055393755435944
-0.065067239105701, 0.185917183756828, 0.553180932998657, 0.006210744380951, 0.450991719961166, 0.000000000000000, -0.097616598010063, -0.000205961812753, -0.166099175810814, -0.044227834790945, 0.523599982261658, 0.000000000000000, 0.121399439871311, 0.009231890551746, 0.095243252813816, 0.028388056904078, 1.426470637321472, 0.100899882614613, -0.715336561203003, -0.002634560922161, -0.548003792762756, -0.012552104890347, 0.062398217618465
-0.065091200172901, 0.184112757444382, 0.551669180393219, 0.005449592601508, 0.447489082813263, 0.000000000000000, -0.097004160284996, -0.002387590706348, -0.165164127945900, -0.045094165951014, 0.523599982261658, 0.000000000000000, 0.122293926775455, 0.010961073450744, 0.093600869178772, 0.038592200726271, 1.350320935249329, 0.098504856228828, -0.713093698024750, -0.003320605726913, -0.550358831882477, -0.010955533944070, 0.078157432377338
-0.063658423721790, 0.182316705584526, 0.550086438655853, 0.004728988744318, 0.443640917539597, 0.000000000000000, -0.095574468374252, -0.004717355594039, -0.164045274257660, -0.045888207852840, 0.523598790168762, 0.000000000000000, 0.122219815850258, 0.011011191643775, 0.088553063571453, 0.058476772159338, 1.264852762222290, 0.092655405402184, -0.705274105072021, -0.003056881716475, -0.552888810634613, -0.010467611253262, 0.102648325264454
-0.060615457594395, 0.180500134825706, 0.548460602760315, 0.003929137252271, 0.439484775066376, 0.000000000000000, -0.093256786465645, -0.007355056703091, -0.162736207246780, -0.046787321567535, 0.523562967777252, 0.000000000000000, 0.121678158640862, 0.008886741474271, 0.079147256910801, 0.087210558354855, 1.173678874969482, 0.085225448012352, -0.690889358520508, -0.002407646272331, -0.554596722126007, -0.010468963533640, 0.134543389081955
-0.057184968143702, 0.178381636738777, 0.546926736831665, 0.002680416917428, 0.435096919536591, 0.000000000000000, -0.090540990233421, -0.010493814945221, -0.161242216825485, -0.048181764781475, 0.523226141929626, 0.000000000000000, 0.122058846056461, 0.004201595671475, 0.067709557712078, 0.122146382927895, 1.081655621528625, 0.078751266002655, -0.667996346950531, -0.002127245767042, -0.553542137145996, -0.010131180286407, 0.169488534331322
-0.054336290806532, 0.175898835062981, 0.545555531978607, 0.000819660665002, 0.430733084678650, 0.000000000000000, -0.087932996451855, -0.014030926860869, -0.159587025642395, -0.050274886190891, 0.522147536277771, 0.000000000000000, 0.122542768716812, 0.000040391802031, 0.057029780000448, 0.157554879784584, 0.994108557701111, 0.075287029147148, -0.638669788837433, -0.002791249426082, -0.548887729644775, -0.008818205446005, 0.202416792511940
-0.052379596978426, 0.173508226871490, 0.544320762157440, -0.001546435523778, 0.426839530467987, 0.000000000000000, -0.085651099681854, -0.017001979053020, -0.157883733510971, -0.052823968231678, 0.520601630210876, 0.000000000000000, 0.122760184109211, -0.002669337205589, 0.048451792448759, 0.190503835678101, 0.914913833141327, 0.074489124119282, -0.606116056442261, -0.004180255811661, -0.541330456733704, -0.006765068974346, 0.230710536241531
-0.051231581717730, 0.171547129750252, 0.543249547481537, -0.004032027907670, 0.423927932977676, 0.000000000000000, -0.084040857851505, -0.018671164289117, -0.156240791082382, -0.055436659604311, 0.519263684749603, 0.000000000000000, 0.122856669127941, -0.004438341129571, 0.041923288255930, 0.219200044870377, 0.846572518348694, 0.075798645615578, -0.573269307613373, -0.006038852501661, -0.532095193862915, -0.004257276654243, 0.253026336431503
-0.050632938742638, 0.170026868581772, 0.542468726634979, -0.006057690829039, 0.422318041324615, 0.000000000000000, -0.083315789699554, -0.019141942262650, -0.154752150177956, -0.057636275887489, 0.518628478050232, 0.000000000000000, 0.122654512524605, -0.005443325266242, 0.037230633199215, 0.241978913545609, 0.790776073932648, 0.078272573649883, -0.543336808681488, -0.008035321719944, -0.522640526294708, -0.001673760008998, 0.268384188413620
-0.050245430320501, 0.168865308165550, 0.542116701602936, -0.007058613933623, 0.421998351812363, 0.000000000000000, -0.083248622715473, -0.018802717328072, -0.153551965951920, -0.058881219476461, 0.518789231777191, 0.000000000000000, 0.121930576860905, -0.005773621611297, 0.033897042274475, 0.257432758808136, 0.748632669448853, 0.080969862639904, -0.519437670707703, -0.009863406419754, -0.514481186866760, 0.000630151072983, 0.276245027780533
-0.049860168248415, 0.167996853590012, 0.542253732681274, -0.006816290318966, 0.422701120376587, 0.000000000000000, -0.083438098430634, -0.018186343833804, -0.152755439281464, -0.058895345777273, 0.519492983818054, 0.000000000000000, 0.120691284537315, -0.005716052837670, 0.031301889568567, 0.264249205589294, 0.720859169960022, 0.083986505866051, -0.503773868083954, -0.011524443514645, -0.508749842643738, 0.002647521905601, 0.276547670364380
-0.049366813153028, 0.167318776249886, 0.542831301689148, -0.005545532330871, 0.424112409353256, 0.000000000000000, -0.083678826689720, -0.017630778253078, -0.152438580989838, -0.057845111936331, 0.520397305488586, 0.000000000000000, 0.119094863533974, -0.005901035387069, 0.029097191989422, 0.261413156986237, 0.707926273345947, 0.088200107216835, -0.497218251228333, -0.013237969018519, -0.505922853946686, 0.004625829402357, 0.269633144140244
-0.048544786870480, 0.166761919856071, 0.543700039386749, -0.003723383182660, 0.425993502140045, 0.000000000000000, -0.083535395562649, -0.017486194148660, -0.152594611048698, -0.056059166789055, 0.521238684654236, 0.000000000000000, 0.117349110543728, -0.006880835630000, 0.026944719254971, 0.248533666133881, 0.710082292556763, 0.094429984688759, -0.499620467424393, -0.015212104655802, -0.505941033363342, 0.006801870185882, 0.256333768367767
-0.047335084527731, 0.166187003254890, 0.544718921184540, -0.001916802022606, 0.428207665681839, 0.000000000000000, -0.082601487636566, -0.018130332231522, -0.153146326541901, -0.053936086595058, 0.521868467330933, 0.000000000000000, 0.115684665739536, -0.008602001704276, 0.025004494935274, 0.225945562124252, 0.727331161499023, 0.103094860911369, -0.509988188743591, -0.017560895532370, -0.508299887180328, 0.009300439618528, 0.238024041056633
-0.046006459742785, 0.165511563420296, 0.545811176300049, -0.000669229251798, 0.430706709623337, 0.000000000000000, -0.081104099750519, -0.019542092457414, -0.154021635651588, -0.051961883902550, 0.522251486778259, 0.000000000000000, 0.114188969135284, -0.010650704614818, 0.024488670751452, 0.194723650813103, 0.759377062320709, 0.114244833588600, -0.526403307914734, -0.020320098847151, -0.512033283710480, 0.012148895300925, 0.216568887233734
-0.044885449111462, 0.164938241243362, 0.546930909156799, -0.000375355652068, 0.433507382869720, 0.000000000000000, -0.079805605113506, -0.021094005554914, -0.155189096927643, -0.050518754869699, 0.522470593452454, 0.000000000000000, 0.112665474414825, -0.012973880395293, 0.027080180123448, 0.156642019748688, 0.805552184581757, 0.127438887953758, -0.546401858329773, -0.023411346599460, -0.515934705734253, 0.015236799605191, 0.194040954113007
-0.044039245694876, 0.164883151650429, 0.548036932945251, -0.001114987186156, 0.436666995286942, 0.000000000000000, -0.079485498368740, -0.021897278726101, -0.156624481081963, -0.049705695360899, 0.522675216197968, 0.000000000000000, 0.110668689012527, -0.015852110460401, 0.033819880336523, 0.113925077021122, 0.864818930625916, 0.141476497054100, -0.567981600761414, -0.026550313457847, -0.519044876098633, 0.018217034637928, 0.172416135668755
-0.043290384113789, 0.165517851710320, 0.549125790596008, -0.002516538603231, 0.440258800983429, 0.000000000000000, -0.080463312566280, -0.021509137004614, -0.158244490623474, -0.049279712140560, 0.522973418235779, 0.000000000000000, 0.107894793152809, -0.018656063824892, 0.043934635818005, 0.068731695413589, 0.935880303382874, 0.154783442616463, -0.590581238269806, -0.029327321797609, -0.521114289760590, 0.020608058199286, 0.153206661343575
-0.042573668062687, 0.166664645075798, 0.550229609012604, -0.003931569401175, 0.444304078817368, 0.000000000000000, -0.082510128617287, -0.020053664222360, -0.159927636384964, -0.048739224672318, 0.523330807685852, 0.000000000000000, 0.104167580604553, -0.018880747258663, 0.055297836661339, 0.023566460236907, 1.017063498497009, 0.165200099349022, -0.615195631980896, -0.031122129410505, -0.522706270217896, 0.021706232801080, 0.137472286820412
-0.042360290884972, 0.168293684720993, 0.551358401775360, -0.004887252580374, 0.448689281940460, 0.000000000000000, -0.085991449654102, -0.017221504822373, -0.161665380001068, -0.047927260398865, 0.523545265197754, 0.000000000000000, 0.099034585058689, -0.015629976987839, 0.068033836781979, -0.016216199845076, 1.105391144752502, 0.168645456433296, -0.641396641731262, -0.030751012265682, -0.524158954620361, 0.020183578133583, 0.125908315181732
-0.043622337281704, 0.169895499944687, 0.552589476108551, -0.005144117400050, 0.453202277421951, 0.000000000000000, -0.089818291366100, -0.013979270122945, -0.163329318165779, -0.046376332640648, 0.523596882820129, 0.000000000000000, 0.094539545476437, -0.012186162173748, 0.080565832555294, -0.045488048344851, 1.196206688880920, 0.164421707391739, -0.665227353572845, -0.028087623417377, -0.524917721748352, 0.015918254852295, 0.118784539401531
-0.046094510704279, 0.171164900064468, 0.553900718688965, -0.004497915972024, 0.457660257816315, 0.000000000000000, -0.093680888414383, -0.011282935738564, -0.164791733026505, -0.044222172349691, 0.523599982261658, 0.000000000000000, 0.091981224715710, -0.008474408648908, 0.089192695915699, -0.064727678894997, 1.284496188163757, 0.155856877565384, -0.683941483497620, -0.024253899231553, -0.524574816226959, 0.010193157941103, 0.115446180105209
-0.048835635185242, 0.172555357217789, 0.555114626884460, -0.002998931100592, 0.461875259876251, 0.000000000000000, -0.097327619791031, -0.009112567640841, -0.166048839688301, -0.041755717247725, 0.523599982261658, 0.000000000000000, 0.090444557368755, -0.003565657651052, 0.091715686023235, -0.075047709047794, 1.365869879722595, 0.143731534481049, -0.698846697807312, -0.019548291340470, -0.524125993251801, 0.003360070753843, 0.114584438502789
-0.051334466785192, 0.174451932311058, 0.556057035923004, -0.000929646077566, 0.465670973062515, 0.000000000000000, -0.100382879376411, -0.006977903656662, -0.167170375585556, -0.039279196411371, 0.523599982261658, 0.000000000000000, 0.088883452117443, 0.001024394761771, 0.089938215911388, -0.075864583253860, 1.437308192253113, 0.126239448785782, -0.711466491222382, -0.013422341085970, -0.524486541748047, -0.005189213436097, 0.114828906953335
-0.054269492626190, 0.176957190036774, 0.556678295135498, 0.001032529515214, 0.468821763992310, 0.000000000000000, -0.103298008441925, -0.004423713777214, -0.168290272355080, -0.037470031529665, 0.523599982261658, 0.000000000000000, 0.088166676461697, 0.003173325676471, 0.086256705224514, -0.068855084478855, 1.497287034988403, 0.104034163057804, -0.721194744110107, -0.006111199501902, -0.525250554084778, -0.015181253664196, 0.114240556955338
-0.057811200618744, 0.179716080427170, 0.556950330734253, 0.002508502686396, 0.471181273460388, 0.000000000000000, -0.105446256697178, -0.001708445022814, -0.169435873627663, -0.036517407745123, 0.523599982261658, 0.000000000000000, 0.089023500680923, 0.001832333160564, 0.081363514065742, -0.056613974273205, 1.545317053794861, 0.078521721065044, -0.728744029998779, 0.001916756387800, -0.526323318481445, -0.026078088209033, 0.111252546310425
-0.061453498899937, 0.181912437081337, 0.556900620460510, 0.003512885421515, 0.472697347402573, 0.000000000000000, -0.105928391218185, 0.000405675033107, -0.170523956418037, -0.036305759102106, 0.523599982261658, 0.000000000000000, 0.091578848659992, -0.001532210386358, 0.074036389589310, -0.043681312352419, 1.581391334533691, 0.053089763969183, -0.735525012016296, 0.009516268037260, -0.527613341808319, -0.036566343158484, 0.104830175638199
-0.064538523554802, 0.183218106627464, 0.556550264358521, 0.004086834844202, 0.473325908184052, 0.000000000000000, -0.105201721191406, 0.001614959561266, -0.171519026160240, -0.036953561007977, 0.523599982261658, 0.000000000000000, 0.094897754490376, -0.004695676267147, 0.066010415554047, -0.034489553421736, 1.605614781379700, 0.031203180551529, -0.741382956504822, 0.015509025193751, -0.528042733669281, -0.045264549553394, 0.094773232936859
-0.066542774438858, 0.183950215578079, 0.555876731872559, 0.004257735796273, 0.473051518201828, 0.000000000000000, -0.103630192577839, 0.002161815064028, -0.172441214323044, -0.038262080401182, 0.523599982261658, 0.000000000000000, 0.098271258175373, -0.007071308791637, 0.059782624244690, -0.030933145433664, 1.617971658706665, 0.014358261600137, -0.745640635490417, 0.019395222887397, -0.526706814765930, -0.051552679389715, 0.082071423530579
-0.067377798259258, 0.184090808033943, 0.554957687854767, 0.004135818220675, 0.471917897462845, 0.000000000000000, -0.101807303726673, 0.001940103597008, -0.173242285847664, -0.040087793022394, 0.523599982261658, 0.000000000000000, 0.101222053170204, -0.008183786645532, 0.055726569145918, -0.033317647874355, 1.618389725685120, 0.002923706313595, -0.748175323009491, 0.021063167601824, -0.523463368415833, -0.055272839963436, 0.068845786154270
-0.067150346934795, 0.183400869369507, 0.553894340991974, 0.003936919383705, 0.470026791095734, 0.000000000000000, -0.100382804870605, 0.000800954643637, -0.173874735832214, -0.042411960661411, 0.523599982261658, 0.000000000000000, 0.103477165102959, -0.007586138788611, 0.053175929933786, -0.040781371295452, 1.606812357902527, -0.003597042523324, -0.748908817768097, 0.020701849833131, -0.518581271171570, -0.056635085493326, 0.057670652866364
-0.066094949841499, 0.182124316692352, 0.552662074565887, 0.003800374688581, 0.467482924461365, 0.000000000000000, -0.098840959370136, -0.001080370857380, -0.174360498785973, -0.044885687530041, 0.523599982261658, 0.000000000000000, 0.105596132576466, -0.005263290368021, 0.051679149270058, -0.051403209567070, 1.583199858665466, -0.006493937689811, -0.747707068920135, 0.018773270770907, -0.512632191181183, -0.056187376379967, 0.051280967891216
-0.065288200974464, 0.180607259273529, 0.551252603530884, 0.003494888544083, 0.464318543672562, 0.000000000000000, -0.096365928649902, -0.003345577279106, -0.174766764044762, -0.047159317880869, 0.523599982261658, 0.000000000000000, 0.108926281332970, -0.001959268702194, 0.052702173590660, -0.062032200396061, 1.547579407691956, -0.008197125978768, -0.744743525981903, 0.016104815527797, -0.506358206272125, -0.054915606975555, 0.051169540733099
-0.064368218183517, 0.178882569074631, 0.549629211425781, 0.003138177795336, 0.460625827312469, 0.000000000000000, -0.093405589461327, -0.005828717723489, -0.175136148929596, -0.049424130469561, 0.523599982261658, 0.000000000000000, 0.111967012286186, 0.001791978371330, 0.054278716444969, -0.067591316998005, 1.500075578689575, -0.012552735395730, -0.739276885986328, 0.013990712352097, -0.500341117382050, -0.054371431469917, 0.058957565575838
-0.062655560672283, 0.176910102367401, 0.547768950462341, 0.002829935867339, 0.456486314535141, 0.000000000000000, -0.089543066918850, -0.008648640476167, -0.175438076257706, -0.051547024399042, 0.523594379425049, 0.000000000000000, 0.113818757236004, 0.006029683165252, 0.054880529642105, -0.065477959811687, 1.440938353538513, -0.021371545270085, -0.731203496456146, 0.013014365918934, -0.494854450225830, -0.055266670882702, 0.074441537261009
-0.059714410454035, 0.174657300114632, 0.545681536197662, 0.002554821316153, 0.451970279216766, 0.000000000000000, -0.084583401679993, -0.011876517906785, -0.175619408488274, -0.053501404821873, 0.523488163948059, 0.000000000000000, 0.114402465522289, 0.010905843228102, 0.053528156131506, -0.055139947682619, 1.370710134506226, -0.034733727574348, -0.720361411571503, 0.013192956335843, -0.489672303199768, -0.057621333748102, 0.095793351531029
-0.055954076349735, 0.171910613775253, 0.543459177017212, 0.002087335567921, 0.447125345468521, 0.000000000000000, -0.078762188553810, -0.015699295327067, -0.175606980919838, -0.055435929447412, 0.522884190082550, 0.000000000000000, 0.115353547036648, 0.014278072863817, 0.050528138875961, -0.036771602928638, 1.290496587753296, -0.051964465528727, -0.705490827560425, 0.014346352778375, -0.483814418315887, -0.061180353164673, 0.119917683303356
-0.051491882652044, 0.168695703148842, 0.541129648685455, 0.001301823416725, 0.442063361406326, 0.000000000000000, -0.072130143642426, -0.020317206159234, -0.175314977765083, -0.057359836995602, 0.521249592304230, 0.000000000000000, 0.116842240095139, 0.014497349038720, 0.047562703490257, -0.011667187325656, 1.202252984046936, -0.071039967238903, -0.683015286922455, 0.015980916097760, -0.475010454654694, -0.065237127244473, 0.145288214087486
