isaac-sim2real/sage/motion_files/wr75s/amass/0-CMU_86_86_13_poses_idx15.txt
l_joint1,l_joint2,l_joint3,l_joint4,l_joint5,l_joint6,l_joint7,r_joint1,r_joint2,r_joint3,r_joint4,r_joint5,r_joint6,r_joint7
-0.10230362,-2.11975265,-0.59688801,-0.34032011,-0.10777500,0.00000000,0.00000000,-0.10114545,2.05833292,0.82917708,0.50174814,0.22590318,0.00000000,0.00000000
-0.10860600,-2.12924695,-0.59681386,-0.34734923,-0.11258032,0.00000000,0.00000000,-0.09930907,2.05518961,0.83001018,0.50051910,0.23778528,0.00000000,0.00000000
-0.11984555,-2.14255190,-0.59708154,-0.35773501,-0.11801777,0.00000000,0.00000000,-0.09724956,2.05120540,0.83085603,0.49851081,0.24676177,0.00000000,0.00000000
-0.13476604,-2.15495205,-0.59802419,-0.36848226,-0.12126923,0.00000000,0.00000000,-0.09656419,2.04793620,0.83104742,0.49581400,0.25706181,0.00000000,0.00000000
-0.15176138,-2.16394043,-0.59966373,-0.37780619,-0.12508871,0.00000000,0.00000000,-0.09823930,2.04603100,0.83024460,0.49233326,0.26602751,0.00000000,0.00000000
-0.16871712,-2.16872191,-0.60171777,-0.38461700,-0.12894945,0.00000000,0.00000000,-0.10277113,2.04555321,0.82833683,0.48786151,0.27440476,0.00000000,0.00000000
-0.18430033,-2.16992617,-0.60400093,-0.38817248,-0.13347821,0.00000000,0.00000000,-0.11022415,2.04643440,0.82533580,0.48229223,0.28063112,0.00000000,0.00000000
-0.19843632,-2.16994047,-0.60657406,-0.38805032,-0.13653180,0.00000000,0.00000000,-0.12032337,2.04862213,0.82132602,0.47567222,0.28731304,0.00000000,0.00000000
-0.21110541,-2.16897583,-0.60947090,-0.38418519,-0.14009328,0.00000000,0.00000000,-0.13267547,2.05205250,0.81642580,0.46811235,0.29410467,0.00000000,0.00000000
-0.22169444,-2.16520977,-0.61251026,-0.37706557,-0.14383590,0.00000000,0.00000000,-0.14687678,2.05666280,0.81076229,0.45975569,0.29983383,0.00000000,0.00000000
-0.22923973,-2.15853977,-0.61535060,-0.36758208,-0.14897129,0.00000000,0.00000000,-0.16257113,2.06234479,0.80446726,0.45073214,0.30458969,0.00000000,0.00000000
-0.23287952,-2.15034270,-0.61767787,-0.35664082,-0.15322937,0.00000000,0.00000000,-0.17939658,2.06892228,0.79769045,0.44116849,0.30971977,0.00000000,0.00000000
-0.23211573,-2.14231372,-0.61925185,-0.34523928,-0.15749368,0.00000000,0.00000000,-0.19700004,2.07609248,0.79060596,0.43114516,0.31465855,0.00000000,0.00000000
-0.22694208,-2.13533998,-0.62002981,-0.33401099,-0.16103585,0.00000000,0.00000000,-0.21503398,2.08345628,0.78340352,0.42070869,0.31892610,0.00000000,0.00000000
-0.21777818,-2.12952805,-0.62013990,-0.32327369,-0.16090171,0.00000000,0.00000000,-0.23309608,2.09070063,0.77626628,0.40997735,0.32272798,0.00000000,0.00000000
-0.20498426,-2.12479830,-0.61971593,-0.31315646,-0.16386147,0.00000000,0.00000000,-0.25067359,2.09756255,0.76938266,0.39912611,0.32639647,0.00000000,0.00000000
-0.18884322,-2.12102246,-0.61887729,-0.30366305,-0.16647807,0.00000000,0.00000000,-0.26722291,2.10376811,0.76293981,0.38831714,0.32911408,0.00000000,0.00000000
-0.16977863,-2.11813641,-0.61775190,-0.29486582,-0.16748300,0.00000000,0.00000000,-0.28230569,2.10912061,0.75708538,0.37769076,0.32933256,0.00000000,0.00000000
-0.14830346,-2.11610961,-0.61647040,-0.28690350,-0.16797057,0.00000000,0.00000000,-0.29557997,2.11349225,0.75193250,0.36737594,0.33101842,0.00000000,0.00000000
-0.12519749,-2.11497760,-0.61518818,-0.28007486,-0.17123295,0.00000000,0.00000000,-0.30678019,2.11663270,0.74759477,0.35741049,0.33237356,0.00000000,0.00000000
-0.10178129,-2.11343598,-0.61424518,-0.27420866,-0.17557354,0.00000000,0.00000000,-0.31556574,2.11842680,0.74417192,0.34792191,0.33542389,0.00000000,0.00000000
-0.07882321,-2.11052394,-0.61386853,-0.26902875,-0.18304688,0.00000000,0.00000000,-0.32158357,2.11899114,0.74172646,0.33915383,0.33518609,0.00000000,0.00000000
-0.05566676,-2.11154747,-0.61350423,-0.26681307,-0.18900342,0.00000000,0.00000000,-0.32462281,2.11805701,0.74034828,0.33111441,0.33663043,0.00000000,0.00000000
-0.03564206,-2.10934377,-0.61426586,-0.26481527,-0.19562547,0.00000000,0.00000000,-0.32389086,2.11610913,0.74010569,0.32439464,0.34009877,0.00000000,0.00000000
-0.01818837,-2.10654283,-0.61584395,-0.26382092,-0.20330627,0.00000000,0.00000000,-0.31878203,2.11315012,0.74109721,0.31926695,0.34373417,0.00000000,0.00000000
-0.00356504,-2.10494733,-0.61809593,-0.26484141,-0.21028009,0.00000000,0.00000000,-0.30906719,2.10916066,0.74336690,0.31584683,0.34871060,0.00000000,0.00000000
0.00710380,-2.10421658,-0.62117589,-0.26823106,-0.21840817,0.00000000,0.00000000,-0.29461792,2.10397530,0.74696207,0.31416327,0.35325289,0.00000000,0.00000000
0.01299555,-2.10506320,-0.62509727,-0.27474511,-0.22630028,0.00000000,0.00000000,-0.27514452,2.09648156,0.75207222,0.31388271,0.35566545,0.00000000,0.00000000
0.01346025,-2.10747004,-0.62993079,-0.28470781,-0.23320884,0.00000000,0.00000000,-0.25021970,2.08628654,0.75881201,0.31510440,0.35809955,0.00000000,0.00000000
0.00842561,-2.11113095,-0.63570184,-0.29803154,-0.24262440,0.00000000,0.00000000,-0.21918292,2.07383680,0.76722085,0.31859905,0.36003441,0.00000000,0.00000000
-0.00122989,-2.11556339,-0.64230740,-0.31407958,-0.24843158,0.00000000,0.00000000,-0.18234642,2.05867720,0.77730918,0.32433864,0.35952848,0.00000000,0.00000000
-0.01375275,-2.12032771,-0.64948481,-0.33179554,-0.25728476,0.00000000,0.00000000,-0.14054430,2.04066634,0.78896004,0.33187714,0.36094782,0.00000000,0.00000000
-0.02788705,-2.12501097,-0.65702033,-0.35022864,-0.26737759,0.00000000,0.00000000,-0.09407285,2.02129674,0.80190182,0.34150088,0.36160481,0.00000000,0.00000000
-0.04366957,-2.12931943,-0.66487521,-0.36892289,-0.27640542,0.00000000,0.00000000,-0.04193004,2.00206757,0.81604743,0.35415927,0.36600724,0.00000000,0.00000000
-0.06019091,-2.13326907,-0.67280263,-0.38731879,-0.28779507,0.00000000,0.00000000,0.01753416,1.98399901,0.83146894,0.37124026,0.36907908,0.00000000,0.00000000
-0.07494508,-2.13651323,-0.68031710,-0.40423802,-0.30130485,0.00000000,0.00000000,0.08307189,1.97017264,0.84743476,0.39381579,0.37037468,0.00000000,0.00000000
-0.08546793,-2.13815761,-0.68701124,-0.41832820,-0.31284347,0.00000000,0.00000000,0.14959309,1.96423626,0.86239117,0.42108193,0.36871719,0.00000000,0.00000000
-0.09036827,-2.13739181,-0.69267130,-0.42865118,-0.32382733,0.00000000,0.00000000,0.21188882,1.96733379,0.87504125,0.45094326,0.36373243,0.00000000,0.00000000
-0.08959597,-2.13402891,-0.69726211,-0.43496579,-0.33500919,0.00000000,0.00000000,0.26686782,1.97850263,0.88475329,0.48137793,0.35342741,0.00000000,0.00000000
-0.08416841,-2.12843418,-0.70089293,-0.43760508,-0.34335658,0.00000000,0.00000000,0.31202134,1.99500155,0.89134961,0.50975633,0.34368020,0.00000000,0.00000000
-0.07505520,-2.12114167,-0.70366281,-0.43702352,-0.34852707,0.00000000,0.00000000,0.34693035,2.01440692,0.89502132,0.53439867,0.33483627,0.00000000,0.00000000
-0.06257258,-2.11244035,-0.70560569,-0.43344492,-0.35462376,0.00000000,0.00000000,0.37186182,2.03535008,0.89592105,0.55447304,0.32474959,0.00000000,0.00000000
-0.04663847,-2.10261631,-0.70670003,-0.42705461,-0.35954651,0.00000000,0.00000000,0.38694733,2.05688834,0.89413321,0.56937027,0.31154722,0.00000000,0.00000000
-0.02713777,-2.09216642,-0.70690423,-0.41822046,-0.36279666,0.00000000,0.00000000,0.39242333,2.07786727,0.88986415,0.57846552,0.29955456,0.00000000,0.00000000
-0.00421348,-2.08173752,-0.70622671,-0.40756163,-0.36609948,0.00000000,0.00000000,0.38857555,2.09689832,0.88343424,0.58110332,0.28435108,0.00000000,0.00000000
0.02155872,-2.07214761,-0.70475489,-0.39601061,-0.37012279,0.00000000,0.00000000,0.37558663,2.11277938,0.87513161,0.57676315,0.27139014,0.00000000,0.00000000
0.04873776,-2.06400156,-0.70278352,-0.38475528,-0.37568632,0.00000000,0.00000000,0.35369253,2.12441993,0.86523825,0.56509274,0.25747681,0.00000000,0.00000000
0.07472219,-2.05739236,-0.70088995,-0.37516940,-0.38010034,0.00000000,0.00000000,0.32324013,2.13081717,0.85404146,0.54591578,0.24501717,0.00000000,0.00000000
0.09665127,-2.05259919,-0.69964552,-0.36878201,-0.38418552,0.00000000,0.00000000,0.28448462,2.13180971,0.84162241,0.51947916,0.23109457,0.00000000,0.00000000
0.11209936,-2.04976296,-0.69952863,-0.36681205,-0.38713858,0.00000000,0.00000000,0.23790641,2.12810254,0.82795334,0.48657975,0.21703567,0.00000000,0.00000000
0.11922128,-2.04816556,-0.70099878,-0.36969343,-0.38730431,0.00000000,0.00000000,0.18505558,2.12112284,0.81314331,0.44884300,0.20390123,0.00000000,0.00000000
0.11702026,-2.04739833,-0.70429903,-0.37757033,-0.38984153,0.00000000,0.00000000,0.12900840,2.11300159,0.79752666,0.40896401,0.19205873,0.00000000,0.00000000
0.10619783,-2.04522729,-0.70961982,-0.38888046,-0.39538285,0.00000000,0.00000000,0.07395963,2.10483766,0.78185928,0.36978737,0.18139152,0.00000000,0.00000000
0.08872386,-2.03984380,-0.71685177,-0.40172482,-0.39946774,0.00000000,0.00000000,0.02305850,2.09717250,0.76681393,0.33353004,0.17232427,0.00000000,0.00000000
0.06675279,-2.03266335,-0.72535813,-0.41574097,-0.40328369,0.00000000,0.00000000,-0.02246189,2.09193969,0.75249290,0.30210355,0.16380948,0.00000000,0.00000000
0.04200109,-2.02440071,-0.73465639,-0.43035048,-0.40779987,0.00000000,0.00000000,-0.06114373,2.08929539,0.73915571,0.27619931,0.15692186,0.00000000,0.00000000
0.01458294,-2.01463819,-0.74472195,-0.44498950,-0.41174832,0.00000000,0.00000000,-0.09150772,2.08874130,0.72706163,0.25583613,0.15159504,0.00000000,0.00000000
-0.01554287,-2.00397086,-0.75538522,-0.45965472,-0.41493252,0.00000000,0.00000000,-0.11412334,2.09058261,0.71609533,0.24046151,0.14989549,0.00000000,0.00000000
-0.04792747,-1.99396539,-0.76620346,-0.47467443,-0.42286083,0.00000000,0.00000000,-0.13092382,2.09541273,0.70596623,0.22921695,0.15035820,0.00000000,0.00000000
-0.08146908,-1.98612022,-0.77659279,-0.49013117,-0.43066156,0.00000000,0.00000000,-0.14455400,2.10343814,0.69636852,0.22097190,0.15052928,0.00000000,0.00000000
-0.11428852,-1.98127127,-0.78590763,-0.50552905,-0.43585345,0.00000000,0.00000000,-0.15777981,2.11390305,0.68708545,0.21424899,0.15441112,0.00000000,0.00000000
-0.14421241,-1.97944438,-0.79358566,-0.51993316,-0.43929523,0.00000000,0.00000000,-0.17096700,2.12469602,0.67826003,0.20790139,0.16119526,0.00000000,0.00000000
-0.16989037,-1.98014247,-0.79934931,-0.53250432,-0.44290623,0.00000000,0.00000000,-0.18082854,2.13372946,0.67039043,0.20216240,0.16981073,0.00000000,0.00000000
-0.19049253,-1.98267877,-0.80308580,-0.54256159,-0.44551608,0.00000000,0.00000000,-0.18662541,2.14050817,0.66358918,0.19707763,0.17893218,0.00000000,0.00000000
-0.20540273,-1.98647213,-0.80472362,-0.54959941,-0.44917294,0.00000000,0.00000000,-0.18965846,2.14486003,0.65774274,0.19209027,0.18980148,0.00000000,0.00000000
-0.21427284,-1.99103856,-0.80424809,-0.55326444,-0.45610639,0.00000000,0.00000000,-0.19115765,2.14642215,0.65276283,0.18657739,0.20075598,0.00000000,0.00000000
-0.21693133,-1.99589431,-0.80170608,-0.55327410,-0.46105826,0.00000000,0.00000000,-0.19200428,2.14486265,0.64859718,0.18006317,0.21447811,0.00000000,0.00000000
-0.21321253,-2.00055432,-0.79716611,-0.54939455,-0.46555975,0.00000000,0.00000000,-0.19289169,2.14027715,0.64518899,0.17236669,0.22717993,0.00000000,0.00000000
-0.20304547,-2.00454330,-0.79073501,-0.54147792,-0.47214589,0.00000000,0.00000000,-0.19431308,2.13315868,0.64248300,0.16359340,0.24122170,0.00000000,0.00000000
-0.18658361,-2.00735331,-0.78259736,-0.52947092,-0.47930983,0.00000000,0.00000000,-0.19653247,2.12424374,0.64043802,0.15405421,0.25294220,0.00000000,0.00000000
-0.16415106,-2.00851560,-0.77298856,-0.51343030,-0.48242915,0.00000000,0.00000000,-0.19950318,2.11447597,0.63903421,0.14427298,0.26261058,0.00000000,0.00000000
-0.13630044,-2.00775719,-0.76217419,-0.49362972,-0.48541334,0.00000000,0.00000000,-0.20267814,2.10473585,0.63829678,0.13491330,0.27110302,0.00000000,0.00000000
-0.10411400,-2.00486994,-0.75054067,-0.47061169,-0.48577750,0.00000000,0.00000000,-0.20505664,2.09504390,0.63832235,0.12636606,0.28276441,0.00000000,0.00000000
-0.06923147,-1.99992931,-0.73855418,-0.44535223,-0.48751155,0.00000000,0.00000000,-0.20540328,2.08479595,0.63924366,0.11881489,0.29090017,0.00000000,0.00000000
-0.03416602,-1.99373972,-0.72673088,-0.41964516,-0.48793176,0.00000000,0.00000000,-0.20220095,2.07377744,0.64118105,0.11278038,0.29827744,0.00000000,0.00000000
-0.00239663,-1.98775089,-0.71565020,-0.39603761,-0.48834994,0.00000000,0.00000000,-0.19356747,2.06169748,0.64426887,0.10893835,0.30822212,0.00000000,0.00000000
0.02353413,-1.98308444,-0.70572609,-0.37648025,-0.48855227,0.00000000,0.00000000,-0.17824674,2.04775333,0.64861864,0.10760065,0.31544432,0.00000000,0.00000000
0.04268626,-1.97989583,-0.69716966,-0.36159328,-0.48605454,0.00000000,0.00000000,-0.15612908,2.03049135,0.65429902,0.10843523,0.32444903,0.00000000,0.00000000
0.05547361,-1.97803104,-0.68994296,-0.35104561,-0.48341629,0.00000000,0.00000000,-0.12781514,2.00955343,0.66129136,0.11117664,0.33745310,0.00000000,0.00000000
0.06213891,-1.97750390,-0.68397135,-0.34445596,-0.47851244,0.00000000,0.00000000,-0.09284831,1.98544502,0.66959721,0.11608899,0.35009438,0.00000000,0.00000000
0.06399589,-1.97876310,-0.67893529,-0.34117445,-0.47180602,0.00000000,0.00000000,-0.05100215,1.95759523,0.67925495,0.12285238,0.36205775,0.00000000,0.00000000
0.06327108,-1.98208869,-0.67439860,-0.34020108,-0.46701905,0.00000000,0.00000000,-0.00220933,1.92754948,0.69019663,0.13226682,0.37789664,0.00000000,0.00000000
0.06178012,-1.98773229,-0.67000681,-0.34081763,-0.46168381,0.00000000,0.00000000,0.05306100,1.89919865,0.70220292,0.14624581,0.39505720,0.00000000,0.00000000
0.06082916,-1.99601495,-0.66548473,-0.34265229,-0.45394084,0.00000000,0.00000000,0.11394353,1.87172639,0.71524978,0.16438200,0.41263008,0.00000000,0.00000000
0.06166232,-2.00684690,-0.66062200,-0.34525704,-0.44622084,0.00000000,0.00000000,0.17797460,1.84626782,0.72903025,0.18636708,0.42939669,0.00000000,0.00000000
0.06475925,-2.01965785,-0.65539515,-0.34824315,-0.43538681,0.00000000,0.00000000,0.23999840,1.82566106,0.74280077,0.21132623,0.44569543,0.00000000,0.00000000
0.06945881,-2.03351545,-0.65001607,-0.35141596,-0.42316648,0.00000000,0.00000000,0.29610953,1.81199169,0.75584131,0.23838553,0.46395940,0.00000000,0.00000000
0.07542107,-2.04740548,-0.64466155,-0.35446769,-0.41197598,0.00000000,0.00000000,0.34437612,1.80658698,0.76757163,0.26707062,0.48480332,0.00000000,0.00000000
0.08272335,-2.06050372,-0.63942230,-0.35705587,-0.40096420,0.00000000,0.00000000,0.38351989,1.80957973,0.77753067,0.29656950,0.50840271,0.00000000,0.00000000
0.09127085,-2.07204008,-0.63441288,-0.35889161,-0.39368093,0.00000000,0.00000000,0.41269052,1.81998670,0.78540760,0.32570529,0.53199041,0.00000000,0.00000000
0.10103855,-2.08150244,-0.62970352,-0.35976040,-0.38478521,0.00000000,0.00000000,0.43171877,1.83665955,0.79101473,0.35355681,0.55488843,0.00000000,0.00000000
0.11238947,-2.08892941,-0.62523043,-0.35957649,-0.37424994,0.00000000,0.00000000,0.44099548,1.85889077,0.79422081,0.37967983,0.57505864,0.00000000,0.00000000
0.12495844,-2.09440875,-0.62104964,-0.35846427,-0.36287364,0.00000000,0.00000000,0.44081855,1.88564348,0.79495692,0.40345979,0.59405696,0.00000000,0.00000000
0.13800085,-2.09836698,-0.61724913,-0.35686520,-0.34518158,0.00000000,0.00000000,0.43162110,1.91581225,0.79321921,0.42431957,0.61196190,0.00000000,0.00000000
0.14957093,-2.10146499,-0.61409438,-0.35569796,-0.32811803,0.00000000,0.00000000,0.41397759,1.94803047,0.78911340,0.44159171,0.62820721,0.00000000,0.00000000
0.15816842,-2.10397005,-0.61182415,-0.35553282,-0.31013790,0.00000000,0.00000000,0.38852936,1.98091447,0.78280896,0.45467812,0.64472872,0.00000000,0.00000000
0.16235511,-2.10503674,-0.61080980,-0.35641024,-0.29068413,0.00000000,0.00000000,0.35592434,2.01311827,0.77452153,0.46312046,0.66167188,0.00000000,0.00000000
0.16040149,-2.10375857,-0.61148667,-0.35858414,-0.26798397,0.00000000,0.00000000,0.31702507,2.04342461,0.76453114,0.46672854,0.67936164,0.00000000,0.00000000
0.15159670,-2.09981108,-0.61403722,-0.36236489,-0.24456324,0.00000000,0.00000000,0.27288106,2.07059431,0.75320494,0.46550414,0.69628924,0.00000000,0.00000000
0.13655406,-2.09177446,-0.61852133,-0.36675265,-0.22547618,0.00000000,0.00000000,0.22430503,2.09325790,0.74093491,0.45941675,0.71560866,0.00000000,0.00000000
0.11617013,-2.07808471,-0.62494808,-0.37035918,-0.20657411,0.00000000,0.00000000,0.17214064,2.11054707,0.72806674,0.44872683,0.73337930,0.00000000,0.00000000
0.08957949,-2.05983639,-0.63330197,-0.37383372,-0.19110712,0.00000000,0.00000000,0.11829102,2.12298465,0.71493292,0.43470368,0.75024354,0.00000000,0.00000000
0.05521769,-2.04008365,-0.64343643,-0.37914747,-0.17553651,0.00000000,0.00000000,0.06513936,2.13245463,0.70174474,0.41945741,0.76820171,0.00000000,0.00000000
0.01334958,-2.02130270,-0.65493399,-0.38730332,-0.15884233,0.00000000,0.00000000,0.01342784,2.14060688,0.68845159,0.40441218,0.78680778,0.00000000,0.00000000
-0.03410537,-2.00540590,-0.66713035,-0.39838400,-0.14525177,0.00000000,0.00000000,-0.03749926,2.14858389,0.67483026,0.39018700,0.80564469,0.00000000,0.00000000
-0.08445435,-1.99383140,-0.67925894,-0.41191632,-0.13437314,0.00000000,0.00000000,-0.08876200,2.15697169,0.66066194,0.37688506,0.82352829,0.00000000,0.00000000
-0.13482381,-1.98723602,-0.69061279,-0.42692629,-0.11717511,0.00000000,0.00000000,-0.13995548,2.16460085,0.64623523,0.36420202,0.84113860,0.00000000,0.00000000
-0.18281898,-1.98505104,-0.70075750,-0.44200692,-0.10111562,0.00000000,0.00000000,-0.18609391,2.16889000,0.63282913,0.35260296,0.85756838,0.00000000,0.00000000
-0.22628044,-1.98553431,-0.70949471,-0.45533633,-0.08440508,0.00000000,0.00000000,-0.22223698,2.16993666,0.62158221,0.34280229,0.87275249,0.00000000,0.00000000
-0.26383623,-1.98727798,-0.71675068,-0.46561703,-0.06616403,0.00000000,0.00000000,-0.24796642,2.17000008,0.61291504,0.33339256,0.88317490,0.00000000,0.00000000
-0.29495725,-1.98900104,-0.72261977,-0.47198036,-0.05004499,0.00000000,0.00000000,-0.26441303,2.17000008,0.60679477,0.32311532,0.89689004,0.00000000,0.00000000
-0.31926867,-1.99064136,-0.72701204,-0.47449487,-0.03582896,0.00000000,0.00000000,-0.27249676,2.16994882,0.60297787,0.31184390,0.90514570,0.00000000,0.00000000
-0.33701611,-1.99425292,-0.72958505,-0.47514105,-0.02074836,0.00000000,0.00000000,-0.27316040,2.16907811,0.60113913,0.29984778,0.91099757,0.00000000,0.00000000
-0.34782398,-2.00051069,-0.73010588,-0.47511438,-0.00923510,0.00000000,0.00000000,-0.26768598,2.16517043,0.60089451,0.28739503,0.91373295,0.00000000,0.00000000
-0.35049742,-2.00947571,-0.72826272,-0.47414711,-0.00032548,0.00000000,0.00000000,-0.25678736,2.15689301,0.60190445,0.27523488,0.91577286,0.00000000,0.00000000
-0.34404525,-2.02059793,-0.72389752,-0.47103730,0.00749943,0.00000000,0.00000000,-0.24065447,2.14510822,0.60395366,0.26411289,0.91473264,0.00000000,0.00000000
-0.32826063,-2.03246999,-0.71720177,-0.46451077,0.01650341,0.00000000,0.00000000,-0.21955842,2.13063478,0.60692137,0.25425878,0.91110998,0.00000000,0.00000000
-0.30371726,-2.04409695,-0.70848387,-0.45412055,0.02855759,0.00000000,0.00000000,-0.19398771,2.11378551,0.61071980,0.24560151,0.90259385,0.00000000,0.00000000
-0.27191961,-2.05496645,-0.69818586,-0.44018945,0.04235448,0.00000000,0.00000000,-0.16443989,2.09470558,0.61528492,0.23801795,0.89562917,0.00000000,0.00000000
-0.23501672,-2.06529975,-0.68677568,-0.42388123,0.05503287,0.00000000,0.00000000,-0.13114010,2.07358384,0.62058723,0.23151430,0.89003640,0.00000000,0.00000000
-0.19580176,-2.07490420,-0.67492789,-0.40663227,0.06899797,0.00000000,0.00000000,-0.09470040,2.05003905,0.62659955,0.22566476,0.88629586,0.00000000,0.00000000
-0.15692416,-2.08271241,-0.66340852,-0.38948086,0.08354236,0.00000000,0.00000000,-0.05618444,2.02366209,0.63324517,0.21983370,0.88272440,0.00000000,0.00000000
-0.12120445,-2.08735585,-0.65301865,-0.37305328,0.09711539,0.00000000,0.00000000,-0.01611941,1.99518609,0.64042103,0.21410421,0.87773252,0.00000000,0.00000000
-0.09085935,-2.08887196,-0.64420962,-0.35801828,0.11251275,0.00000000,0.00000000,0.02624089,1.96636951,0.64809096,0.20952682,0.87122613,0.00000000,0.00000000
-0.06546493,-2.08865738,-0.63674968,-0.34463638,0.12375616,0.00000000,0.00000000,0.07147474,1.93820691,0.65626496,0.20676039,0.86559045,0.00000000,0.00000000
-0.04365673,-2.08861923,-0.63017863,-0.33333278,0.13669264,0.00000000,0.00000000,0.11942936,1.91129482,0.66490757,0.20607218,0.86186928,0.00000000,0.00000000
-0.02384611,-2.09049416,-0.62403286,-0.32452706,0.14868702,0.00000000,0.00000000,0.16887891,1.88704753,0.67380619,0.20779289,0.85846812,0.00000000,0.00000000
-0.00351552,-2.09491158,-0.61783665,-0.31775552,0.15805407,0.00000000,0.00000000,0.21646906,1.86784184,0.68243498,0.21204203,0.85723275,0.00000000,0.00000000
0.01905095,-2.10147166,-0.61135691,-0.31223521,0.16930836,0.00000000,0.00000000,0.25873825,1.85583091,0.69024336,0.21903539,0.85474718,0.00000000,0.00000000
0.04178325,-2.10961390,-0.60495609,-0.30828223,0.17910273,0.00000000,0.00000000,0.29474986,1.84968078,0.69719261,0.22809188,0.84967399,0.00000000,0.00000000
0.06097952,-2.11853766,-0.59926450,-0.30660442,0.18717289,0.00000000,0.00000000,0.32470912,1.84852386,0.70331460,0.23894587,0.84435272,0.00000000,0.00000000
0.07568735,-2.12759280,-0.59447521,-0.30708805,0.19377598,0.00000000,0.00000000,0.34857765,1.85252786,0.70851284,0.25162557,0.84307742,0.00000000,0.00000000
0.08709676,-2.13638830,-0.59042394,-0.30900714,0.20060743,0.00000000,0.00000000,0.36604008,1.86172247,0.71264821,0.26598465,0.83970022,0.00000000,0.00000000
0.09682007,-2.14420319,-0.58690608,-0.31123820,0.20640954,0.00000000,0.00000000,0.37685862,1.87584615,0.71559668,0.28180560,0.83787823,0.00000000,0.00000000
0.10601152,-2.15031743,-0.58378261,-0.31271818,0.21137671,0.00000000,0.00000000,0.38036418,1.89453042,0.71716428,0.29855764,0.83531916,0.00000000,0.00000000
0.11499488,-2.15475321,-0.58097154,-0.31299162,0.21859980,0.00000000,0.00000000,0.37492764,1.91701734,0.71705621,0.31465718,0.83109248,0.00000000,0.00000000
0.12394384,-2.15742803,-0.57844174,-0.31170502,0.22607373,0.00000000,0.00000000,0.36066177,1.94149625,0.71534926,0.32831198,0.82811654,0.00000000,0.00000000
0.13312112,-2.15835381,-0.57615399,-0.30870166,0.23479542,0.00000000,0.00000000,0.33863804,1.96650994,0.71223962,0.33877712,0.82551759,0.00000000,0.00000000
0.14244404,-2.15764117,-0.57412565,-0.30413941,0.24787425,0.00000000,0.00000000,0.30977449,1.99118161,0.70786065,0.34581971,0.81944454,0.00000000,0.00000000
0.15118450,-2.15526128,-0.57249993,-0.29842651,0.26284128,0.00000000,0.00000000,0.27496329,2.01493263,0.70233268,0.34939575,0.81156671,0.00000000,0.00000000
0.15744117,-2.15139747,-0.57158339,-0.29251233,0.27700159,0.00000000,0.00000000,0.23535372,2.03767824,0.69577807,0.34985107,0.80420816,0.00000000,0.00000000
0.15888241,-2.14671850,-0.57170039,-0.28778923,0.29224071,0.00000000,0.00000000,0.19240533,2.05952144,0.68837446,0.34785056,0.79578400,0.00000000,0.00000000
0.15433291,-2.14121723,-0.57305646,-0.28489411,0.30544424,0.00000000,0.00000000,0.14757687,2.08000684,0.68040651,0.34395459,0.78864396,0.00000000,0.00000000
0.14330623,-2.13407350,-0.57580757,-0.28363919,0.31875086,0.00000000,0.00000000,0.10209639,2.09823871,0.67221493,0.33858028,0.77774107,0.00000000,0.00000000
0.12579420,-2.12531877,-0.57994682,-0.28400114,0.32792428,0.00000000,0.00000000,0.05677752,2.11392975,0.66403520,0.33241612,0.76901901,0.00000000,0.00000000
0.10196213,-2.11490440,-0.58544266,-0.28577542,0.33471897,0.00000000,0.00000000,0.01292188,2.12743282,0.65612894,0.32667711,0.76238173,0.00000000,0.00000000
0.07089380,-2.10226679,-0.59246933,-0.28880680,0.34074178,0.00000000,0.00000000,-0.02623322,2.13958859,0.64899081,0.32338747,0.75350833,0.00000000,0.00000000
0.03165743,-2.08728790,-0.60116595,-0.29317984,0.34460583,0.00000000,0.00000000,-0.05745115,2.15068412,0.64314944,0.32412982,0.74493396,0.00000000,0.00000000
-0.01508664,-2.07168770,-0.61126405,-0.29942638,0.34641668,0.00000000,0.00000000,-0.08026294,2.16025710,0.63876122,0.32891119,0.73419219,0.00000000,0.00000000
-0.06746421,-2.05790591,-0.62223792,-0.30808547,0.34359559,0.00000000,0.00000000,-0.09608112,2.16690278,0.63576043,0.33637735,0.72405267,0.00000000,0.00000000
-0.12223642,-2.04850340,-0.63331318,-0.31934971,0.34434631,0.00000000,0.00000000,-0.10742463,2.16951847,0.63404715,0.34396946,0.71524173,0.00000000,0.00000000
-0.17415370,-2.04513669,-0.64344710,-0.33238336,0.34344253,0.00000000,0.00000000,-0.11699849,2.16997623,0.63360375,0.34860995,0.70682955,0.00000000,0.00000000
-0.21857549,-2.04689455,-0.65194154,-0.34564438,0.34233600,0.00000000,0.00000000,-0.12539485,2.16999054,0.63455689,0.34884760,0.69691175,0.00000000,0.00000000
-0.25729439,-2.05117488,-0.65932906,-0.35936895,0.34362730,0.00000000,0.00000000,-0.13009746,2.16974306,0.63720351,0.34570387,0.68685961,0.00000000,0.00000000
-0.29151535,-2.05583954,-0.66598815,-0.37336421,0.34441760,0.00000000,0.00000000,-0.13083795,2.16760516,0.64129508,0.34022126,0.67527187,0.00000000,0.00000000
-0.32061628,-2.06107593,-0.67168587,-0.38737461,0.34841958,0.00000000,0.00000000,-0.12886585,2.16061950,0.64633036,0.33307034,0.66540694,0.00000000,0.00000000
-0.34308940,-2.06780314,-0.67590690,-0.40076730,0.35296834,0.00000000,0.00000000,-0.12510836,2.14898324,0.65194058,0.32481194,0.65438920,0.00000000,0.00000000
-0.35660827,-2.07599926,-0.67809755,-0.41190511,0.35125282,0.00000000,0.00000000,-0.12030385,2.13446426,0.65781599,0.31601968,0.63987601,0.00000000,0.00000000
-0.35973907,-2.08425117,-0.67808944,-0.41888723,0.34895200,0.00000000,0.00000000,-0.11520306,2.11846328,0.66370934,0.30706954,0.62590188,0.00000000,0.00000000
-0.35281622,-2.09197187,-0.67596471,-0.42123720,0.34561488,0.00000000,0.00000000,-0.11082557,2.10227966,0.66936320,0.29819289,0.61230129,0.00000000,0.00000000
-0.33693734,-2.09904194,-0.67191690,-0.41912979,0.34383184,0.00000000,0.00000000,-0.10813484,2.08711386,0.67455393,0.28958187,0.60344023,0.00000000,0.00000000
-0.31350121,-2.10500765,-0.66627711,-0.41270685,0.34427109,0.00000000,0.00000000,-0.10759177,2.07372856,0.67918861,0.28137559,0.59221244,0.00000000,0.00000000
-0.28383601,-2.10923219,-0.65941304,-0.40209922,0.34720257,0.00000000,0.00000000,-0.10915160,2.06265020,0.68327570,0.27378234,0.58458161,0.00000000,0.00000000
-0.24884905,-2.11135793,-0.65158677,-0.38760707,0.34811321,0.00000000,0.00000000,-0.11223073,2.05439711,0.68689746,0.26724884,0.57894099,0.00000000,0.00000000
-0.20948777,-2.11170483,-0.64298558,-0.37004665,0.35081482,0.00000000,0.00000000,-0.11549257,2.04949665,0.69022918,0.26257768,0.57548130,0.00000000,0.00000000
-0.16786122,-2.11126709,-0.63392973,-0.35105911,0.35516733,0.00000000,0.00000000,-0.11663368,2.04826117,0.69357985,0.26091596,0.57086891,0.00000000,0.00000000
-0.12736742,-2.11140656,-0.62492281,-0.33289766,0.36248723,0.00000000,0.00000000,-0.11234541,2.05069399,0.69740260,0.26368412,0.56836045,0.00000000,0.00000000
-0.09037707,-2.11265802,-0.61637777,-0.31694925,0.36945727,0.00000000,0.00000000,-0.10097436,2.05494142,0.70211780,0.27081773,0.56755161,0.00000000,0.00000000
-0.05718710,-2.11427903,-0.60848922,-0.30305716,0.37396723,0.00000000,0.00000000,-0.08400605,2.05613613,0.70804816,0.27968276,0.56930166,0.00000000,0.00000000
-0.02734658,-2.11559582,-0.60129464,-0.29066461,0.37454891,0.00000000,0.00000000,-0.06064483,2.05357003,0.71536559,0.29005906,0.57137978,0.00000000,0.00000000
-0.00202798,-2.11671257,-0.59496462,-0.28008848,0.37979349,0.00000000,0.00000000,-0.02962526,2.05032587,0.72389543,0.30354920,0.57236767,0.00000000,0.00000000
0.01661277,-2.11815572,-0.58975643,-0.27222958,0.38497230,0.00000000,0.00000000,0.00946236,2.04740047,0.73355192,0.32058689,0.57201654,0.00000000,0.00000000
0.03008402,-2.12036085,-0.58543420,-0.26686153,0.39103359,0.00000000,0.00000000,0.05313300,2.04708982,0.74348485,0.34070450,0.57712078,0.00000000,0.00000000
0.04147294,-2.12348247,-0.58158118,-0.26318210,0.40058652,0.00000000,0.00000000,0.09671579,2.05112076,0.75266159,0.36269966,0.58160359,0.00000000,0.00000000
0.05310425,-2.12742352,-0.57790720,-0.26050612,0.40634432,0.00000000,0.00000000,0.13669047,2.05972981,0.76034510,0.38512972,0.58792585,0.00000000,0.00000000
0.06530099,-2.13194990,-0.57438856,-0.25862604,0.41914779,0.00000000,0.00000000,0.17077313,2.07188797,0.76615143,0.40641895,0.59337425,0.00000000,0.00000000
0.07556391,-2.13662076,-0.57137424,-0.25799268,0.43302503,0.00000000,0.00000000,0.19790743,2.08489323,0.77019405,0.42462671,0.59367764,0.00000000,0.00000000
0.08064792,-2.14098454,-0.56930685,-0.25925002,0.44980574,0.00000000,0.00000000,0.21870261,2.09580040,0.77297795,0.43831939,0.59088397,0.00000000,0.00000000
0.08000776,-2.14423466,-0.56831193,-0.26203910,0.47229573,0.00000000,0.00000000,0.23359840,2.10385680,0.77465659,0.44711706,0.58581495,0.00000000,0.00000000
0.07494050,-2.14541507,-0.56828922,-0.26534882,0.49265993,0.00000000,0.00000000,0.24254887,2.10947442,0.77512801,0.45108557,0.57824594,0.00000000,0.00000000
0.06708868,-2.14445186,-0.56901437,-0.26851824,0.51455235,0.00000000,0.00000000,0.24514559,2.11335921,0.77417970,0.45040387,0.56982481,0.00000000,0.00000000
0.05808585,-2.14162135,-0.57023072,-0.27108860,0.53926516,0.00000000,0.00000000,0.24121270,2.11575341,0.77173877,0.44519266,0.56129271,0.00000000,0.00000000
0.04929849,-2.13727641,-0.57171100,-0.27275300,0.56329745,0.00000000,0.00000000,0.23067079,2.11680889,0.76778632,0.43563420,0.55021828,0.00000000,0.00000000
0.04165539,-2.13192749,-0.57327729,-0.27344131,0.58555275,0.00000000,0.00000000,0.21367994,2.11681104,0.76234800,0.42212412,0.53897226,0.00000000,0.00000000
0.03568756,-2.12609982,-0.57481027,-0.27322894,0.60949641,0.00000000,0.00000000,0.19111127,2.11578560,0.75564229,0.40523821,0.52590615,0.00000000,0.00000000
0.03149860,-2.12036872,-0.57625073,-0.27235165,0.63261765,0.00000000,0.00000000,0.16451511,2.11354136,0.74805129,0.38572517,0.51756662,0.00000000,0.00000000
0.02882238,-2.11524796,-0.57760179,-0.27113608,0.65305001,0.00000000,0.00000000,0.13519475,2.11041451,0.73982185,0.36451322,0.50785482,0.00000000,0.00000000
0.02680531,-2.11070085,-0.57900298,-0.26984277,0.67625111,0.00000000,0.00000000,0.10445800,2.10703611,0.73114550,0.34267733,0.50099379,0.00000000,0.00000000
0.02370361,-2.10617137,-0.58076555,-0.26878744,0.69889784,0.00000000,0.00000000,0.07415830,2.10393071,0.72229970,0.32141224,0.49047351,0.00000000,0.00000000
0.01776499,-2.10079932,-0.58322692,-0.26816332,0.71823090,0.00000000,0.00000000,0.04600743,2.10105157,0.71359944,0.30154178,0.48032686,0.00000000,0.00000000
0.00804691,-2.09450650,-0.58654177,-0.26836425,0.73572439,0.00000000,0.00000000,0.02084846,2.09828401,0.70523322,0.28350937,0.46919066,0.00000000,0.00000000
-0.00547325,-2.08854222,-0.59061474,-0.27023941,0.75598472,0.00000000,0.00000000,-0.00142060,2.09576392,0.69722760,0.26750079,0.45913017,0.00000000,0.00000000
-0.02276232,-2.08338070,-0.59540015,-0.27411726,0.77360719,0.00000000,0.00000000,-0.02127863,2.09380078,0.68953341,0.25356403,0.45292756,0.00000000,0.00000000
-0.04502373,-2.07818913,-0.60113907,-0.27989092,0.79132575,0.00000000,0.00000000,-0.03797857,2.09287786,0.68221015,0.24212369,0.44890949,0.00000000,0.00000000
-0.07443861,-2.07153082,-0.60827196,-0.28740865,0.80861837,0.00000000,0.00000000,-0.04958230,2.09357786,0.67542791,0.23395649,0.45099965,0.00000000,0.00000000
-0.11050930,-2.06389856,-0.61668509,-0.29668534,0.82440549,0.00000000,0.00000000,-0.05656173,2.09631228,0.66910118,0.22890571,0.45317593,0.00000000,0.00000000
-0.15126838,-2.05661869,-0.62596238,-0.30768129,0.84249234,0.00000000,0.00000000,-0.06109568,2.10105538,0.66299379,0.22602803,0.45269260,0.00000000,0.00000000
-0.19409139,-2.05172682,-0.63547599,-0.32048944,0.85875368,0.00000000,0.00000000,-0.06551989,2.10731816,0.65689093,0.22413877,0.45662045,0.00000000,0.00000000
-0.23414086,-2.05179906,-0.64413935,-0.33482072,0.87677640,0.00000000,0.00000000,-0.07173545,2.11430216,0.65065044,0.22211027,0.45904982,0.00000000,0.00000000
-0.26630789,-2.05688596,-0.65106046,-0.34931770,0.89518881,0.00000000,0.00000000,-0.08054513,2.12136221,0.64423656,0.21928962,0.46366781,0.00000000,0.00000000
-0.29176247,-2.06451464,-0.65666115,-0.36384654,0.91514748,0.00000000,0.00000000,-0.09064969,2.12821603,0.63780922,0.21588343,0.46967113,0.00000000,0.00000000
-0.31298837,-2.07284141,-0.66151828,-0.37873095,0.93258685,0.00000000,0.00000000,-0.10020521,2.13434148,0.63160688,0.21219090,0.47151592,0.00000000,0.00000000
-0.33003002,-2.08206129,-0.66552740,-0.39395934,0.94931674,0.00000000,0.00000000,-0.10847276,2.13918018,0.62575608,0.20816855,0.47428280,0.00000000,0.00000000
-0.34196803,-2.09256387,-0.66837198,-0.40889367,0.96647698,0.00000000,0.00000000,-0.11542117,2.14237499,0.62029433,0.20364822,0.47958767,0.00000000,0.00000000
-0.34723422,-2.10389638,-0.66971415,-0.42200786,0.98011565,0.00000000,0.00000000,-0.12112872,2.14379358,0.61523271,0.19852766,0.48639026,0.00000000,0.00000000
-0.34423336,-2.11466622,-0.66935366,-0.43128902,0.99229139,0.00000000,0.00000000,-0.12573132,2.14350796,0.61056453,0.19278446,0.49583653,0.00000000,0.00000000
-0.33247647,-2.12322211,-0.66738063,-0.43528441,1.00016081,0.00000000,0.00000000,-0.12951861,2.14172244,0.60626394,0.18640791,0.50551295,0.00000000,0.00000000
-0.31257129,-2.12897801,-0.66397661,-0.43378586,1.00881338,0.00000000,0.00000000,-0.13293085,2.13881755,0.60228527,0.17942560,0.51488274,0.00000000,0.00000000
-0.28551644,-2.13191628,-0.65934443,-0.42715567,1.01745653,0.00000000,0.00000000,-0.13639966,2.13531303,0.59858292,0.17195185,0.52824843,0.00000000,0.00000000
-0.25275525,-2.13186598,-0.65382606,-0.41589975,1.02704573,0.00000000,0.00000000,-0.14014067,2.13159561,0.59514523,0.16411522,0.54368961,0.00000000,0.00000000
-0.21635203,-2.12839460,-0.64794344,-0.40069607,1.03748870,0.00000000,0.00000000,-0.14393941,2.12782264,0.59201479,0.15607683,0.55914956,0.00000000,0.00000000
-0.17832752,-2.12140846,-0.64216727,-0.38251907,1.04813492,0.00000000,0.00000000,-0.14712933,2.12402844,0.58927804,0.14810888,0.57044071,0.00000000,0.00000000
-0.14084730,-2.11201692,-0.63682926,-0.36313683,1.06005299,0.00000000,0.00000000,-0.14843382,2.12011647,0.58707041,0.14065565,0.58087206,0.00000000,0.00000000
-0.10660186,-2.10247040,-0.63220066,-0.34514922,1.06799841,0.00000000,0.00000000,-0.14584219,2.11575961,0.58558130,0.13431405,0.59025282,0.00000000,0.00000000
-0.07773954,-2.09422731,-0.62854809,-0.33051473,1.07810116,0.00000000,0.00000000,-0.13763706,2.11020494,0.58498555,0.12937358,0.59766078,0.00000000,0.00000000
-0.05479616,-2.08740592,-0.62600446,-0.31976736,1.08996761,0.00000000,0.00000000,-0.12425868,2.10206032,0.58532900,0.12513243,0.60214090,0.00000000,0.00000000
-0.03698890,-2.08145666,-0.62453294,-0.31244555,1.10264432,0.00000000,0.00000000,-0.10771061,2.09024525,0.58653957,0.12066687,0.60759401,0.00000000,0.00000000
-0.02334459,-2.07589984,-0.62402391,-0.30790830,1.11457455,0.00000000,0.00000000,-0.08737319,2.07680678,0.58858401,0.11745611,0.61346936,0.00000000,0.00000000
-0.01406123,-2.07077026,-0.62445134,-0.30602038,1.12528086,0.00000000,0.00000000,-0.06142535,2.06354547,0.59151262,0.11706837,0.61987108,0.00000000,0.00000000
-0.00918451,-2.06716657,-0.62563062,-0.30700827,1.13531077,0.00000000,0.00000000,-0.02868738,2.04962111,0.59544277,0.11946721,0.62617862,0.00000000,0.00000000
-0.00730746,-2.06572580,-0.62723577,-0.31048173,1.14885509,0.00000000,0.00000000,0.01038392,2.03489637,0.60037243,0.12440861,0.63259608,0.00000000,0.00000000
-0.00636001,-2.06629467,-0.62894452,-0.31554067,1.16175175,0.00000000,0.00000000,0.05401313,2.02050519,0.60616857,0.13184653,0.63730866,0.00000000,0.00000000
-0.00419145,-2.06813741,-0.63048756,-0.32103208,1.17214394,0.00000000,0.00000000,0.09988440,2.00787950,0.61263764,0.14169663,0.64237183,0.00000000,0.00000000
0.00066009,-2.07040715,-0.63171291,-0.32599601,1.17803550,0.00000000,0.00000000,0.14572328,1.99793530,0.61958915,0.15363492,0.64570153,0.00000000,0.00000000
0.00792110,-2.07279491,-0.63267392,-0.33024901,1.18445492,0.00000000,0.00000000,0.18946840,1.99038804,0.62688059,0.16686507,0.65112537,0.00000000,0.00000000
0.01648868,-2.07532883,-0.63352352,-0.33405155,1.19190311,0.00000000,0.00000000,0.22938780,1.98440349,0.63439953,0.18046904,0.65531725,0.00000000,0.00000000
0.02604689,-2.07766414,-0.63434774,-0.33731213,1.19796133,0.00000000,0.00000000,0.26455450,1.97980988,0.64203477,0.19410926,0.65943539,0.00000000,0.00000000
0.03655185,-2.07941723,-0.63520038,-0.33985415,1.20045292,0.00000000,0.00000000,0.29468334,1.97701490,0.64966387,0.20792954,0.66915375,0.00000000,0.00000000
0.04735085,-2.08035684,-0.63621634,-0.34173730,1.20211506,0.00000000,0.00000000,0.31975260,1.97680998,0.65712655,0.22231214,0.67972630,0.00000000,0.00000000
0.05794975,-2.08046508,-0.63747567,-0.34303945,1.20192754,0.00000000,0.00000000,0.33959499,1.97987020,0.66422534,0.23749347,0.69075578,0.00000000,0.00000000
0.06823694,-2.07978535,-0.63899231,-0.34377155,1.20061195,0.00000000,0.00000000,0.35371932,1.98653722,0.67072314,0.25343066,0.70144963,0.00000000,0.00000000
0.07822365,-2.07841825,-0.64076096,-0.34398183,1.19792128,0.00000000,0.00000000,0.36135957,1.99691212,0.67634487,0.26986256,0.71127969,0.00000000,0.00000000
0.08779964,-2.07663369,-0.64278257,-0.34388721,1.19709635,0.00000000,0.00000000,0.36165351,2.01090550,0.68080199,0.28639972,0.72386312,0.00000000,0.00000000
0.09652258,-2.07485819,-0.64509928,-0.34392357,1.19761598,0.00000000,0.00000000,0.35371941,2.02844048,0.68378639,0.30262357,0.73678362,0.00000000,0.00000000
0.10341180,-2.07366467,-0.64782894,-0.34481388,1.19954824,0.00000000,0.00000000,0.33641234,2.04968143,0.68492430,0.31803486,0.75041282,0.00000000,0.00000000
0.10695247,-2.07349181,-0.65120184,-0.34745705,1.20254946,0.00000000,0.00000000,0.30929425,2.07317185,0.68415916,0.33128509,0.76036638,0.00000000,0.00000000
0.10586375,-2.07408738,-0.65550172,-0.35236081,1.20637774,0.00000000,0.00000000,0.27466553,2.09455490,0.68225223,0.34026319,0.76415044,0.00000000,0.00000000
0.09984594,-2.07474446,-0.66089964,-0.35940838,1.21287000,0.00000000,0.00000000,0.23619747,2.11104512,0.68005502,0.34469688,0.76755184,0.00000000,0.00000000
0.08902215,-2.07483768,-0.66746789,-0.36827782,1.21271777,0.00000000,0.00000000,0.19685301,2.12198353,0.67810011,0.34549671,0.77034813,0.00000000,0.00000000
0.07356000,-2.07417846,-0.67519170,-0.37876117,1.21293926,0.00000000,0.00000000,0.15843405,2.12808013,0.67659986,0.34396997,0.77434510,0.00000000,0.00000000
0.05386814,-2.07301950,-0.68392938,-0.39071286,1.21310449,0.00000000,0.00000000,0.12184478,2.13066697,0.67557031,0.34150067,0.78153962,0.00000000,0.00000000
0.03054522,-2.07185340,-0.69344461,-0.40397194,1.21285117,0.00000000,0.00000000,0.08746085,2.13132167,0.67492741,0.33941099,0.79119456,0.00000000,0.00000000
0.00442928,-2.07149053,-0.70338368,-0.41838774,1.21163702,0.00000000,0.00000000,0.05498145,2.13171291,0.67446613,0.33872080,0.80309588,0.00000000,0.00000000
-0.02289881,-2.07240582,-0.71328497,-0.43334112,1.21186411,0.00000000,0.00000000,0.02423614,2.13176131,0.67420059,0.33944786,0.81281793,0.00000000,0.00000000
-0.05021769,-2.07511139,-0.72273391,-0.44841239,1.21232200,0.00000000,0.00000000,-0.00255912,2.13194680,0.67443955,0.34267938,0.82031983,0.00000000,0.00000000
-0.07633166,-2.07959080,-0.73139179,-0.46292838,1.21614945,0.00000000,0.00000000,-0.02383007,2.13205862,0.67545766,0.34881815,0.82706106,0.00000000,0.00000000
-0.10000505,-2.08521318,-0.73901451,-0.47588643,1.22313702,0.00000000,0.00000000,-0.04067617,2.13151574,0.67712903,0.35704389,0.83201241,0.00000000,0.00000000
-0.12024654,-2.09135771,-0.74541909,-0.48640963,1.23010075,0.00000000,0.00000000,-0.05572043,2.13006186,0.67901874,0.36620104,0.84023321,0.00000000,0.00000000
-0.13623132,-2.09751272,-0.75046009,-0.49380264,1.23949456,0.00000000,0.00000000,-0.07218529,2.12683558,0.68065625,0.37468591,0.84596074,0.00000000,0.00000000
-0.14737323,-2.10295939,-0.75411457,-0.49740866,1.24872172,0.00000000,0.00000000,-0.09221269,2.11948895,0.68195814,0.38047001,0.85091168,0.00000000,0.00000000
-0.15412484,-2.10715413,-0.75658095,-0.49702376,1.26026762,0.00000000,0.00000000,-0.11371114,2.10699844,0.68342167,0.38365808,0.85410786,0.00000000,0.00000000
-0.15786976,-2.10958815,-0.75828338,-0.49283838,1.27230990,0.00000000,0.00000000,-0.13096364,2.08939528,0.68606269,0.38623798,0.85453475,0.00000000,0.00000000
-0.15904953,-2.10916352,-0.75959265,-0.48461759,1.28430426,0.00000000,0.00000000,-0.14236446,2.06727672,0.69008106,0.38904813,0.85859221,0.00000000,0.00000000
-0.15749288,-2.10521340,-0.76069140,-0.47227865,1.30147290,0.00000000,0.00000000,-0.14961964,2.04235029,0.69491887,0.39229459,0.86113596,0.00000000,0.00000000
-0.15319681,-2.09839940,-0.76156276,-0.45653224,1.31894982,0.00000000,0.00000000,-0.15433927,2.01639152,0.70002079,0.39629078,0.86376941,0.00000000,0.00000000
-0.14665253,-2.08978391,-0.76223570,-0.43851307,1.33965349,0.00000000,0.00000000,-0.15792876,1.99050772,0.70495743,0.40110928,0.86014736,0.00000000,0.00000000
-0.13912112,-2.08013844,-0.76294959,-0.41950583,1.36489165,0.00000000,0.00000000,-0.16162798,1.96516180,0.70941556,0.40655193,0.85738301,0.00000000,0.00000000
-0.13233908,-2.07061601,-0.76394343,-0.40110871,1.39239681,0.00000000,0.00000000,-0.16600373,1.94067657,0.71321946,0.41257006,0.85216069,0.00000000,0.00000000
-0.12753570,-2.06243563,-0.76531720,-0.38465273,1.41729164,0.00000000,0.00000000,-0.17135942,1.91723955,0.71625853,0.41912913,0.84819311,0.00000000,0.00000000
-0.12521921,-2.05627012,-0.76710004,-0.37078843,1.44556272,0.00000000,0.00000000,-0.17795101,1.89472318,0.71847939,0.42604789,0.84213561,0.00000000,0.00000000
-0.12554668,-2.05237889,-0.76929170,-0.35968998,1.47442627,0.00000000,0.00000000,-0.18581110,1.87277055,0.71991241,0.43311229,0.83617741,0.00000000,0.00000000
-0.12845577,-2.05096245,-0.77184337,-0.35135525,1.50207472,0.00000000,0.00000000,-0.19498384,1.85105336,0.72058755,0.44015899,0.83191490,0.00000000,0.00000000
-0.13345270,-2.05238771,-0.77460659,-0.34571013,1.53391385,0.00000000,0.00000000,-0.20509399,1.83027327,0.72047180,0.44835496,0.82689303,0.00000000,0.00000000
-0.14019425,-2.05676651,-0.77748322,-0.34265932,1.56553876,0.00000000,0.00000000,-0.21474200,1.81178951,0.71965992,0.46082947,0.82283318,0.00000000,0.00000000
-0.15018421,-2.06372547,-0.78070539,-0.34263772,1.59996152,0.00000000,0.00000000,-0.22475173,1.79355097,0.71833301,0.47743234,0.82075357,0.00000000,0.00000000
-0.16674708,-2.07302594,-0.78474051,-0.34686643,1.63124502,0.00000000,0.00000000,-0.23454233,1.77209187,0.71721631,0.49706814,0.81960148,0.00000000,0.00000000
-0.19083586,-2.08436489,-0.78971916,-0.35556963,1.66160703,0.00000000,0.00000000,-0.24463099,1.74443328,0.71669507,0.51819044,0.81967139,0.00000000,0.00000000
-0.22128356,-2.09724283,-0.79549438,-0.36804095,1.69025552,0.00000000,0.00000000,-0.25705704,1.70858943,0.71660292,0.53903270,0.81973463,0.00000000,0.00000000
-0.25664741,-2.11107349,-0.80189574,-0.38346803,1.71807957,0.00000000,0.00000000,-0.27437538,1.66287756,0.71655422,0.55765831,0.81712455,0.00000000,0.00000000
-0.29568189,-2.12527251,-0.80879325,-0.40117845,1.74700880,0.00000000,0.00000000,-0.29927143,1.60550368,0.71611065,0.57185811,0.81534892,0.00000000,0.00000000
-0.33773509,-2.13907290,-0.81620514,-0.42070386,1.77490020,0.00000000,0.00000000,-0.33403602,1.53484154,0.71487373,0.57948422,0.81262523,0.00000000,0.00000000
-0.38300121,-2.15132880,-0.82437307,-0.44174203,1.79826176,0.00000000,0.00000000,-0.38011366,1.44994628,0.71252054,0.57895893,0.80916566,0.00000000,0.00000000
-0.43084267,-2.16129208,-0.83332914,-0.46367332,1.82130694,0.00000000,0.00000000,-0.43811369,1.35089350,0.70873427,0.56951135,0.80847168,0.00000000,0.00000000
-0.48008621,-2.16770697,-0.84311134,-0.48528388,1.84651184,0.00000000,0.00000000,-0.50792235,1.23851693,0.70322156,0.55093789,0.80745232,0.00000000,0.00000000
-0.53052461,-2.16975546,-0.85416073,-0.50537509,1.87241328,0.00000000,0.00000000,-0.58874947,1.11429811,0.69571763,0.52341729,0.80391252,0.00000000,0.00000000
-0.58326519,-2.16999149,-0.86705464,-0.52402174,1.89569020,0.00000000,0.00000000,-0.67905027,0.98030347,0.68601543,0.48745590,0.80000770,0.00000000,0.00000000
-0.63844907,-2.17000008,-0.88178718,-0.54200685,1.91988552,0.00000000,0.00000000,-0.77650309,0.83905733,0.67400634,0.44385999,0.79931796,0.00000000,0.00000000
-0.69556689,-2.17000008,-0.89821732,-0.55966192,1.94112849,0.00000000,0.00000000,-0.87813050,0.69342643,0.65970671,0.39371011,0.80000842,0.00000000,0.00000000
-0.75442338,-2.17000008,-0.91635400,-0.57706404,1.96193182,0.00000000,0.00000000,-0.98050904,0.54647666,0.64327168,0.33831587,0.79568756,0.00000000,0.00000000
-0.81430763,-2.17000008,-0.93590766,-0.59456825,1.98304760,0.00000000,0.00000000,-1.08001876,0.40127906,0.62500191,0.27913302,0.79280722,0.00000000,0.00000000
-0.87336129,-2.17000008,-0.95607257,-0.61254281,2.00022125,0.00000000,0.00000000,-1.17309999,0.26075298,0.60533190,0.21767284,0.79096836,0.00000000,0.00000000
-0.92968011,-2.16997504,-0.97612792,-0.63100004,2.01786590,0.00000000,0.00000000,-1.25648868,0.12753619,0.58480662,0.15541464,0.79188359,0.00000000,0.00000000
-0.98253906,-2.16953063,-0.99593592,-0.64987022,2.03600717,0.00000000,0.00000000,-1.32741714,0.00388320,0.56404614,0.09373533,0.79246044,0.00000000,0.00000000
-1.03148329,-2.16729164,-1.01559627,-0.66890520,2.04922843,0.00000000,0.00000000,-1.38375032,-0.10843779,0.54370582,0.03384562,0.79057992,0.00000000,0.00000000
-1.07588315,-2.16160655,-1.03525019,-0.68768513,2.06033421,0.00000000,0.00000000,-1.42410994,-0.20814347,0.52443725,-0.02321414,0.78892547,0.00000000,0.00000000
-1.11538720,-2.15155554,-1.05522275,-0.70585144,2.07106996,0.00000000,0.00000000,-1.44814467,-0.29430431,0.50684547,-0.07647114,0.78800684,0.00000000,0.00000000
-1.15000784,-2.13651013,-1.07597101,-0.72324204,2.08224416,0.00000000,0.00000000,-1.45737541,-0.36651051,0.49138251,-0.12492211,0.79061723,0.00000000,0.00000000
-1.17989492,-2.11703515,-1.09753990,-0.74020815,2.09114218,0.00000000,0.00000000,-1.45653808,-0.42579439,0.47809607,-0.16775128,0.79659843,0.00000000,0.00000000
-1.20514297,-2.09564495,-1.11919093,-0.75776470,2.09510994,0.00000000,0.00000000,-1.45257258,-0.47492874,0.46651667,-0.20483169,0.80510813,0.00000000,0.00000000
-1.22484720,-2.07483292,-1.13995421,-0.77639371,2.10062718,0.00000000,0.00000000,-1.45071757,-0.51664054,0.45605209,-0.23670386,0.80983126,0.00000000,0.00000000
-1.23756945,-2.05603790,-1.15913832,-0.79595542,2.10309911,0.00000000,0.00000000,-1.45354891,-0.55265266,0.44627625,-0.26412779,0.81527346,0.00000000,0.00000000
-1.24194586,-2.03982377,-1.17639709,-0.81604493,2.10561323,0.00000000,0.00000000,-1.46212256,-0.58372563,0.43693891,-0.28767452,0.81761950,0.00000000,0.00000000
-1.23705614,-2.02615309,-1.19169283,-0.83624536,2.11155438,0.00000000,0.00000000,-1.47660720,-0.60996246,0.42793015,-0.30767021,0.81937343,0.00000000,0.00000000
-1.22257257,-2.01472759,-1.20517111,-0.85628349,2.11844683,0.00000000,0.00000000,-1.49639201,-0.63124329,0.41925845,-0.32440034,0.81982172,0.00000000,0.00000000
-1.19903600,-2.00520802,-1.21712375,-0.87629926,2.12715435,0.00000000,0.00000000,-1.52003884,-0.64747244,0.41105792,-0.33829018,0.81789267,0.00000000,0.00000000
-1.16784728,-1.99712729,-1.22803974,-0.89692605,2.13490701,0.00000000,0.00000000,-1.54546094,-0.65845335,0.40360299,-0.34985578,0.81640828,0.00000000,0.00000000
-1.13067758,-1.99006975,-1.23837876,-0.91904086,2.13813066,0.00000000,0.00000000,-1.57084143,-0.66404909,0.39715037,-0.35962647,0.81205398,0.00000000,0.00000000
-1.08857429,-1.98444474,-1.24794054,-0.94346148,2.14055467,0.00000000,0.00000000,-1.59542990,-0.66495734,0.39171901,-0.36839640,0.81175774,0.00000000,0.00000000
-1.04367983,-1.97997880,-1.25710893,-0.97061509,2.14416957,0.00000000,0.00000000,-1.61932325,-0.66259807,0.38711917,-0.37715301,0.81169635,0.00000000,0.00000000
-1.00046909,-1.97412848,-1.26809967,-0.99920374,2.14522552,0.00000000,0.00000000,-1.64348698,-0.65951580,0.38289073,-0.38723525,0.81301111,0.00000000,0.00000000
-0.95821613,-1.96734786,-1.28029358,-1.02605689,2.14526725,0.00000000,0.00000000,-1.66847324,-0.65871203,0.37861902,-0.40003994,0.81735510,0.00000000,0.00000000
-0.91698980,-1.96067619,-1.29288292,-1.05083311,2.14450288,0.00000000,0.00000000,-1.69318664,-0.66115099,0.37442890,-0.41553485,0.82221216,0.00000000,0.00000000
-0.87731957,-1.95479417,-1.30537832,-1.07416499,2.14550495,0.00000000,0.00000000,-1.71689141,-0.66420949,0.37069267,-0.43126240,0.82593876,0.00000000,0.00000000
-0.83936745,-1.95037508,-1.31723821,-1.09650564,2.14623308,0.00000000,0.00000000,-1.73977911,-0.66634923,0.36747485,-0.44572955,0.82769048,0.00000000,0.00000000
-0.80309898,-1.94756210,-1.32824075,-1.11797309,2.14604068,0.00000000,0.00000000,-1.76181006,-0.66735697,0.36477897,-0.45867676,0.83182728,0.00000000,0.00000000
-0.76855522,-1.94610035,-1.33846176,-1.13856339,2.14464617,0.00000000,0.00000000,-1.78257751,-0.66725957,0.36268353,-0.47022545,0.83496124,0.00000000,0.00000000
-0.73591131,-1.94567800,-1.34806347,-1.15831804,2.13970995,0.00000000,0.00000000,-1.80188584,-0.66606802,0.36122105,-0.48050103,0.84160405,0.00000000,0.00000000
-0.70532340,-1.94605887,-1.35716748,-1.17729127,2.13442159,0.00000000,0.00000000,-1.81960797,-0.66382068,0.36040983,-0.48963857,0.84754890,0.00000000,0.00000000
-0.67687076,-1.94707108,-1.36584449,-1.19551253,2.12817574,0.00000000,0.00000000,-1.83567560,-0.66060370,0.36025175,-0.49779069,0.85229164,0.00000000,0.00000000
-0.65054721,-1.94857907,-1.37412930,-1.21296847,2.12394691,0.00000000,0.00000000,-1.85002625,-0.65649241,0.36075252,-0.50509983,0.85902947,0.00000000,0.00000000
-0.62631756,-1.95055211,-1.38196838,-1.22968531,2.11790109,0.00000000,0.00000000,-1.86288500,-0.65167969,0.36182737,-0.51172650,0.86675680,0.00000000,0.00000000
-0.60408628,-1.95302618,-1.38924563,-1.24568665,2.10964894,0.00000000,0.00000000,-1.87478805,-0.64642864,0.36329696,-0.51782876,0.87242025,0.00000000,0.00000000
-0.58366710,-1.95597422,-1.39588308,-1.26090801,2.10205984,0.00000000,0.00000000,-1.88616204,-0.64083505,0.36503342,-0.52348214,0.87698305,0.00000000,0.00000000
-0.56481743,-1.95929956,-1.40185773,-1.27521646,2.09330010,0.00000000,0.00000000,-1.89712965,-0.63480574,0.36701965,-0.52868617,0.88314342,0.00000000,0.00000000
-0.54729933,-1.96298146,-1.40708423,-1.28852570,2.08431411,0.00000000,0.00000000,-1.90793228,-0.62835860,0.36919191,-0.53348756,0.88876027,0.00000000,0.00000000
-0.53090310,-1.96705234,-1.41146505,-1.30077803,2.07192278,0.00000000,0.00000000,-1.91888011,-0.62154627,0.37146288,-0.53794760,0.89072752,0.00000000,0.00000000
-0.51547933,-1.97152078,-1.41497421,-1.31191969,2.06347847,0.00000000,0.00000000,-1.93017375,-0.61430377,0.37379274,-0.54207921,0.89255834,0.00000000,0.00000000
-0.50099450,-1.97641253,-1.41761076,-1.32198238,2.05137539,0.00000000,0.00000000,-1.94188321,-0.60655594,0.37618238,-0.54592621,0.89698488,0.00000000,0.00000000
-0.48748589,-1.98180485,-1.41935098,-1.33109283,2.03999901,0.00000000,0.00000000,-1.95386028,-0.59826082,0.37869504,-0.54960656,0.90232348,0.00000000,0.00000000
-0.47501230,-1.98772252,-1.42021823,-1.33938527,2.02564692,0.00000000,0.00000000,-1.96579897,-0.58933049,0.38144714,-0.55324566,0.91147095,0.00000000,0.00000000
-0.46361730,-1.99410689,-1.42029881,-1.34696043,2.00988817,0.00000000,0.00000000,-1.97739136,-0.57965964,0.38456026,-0.55694950,0.91965902,0.00000000,0.00000000
-0.45329219,-2.00087833,-1.41967678,-1.35389221,1.99430311,0.00000000,0.00000000,-1.98832059,-0.56922174,0.38815430,-0.56085575,0.92812437,0.00000000,0.00000000
-0.44404471,-2.00794172,-1.41844749,-1.36026967,1.98060369,0.00000000,0.00000000,-1.99846625,-0.55811220,0.39227724,-0.56513381,0.93581748,0.00000000,0.00000000
-0.43592745,-2.01517630,-1.41675162,-1.36618841,1.96234417,0.00000000,0.00000000,-2.00778651,-0.54646462,0.39694965,-0.56995225,0.94240350,0.00000000,0.00000000
-0.42893952,-2.02246261,-1.41473579,-1.37167609,1.94808650,0.00000000,0.00000000,-2.01629400,-0.53443283,0.40217036,-0.57545960,0.95013452,0.00000000,0.00000000
-0.42298785,-2.02971125,-1.41250849,-1.37668407,1.93542814,0.00000000,0.00000000,-2.02415586,-0.52222669,0.40787980,-0.58179122,0.95877653,0.00000000,0.00000000
-0.41793796,-2.03681779,-1.41017997,-1.38112020,1.92185163,0.00000000,0.00000000,-2.03147531,-0.50999725,0.41404358,-0.58904761,0.96864635,0.00000000,0.00000000
-0.41364816,-2.04364276,-1.40788293,-1.38486362,1.90625668,0.00000000,0.00000000,-2.03831434,-0.49782559,0.42064580,-0.59728193,0.97565913,0.00000000,0.00000000
-0.40999115,-2.05006170,-1.40573645,-1.38780367,1.89115131,0.00000000,0.00000000,-2.04486537,-0.48584101,0.42761829,-0.60654104,0.98419040,0.00000000,0.00000000
-0.40690672,-2.05596876,-1.40386188,-1.38987374,1.87542903,0.00000000,0.00000000,-2.05123901,-0.47416359,0.43491718,-0.61687642,0.99532396,0.00000000,0.00000000
-0.40439895,-2.06126285,-1.40238547,-1.39105260,1.85990596,0.00000000,0.00000000,-2.05745506,-0.46287772,0.44252813,-0.62832892,1.00497830,0.00000000,0.00000000
-0.40245056,-2.06585693,-1.40140462,-1.39133728,1.84493363,0.00000000,0.00000000,-2.06358695,-0.45207381,0.45041263,-0.64092374,1.01266038,0.00000000,0.00000000
-0.40103033,-2.06965613,-1.40101922,-1.39081013,1.82840252,0.00000000,0.00000000,-2.06969953,-0.44178557,0.45854035,-0.65464801,1.01946175,0.00000000,0.00000000
-0.40018079,-2.07264185,-1.40125346,-1.38984478,1.81450200,0.00000000,0.00000000,-2.07577372,-0.43201983,0.46690944,-0.66948670,1.02721953,0.00000000,0.00000000
-0.39979616,-2.07499886,-1.40187466,-1.38896596,1.80189419,0.00000000,0.00000000,-2.08173537,-0.42282897,0.47552758,-0.68546283,1.03369868,0.00000000,0.00000000
-0.39966229,-2.07686353,-1.40268457,-1.38858962,1.79155064,0.00000000,0.00000000,-2.08750987,-0.41407445,0.48443261,-0.70247823,1.03659046,0.00000000,0.00000000
-0.39953864,-2.07822251,-1.40364289,-1.38881636,1.78053141,0.00000000,0.00000000,-2.09312940,-0.40554136,0.49363285,-0.72036070,1.03794861,0.00000000,0.00000000
-0.39918211,-2.07902527,-1.40475452,-1.38948154,1.76639676,0.00000000,0.00000000,-2.09875870,-0.39709985,0.50306761,-0.73894995,1.03483379,0.00000000,0.00000000
-0.39838392,-2.07925081,-1.40601325,-1.39045191,1.75071228,0.00000000,0.00000000,-2.10498071,-0.38866153,0.51250452,-0.75799948,1.02962160,0.00000000,0.00000000
-0.39682448,-2.07886839,-1.40740156,-1.39160419,1.73602462,0.00000000,0.00000000,-2.11231351,-0.38008815,0.52174306,-0.77725750,1.02290165,0.00000000,0.00000000
-0.39396620,-2.07820559,-1.40845942,-1.39270329,1.72149956,0.00000000,0.00000000,-2.12004113,-0.37163812,0.53098959,-0.79705548,1.01661682,0.00000000,0.00000000
-0.38984910,-2.07778573,-1.40866339,-1.39378583,1.70728981,0.00000000,0.00000000,-2.12808776,-0.36377391,0.54014432,-0.81763238,1.00921607,0.00000000,0.00000000
-0.38543490,-2.07711005,-1.40882075,-1.39480984,1.69224954,0.00000000,0.00000000,-2.13733840,-0.35661241,0.54877961,-0.83873069,1.00261140,0.00000000,0.00000000
-0.38125107,-2.07562804,-1.40970850,-1.39530253,1.67378151,0.00000000,0.00000000,-2.14806700,-0.34977978,0.55682200,-0.85994327,0.99773407,0.00000000,0.00000000
-0.37722719,-2.07335114,-1.41138387,-1.39472353,1.65396619,0.00000000,0.00000000,-2.16055131,-0.34332761,0.56407881,-0.88111866,0.98892444,0.00000000,0.00000000
-0.37215370,-2.07055593,-1.41342092,-1.39195776,1.63204730,0.00000000,0.00000000,-2.17537379,-0.33758470,0.57014459,-0.90222734,0.97918403,0.00000000,0.00000000
-0.36450475,-2.06770730,-1.41510916,-1.38595998,1.60821557,0.00000000,0.00000000,-2.19312882,-0.33319491,0.57452554,-0.92342275,0.97084057,0.00000000,0.00000000
-0.35449862,-2.06551099,-1.41588116,-1.37706053,1.58620632,0.00000000,0.00000000,-2.21341467,-0.33067724,0.57721651,-0.94484276,0.96317858,0.00000000,0.00000000
-0.34206057,-2.06395888,-1.41592789,-1.36511004,1.56242812,0.00000000,0.00000000,-2.23617315,-0.32950947,0.57832879,-0.96591610,0.95127475,0.00000000,0.00000000
-0.32718533,-2.06261158,-1.41583502,-1.34992075,1.53667438,0.00000000,0.00000000,-2.26147723,-0.32862762,0.57806140,-0.98578197,0.93833387,0.00000000,0.00000000
-0.31042862,-2.06126308,-1.41592121,-1.33188879,1.51341438,0.00000000,0.00000000,-2.28894305,-0.32729766,0.57673711,-1.00393426,0.92490828,0.00000000,0.00000000
-0.29267555,-2.05998087,-1.41614974,-1.31183970,1.48857439,0.00000000,0.00000000,-2.31769419,-0.32520372,0.57480389,-1.02026677,0.91001546,0.00000000,0.00000000
-0.27487075,-2.05889606,-1.41631913,-1.29074562,1.46315086,0.00000000,0.00000000,-2.34662509,-0.32225212,0.57277852,-1.03488302,0.89725256,0.00000000,0.00000000
-0.25786546,-2.05803132,-1.41624916,-1.26950192,1.43432951,0.00000000,0.00000000,-2.37483144,-0.31846422,0.57107288,-1.04792726,0.88644701,0.00000000,0.00000000
-0.24203439,-2.05732226,-1.41580355,-1.24860871,1.40699482,0.00000000,0.00000000,-2.40191269,-0.31393141,0.56984359,-1.05948889,0.87377912,0.00000000,0.00000000
-0.22714265,-2.05673575,-1.41482508,-1.22813392,1.37796032,0.00000000,0.00000000,-2.42789578,-0.30884829,0.56900334,-1.06963909,0.86047614,0.00000000,0.00000000
-0.21294528,-2.05620766,-1.41326857,-1.20808375,1.34827328,0.00000000,0.00000000,-2.45292783,-0.30342695,0.56839597,-1.07844782,0.84715629,0.00000000,0.00000000
-0.19943699,-2.05561161,-1.41124666,-1.18855166,1.31847990,0.00000000,0.00000000,-2.47720432,-0.29780728,0.56786317,-1.08594632,0.83207268,0.00000000,0.00000000
-0.18664189,-2.05496287,-1.40884042,-1.16968071,1.28755879,0.00000000,0.00000000,-2.50091624,-0.29217154,0.56724113,-1.09220958,0.81646425,0.00000000,0.00000000
-0.17460558,-2.05449796,-1.40601385,-1.15170002,1.25935590,0.00000000,0.00000000,-2.52406001,-0.28681633,0.56644034,-1.09743798,0.80169362,0.00000000,0.00000000
-0.16353019,-2.05448246,-1.40277863,-1.13493061,1.22924578,0.00000000,0.00000000,-2.54648566,-0.28200546,0.56546837,-1.10184312,0.78189248,0.00000000,0.00000000
-0.15369609,-2.05489039,-1.39945340,-1.11959112,1.20073533,0.00000000,0.00000000,-2.56798983,-0.27756786,0.56451207,-1.10534120,0.76082855,0.00000000,0.00000000
-0.14526208,-2.05571795,-1.39636898,-1.10579610,1.17328930,0.00000000,0.00000000,-2.58837152,-0.27319872,0.56380469,-1.10774541,0.73982447,0.00000000,0.00000000
-0.13822067,-2.05719543,-1.39366937,-1.09361720,1.14572346,0.00000000,0.00000000,-2.60748744,-0.26881090,0.56347519,-1.10905027,0.71773922,0.00000000,0.00000000
-0.13231874,-2.05962896,-1.39136708,-1.08297360,1.11244404,0.00000000,0.00000000,-2.62507939,-0.26450640,0.56364638,-1.10955131,0.69627023,0.00000000,0.00000000
-0.12729499,-2.06304264,-1.38960600,-1.07367659,1.07868671,0.00000000,0.00000000,-2.64088655,-0.26023188,0.56448293,-1.10954678,0.67354709,0.00000000,0.00000000
-0.12307467,-2.06727791,-1.38861752,-1.06560338,1.04691863,0.00000000,0.00000000,-2.65510345,-0.25588533,0.56591010,-1.10911727,0.65412503,0.00000000,0.00000000
-0.11974767,-2.07240224,-1.38843095,-1.05881882,1.01245773,0.00000000,0.00000000,-2.66823649,-0.25182143,0.56754100,-1.10853803,0.63587654,0.00000000,0.00000000
-0.11781180,-2.07827592,-1.38920701,-1.05363584,0.98092598,0.00000000,0.00000000,-2.68135571,-0.24851446,0.56863034,-1.10793483,0.61652905,0.00000000,0.00000000
-0.11703923,-2.08470106,-1.39094985,-1.04986393,0.94670022,0.00000000,0.00000000,-2.69491172,-0.24615759,0.56886691,-1.10768974,0.59669691,0.00000000,0.00000000
-0.11544545,-2.09128904,-1.39350533,-1.04589868,0.91352463,0.00000000,0.00000000,-2.70684314,-0.24418259,0.56959820,-1.10868239,0.57539505,0.00000000,0.00000000
-0.11362113,-2.09795904,-1.39683092,-1.04214060,0.87988383,0.00000000,0.00000000,-2.71608019,-0.24235497,0.57149184,-1.11089957,0.55360788,0.00000000,0.00000000
-0.11219321,-2.10461926,-1.40090740,-1.03915858,0.84672672,0.00000000,0.00000000,-2.72352767,-0.24104670,0.57391113,-1.11406481,0.53105408,0.00000000,0.00000000
-0.11111949,-2.11097670,-1.40580583,-1.03718257,0.81361890,0.00000000,0.00000000,-2.72972369,-0.24027148,0.57655114,-1.11817181,0.50948465,0.00000000,0.00000000
-0.10994833,-2.11690402,-1.41146028,-1.03623855,0.78578615,0.00000000,0.00000000,-2.73456168,-0.23966880,0.57959926,-1.12308371,0.48705709,0.00000000,0.00000000
-0.10818633,-2.12246370,-1.41767800,-1.03626549,0.75439310,0.00000000,0.00000000,-2.73822021,-0.23914301,0.58299977,-1.12865102,0.46225086,0.00000000,0.00000000
-0.10559453,-2.12745214,-1.42449546,-1.03735185,0.71960920,0.00000000,0.00000000,-2.74123144,-0.23874182,0.58645284,-1.13477314,0.43854997,0.00000000,0.00000000
-0.10196827,-2.13170290,-1.43194139,-1.03985810,0.68971157,0.00000000,0.00000000,-2.74403715,-0.23814736,0.58983392,-1.14112234,0.41141888,0.00000000,0.00000000
-0.09705455,-2.13526082,-1.43992281,-1.04455709,0.66271436,0.00000000,0.00000000,-2.74701619,-0.23681146,0.59313005,-1.14738536,0.38354045,0.00000000,0.00000000
-0.09065589,-2.13826370,-1.44832957,-1.05245161,0.63948387,0.00000000,0.00000000,-2.75071001,-0.23425278,0.59621161,-1.15351701,0.35473156,0.00000000,0.00000000
-0.08300872,-2.14079809,-1.45717692,-1.06482732,0.61867034,0.00000000,0.00000000,-2.75530648,-0.23008250,0.59912032,-1.16009808,0.32558966,0.00000000,0.00000000
-0.07523454,-2.14331436,-1.46631241,-1.08316147,0.60040343,0.00000000,0.00000000,-2.76059866,-0.22400357,0.60208887,-1.16758776,0.29414696,0.00000000,0.00000000
-0.06954426,-2.14605594,-1.47582185,-1.10830343,0.58546436,0.00000000,0.00000000,-2.76609111,-0.21629976,0.60530251,-1.17587030,0.26277429,0.00000000,0.00000000
-0.06838845,-2.14846087,-1.48636639,-1.13966751,0.56922621,0.00000000,0.00000000,-2.77145147,-0.20777249,0.60865408,-1.18485010,0.23063752,0.00000000,0.00000000
-0.07275992,-2.15060377,-1.49784160,-1.17573190,0.55252635,0.00000000,0.00000000,-2.77614021,-0.19866398,0.61236322,-1.19425809,0.19828133,0.00000000,0.00000000
-0.08238676,-2.15249252,-1.50994337,-1.21516621,0.53479636,0.00000000,0.00000000,-2.77975750,-0.18893938,0.61667395,-1.20357358,0.16523948,0.00000000,0.00000000
-0.09672357,-2.15436459,-1.52201402,-1.25692761,0.51738566,0.00000000,0.00000000,-2.78249025,-0.17902629,0.62131047,-1.21240342,0.13593481,0.00000000,0.00000000
-0.11516140,-2.15647864,-1.53332162,-1.30000436,0.50339508,0.00000000,0.00000000,-2.78445125,-0.16962644,0.62594444,-1.22084832,0.10442783,0.00000000,0.00000000
-0.13698582,-2.15890551,-1.54333711,-1.34345675,0.49016526,0.00000000,0.00000000,-2.78553677,-0.16134614,0.63041162,-1.22929990,0.07673687,0.00000000,0.00000000
-0.16129929,-2.16154170,-1.55176008,-1.38644111,0.47931349,0.00000000,0.00000000,-2.78606343,-0.15423155,0.63448673,-1.23761547,0.05083141,0.00000000,0.00000000
-0.18699901,-2.16422629,-1.55839860,-1.42818189,0.47150695,0.00000000,0.00000000,-2.78594708,-0.14827459,0.63821673,-1.24599850,0.02686371,0.00000000,0.00000000
-0.21283099,-2.16670847,-1.56321752,-1.46789908,0.46355709,0.00000000,0.00000000,-2.78427529,-0.14342111,0.64218926,-1.25517869,0.00455841,0.00000000,0.00000000
-0.23744750,-2.16863775,-1.56634283,-1.50480831,0.46010387,0.00000000,0.00000000,-2.78028464,-0.13922592,0.64704138,-1.26539862,-0.01446401,0.00000000,0.00000000
-0.25936809,-2.16971016,-1.56793046,-1.53811157,0.45954961,0.00000000,0.00000000,-2.77444863,-0.13537504,0.65257353,-1.27614975,-0.03459102,0.00000000,0.00000000
-0.27699125,-2.16998339,-1.56813872,-1.56698847,0.46126661,0.00000000,0.00000000,-2.76727128,-0.13137850,0.65862489,-1.28668308,-0.05445169,0.00000000,0.00000000
-0.28891715,-2.17000008,-1.56697154,-1.59081495,0.46171287,0.00000000,0.00000000,-2.75816846,-0.12664840,0.66575879,-1.29665983,-0.07021026,0.00000000,0.00000000
-0.29461324,-2.17000008,-1.56415880,-1.60957539,0.46148187,0.00000000,0.00000000,-2.74631977,-0.12150414,0.67434198,-1.30668008,-0.08551376,0.00000000,0.00000000
-0.29504624,-2.17000008,-1.55968904,-1.62413192,0.46136242,0.00000000,0.00000000,-2.73160195,-0.11676126,0.68409705,-1.31756735,-0.10383460,0.00000000,0.00000000
-0.29236519,-2.17000008,-1.55426538,-1.63594258,0.46389708,0.00000000,0.00000000,-2.71506929,-0.11274081,0.69417363,-1.32930481,-0.12339526,0.00000000,0.00000000
-0.28838101,-2.17000008,-1.54872203,-1.64616847,0.46416262,0.00000000,0.00000000,-2.69839215,-0.10914946,0.70355654,-1.34115505,-0.13944659,0.00000000,0.00000000
-0.28389809,-2.17000008,-1.54347205,-1.65530670,0.46392992,0.00000000,0.00000000,-2.68319392,-0.10571330,0.71124977,-1.35247648,-0.15843803,0.00000000,0.00000000
-0.27941161,-2.17000008,-1.53870237,-1.66364110,0.46255875,0.00000000,0.00000000,-2.67063379,-0.10223084,0.71654278,-1.36287153,-0.17645580,0.00000000,0.00000000
-0.27526060,-2.17000008,-1.53462660,-1.67131948,0.46142370,0.00000000,0.00000000,-2.66142821,-0.09820349,0.71916801,-1.37180495,-0.19542332,0.00000000,0.00000000
-0.27139241,-2.17000008,-1.53131723,-1.67827511,0.46093947,0.00000000,0.00000000,-2.65586829,-0.09299213,0.71922815,-1.37869835,-0.21645002,0.00000000,0.00000000
-0.26755860,-2.17000008,-1.52852583,-1.68437517,0.46285400,0.00000000,0.00000000,-2.65358877,-0.08627201,0.71714729,-1.38336730,-0.23720859,0.00000000,0.00000000
-0.26355755,-2.17000008,-1.52576518,-1.68960297,0.46332484,0.00000000,0.00000000,-2.65379596,-0.07818265,0.71344495,-1.38613296,-0.25248322,0.00000000,0.00000000
-0.25937870,-2.17000008,-1.52276051,-1.69410217,0.46216372,0.00000000,0.00000000,-2.65548468,-0.06911384,0.70868838,-1.38780332,-0.26750642,0.00000000,0.00000000
-0.25525737,-2.17000008,-1.51967180,-1.69816625,0.46399927,0.00000000,0.00000000,-2.65739679,-0.05950239,0.70360416,-1.38976359,-0.28422743,0.00000000,0.00000000
-0.25151476,-2.17000008,-1.51694024,-1.70211720,0.47034886,0.00000000,0.00000000,-2.65863442,-0.04958808,0.69876850,-1.39308381,-0.29874107,0.00000000,0.00000000
-0.24838597,-2.17000008,-1.51514995,-1.70617735,0.47558880,0.00000000,0.00000000,-2.65906119,-0.03990624,0.69411927,-1.39824665,-0.31664038,0.00000000,0.00000000
-0.24591099,-2.17000008,-1.51468492,-1.71043241,0.48001260,0.00000000,0.00000000,-2.65813684,-0.03041313,0.69010621,-1.40521383,-0.33216262,0.00000000,0.00000000
-0.24402012,-2.17000008,-1.51571274,-1.71490014,0.48624265,0.00000000,0.00000000,-2.65604734,-0.02142946,0.68653244,-1.41393733,-0.34710351,0.00000000,0.00000000
-0.24260099,-2.17000008,-1.51829576,-1.71957481,0.48963374,0.00000000,0.00000000,-2.65290236,-0.01310497,0.68331498,-1.42436695,-0.36020997,0.00000000,0.00000000
-0.24154961,-2.17000008,-1.52251017,-1.72444916,0.49232596,0.00000000,0.00000000,-2.64845800,-0.00520093,0.68076611,-1.43625259,-0.37503338,0.00000000,0.00000000
-0.24066290,-2.17000008,-1.52837932,-1.72940695,0.49820447,0.00000000,0.00000000,-2.64268756,0.00271831,0.67911494,-1.44889486,-0.39152879,0.00000000,0.00000000
-0.23971301,-2.17000008,-1.53607941,-1.73425531,0.50746948,0.00000000,0.00000000,-2.63615036,0.01124562,0.67823684,-1.46118474,-0.40801170,0.00000000,0.00000000
-0.23866244,-2.17000008,-1.54610360,-1.73895049,0.51760703,0.00000000,0.00000000,-2.62726688,0.02076750,0.67947251,-1.47400606,-0.42362198,0.00000000,0.00000000
-0.23730133,-2.17000008,-1.55881476,-1.74328768,0.52600032,0.00000000,0.00000000,-2.61229706,0.03190864,0.68580621,-1.48916852,-0.43804234,0.00000000,0.00000000
-0.23538733,-2.17000008,-1.57307601,-1.74700880,0.53629965,0.00000000,0.00000000,-2.59250236,0.04493584,0.69646174,-1.50459206,-0.45549747,0.00000000,0.00000000
-0.23280109,-2.17000008,-1.58783007,-1.75004029,0.54695016,0.00000000,0.00000000,-2.56806612,0.05984649,0.71134877,-1.51951540,-0.46930125,0.00000000,0.00000000
-0.22957510,-2.17000008,-1.60247624,-1.75249159,0.55969864,0.00000000,0.00000000,-2.53861165,0.07655937,0.73073822,-1.53416920,-0.48318592,0.00000000,0.00000000
-0.22580583,-2.17000008,-1.61676741,-1.75450408,0.57758397,0.00000000,0.00000000,-2.50473261,0.09478078,0.75409144,-1.54860783,-0.49776447,0.00000000,0.00000000
-0.22157854,-2.17000008,-1.63066280,-1.75617969,0.59484154,0.00000000,0.00000000,-2.46755242,0.11409318,0.78041804,-1.56279016,-0.51008183,0.00000000,0.00000000
-0.21695676,-2.17000008,-1.64411378,-1.75759292,0.61296296,0.00000000,0.00000000,-2.42829752,0.13408424,0.80864787,-1.57667136,-0.51750696,0.00000000,0.00000000
-0.21199217,-2.17000008,-1.65703714,-1.75880384,0.62884724,0.00000000,0.00000000,-2.38835669,0.15434019,0.83759284,-1.59019279,-0.52363306,0.00000000,0.00000000
-0.20678568,-2.17000008,-1.66937041,-1.75988650,0.64079696,0.00000000,0.00000000,-2.34914351,0.17451459,0.86608392,-1.60324061,-0.53011268,0.00000000,0.00000000
-0.20149574,-2.17000008,-1.68107402,-1.76092243,0.65206450,0.00000000,0.00000000,-2.31174278,0.19437927,0.89325875,-1.61568320,-0.53489935,0.00000000,0.00000000
-0.19624792,-2.17000008,-1.69209301,-1.76193929,0.66750932,0.00000000,0.00000000,-2.27699327,0.21373791,0.91846389,-1.62739551,-0.54082334,0.00000000,0.00000000
-0.19113292,-2.17000008,-1.70232344,-1.76293576,0.67714721,0.00000000,0.00000000,-2.24554563,0.23236570,0.94118482,-1.63826418,-0.54252434,0.00000000,0.00000000
-0.18622817,-2.17000008,-1.71160936,-1.76387942,0.68859816,0.00000000,0.00000000,-2.21781540,0.24999295,0.96108073,-1.64819562,-0.54448009,0.00000000,0.00000000
-0.18164971,-2.17000008,-1.71980953,-1.76471055,0.69557106,0.00000000,0.00000000,-2.19397378,0.26630920,0.97800004,-1.65711033,-0.54601324,0.00000000,0.00000000
-0.17758687,-2.17000008,-1.72681808,-1.76538396,0.69787854,0.00000000,0.00000000,-2.17402053,0.28099006,0.99193180,-1.66493750,-0.55003542,0.00000000,0.00000000
-0.17425047,-2.17000008,-1.73250067,-1.76587701,0.69829357,0.00000000,0.00000000,-2.15770912,0.29371345,1.00309157,-1.67161310,-0.55135262,0.00000000,0.00000000
-0.17181368,-2.17000008,-1.73663116,-1.76620018,0.69594198,0.00000000,0.00000000,-2.14451408,0.30415395,1.01196337,-1.67710972,-0.54885864,0.00000000,0.00000000
-0.17034428,-2.17000008,-1.73912895,-1.76630592,0.69350398,0.00000000,0.00000000,-2.13421798,0.31200245,1.01875675,-1.68156564,-0.54572004,0.00000000,0.00000000
-0.16988260,-2.17000008,-1.74004495,-1.76614821,0.68945354,0.00000000,0.00000000,-2.12679458,0.31707379,1.02352595,-1.68508685,-0.54183322,0.00000000,0.00000000
-0.17044470,-2.17000008,-1.73946679,-1.76569843,0.68706191,0.00000000,0.00000000,-2.12226558,0.31929603,1.02629173,-1.68768620,-0.53615016,0.00000000,0.00000000
-0.17199366,-2.17000008,-1.73749769,-1.76493633,0.68401462,0.00000000,0.00000000,-2.12070394,0.31870493,1.02701652,-1.68935525,-0.53288001,0.00000000,0.00000000
-0.17446439,-2.17000008,-1.73425531,-1.76385403,0.67860723,0.00000000,0.00000000,-2.12214971,0.31542337,1.02566731,-1.69010377,-0.52567327,0.00000000,0.00000000
-0.17778598,-2.17000008,-1.72987413,-1.76243734,0.67404729,0.00000000,0.00000000,-2.12658668,0.30963698,1.02224696,-1.68992591,-0.52106541,0.00000000,0.00000000
-0.18189988,-2.17000008,-1.72446299,-1.76067924,0.67096370,0.00000000,0.00000000,-2.13392091,0.30156982,1.01681578,-1.68880332,-0.51798421,0.00000000,0.00000000
-0.18675956,-2.17000008,-1.71808159,-1.75860870,0.66851598,0.00000000,0.00000000,-2.14402819,0.29145628,1.00944436,-1.68670166,-0.51717335,0.00000000,0.00000000
-0.19228800,-2.17000008,-1.71076560,-1.75626147,0.66845948,0.00000000,0.00000000,-2.15676832,0.27952951,1.00019348,-1.68359697,-0.51494569,0.00000000,0.00000000
-0.19839534,-2.17000008,-1.70253837,-1.75366771,0.66989821,0.00000000,0.00000000,-2.17200494,0.26600301,0.98909992,-1.67948449,-0.51627767,0.00000000,0.00000000
-0.20498808,-2.17000008,-1.69342136,-1.75084436,0.66828644,0.00000000,0.00000000,-2.18953514,0.25107917,0.97625637,-1.67437422,-0.51686686,0.00000000,0.00000000
-0.21193172,-2.17000008,-1.68343103,-1.74776530,0.66419703,0.00000000,0.00000000,-2.20903277,0.23496234,0.96186662,-1.66830659,-0.51877147,0.00000000,0.00000000
-0.21907547,-2.17000008,-1.67257595,-1.74437296,0.66201556,0.00000000,0.00000000,-2.23012877,0.21783207,0.94616669,-1.66136885,-0.52206403,0.00000000,0.00000000
-0.22630909,-2.17000008,-1.66088736,-1.74063015,0.65981483,0.00000000,0.00000000,-2.25242805,0.19993411,0.92945772,-1.65360510,-0.52385992,0.00000000,0.00000000
-0.23357975,-2.17000008,-1.64845300,-1.73653793,0.65887970,0.00000000,0.00000000,-2.27538848,0.18163934,0.91222906,-1.64502549,-0.52707273,0.00000000,0.00000000
-0.24089167,-2.17000008,-1.63540852,-1.73211670,0.65520483,0.00000000,0.00000000,-2.29842758,0.16332580,0.89502680,-1.63570976,-0.53021342,0.00000000,0.00000000
-0.24822856,-2.17000008,-1.62186110,-1.72736573,0.65368062,0.00000000,0.00000000,-2.32102418,0.14529105,0.87834042,-1.62583661,-0.53385144,0.00000000,0.00000000
-0.25558835,-2.17000008,-1.60786879,-1.72232056,0.65055591,0.00000000,0.00000000,-2.34279609,0.12773456,0.86253834,-1.61564565,-0.53378218,0.00000000,0.00000000
-0.26298082,-2.17000008,-1.59349406,-1.71702373,0.64864534,0.00000000,0.00000000,-2.36346006,0.11081297,0.84792274,-1.60536778,-0.53453380,0.00000000,0.00000000
-0.27036044,-2.17000008,-1.57876134,-1.71147466,0.64871210,0.00000000,0.00000000,-2.38242078,0.09462329,0.83501673,-1.59542310,-0.53816497,0.00000000,0.00000000
-0.27766421,-2.17000008,-1.56357539,-1.70567715,0.64710099,0.00000000,0.00000000,-2.39916182,0.07909840,0.82420218,-1.58634675,-0.53926831,0.00000000,0.00000000
-0.28484517,-2.17000008,-1.54787803,-1.69964397,0.64515769,0.00000000,0.00000000,-2.41350508,0.06423143,0.81562281,-1.57837903,-0.53956616,0.00000000,0.00000000
-0.29179245,-2.17000008,-1.53163671,-1.69334376,0.64547205,0.00000000,0.00000000,-2.42549753,0.05011990,0.80927444,-1.57146215,-0.54093820,0.00000000,0.00000000
-0.29853424,-2.17000008,-1.51485872,-1.68684304,0.64291316,0.00000000,0.00000000,-2.43513465,0.03702302,0.80523390,-1.56532311,-0.54385608,0.00000000,0.00000000
-0.30523199,-2.17000008,-1.49767804,-1.68027604,0.64027774,0.00000000,0.00000000,-2.44291091,0.02539485,0.80328321,-1.55918980,-0.54414403,0.00000000,0.00000000
-0.31195554,-2.17000008,-1.48036182,-1.67365539,0.63426787,0.00000000,0.00000000,-2.44983244,0.01567077,0.80281264,-1.55208862,-0.54725569,0.00000000,0.00000000
-0.31864807,-2.17000008,-1.46317506,-1.66687191,0.62924349,0.00000000,0.00000000,-2.45657086,0.00776609,0.80320001,-1.54374981,-0.54572809,0.00000000,0.00000000
-0.32525185,-2.17000008,-1.44643426,-1.65978539,0.62682742,0.00000000,0.00000000,-2.46315408,0.00100714,0.80399680,-1.53474140,-0.54436105,0.00000000,0.00000000
-0.33183515,-2.17000008,-1.43079221,-1.65226197,0.62358499,0.00000000,0.00000000,-2.46928096,-0.00528669,0.80500525,-1.52575874,-0.54302692,0.00000000,0.00000000
-0.33851308,-2.17000008,-1.41679204,-1.64419794,0.62132430,0.00000000,0.00000000,-2.47460246,-0.01142042,0.80628091,-1.51715350,-0.53898799,0.00000000,0.00000000
-0.34537914,-2.17000008,-1.40457368,-1.63556850,0.62252957,0.00000000,0.00000000,-2.47901607,-0.01746722,0.80784535,-1.50898445,-0.53326553,0.00000000,0.00000000
-0.35262251,-2.17000008,-1.39408684,-1.62665689,0.61977553,0.00000000,0.00000000,-2.48262858,-0.02344401,0.80961722,-1.50120640,-0.52787715,0.00000000,0.00000000
-0.36026040,-2.17000008,-1.38506925,-1.61791813,0.61581510,0.00000000,0.00000000,-2.48559546,-0.02935374,0.81149590,-1.49376059,-0.52353644,0.00000000,0.00000000
-0.36787254,-2.17000008,-1.37699127,-1.60956204,0.60909969,0.00000000,0.00000000,-2.48812413,-0.03519468,0.81335348,-1.48657262,-0.52090037,0.00000000,0.00000000
-0.37506247,-2.17000008,-1.36955678,-1.60171473,0.60441399,0.00000000,0.00000000,-2.49047637,-0.04099341,0.81501377,-1.47957480,-0.51912415,0.00000000,0.00000000
-0.38198772,-2.17000008,-1.36283517,-1.59456110,0.59878796,0.00000000,0.00000000,-2.49276853,-0.04676237,0.81641036,-1.47272503,-0.51596671,0.00000000,0.00000000
-0.38895109,-2.17000008,-1.35702467,-1.58810961,0.59379816,0.00000000,0.00000000,-2.49503565,-0.05248396,0.81755179,-1.46597302,-0.51679170,0.00000000,0.00000000
-0.39574054,-2.17000008,-1.35191751,-1.58233833,0.58952266,0.00000000,0.00000000,-2.49727559,-0.05818038,0.81845587,-1.45930994,-0.51813179,0.00000000,0.00000000
-0.40195465,-2.17000008,-1.34717464,-1.57711971,0.58242625,0.00000000,0.00000000,-2.49948668,-0.06392715,0.81911641,-1.45277667,-0.52114326,0.00000000,0.00000000
-0.40751493,-2.17000008,-1.34286284,-1.57232296,0.57684314,0.00000000,0.00000000,-2.50169516,-0.06982693,0.81950104,-1.44643652,-0.52381849,0.00000000,0.00000000
-0.41280076,-2.17000008,-1.33942854,-1.56772053,0.57277888,0.00000000,0.00000000,-2.50392818,-0.07596288,0.81959045,-1.44032764,-0.53035963,0.00000000,0.00000000
-0.41835442,-2.17000008,-1.33753598,-1.56268501,0.57150638,0.00000000,0.00000000,-2.50619292,-0.08238678,0.81939471,-1.43445420,-0.53824431,0.00000000,0.00000000
-0.42356709,-2.17000008,-1.33746338,-1.55593872,0.56868029,0.00000000,0.00000000,-2.50853562,-0.08911809,0.81891561,-1.42877305,-0.54315698,0.00000000,0.00000000
-0.42652625,-2.17000008,-1.33900094,-1.54578662,0.56577462,0.00000000,0.00000000,-2.51100659,-0.09612639,0.81818026,-1.42318845,-0.54699892,0.00000000,0.00000000
-0.42473802,-2.16997504,-1.34169316,-1.53049779,0.56579864,0.00000000,0.00000000,-2.51369786,-0.10332499,0.81722111,-1.41754305,-0.54973197,0.00000000,0.00000000
-0.41576484,-2.16950250,-1.34490383,-1.50867069,0.56761873,0.00000000,0.00000000,-2.51669621,-0.11063706,0.81606853,-1.41168344,-0.55667901,0.00000000,0.00000000
-0.39774692,-2.16682053,-1.34785438,-1.47948110,0.56702656,0.00000000,0.00000000,-2.51998734,-0.11801793,0.81480318,-1.40549839,-0.56166112,0.00000000,0.00000000
-0.36970180,-2.15963912,-1.34986222,-1.44265783,0.56898099,0.00000000,0.00000000,-2.52343154,-0.12541620,0.81359136,-1.39892006,-0.56203693,0.00000000,0.00000000
-0.33147061,-2.14786339,-1.35045433,-1.39828026,0.57279211,0.00000000,0.00000000,-2.52674580,-0.13281292,0.81266868,-1.39198279,-0.56401306,0.00000000,0.00000000
-0.28361297,-2.13240290,-1.34939623,-1.34660888,0.57607138,0.00000000,0.00000000,-2.52952671,-0.14028381,0.81228280,-1.38486421,-0.56792879,0.00000000,0.00000000
-0.22719978,-2.11430955,-1.34660816,-1.28802264,0.57927543,0.00000000,0.00000000,-2.53137898,-0.14800157,0.81260699,-1.37784815,-0.57366943,0.00000000,0.00000000
-0.16352886,-2.09477401,-1.34200597,-1.22305429,0.58694935,0.00000000,0.00000000,-2.53210163,-0.15614909,0.81366456,-1.37120152,-0.57681549,0.00000000,0.00000000
-0.09386144,-2.07508683,-1.33535814,-1.15248263,0.59597665,0.00000000,0.00000000,-2.53178668,-0.16484606,0.81530952,-1.36507809,-0.57918406,0.00000000,0.00000000
-0.01938307,-2.05671549,-1.32623291,-1.07748437,0.60653627,0.00000000,0.00000000,-2.53070092,-0.17415445,0.81730753,-1.35953772,-0.58334672,0.00000000,0.00000000
0.05854791,-2.04155159,-1.31399667,-0.99996257,0.61943936,0.00000000,0.00000000,-2.52907324,-0.18410699,0.81946111,-1.35461390,-0.58606642,0.00000000,0.00000000
0.13771933,-2.03193331,-1.29811335,-0.92298454,0.63114971,0.00000000,0.00000000,-2.52703929,-0.19461605,0.82169664,-1.35024774,-0.59011728,0.00000000,0.00000000
0.21465562,-2.02976751,-1.27880228,-0.85058635,0.64093435,0.00000000,0.00000000,-2.52478719,-0.20552668,0.82394564,-1.34631312,-0.59445989,0.00000000,0.00000000
0.28561148,-2.03534818,-1.25734127,-0.78639483,0.65053594,0.00000000,0.00000000,-2.52266169,-0.21657255,0.82610530,-1.34256423,-0.59724510,0.00000000,0.00000000
0.34750324,-2.04727793,-1.23563921,-0.73279929,0.65606850,0.00000000,0.00000000,-2.52107072,-0.22743940,0.82806540,-1.33869493,-0.59821635,0.00000000,0.00000000
0.39814967,-2.06306100,-1.21570766,-0.69096756,0.66130745,0.00000000,0.00000000,-2.52035666,-0.23791091,0.82970709,-1.33446383,-0.60117996,0.00000000,0.00000000
0.43627769,-2.07992673,-1.19925678,-0.66112489,0.66293162,0.00000000,0.00000000,-2.52078843,-0.24791065,0.83088630,-1.32973123,-0.60146862,0.00000000,0.00000000
0.46133798,-2.09537649,-1.18756223,-0.64294201,0.66612363,0.00000000,0.00000000,-2.52254200,-0.25746506,0.83146459,-1.32444918,-0.60190946,0.00000000,0.00000000
0.47332925,-2.10721850,-1.18156850,-0.63579416,0.66991544,0.00000000,0.00000000,-2.52563262,-0.26668119,0.83136111,-1.31866646,-0.60335666,0.00000000,0.00000000
0.47280172,-2.11310697,-1.18213713,-0.63874137,0.67371410,0.00000000,0.00000000,-2.52983665,-0.27571353,0.83061582,-1.31254184,-0.60329336,0.00000000,0.00000000
0.46096024,-2.11079144,-1.18999338,-0.65061283,0.67750049,0.00000000,0.00000000,-2.53467512,-0.28466973,0.82944787,-1.30628824,-0.60444385,0.00000000,0.00000000
0.43943352,-2.09943581,-1.20529294,-0.67050064,0.68063205,0.00000000,0.00000000,-2.53949213,-0.29351276,0.82825917,-1.30008101,-0.60278028,0.00000000,0.00000000
0.41002896,-2.08055043,-1.22725391,-0.69783038,0.68173271,0.00000000,0.00000000,-2.54364395,-0.30204567,0.82753116,-1.29398894,-0.60067528,0.00000000,0.00000000
0.37383947,-2.05785441,-1.25426698,-0.73223734,0.68297035,0.00000000,0.00000000,-2.54677057,-0.31006739,0.82758373,-1.28800762,-0.59882933,0.00000000,0.00000000
0.33162591,-2.03574300,-1.28432381,-0.77306217,0.68366152,0.00000000,0.00000000,-2.54893517,-0.31759700,0.82836878,-1.28216529,-0.60018468,0.00000000,0.00000000
0.28582767,-2.01807356,-1.31513000,-0.81875300,0.68447024,0.00000000,0.00000000,-2.55047011,-0.32476473,0.82962435,-1.27648783,-0.60305095,0.00000000,0.00000000
0.23848960,-2.00582194,-1.34557104,-0.86809230,0.68318987,0.00000000,0.00000000,-2.55166674,-0.33171126,0.83110744,-1.27101386,-0.60504663,0.00000000,0.00000000
0.19091097,-1.99885702,-1.37509346,-0.92024773,0.68326896,0.00000000,0.00000000,-2.55262280,-0.33857626,0.83268750,-1.26582432,-0.60843146,0.00000000,0.00000000
0.14412589,-1.99695325,-1.40322018,-0.97443563,0.68318546,0.00000000,0.00000000,-2.55332899,-0.34549960,0.83429068,-1.26101351,-0.61446595,0.00000000,0.00000000
0.09895957,-1.99966669,-1.42963123,-1.02984071,0.68320602,0.00000000,0.00000000,-2.55377340,-0.35260966,0.83584803,-1.25666213,-0.62540895,0.00000000,0.00000000
0.05601273,-2.00636506,-1.45417476,-1.08565748,0.68636930,0.00000000,0.00000000,-2.55395007,-0.36001849,0.83729136,-1.25283515,-0.63618493,0.00000000,0.00000000
0.01577167,-2.01639318,-1.47677803,-1.14113152,0.69241053,0.00000000,0.00000000,-2.55384707,-0.36783123,0.83855534,-1.24959588,-0.65179676,0.00000000,0.00000000
-0.02130224,-2.02905202,-1.49746740,-1.19550872,0.69658226,0.00000000,0.00000000,-2.55342889,-0.37614429,0.83958584,-1.24700630,-0.66381013,0.00000000,0.00000000
-0.05478688,-2.04360414,-1.51636767,-1.24805391,0.70311481,0.00000000,0.00000000,-2.55265880,-0.38503239,0.84033763,-1.24511707,-0.67780304,0.00000000,0.00000000
-0.08437949,-2.05934834,-1.53365779,-1.29813921,0.70475668,0.00000000,0.00000000,-2.55151582,-0.39453730,0.84077072,-1.24396658,-0.68933773,0.00000000,0.00000000
-0.10997772,-2.07566214,-1.54952347,-1.34529650,0.70620024,0.00000000,0.00000000,-2.54996824,-0.40466660,0.84086603,-1.24358308,-0.69907641,0.00000000,0.00000000
-0.13165291,-2.09202194,-1.56408679,-1.38922429,0.70604813,0.00000000,0.00000000,-2.54799747,-0.41540524,0.84060669,-1.24400032,-0.71141130,0.00000000,0.00000000
-0.14958994,-2.10795331,-1.57741416,-1.42976403,0.70263886,0.00000000,0.00000000,-2.54563475,-0.42668244,0.83998060,-1.24523878,-0.72678035,0.00000000,0.00000000
-0.16394366,-2.12296343,-1.58959353,-1.46681285,0.70100462,0.00000000,0.00000000,-2.54294300,-0.43822274,0.83907348,-1.24715745,-0.74196923,0.00000000,0.00000000
-0.17478798,-2.13659716,-1.60070884,-1.50029933,0.70057678,0.00000000,0.00000000,-2.54003406,-0.44959235,0.83803213,-1.24945390,-0.75718105,0.00000000,0.00000000
-0.18219639,-2.14843345,-1.61085856,-1.53016853,0.70399851,0.00000000,0.00000000,-2.53705311,-0.46034303,0.83699232,-1.25178719,-0.76907915,0.00000000,0.00000000
-0.18631378,-2.15803838,-1.62018442,-1.55638278,0.70731974,0.00000000,0.00000000,-2.53408313,-0.47003916,0.83612138,-1.25383759,-0.78150290,0.00000000,0.00000000
-0.18742254,-2.16496897,-1.62876463,-1.57899690,0.71141630,0.00000000,0.00000000,-2.53126621,-0.47831410,0.83552164,-1.25533485,-0.79449081,0.00000000,0.00000000
-0.18601431,-2.16882372,-1.63652670,-1.59826064,0.71780986,0.00000000,0.00000000,-2.52873611,-0.48501050,0.83518171,-1.25614774,-0.80836040,0.00000000,0.00000000
-0.18285581,-2.16989875,-1.64338100,-1.61463690,0.72443634,0.00000000,0.00000000,-2.52657843,-0.49014187,0.83501714,-1.25625932,-0.82079107,0.00000000,0.00000000
-0.17885312,-2.16999769,-1.64925015,-1.62873530,0.73107010,0.00000000,0.00000000,-2.52483869,-0.49381176,0.83491832,-1.25571978,-0.83273536,0.00000000,0.00000000
-0.17468090,-2.17000008,-1.65405798,-1.64106417,0.73714912,0.00000000,0.00000000,-2.52352858,-0.49613819,0.83479178,-1.25459921,-0.84601659,0.00000000,0.00000000
-0.17070377,-2.17000008,-1.65778363,-1.65191710,0.73999476,0.00000000,0.00000000,-2.52262068,-0.49721894,0.83458579,-1.25296438,-0.86302257,0.00000000,0.00000000
-0.16715391,-2.17000008,-1.66045523,-1.66148508,0.74209470,0.00000000,0.00000000,-2.52203465,-0.49715257,0.83427960,-1.25088906,-0.87911773,0.00000000,0.00000000
-0.16418658,-2.17000008,-1.66212010,-1.66990674,0.74609482,0.00000000,0.00000000,-2.52168727,-0.49603972,0.83385551,-1.24843967,-0.89763647,0.00000000,0.00000000
-0.16186953,-2.17000008,-1.66282487,-1.67727041,0.75053936,0.00000000,0.00000000,-2.52154064,-0.49395818,0.83328807,-1.24564886,-0.91798413,0.00000000,0.00000000
-0.16021919,-2.17000008,-1.66258979,-1.68365860,0.75282234,0.00000000,0.00000000,-2.52157116,-0.49097174,0.83255649,-1.24253714,-0.93879151,0.00000000,0.00000000
-0.15924127,-2.17000008,-1.66143417,-1.68915558,0.75501233,0.00000000,0.00000000,-2.52174807,-0.48713818,0.83165038,-1.23911846,-0.95762169,0.00000000,0.00000000
-0.15892394,-2.17000008,-1.65939522,-1.69384253,0.75729895,0.00000000,0.00000000,-2.52207780,-0.48250601,0.83054763,-1.23538363,-0.97802866,0.00000000,0.00000000
-0.15921344,-2.17000008,-1.65651500,-1.69777966,0.75787860,0.00000000,0.00000000,-2.52255774,-0.47711927,0.82923657,-1.23132014,-1.00391889,0.00000000,0.00000000
-0.16004322,-2.17000008,-1.65281558,-1.70100951,0.76204813,0.00000000,0.00000000,-2.52314878,-0.47105923,0.82770872,-1.22695124,-1.02810681,0.00000000,0.00000000
-0.16133539,-2.17000008,-1.64827764,-1.70357084,0.76288646,0.00000000,0.00000000,-2.52379179,-0.46446452,0.82593733,-1.22234833,-1.05340922,0.00000000,0.00000000
-0.16301587,-2.17000008,-1.64287639,-1.70550644,0.76517749,0.00000000,0.00000000,-2.52446556,-0.45743912,0.82389563,-1.21755493,-1.08148193,0.00000000,0.00000000
-0.16504070,-2.17000008,-1.63659871,-1.70686615,0.76596153,0.00000000,0.00000000,-2.52516508,-0.45004088,0.82157642,-1.21257806,-1.11342227,0.00000000,0.00000000
-0.16738097,-2.17000008,-1.62945724,-1.70768511,0.76559746,0.00000000,0.00000000,-2.52589369,-0.44230014,0.81898391,-1.20739579,-1.14646101,0.00000000,0.00000000
-0.17005241,-2.17000008,-1.62145221,-1.70801544,0.76365644,0.00000000,0.00000000,-2.52675462,-0.43414724,0.81612444,-1.20189571,-1.17915201,0.00000000,0.00000000
-0.17327371,-2.17000008,-1.61247480,-1.70807481,0.76086628,0.00000000,0.00000000,-2.52806664,-0.42527279,0.81302214,-1.19578075,-1.21094680,0.00000000,0.00000000
-0.17716795,-2.17000008,-1.60246456,-1.70801079,0.76164281,0.00000000,0.00000000,-2.52998209,-0.41557199,0.80968499,-1.18891609,-1.24026549,0.00000000,0.00000000
-0.18135822,-2.17000008,-1.59159815,-1.70755053,0.76279020,0.00000000,0.00000000,-2.53204370,-0.40570077,0.80604392,-1.18177092,-1.26652062,0.00000000,0.00000000
-0.18559437,-2.17000008,-1.57992578,-1.70651734,0.76574105,0.00000000,0.00000000,-2.53398752,-0.39612398,0.80203360,-1.17466056,-1.29651320,0.00000000,0.00000000
-0.18979980,-2.17000008,-1.56742048,-1.70488584,0.77186853,0.00000000,0.00000000,-2.53572726,-0.38702965,0.79764360,-1.16766536,-1.32694447,0.00000000,0.00000000
-0.19397931,-2.17000008,-1.55414176,-1.70267880,0.78009987,0.00000000,0.00000000,-2.53719640,-0.37850821,0.79290169,-1.16078341,-1.35663176,0.00000000,0.00000000
-0.19817294,-2.17000008,-1.54023099,-1.69995999,0.78813678,0.00000000,0.00000000,-2.53839207,-0.37060893,0.78782141,-1.15397441,-1.38794017,0.00000000,0.00000000
-0.20249286,-2.17000008,-1.52590168,-1.69685841,0.79654443,0.00000000,0.00000000,-2.53933263,-0.36334452,0.78241903,-1.14718533,-1.41846919,0.00000000,0.00000000
-0.20701742,-2.17000008,-1.51137483,-1.69347131,0.80152661,0.00000000,0.00000000,-2.54002452,-0.35668632,0.77673268,-1.14034677,-1.45064783,0.00000000,0.00000000
-0.21173169,-2.17000008,-1.49683917,-1.68981695,0.80910641,0.00000000,0.00000000,-2.54046154,-0.35058436,0.77081293,-1.13338006,-1.48528194,0.00000000,0.00000000
-0.21661885,-2.17000008,-1.48250222,-1.68589818,0.81586939,0.00000000,0.00000000,-2.54062271,-0.34500596,0.76470882,-1.12622774,-1.51790571,0.00000000,0.00000000
-0.22167940,-2.17000008,-1.46861053,-1.68171620,0.82594389,0.00000000,0.00000000,-2.54049397,-0.33993191,0.75845873,-1.11884785,-1.54905415,0.00000000,0.00000000
-0.22690558,-2.17000008,-1.45550525,-1.67723179,0.83755875,0.00000000,0.00000000,-2.54005980,-0.33535227,0.75209653,-1.11120510,-1.57903397,0.00000000,0.00000000
-0.23227485,-2.17000008,-1.44361067,-1.67235863,0.84993875,0.00000000,0.00000000,-2.53929925,-0.33128354,0.74564731,-1.10327899,-1.60939956,0.00000000,0.00000000
-0.23780724,-2.17000008,-1.43322468,-1.66705632,0.86328554,0.00000000,0.00000000,-2.53816557,-0.32775995,0.73914170,-1.09506464,-1.63741922,0.00000000,0.00000000
-0.24360272,-2.17000008,-1.42442858,-1.66138935,0.87397313,0.00000000,0.00000000,-2.53660727,-0.32480034,0.73261714,-1.08654857,-1.66410756,0.00000000,0.00000000
-0.24971069,-2.17000008,-1.41705251,-1.65541339,0.88542157,0.00000000,0.00000000,-2.53460598,-0.32239991,0.72610217,-1.07769144,-1.68661773,0.00000000,0.00000000
-0.25601989,-2.17000008,-1.41070509,-1.64906073,0.89476269,0.00000000,0.00000000,-2.53216076,-0.32054251,0.71961898,-1.06843579,-1.70931053,0.00000000,0.00000000
-0.26257062,-2.17000008,-1.40502906,-1.64242172,0.90544999,0.00000000,0.00000000,-2.52928329,-0.31918347,0.71319187,-1.05870712,-1.73233664,0.00000000,0.00000000
-0.26940668,-2.17000008,-1.39974189,-1.63560200,0.91313612,0.00000000,0.00000000,-2.52599096,-0.31826511,0.70684707,-1.04842341,-1.75242722,0.00000000,0.00000000
-0.27649167,-2.17000008,-1.39461422,-1.62861967,0.92396796,0.00000000,0.00000000,-2.52228260,-0.31773400,0.70061702,-1.03751171,-1.77384388,0.00000000,0.00000000
-0.28384504,-2.17000008,-1.38950121,-1.62151039,0.92929721,0.00000000,0.00000000,-2.51811290,-0.31755856,0.69454807,-1.02592409,-1.79231870,0.00000000,0.00000000
-0.29147834,-2.17000008,-1.38435531,-1.61425674,0.93711990,0.00000000,0.00000000,-2.51342154,-0.31772849,0.68868685,-1.01362967,-1.81258178,0.00000000,0.00000000
-0.29923049,-2.17000008,-1.37917888,-1.60664523,0.94389606,0.00000000,0.00000000,-2.50815010,-0.31825164,0.68307072,-1.00061166,-1.83111799,0.00000000,0.00000000
-0.30687308,-2.17000008,-1.37401462,-1.59837377,0.95430064,0.00000000,0.00000000,-2.50223923,-0.31915101,0.67773026,-0.98686689,-1.85331655,0.00000000,0.00000000
-0.31440604,-2.17000008,-1.36876905,-1.58942437,0.96351510,0.00000000,0.00000000,-2.49562049,-0.32063130,0.67263538,-0.97250557,-1.87557960,0.00000000,0.00000000
-0.32216901,-2.16996908,-1.36306036,-1.58024716,0.97257888,0.00000000,0.00000000,-2.48822856,-0.32319552,0.66765153,-0.95782232,-1.89529335,0.00000000,0.00000000
-0.33009049,-2.16943860,-1.35675609,-1.57075179,0.98559922,0.00000000,0.00000000,-2.48003364,-0.32706910,0.66271400,-0.94296718,-1.91368783,0.00000000,0.00000000
-0.33796412,-2.16697216,-1.34993458,-1.56059730,0.99559522,0.00000000,0.00000000,-2.47102523,-0.33227748,0.65780807,-0.92798418,-1.93155146,0.00000000,0.00000000
-0.34562138,-2.16131663,-1.34267938,-1.54946828,1.00721407,0.00000000,0.00000000,-2.46120238,-0.33880451,0.65292114,-0.91289318,-1.94882512,0.00000000,0.00000000
-0.35298082,-2.15230370,-1.33503366,-1.53713906,1.01521838,0.00000000,0.00000000,-2.45058846,-0.34661093,0.64802974,-0.89769751,-1.96962452,0.00000000,0.00000000
-0.36015770,-2.14022446,-1.32696950,-1.52357948,1.02368093,0.00000000,0.00000000,-2.43918633,-0.35565451,0.64311790,-0.88240319,-1.99000430,0.00000000,0.00000000
-0.36724487,-2.12547636,-1.31831014,-1.50883055,1.03118014,0.00000000,0.00000000,-2.42696047,-0.36592159,0.63817501,-0.86703742,-2.01050472,0.00000000,0.00000000
-0.37411326,-2.10845852,-1.30874825,-1.49286926,1.03715265,0.00000000,0.00000000,-2.41392446,-0.37745726,0.63314950,-0.85164702,-2.02975368,0.00000000,0.00000000
-0.38064575,-2.08943963,-1.29806268,-1.47567987,1.04234695,0.00000000,0.00000000,-2.40009069,-0.39035279,0.62797564,-0.83630252,-2.05114985,0.00000000,0.00000000
-0.38685843,-2.06842995,-1.28630471,-1.45722640,1.04627919,0.00000000,0.00000000,-2.38544369,-0.40470570,0.62259483,-0.82108653,-2.07178497,0.00000000,0.00000000
-0.39292547,-2.04527044,-1.27370536,-1.43751872,1.05054677,0.00000000,0.00000000,-2.36994433,-0.42068952,0.61693841,-0.80613971,-2.09510732,0.00000000,0.00000000
-0.39908728,-2.01976681,-1.26051342,-1.41662407,1.05761647,0.00000000,0.00000000,-2.35348701,-0.43860379,0.61093700,-0.79168296,-2.11189079,0.00000000,0.00000000
-0.40546748,-1.99173379,-1.24691522,-1.39457095,1.06439364,0.00000000,0.00000000,-2.33588386,-0.45884907,0.60453999,-0.77798378,-2.12981868,0.00000000,0.00000000
-0.41183129,-1.96101415,-1.23293912,-1.37122238,1.07135034,0.00000000,0.00000000,-2.31695843,-0.48183224,0.59770656,-0.76528400,-2.14726782,0.00000000,0.00000000
-0.41743368,-1.92757249,-1.21832085,-1.34624851,1.08041000,0.00000000,0.00000000,-2.29668260,-0.50781488,0.59038413,-0.75369638,-2.16152239,0.00000000,0.00000000
-0.42124757,-1.89148760,-1.20260406,-1.31927979,1.08708847,0.00000000,0.00000000,-2.27533150,-0.53674018,0.58249003,-0.74306840,-2.17749810,0.00000000,0.00000000
-0.42221713,-1.85285366,-1.18533432,-1.29001439,1.09627354,0.00000000,0.00000000,-2.25352049,-0.56814402,0.57391745,-0.73292381,-2.19337511,0.00000000,0.00000000
-0.41936281,-1.81171215,-1.16616631,-1.25822628,1.10512984,0.00000000,0.00000000,-2.23196650,-0.60129237,0.56458664,-0.72261208,-2.20812058,0.00000000,0.00000000
-0.41177848,-1.76798749,-1.14490151,-1.22370982,1.11652851,0.00000000,0.00000000,-2.21126819,-0.63549221,0.55444872,-0.71153492,-2.22299623,0.00000000,0.00000000
-0.39859051,-1.72146380,-1.12146783,-1.18623662,1.12703443,0.00000000,0.00000000,-2.19177938,-0.67015374,0.54352349,-0.69919664,-2.23638725,0.00000000,0.00000000
-0.37896374,-1.67183828,-1.09586751,-1.14558887,1.13799763,0.00000000,0.00000000,-2.17355680,-0.70467883,0.53194708,-0.68515742,-2.24826550,0.00000000,0.00000000
-0.35205886,-1.61877608,-1.06811988,-1.10157156,1.14877629,0.00000000,0.00000000,-2.15660858,-0.73814338,0.51994789,-0.66882086,-2.26012421,0.00000000,0.00000000
-0.31700411,-1.56187654,-1.03826535,-1.05397534,1.15903878,0.00000000,0.00000000,-2.14081264,-0.76929796,0.50786805,-0.64955068,-2.26823974,0.00000000,0.00000000
-0.27295718,-1.50064898,-1.00638902,-1.00256789,1.16877639,0.00000000,0.00000000,-2.12530732,-0.79874855,0.49594599,-0.62857133,-2.27903318,0.00000000,0.00000000
-0.21922125,-1.43461156,-0.97260457,-0.94716203,1.17789876,0.00000000,0.00000000,-2.10974002,-0.82921022,0.48383835,-0.60924107,-2.28889346,0.00000000,0.00000000
-0.15536755,-1.36343539,-0.93703103,-0.88770378,1.18462896,0.00000000,0.00000000,-2.09452844,-0.86061239,0.47147930,-0.59281808,-2.29997873,0.00000000,0.00000000
-0.08131446,-1.28707075,-0.89978170,-0.82434201,1.18886411,0.00000000,0.00000000,-2.07980537,-0.89171606,0.45910826,-0.57897121,-2.31589031,0.00000000,0.00000000
0.00266126,-1.20574069,-0.86098552,-0.75740832,1.19453406,0.00000000,0.00000000,-2.06530452,-0.92141128,0.44705430,-0.56708276,-2.32942510,0.00000000,0.00000000
0.09594114,-1.11985421,-0.82081562,-0.68735194,1.19533038,0.00000000,0.00000000,-2.05058384,-0.94858783,0.43567923,-0.55651760,-2.34045005,0.00000000,0.00000000
0.19757691,-1.02996659,-0.77950037,-0.61471021,1.19526207,0.00000000,0.00000000,-2.03521037,-0.97229201,0.42528778,-0.54673070,-2.35337687,0.00000000,0.00000000
0.30631211,-0.93674207,-0.73732293,-0.54007876,1.19211543,0.00000000,0.00000000,-2.01868439,-0.99184567,0.41613832,-0.53735799,-2.36811185,0.00000000,0.00000000
0.42061239,-0.84096724,-0.69461381,-0.46410859,1.18964052,0.00000000,0.00000000,-2.00032687,-1.00693035,0.40847665,-0.52829361,-2.38276958,0.00000000,0.00000000
0.53869826,-0.74358428,-0.65174246,-0.38752091,1.18532205,0.00000000,0.00000000,-1.97961581,-1.01740527,0.40245399,-0.51949203,-2.39739776,0.00000000,0.00000000
0.65858799,-0.64568847,-0.60911375,-0.31110466,1.18273377,0.00000000,0.00000000,-1.95648372,-1.02302134,0.39808261,-0.51072967,-2.41039658,0.00000000,0.00000000
0.77815437,-0.54844123,-0.56716424,-0.23566845,1.17628610,0.00000000,0.00000000,-1.93093824,-1.02378488,0.39531600,-0.50192082,-2.42209649,0.00000000,0.00000000
0.89519632,-0.45301491,-0.52635306,-0.16201776,1.17155600,0.00000000,0.00000000,-1.90277481,-1.02021539,0.39410767,-0.49334678,-2.43209410,0.00000000,0.00000000
1.00752974,-0.36058527,-0.48714951,-0.09095859,1.16362476,0.00000000,0.00000000,-1.87209022,-1.01300025,0.39430127,-0.48531371,-2.44442391,0.00000000,0.00000000
1.11309147,-0.27232739,-0.45001540,-0.02330125,1.15637362,0.00000000,0.00000000,-1.83969438,-1.00273490,0.39554557,-0.47789076,-2.45666790,0.00000000,0.00000000
1.21006370,-0.18939136,-0.41538596,0.04014308,1.15013885,0.00000000,0.00000000,-1.80666447,-0.99001992,0.39743304,-0.47108084,-2.47029757,0.00000000,0.00000000
1.29698968,-0.11279749,-0.38364458,0.09861554,1.14287126,0.00000000,0.00000000,-1.77488065,-0.97539252,0.39935160,-0.46460825,-2.48479176,0.00000000,0.00000000
1.37285948,-0.04332691,-0.35509440,0.15147635,1.14035380,0.00000000,0.00000000,-1.74689233,-0.95924228,0.40053660,-0.45789003,-2.50009751,0.00000000,0.00000000
1.43715382,0.01852942,-0.32993355,0.19824621,1.14016497,0.00000000,0.00000000,-1.72431123,-0.94204319,0.40051195,-0.45065576,-2.51660323,0.00000000,0.00000000
1.48984873,0.07256221,-0.30823931,0.23861019,1.14107049,0.00000000,0.00000000,-1.70818067,-0.92421675,0.39898804,-0.44276288,-2.53069520,0.00000000,0.00000000
1.53137529,0.11888154,-0.28996015,0.27244088,1.14243424,0.00000000,0.00000000,-1.69848633,-0.90646094,0.39594042,-0.43451744,-2.54249692,0.00000000,0.00000000
1.56254280,0.15793680,-0.27491835,0.29982334,1.14485276,0.00000000,0.00000000,-1.69327188,-0.88994002,0.39180258,-0.42691541,-2.55414915,0.00000000,0.00000000
1.58447957,0.19060263,-0.26281339,0.32109424,1.14740050,0.00000000,0.00000000,-1.68971944,-0.87543851,0.38725191,-0.42069715,-2.56291437,0.00000000,0.00000000
1.59853292,0.21815376,-0.25324699,0.33682299,1.15219498,0.00000000,0.00000000,-1.68620932,-0.86305082,0.38270721,-0.41567263,-2.57457662,0.00000000,0.00000000
1.60619068,0.24173665,-0.24577162,0.34752721,1.15651476,0.00000000,0.00000000,-1.68214738,-0.85230994,0.37836850,-0.41111887,-2.58694363,0.00000000,0.00000000
1.60900855,0.26226869,-0.23992169,0.35362673,1.15657425,0.00000000,0.00000000,-1.67729974,-0.84278768,0.37433091,-0.40644106,-2.60182047,0.00000000,0.00000000
1.60853505,0.28078735,-0.23522349,0.35565352,1.15654564,0.00000000,0.00000000,-1.67240751,-0.83418041,0.37043303,-0.40099579,-2.61771083,0.00000000,0.00000000
1.60581768,0.29832432,-0.23131673,0.35428470,1.15777206,0.00000000,0.00000000,-1.66818547,-0.82646614,0.36649260,-0.39450663,-2.63575459,0.00000000,0.00000000
1.60233223,0.31519079,-0.22779921,0.34999058,1.16131616,0.00000000,0.00000000,-1.66482675,-0.81943882,0.36247236,-0.38698730,-2.65639210,0.00000000,0.00000000
1.60046101,0.33157125,-0.22410250,0.34371310,1.16242874,0.00000000,0.00000000,-1.66181147,-0.81239676,0.35854235,-0.37857535,-2.67493677,0.00000000,0.00000000
1.59712422,0.34994695,-0.22072944,0.33881289,1.16605902,0.00000000,0.00000000,-1.65565169,-0.80521888,0.35547417,-0.37049559,-2.69035625,0.00000000,0.00000000
1.59127414,0.36946568,-0.21790075,0.33543471,1.16767704,0.00000000,0.00000000,-1.64571178,-0.79762882,0.35342243,-0.36313972,-2.70706892,0.00000000,0.00000000
1.58324683,0.38958165,-0.21553718,0.33333245,1.16858816,0.00000000,0.00000000,-1.63677049,-0.78777564,0.35151106,-0.35448384,-2.72139192,0.00000000,0.00000000
1.57249558,0.41021794,-0.21372363,0.33266068,1.17156315,0.00000000,0.00000000,-1.62410617,-0.77637815,0.35067409,-0.34570280,-2.73570108,0.00000000,0.00000000
1.55898607,0.43146133,-0.21244244,0.33358258,1.17233598,0.00000000,0.00000000,-1.60713708,-0.76304787,0.35104576,-0.33650231,-2.75041676,0.00000000,0.00000000
