isaac-sim2real/sage/motion_files/wr75s/amass/0-CMU_93_93_02_poses_idx16.txt
l_joint1,l_joint2,l_joint3,l_joint4,l_joint5,l_joint6,l_joint7,r_joint1,r_joint2,r_joint3,r_joint4,r_joint5,r_joint6,r_joint7
0.04647690,-0.82282376,-0.95019233,-0.02328521,0.02173439,0.00000000,0.00000000,-0.32876810,2.13681221,2.60108972,0.73664224,-0.11366786,0.00000000,0.00000000
0.04792005,-0.83654362,-0.95119154,-0.02834961,0.03731799,0.00000000,0.00000000,-0.31967637,2.11371398,2.59953880,0.75949466,-0.12445822,0.00000000,0.00000000
0.05068043,-0.86151397,-0.95308590,-0.03808173,0.05365315,0.00000000,0.00000000,-0.30388930,2.07990193,2.59413671,0.79908502,-0.13769764,0.00000000,0.00000000
0.05469422,-0.89600194,-0.95580149,-0.05223234,0.06744119,0.00000000,0.00000000,-0.28377843,2.04569197,2.58259225,0.85025519,-0.15540043,0.00000000,0.00000000
0.05985460,-0.93830180,-0.95923913,-0.07037085,0.08679320,0.00000000,0.00000000,-0.26127100,2.01589513,2.56384563,0.90993476,-0.17513931,0.00000000,0.00000000
0.06605063,-0.98665804,-0.96328706,-0.09183926,0.09989242,0.00000000,0.00000000,-0.23819077,1.99253476,2.53755784,0.97582638,-0.20025873,0.00000000,0.00000000
0.07319546,-1.03924537,-0.96783036,-0.11580727,0.11105580,0.00000000,0.00000000,-0.21596743,1.97538412,2.50409603,1.04623950,-0.22587027,0.00000000,0.00000000
0.08121122,-1.09431040,-0.97276074,-0.14145276,0.12672830,0.00000000,0.00000000,-0.19596381,1.96369839,2.46428442,1.11834407,-0.24845126,0.00000000,0.00000000
0.08997788,-1.15024471,-0.97798568,-0.16805267,0.14173532,0.00000000,0.00000000,-0.17898685,1.95617676,2.41923618,1.18857789,-0.27518404,0.00000000,0.00000000
0.09927698,-1.20567453,-0.98343271,-0.19509310,0.15992872,0.00000000,0.00000000,-0.16497438,1.95094943,2.37018299,1.25434470,-0.30328470,0.00000000,0.00000000
0.10883569,-1.25970376,-0.98901623,-0.22231601,0.17539369,0.00000000,0.00000000,-0.15351199,1.94651699,2.31814480,1.31449628,-0.34074143,0.00000000,0.00000000
0.11835875,-1.31220722,-0.99459177,-0.24977881,0.19045499,0.00000000,0.00000000,-0.14462410,1.94295132,2.26324940,1.36831570,-0.37812227,0.00000000,0.00000000
0.12776956,-1.36335504,-0.99994844,-0.27740905,0.20965660,0.00000000,0.00000000,-0.13869727,1.94082916,2.20550323,1.41504955,-0.41323209,0.00000000,0.00000000
0.13680317,-1.41332829,-1.00488937,-0.30532551,0.23481551,0.00000000,0.00000000,-0.13558206,1.94008434,2.14509559,1.45444345,-0.45111287,0.00000000,0.00000000
0.14523663,-1.46231759,-1.00919604,-0.33361691,0.26360846,0.00000000,0.00000000,-0.13522685,1.94084311,2.08220267,1.48603916,-0.47607881,0.00000000,0.00000000
0.15297452,-1.51032054,-1.01264846,-0.36222520,0.29301944,0.00000000,0.00000000,-0.13759422,1.94323552,2.01722503,1.50922978,-0.50175267,0.00000000,0.00000000
0.16005993,-1.55698287,-1.01506233,-0.39090991,0.32162508,0.00000000,0.00000000,-0.14286117,1.94760656,1.95059609,1.52319443,-0.52926797,0.00000000,0.00000000
0.16662629,-1.60148358,-1.01633751,-0.41924444,0.34679589,0.00000000,0.00000000,-0.15081045,1.95401514,1.88320756,1.52734387,-0.54622293,0.00000000,0.00000000
0.17257966,-1.64298475,-1.01644719,-0.44702119,0.37567222,0.00000000,0.00000000,-0.16100477,1.96241522,1.81600702,1.52120543,-0.56813508,0.00000000,0.00000000
0.17759500,-1.68145597,-1.01528835,-0.47463867,0.39482099,0.00000000,0.00000000,-0.17325655,1.97290552,1.74964619,1.50421202,-0.58410114,0.00000000,0.00000000
0.18117401,-1.71692753,-1.01282263,-0.50267613,0.40791875,0.00000000,0.00000000,-0.18728510,1.98530436,1.68486512,1.47605348,-0.60688591,0.00000000,0.00000000
0.18234542,-1.74935532,-1.00915813,-0.53197104,0.41432688,0.00000000,0.00000000,-0.20250551,1.99909842,1.62254179,1.43686664,-0.62770957,0.00000000,0.00000000
0.17969671,-1.77950883,-1.00431597,-0.56394631,0.42370716,0.00000000,0.00000000,-0.21811955,2.01360774,1.56368053,1.38719761,-0.65347737,0.00000000,0.00000000
0.17186391,-1.80916059,-0.99803561,-0.60034513,0.43189865,0.00000000,0.00000000,-0.23347470,2.02811122,1.50946355,1.32782352,-0.68080717,0.00000000,0.00000000
0.15701097,-1.84028709,-0.99010980,-0.64309996,0.43403813,0.00000000,0.00000000,-0.24789928,2.04193997,1.46101129,1.25986803,-0.70936108,0.00000000,0.00000000
0.13508920,-1.87272477,-0.98061204,-0.69268876,0.43881631,0.00000000,0.00000000,-0.26001278,2.05422211,1.41951644,1.18516147,-0.74186897,0.00000000,0.00000000
0.11115545,-1.90463650,-0.96895969,-0.74849254,0.43889889,0.00000000,0.00000000,-0.26672256,2.06199098,1.38763213,1.10656464,-0.76926792,0.00000000,0.00000000
0.08700488,-1.93435943,-0.95551187,-0.81336802,0.44181284,0.00000000,0.00000000,-0.26652122,2.06120872,1.36780500,1.02639031,-0.79511893,0.00000000,0.00000000
0.06140711,-1.95840514,-0.94262582,-0.88900536,0.43427122,0.00000000,0.00000000,-0.26520494,2.05389619,1.35644948,0.94632459,-0.82037610,0.00000000,0.00000000
0.03466526,-1.97416317,-0.93251896,-0.97372282,0.43461347,0.00000000,0.00000000,-0.26508278,2.04236412,1.35022557,0.87215179,-0.84142870,0.00000000,0.00000000
0.00811169,-1.97916913,-0.92730796,-1.06156516,0.43026754,0.00000000,0.00000000,-0.26465103,2.02737904,1.34735072,0.80712658,-0.86364478,0.00000000,0.00000000
-0.01819951,-1.97563100,-0.92726231,-1.14631593,0.42622921,0.00000000,0.00000000,-0.26220915,2.01151586,1.34514141,0.75157970,-0.89303255,0.00000000,0.00000000
-0.04466461,-1.96700680,-0.93176448,-1.22524714,0.42234617,0.00000000,0.00000000,-0.25799721,1.99588931,1.34171486,0.70368516,-0.91779971,0.00000000,0.00000000
-0.06983788,-1.95497441,-0.93975425,-1.29657996,0.41850373,0.00000000,0.00000000,-0.25292638,1.98003197,1.33626270,0.66073751,-0.94188690,0.00000000,0.00000000
-0.09212999,-1.94086075,-0.94975150,-1.35914648,0.42513856,0.00000000,0.00000000,-0.24722746,1.96403456,1.32815540,0.62124360,-0.95532644,0.00000000,0.00000000
-0.10997829,-1.92581594,-0.96010077,-1.41206968,0.43115345,0.00000000,0.00000000,-0.24134491,1.94920981,1.31654918,0.58479065,-0.97186613,0.00000000,0.00000000
-0.12263589,-1.91076076,-0.96938443,-1.45501590,0.43423298,0.00000000,0.00000000,-0.23558471,1.93693757,1.30083168,0.55146515,-0.98968565,0.00000000,0.00000000
-0.13026844,-1.89651239,-0.97647160,-1.48823774,0.43661109,0.00000000,0.00000000,-0.22918929,1.92839766,1.28076708,0.52197838,-1.00561357,0.00000000,0.00000000
-0.13385490,-1.88366807,-0.98074526,-1.51248860,0.43471646,0.00000000,0.00000000,-0.22079745,1.92385149,1.25658941,0.49734011,-1.03527296,0.00000000,0.00000000
-0.13465935,-1.87287045,-0.98187816,-1.52896810,0.43570393,0.00000000,0.00000000,-0.20976427,1.92178762,1.22902834,0.47800541,-1.06535661,0.00000000,0.00000000
-0.13404331,-1.86464620,-0.97990084,-1.53896201,0.44153696,0.00000000,0.00000000,-0.19579734,1.92051303,1.19878852,0.46405828,-1.09692395,0.00000000,0.00000000
-0.13322316,-1.85940230,-0.97504866,-1.54357779,0.44003141,0.00000000,0.00000000,-0.17935836,1.91904581,1.16622245,0.45499265,-1.13068926,0.00000000,0.00000000
-0.13299198,-1.85746062,-0.96758091,-1.54350626,0.43830463,0.00000000,0.00000000,-0.16158353,1.91688693,1.13139868,0.44952807,-1.16077888,0.00000000,0.00000000
-0.13390526,-1.85902750,-0.95784950,-1.53907621,0.44403619,0.00000000,0.00000000,-0.14363387,1.91403186,1.09417868,0.44591644,-1.19392872,0.00000000,0.00000000
-0.13628717,-1.86406291,-0.94619578,-1.53026223,0.45285773,0.00000000,0.00000000,-0.12624948,1.91028225,1.05448020,0.44246560,-1.22291636,0.00000000,0.00000000
-0.13988990,-1.87236500,-0.93275756,-1.51655936,0.46292737,0.00000000,0.00000000,-0.10906534,1.90568662,1.01231253,0.43847391,-1.25117588,0.00000000,0.00000000
-0.14349441,-1.88355732,-0.91725278,-1.49682808,0.46361953,0.00000000,0.00000000,-0.09224034,1.90130067,0.96742642,0.43396461,-1.27751601,0.00000000,0.00000000
-0.14504606,-1.89704883,-0.89906448,-1.46934831,0.46243781,0.00000000,0.00000000,-0.07591692,1.89945519,0.91934741,0.42985126,-1.30664647,0.00000000,0.00000000
-0.14253080,-1.91168904,-0.87779897,-1.43203640,0.46738556,0.00000000,0.00000000,-0.05865119,1.90312588,0.86780167,0.42823413,-1.33208978,0.00000000,0.00000000
-0.13478363,-1.92579818,-0.85357505,-1.38293672,0.46561980,0.00000000,0.00000000,-0.03869466,1.91566801,0.81257844,0.43195057,-1.35159075,0.00000000,0.00000000
-0.12188970,-1.93730807,-0.82668078,-1.32078993,0.47049212,0.00000000,0.00000000,-0.01701783,1.93740273,0.75360590,0.44212574,-1.37253273,0.00000000,0.00000000
-0.10526714,-1.94343197,-0.79756027,-1.24503767,0.47132000,0.00000000,0.00000000,0.00773609,1.96432805,0.69202131,0.45907223,-1.38858819,0.00000000,0.00000000
-0.08624286,-1.94091320,-0.76664388,-1.15552127,0.47489539,0.00000000,0.00000000,0.03836798,1.98400187,0.63077796,0.47735971,-1.40274620,0.00000000,0.00000000
-0.06506374,-1.92673969,-0.73413181,-1.05262661,0.47115993,0.00000000,0.00000000,0.07885441,1.97411275,0.57484949,0.48329183,-1.41563869,0.00000000,0.00000000
-0.03914762,-1.90289378,-0.69764799,-0.94103044,0.47583646,0.00000000,0.00000000,0.12434804,1.93054926,0.52418047,0.46986014,-1.42759144,0.00000000,0.00000000
-0.00340638,-1.87761045,-0.65236545,-0.83237219,0.47328389,0.00000000,0.00000000,0.16639355,1.85894227,0.47641760,0.43521902,-1.43616629,0.00000000,0.00000000
0.03534734,-1.85526633,-0.60111701,-0.73727483,0.47695243,0.00000000,0.00000000,0.19802615,1.76512885,0.42982879,0.37942261,-1.43958330,0.00000000,0.00000000
0.07278452,-1.83486199,-0.54756635,-0.65788084,0.47554025,0.00000000,0.00000000,0.21385567,1.65438271,0.38331038,0.30370981,-1.44381928,0.00000000,0.00000000
0.10522731,-1.81498694,-0.49482039,-0.59425956,0.46556181,0.00000000,0.00000000,0.21100599,1.53145540,0.33623612,0.21013768,-1.45076132,0.00000000,0.00000000
0.12802748,-1.79827714,-0.44528872,-0.54800707,0.45756099,0.00000000,0.00000000,0.18996041,1.40130138,0.28847617,0.10149124,-1.45676506,0.00000000,0.00000000
0.13859971,-1.79031467,-0.39975846,-0.51985633,0.45049948,0.00000000,0.00000000,0.15368156,1.26933813,0.24039151,-0.01888868,-1.45879209,0.00000000,0.00000000
0.13951260,-1.78786945,-0.35808158,-0.50326991,0.43769652,0.00000000,0.00000000,0.10612318,1.14064968,0.19279085,-0.14736028,-1.45835102,0.00000000,0.00000000
0.13282195,-1.78806555,-0.32003972,-0.49464929,0.42887926,0.00000000,0.00000000,0.05182508,1.02033031,0.14684303,-0.28004125,-1.45081377,0.00000000,0.00000000
0.11893377,-1.78950346,-0.28567225,-0.49285445,0.41178387,0.00000000,0.00000000,-0.00463060,0.91336179,0.10394537,-0.41292897,-1.44650066,0.00000000,0.00000000
0.09770145,-1.79042065,-0.25519025,-0.49667451,0.39653561,0.00000000,0.00000000,-0.05927059,0.82404327,0.06556263,-0.54214042,-1.43786430,0.00000000,0.00000000
0.06841300,-1.78831553,-0.22900626,-0.50454116,0.38854706,0.00000000,0.00000000,-0.10908452,0.75571954,0.03305781,-0.66408944,-1.42933273,0.00000000,0.00000000
0.03085704,-1.78031862,-0.20737551,-0.51484811,0.38354871,0.00000000,0.00000000,-0.15209730,0.71093231,0.00756262,-0.77556121,-1.41961205,0.00000000,0.00000000
-0.01399891,-1.76674163,-0.18992217,-0.52955061,0.38588461,0.00000000,0.00000000,-0.18723232,0.69166988,-0.01011204,-0.87377769,-1.41256356,0.00000000,0.00000000
-0.06705215,-1.74786735,-0.17672592,-0.55315000,0.38486069,0.00000000,0.00000000,-0.21406509,0.69939071,-0.01949386,-0.95649374,-1.40151954,0.00000000,0.00000000
-0.12810524,-1.72433221,-0.16737667,-0.58802062,0.38691479,0.00000000,0.00000000,-0.23264518,0.73457229,-0.02047004,-1.02204454,-1.39268327,0.00000000,0.00000000
-0.19651780,-1.70020628,-0.16111723,-0.63691580,0.39454600,0.00000000,0.00000000,-0.24338205,0.79616630,-0.01334647,-1.06930673,-1.38155019,0.00000000,0.00000000
-0.27197036,-1.68020773,-0.15731232,-0.70258796,0.40478662,0.00000000,0.00000000,-0.24697831,0.88152671,0.00107128,-1.09755683,-1.36729574,0.00000000,0.00000000
-0.35230246,-1.66728818,-0.15481818,-0.78607577,0.41132832,0.00000000,0.00000000,-0.24489042,0.98589015,0.02105498,-1.10653949,-1.36130452,0.00000000,0.00000000
-0.43504629,-1.66227591,-0.15275700,-0.88596892,0.42032751,0.00000000,0.00000000,-0.23974304,1.10294902,0.04351093,-1.09688914,-1.36278558,0.00000000,0.00000000
-0.52266717,-1.66623747,-0.15333498,-0.99942994,0.42820868,0.00000000,0.00000000,-0.23434505,1.22629189,0.06465521,-1.07060003,-1.36753249,0.00000000,0.00000000
-0.62205094,-1.67669868,-0.16249533,-1.12109566,0.44191185,0.00000000,0.00000000,-0.23047855,1.35084021,0.08181681,-1.03040063,-1.36931491,0.00000000,0.00000000
-0.73386347,-1.68973005,-0.18403427,-1.24491620,0.45490617,0.00000000,0.00000000,-0.22853996,1.47304094,0.09498106,-0.97870439,-1.37352812,0.00000000,0.00000000
-0.85505700,-1.70221424,-0.21949343,-1.36537790,0.47283778,0.00000000,0.00000000,-0.22817524,1.59053886,0.10516632,-0.91741866,-1.37780309,0.00000000,0.00000000
-0.98179406,-1.71114516,-0.26890740,-1.47761714,0.49318638,0.00000000,0.00000000,-0.22872347,1.70168924,0.11330805,-0.84815639,-1.38132644,0.00000000,0.00000000
-1.10961974,-1.71361208,-0.33096352,-1.57759678,0.52000380,0.00000000,0.00000000,-0.22959369,1.80511141,0.12000732,-0.77247190,-1.38438332,0.00000000,0.00000000
-1.23359787,-1.70705259,-0.40334779,-1.66194999,0.54086959,0.00000000,0.00000000,-0.23053484,1.89915645,0.12577645,-0.69214469,-1.39673877,0.00000000,0.00000000
-1.34877074,-1.68938088,-0.48329213,-1.72791767,0.55798537,0.00000000,0.00000000,-0.23178115,1.98172021,0.13098989,-0.60927284,-1.40290844,0.00000000,0.00000000
-1.45024669,-1.65906906,-0.56777447,-1.77333534,0.57763672,0.00000000,0.00000000,-0.23414762,2.05011344,0.13581102,-0.52641934,-1.41248930,0.00000000,0.00000000
-1.53321075,-1.61541080,-0.65355790,-1.79679930,0.59761989,0.00000000,0.00000000,-0.23890959,2.10196328,0.14041655,-0.44619179,-1.41779184,0.00000000,0.00000000
-1.59335256,-1.55885601,-0.73744768,-1.79793155,0.61331749,0.00000000,0.00000000,-0.24638708,2.13699341,0.14461949,-0.36997923,-1.42563820,0.00000000,0.00000000
-1.62730861,-1.49157369,-0.81631851,-1.77734327,0.63227582,0.00000000,0.00000000,-0.25312483,2.15789819,0.14756344,-0.29673475,-1.43304849,0.00000000,0.00000000
-1.63302028,-1.41765773,-0.88718075,-1.73615527,0.65403104,0.00000000,0.00000000,-0.25760224,2.16759729,0.14913605,-0.22856829,-1.44236171,0.00000000,0.00000000
-1.60985184,-1.34262836,-0.94743383,-1.67567420,0.68826038,0.00000000,0.00000000,-0.26290303,2.16986418,0.14989121,-0.17527092,-1.44939268,0.00000000,0.00000000
-1.55865145,-1.27283990,-0.99521255,-1.59742522,0.71243531,0.00000000,0.00000000,-0.26933581,2.17000008,0.15010481,-0.13982336,-1.46276021,0.00000000,0.00000000
-1.48173749,-1.21494293,-1.02962637,-1.50334549,0.73546040,0.00000000,0.00000000,-0.27379748,2.17000008,0.14972310,-0.12167861,-1.47246289,0.00000000,0.00000000
-1.38296771,-1.17565012,-1.05045402,-1.39619958,0.74609178,0.00000000,0.00000000,-0.27179030,2.17000008,0.14859492,-0.11997148,-1.48801291,0.00000000,0.00000000
-1.26770520,-1.15861082,-1.05806923,-1.27946222,0.74610233,0.00000000,0.00000000,-0.26065537,2.17000008,0.14667092,-0.13311729,-1.50289547,0.00000000,0.00000000
-1.14135325,-1.16170919,-1.05342257,-1.15715265,0.74675518,0.00000000,0.00000000,-0.24374747,2.17000008,0.14435250,-0.15773906,-1.51835799,0.00000000,0.00000000
-1.00810504,-1.18149424,-1.03816152,-1.03348541,0.74604446,0.00000000,0.00000000,-0.22412999,2.17000008,0.14211038,-0.18871275,-1.53018689,0.00000000,0.00000000
-0.87184125,-1.21580899,-1.01448655,-0.91257542,0.74457639,0.00000000,0.00000000,-0.20209476,2.17000008,0.14024727,-0.22169636,-1.54271901,0.00000000,0.00000000
-0.73671395,-1.26298857,-0.98489094,-0.79809719,0.74377787,0.00000000,0.00000000,-0.17723274,2.17000008,0.13904104,-0.25370353,-1.54799139,0.00000000,0.00000000
-0.60700059,-1.32121170,-0.95186436,-0.69312865,0.74043190,0.00000000,0.00000000,-0.14936621,2.17000008,0.13881499,-0.28272852,-1.54941809,0.00000000,0.00000000
-0.48674840,-1.38849878,-0.91760552,-0.60004550,0.73908937,0.00000000,0.00000000,-0.11795639,2.16999817,0.13982949,-0.30732554,-1.54288232,0.00000000,0.00000000
-0.37908494,-1.46262312,-0.88378370,-0.51997733,0.73648107,0.00000000,0.00000000,-0.08204667,2.16995597,0.14226611,-0.32614073,-1.53851283,0.00000000,0.00000000
-0.28574276,-1.54081249,-0.85153282,-0.45241824,0.73283374,0.00000000,0.00000000,-0.04098443,2.16963291,0.14633942,-0.33799341,-1.53452039,0.00000000,0.00000000
-0.20694204,-1.62000072,-0.82149178,-0.39559320,0.74078107,0.00000000,0.00000000,0.00471770,2.16892171,0.15244062,-0.34207839,-1.52911222,0.00000000,0.00000000
-0.14183061,-1.69816637,-0.79382694,-0.34758759,0.75166988,0.00000000,0.00000000,0.05325608,2.16874170,0.16113099,-0.33805740,-1.52875721,0.00000000,0.00000000
-0.08874972,-1.77171612,-0.76871693,-0.30580494,0.76800013,0.00000000,0.00000000,0.10197324,2.16937375,0.17297427,-0.32635602,-1.52688360,0.00000000,0.00000000
-0.04499481,-1.83328438,-0.74662912,-0.26669395,0.78373080,0.00000000,0.00000000,0.14775580,2.16987324,0.18839318,-0.30840969,-1.52417541,0.00000000,0.00000000
-0.00866046,-1.88704562,-0.72682148,-0.23316903,0.80324262,0.00000000,0.00000000,0.18804428,2.16999292,0.20752449,-0.28601056,-1.52310753,0.00000000,0.00000000
0.02211278,-1.93340898,-0.70908254,-0.20454428,0.82491952,0.00000000,0.00000000,0.22145206,2.17000008,0.23021333,-0.26050198,-1.52440095,0.00000000,0.00000000
0.04891526,-1.97284067,-0.69332039,-0.17960997,0.84558922,0.00000000,0.00000000,0.24717765,2.17000008,0.25617895,-0.23285177,-1.52377677,0.00000000,0.00000000
0.07229568,-2.00594640,-0.67952180,-0.15772085,0.86085927,0.00000000,0.00000000,0.26522040,2.17000008,0.28504908,-0.20408109,-1.52148330,0.00000000,0.00000000
0.09231065,-2.03334188,-0.66772586,-0.13851856,0.87691718,0.00000000,0.00000000,0.27602625,2.17000008,0.31645718,-0.17519234,-1.51660407,0.00000000,0.00000000
0.10897396,-2.05586696,-0.65794748,-0.12183767,0.89017582,0.00000000,0.00000000,0.28018796,2.17000008,0.35009217,-0.14701118,-1.51217270,0.00000000,0.00000000
0.12223301,-2.07386231,-0.65021199,-0.10735514,0.89771348,0.00000000,0.00000000,0.27871227,2.17000008,0.38565135,-0.12017462,-1.49819624,0.00000000,0.00000000
0.13224895,-2.08752990,-0.64451903,-0.09471080,0.89571977,0.00000000,0.00000000,0.27258736,2.17000008,0.42286918,-0.09522403,-1.48907804,0.00000000,0.00000000
0.13896316,-2.09798288,-0.64082623,-0.08412320,0.89964682,0.00000000,0.00000000,0.26265410,2.16996527,0.46153179,-0.07273876,-1.47804356,0.00000000,0.00000000
0.14335610,-2.10608292,-0.63904130,-0.07540452,0.90876544,0.00000000,0.00000000,0.24939792,2.16949987,0.50147867,-0.05371194,-1.47192407,0.00000000,0.00000000
0.14864497,-2.10894299,-0.63907993,-0.06565592,0.92338097,0.00000000,0.00000000,0.23269492,2.16878295,0.54265916,-0.03787061,-1.46171677,0.00000000,0.00000000
0.15163985,-2.10931778,-0.64094001,-0.05714170,0.93681401,0.00000000,0.00000000,0.21364738,2.16949987,0.58511168,-0.02150174,-1.43790329,0.00000000,0.00000000
0.15084101,-2.10921121,-0.64457572,-0.05159267,0.95036155,0.00000000,0.00000000,0.19408254,2.16996527,0.62880635,-0.00387129,-1.41600800,0.00000000,0.00000000
0.14671709,-2.10829878,-0.64992166,-0.04905813,0.96866268,0.00000000,0.00000000,0.17458774,2.17000008,0.67374367,0.01499438,-1.39180219,0.00000000,0.00000000
0.13939254,-2.10592651,-0.65691805,-0.04956453,0.98149920,0.00000000,0.00000000,0.15550521,2.17000008,0.71995187,0.03539364,-1.36511981,0.00000000,0.00000000
0.12887269,-2.10162926,-0.66549999,-0.05332480,0.99065495,0.00000000,0.00000000,0.13698046,2.17000008,0.76745933,0.05754568,-1.34321904,0.00000000,0.00000000
0.11532632,-2.09537148,-0.67559141,-0.06066796,0.99885929,0.00000000,0.00000000,0.11871089,2.17000008,0.81628621,0.08153938,-1.31950128,0.00000000,0.00000000
0.09905501,-2.08743572,-0.68710262,-0.07191689,1.00549197,0.00000000,0.00000000,0.10031471,2.17000008,0.86645103,0.10733470,-1.30016100,0.00000000,0.00000000
0.08054420,-2.07817817,-0.69991994,-0.08734554,1.01355433,0.00000000,0.00000000,0.08146395,2.17000008,0.91797727,0.13484031,-1.28660035,0.00000000,0.00000000
0.06042254,-2.06798244,-0.71389234,-0.10714933,1.02017224,0.00000000,0.00000000,0.06191390,2.16999149,0.97088689,0.16405635,-1.27101541,0.00000000,0.00000000
0.03945461,-2.05722332,-0.72882086,-0.13134828,1.01707685,0.00000000,0.00000000,0.04143222,2.16983533,1.02518535,0.19510873,-1.25657547,0.00000000,0.00000000
0.01843760,-2.04625964,-0.74445283,-0.15977518,1.01027656,0.00000000,0.00000000,0.01982888,2.16898179,1.08085716,0.22823921,-1.23380494,0.00000000,0.00000000
-0.00183047,-2.03539157,-0.76047951,-0.19206083,0.99309403,0.00000000,0.00000000,-0.00300808,2.16670656,1.13786578,0.26376233,-1.20885098,0.00000000,0.00000000
-0.02074228,-2.02496600,-0.77654088,-0.22778991,0.97072929,0.00000000,0.00000000,-0.02699132,2.16289902,1.19613910,0.30209112,-1.18784237,0.00000000,0.00000000
-0.03797888,-2.01526380,-0.79225069,-0.26657751,0.94991529,0.00000000,0.00000000,-0.05198734,2.15801859,1.25546575,0.34370759,-1.16680074,0.00000000,0.00000000
-0.05345438,-2.00637674,-0.80722749,-0.30810782,0.93474168,0.00000000,0.00000000,-0.07805857,2.15275431,1.31543732,0.38898990,-1.14920008,0.00000000,0.00000000
-0.06735236,-1.99806225,-0.82114726,-0.35215312,0.91623890,0.00000000,0.00000000,-0.10533892,2.14795256,1.37543666,0.43825027,-1.12818730,0.00000000,0.00000000
-0.08005803,-1.98961294,-0.83378786,-0.39848816,0.90754509,0.00000000,0.00000000,-0.13393605,2.14478159,1.43460369,0.49178293,-1.11141813,0.00000000,0.00000000
-0.09216020,-1.97998893,-0.84503120,-0.44685057,0.89576322,0.00000000,0.00000000,-0.16286817,2.14406586,1.49209523,0.55047750,-1.09691143,0.00000000,0.00000000
-0.10485356,-1.96823740,-0.85486132,-0.49718162,0.88536018,0.00000000,0.00000000,-0.19087470,2.14615321,1.54711306,0.61467624,-1.08682787,0.00000000,0.00000000
-0.11943042,-1.95414770,-0.86315250,-0.54963702,0.88118225,0.00000000,0.00000000,-0.22011328,2.15168047,1.59865654,0.67989677,-1.08270431,0.00000000,0.00000000
-0.13685852,-1.93796217,-0.86964095,-0.60430187,0.88152313,0.00000000,0.00000000,-0.24795650,2.15769649,1.64721036,0.74261415,-1.06759071,0.00000000,0.00000000
-0.15745072,-1.91934621,-0.87413228,-0.66067994,0.87865728,0.00000000,0.00000000,-0.27247709,2.16262269,1.69273329,0.80153280,-1.04980206,0.00000000,0.00000000
-0.18118076,-1.89737070,-0.87669122,-0.71779335,0.87400001,0.00000000,0.00000000,-0.29473531,2.16622400,1.73472548,0.85533679,-1.03380346,0.00000000,0.00000000
-0.20810470,-1.87209499,-0.87779027,-0.77466804,0.87012345,0.00000000,0.00000000,-0.31664509,2.16847324,1.77270627,0.90252441,-1.01990449,0.00000000,0.00000000
-0.23801069,-1.84675074,-0.87826884,-0.83034354,0.86332023,0.00000000,0.00000000,-0.34015536,2.16966581,1.80631864,0.94174194,-1.01807010,0.00000000,0.00000000
-0.27061307,-1.82557940,-0.87927204,-0.88371831,0.85896534,0.00000000,0.00000000,-0.36648989,2.16998053,1.83585370,0.97224772,-1.01794839,0.00000000,0.00000000
-0.30554813,-1.81038046,-0.88171542,-0.93372154,0.85685492,0.00000000,0.00000000,-0.39629924,2.17000008,1.86158681,0.99383563,-1.01691329,0.00000000,0.00000000
-0.34178376,-1.80140245,-0.88583350,-0.97928596,0.86029327,0.00000000,0.00000000,-0.42957899,2.17000008,1.88373399,1.00701404,-1.01229239,0.00000000,0.00000000
-0.37755772,-1.79875076,-0.89130729,-1.01935184,0.86611372,0.00000000,0.00000000,-0.46561041,2.16999507,1.90232182,1.01311135,-1.00836110,0.00000000,0.00000000
-0.41105720,-1.80225456,-0.89775121,-1.05281579,0.87117755,0.00000000,0.00000000,-0.50278467,2.16992617,1.91734219,1.01438975,-1.00502634,0.00000000,0.00000000
-0.44003588,-1.81154168,-0.90466332,-1.07832694,0.86875576,0.00000000,0.00000000,-0.53917384,2.16976547,1.92805111,1.01357234,-0.99511397,0.00000000,0.00000000
-0.46193895,-1.82612443,-0.91152000,-1.09437656,0.85985738,0.00000000,0.00000000,-0.57312101,2.16976929,1.93239200,1.01320469,-0.97377354,0.00000000,0.00000000
-0.47441563,-1.84506774,-0.91808021,-1.09940338,0.84934950,0.00000000,0.00000000,-0.60258710,2.16992903,1.92967379,1.01574516,-0.96348447,0.00000000,0.00000000
-0.47538361,-1.86719215,-0.92425859,-1.09191668,0.84423155,0.00000000,0.00000000,-0.62586600,2.16999578,1.91999960,1.02264786,-0.95031142,0.00000000,0.00000000
-0.46305281,-1.89129877,-0.92992818,-1.07067561,0.83829069,0.00000000,0.00000000,-0.64176786,2.17000008,1.90347528,1.03457975,-0.93461442,0.00000000,0.00000000
-0.43554422,-1.91645598,-0.93445164,-1.03478491,0.83284521,0.00000000,0.00000000,-0.64941877,2.16999936,1.87941623,1.05214381,-0.91427493,0.00000000,0.00000000
-0.39105228,-1.94214928,-0.93646055,-0.98417121,0.82315195,0.00000000,0.00000000,-0.64821500,2.16999149,1.84719408,1.07593906,-0.88931757,0.00000000,0.00000000
-0.32720336,-1.96878922,-0.93335623,-0.92169768,0.80991125,0.00000000,0.00000000,-0.63821465,2.16997862,1.80659688,1.10616398,-0.85548234,0.00000000,0.00000000
-0.24418563,-1.99627674,-0.92324436,-0.85585624,0.79422826,0.00000000,0.00000000,-0.62253022,2.16999149,1.75944662,1.14154208,-0.82235956,0.00000000,0.00000000
-0.15489784,-2.01796818,-0.91166025,-0.79618293,0.78483653,0.00000000,0.00000000,-0.61028445,2.16999960,1.71448016,1.17734373,-0.79432130,0.00000000,0.00000000
-0.07008571,-2.02404737,-0.90490341,-0.74506372,0.76407838,0.00000000,0.00000000,-0.60360676,2.17000008,1.68015790,1.21348643,-0.76366895,0.00000000,0.00000000
0.00198719,-2.00632906,-0.90760165,-0.70225060,0.74559337,0.00000000,0.00000000,-0.60029823,2.17000008,1.66236138,1.25191379,-0.73559731,0.00000000,0.00000000
0.05345346,-1.96140563,-0.92237049,-0.66718328,0.72289366,0.00000000,0.00000000,-0.59842598,2.17000008,1.66336954,1.29295909,-0.70195383,0.00000000,0.00000000
0.08294607,-1.89555049,-0.94658554,-0.63813198,0.69395036,0.00000000,0.00000000,-0.59698713,2.16996980,1.68007362,1.33475316,-0.66841292,0.00000000,0.00000000
0.09341218,-1.81768632,-0.97576112,-0.61441016,0.66794562,0.00000000,0.00000000,-0.59557813,2.16954064,1.70676172,1.37635815,-0.63653690,0.00000000,0.00000000
0.08723307,-1.73425817,-1.00691772,-0.59565413,0.64079607,0.00000000,0.00000000,-0.59568632,2.16857219,1.73568201,1.41761625,-0.60719037,0.00000000,0.00000000
0.06598961,-1.65102899,-1.03811359,-0.58191359,0.61026251,0.00000000,0.00000000,-0.59934121,2.16846108,1.75888932,1.45851564,-0.57552767,0.00000000,0.00000000
0.03159211,-1.57362425,-1.06773138,-0.57377118,0.58100563,0.00000000,0.00000000,-0.60793191,2.16902018,1.77255499,1.49725139,-0.54206169,0.00000000,0.00000000
-0.01287718,-1.50634646,-1.09433663,-0.57146376,0.55416042,0.00000000,0.00000000,-0.62054980,2.16973019,1.77541113,1.53287065,-0.50583649,0.00000000,0.00000000
-0.06298748,-1.45173645,-1.11664176,-0.57404852,0.52399904,0.00000000,0.00000000,-0.63314444,2.16998315,1.76888752,1.56675816,-0.47061455,0.00000000,0.00000000
-0.11358751,-1.41097462,-1.13352418,-0.57933605,0.49071285,0.00000000,0.00000000,-0.64327198,2.17000008,1.75570285,1.59975314,-0.43528718,0.00000000,0.00000000
-0.16018148,-1.38425148,-1.14422357,-0.58461839,0.45511496,0.00000000,0.00000000,-0.65091366,2.17000008,1.73840725,1.63109004,-0.40286925,0.00000000,0.00000000
-0.19965765,-1.37055445,-1.14855456,-0.58709246,0.42284229,0.00000000,0.00000000,-0.65600175,2.17000008,1.71988273,1.66006637,-0.36770076,0.00000000,0.00000000
-0.22986501,-1.36811364,-1.14673698,-0.58399528,0.38753936,0.00000000,0.00000000,-0.65860522,2.17000008,1.70278537,1.68590403,-0.33059457,0.00000000,0.00000000
-0.24952985,-1.37505245,-1.13924909,-0.57311600,0.35851085,0.00000000,0.00000000,-0.65924513,2.17000008,1.68906510,1.70754719,-0.29972944,0.00000000,0.00000000
-0.25776246,-1.38811624,-1.12704659,-0.55297971,0.33598867,0.00000000,0.00000000,-0.65946758,2.17000008,1.68080568,1.72329879,-0.27042660,0.00000000,0.00000000
-0.25432253,-1.40227103,-1.11167049,-0.52431875,0.31813970,0.00000000,0.00000000,-0.66056424,2.17000008,1.68160379,1.73227632,-0.23394416,0.00000000,0.00000000
-0.24173303,-1.41786969,-1.09386432,-0.49227652,0.29606661,0.00000000,0.00000000,-0.66168958,2.17000008,1.69527376,1.73601377,-0.20156276,0.00000000,0.00000000
-0.22159427,-1.43305779,-1.07466483,-0.45793152,0.27481347,0.00000000,0.00000000,-0.66448307,2.17000008,1.71954751,1.73390329,-0.17748171,0.00000000,0.00000000
-0.19560681,-1.44622695,-1.05497706,-0.42178527,0.25721097,0.00000000,0.00000000,-0.66956425,2.17000008,1.75011289,1.72575557,-0.16733778,0.00000000,0.00000000
-0.16608670,-1.45701492,-1.03547442,-0.38525569,0.24896057,0.00000000,0.00000000,-0.67535615,2.17000008,1.78414404,1.71233940,-0.15438752,0.00000000,0.00000000
-0.13509932,-1.46558809,-1.01664960,-0.34961215,0.23868367,0.00000000,0.00000000,-0.67984217,2.17000008,1.82005548,1.69482243,-0.14641732,0.00000000,0.00000000
-0.10400730,-1.47213340,-0.99884611,-0.31549224,0.23479183,0.00000000,0.00000000,-0.68188572,2.17000008,1.85722351,1.67416489,-0.13558148,0.00000000,0.00000000
-0.07356241,-1.47658217,-0.98232800,-0.28293547,0.22326849,0.00000000,0.00000000,-0.68128246,2.17000008,1.89549136,1.65078127,-0.12427200,0.00000000,0.00000000
-0.04416779,-1.47870338,-0.96730441,-0.25170097,0.21865532,0.00000000,0.00000000,-0.67802817,2.17000008,1.93495190,1.62504864,-0.11553079,0.00000000,0.00000000
-0.01595659,-1.47859359,-0.95388299,-0.22157133,0.21541248,0.00000000,0.00000000,-0.67224014,2.17000008,1.97554135,1.59738922,-0.11534233,0.00000000,0.00000000
0.01091554,-1.47677696,-0.94211149,-0.19259141,0.21512048,0.00000000,0.00000000,-0.66399497,2.17000008,2.01679659,1.56842542,-0.11411611,0.00000000,0.00000000
0.03614488,-1.47407341,-0.93202239,-0.16503371,0.22107615,0.00000000,0.00000000,-0.65334684,2.17000008,2.05790544,1.53882635,-0.11051702,0.00000000,0.00000000
0.05931416,-1.47132039,-0.92365682,-0.13921434,0.22150332,0.00000000,0.00000000,-0.64048624,2.17000008,2.09790182,1.50904882,-0.10942414,0.00000000,0.00000000
0.07997390,-1.46911490,-0.91706854,-0.11538305,0.22919603,0.00000000,0.00000000,-0.62577879,2.17000008,2.13599300,1.47932541,-0.10268606,0.00000000,0.00000000
0.09768151,-1.46785402,-0.91230661,-0.09376451,0.23941334,0.00000000,0.00000000,-0.60970360,2.17000008,2.17195916,1.44979918,-0.09580508,0.00000000,0.00000000
0.11196724,-1.46765912,-0.90940976,-0.07457519,0.24921790,0.00000000,0.00000000,-0.59291953,2.17000008,2.20601583,1.42043960,-0.08935185,0.00000000,0.00000000
0.12206346,-1.46836579,-0.90841281,-0.05821491,0.25984812,0.00000000,0.00000000,-0.57625508,2.17000008,2.23792648,1.39086282,-0.08356337,0.00000000,0.00000000
0.12680374,-1.46981633,-0.90933013,-0.04553573,0.27070811,0.00000000,0.00000000,-0.56059653,2.17000008,2.26682425,1.36037290,-0.07928188,0.00000000,0.00000000
0.12463357,-1.47151268,-0.91215932,-0.03782929,0.28056931,0.00000000,0.00000000,-0.54631609,2.17000008,2.29172349,1.32867360,-0.08350438,0.00000000,0.00000000
0.11352654,-1.47296047,-0.91687953,-0.03716572,0.28672546,0.00000000,0.00000000,-0.53295684,2.17000008,2.31199765,1.29631412,-0.09048028,0.00000000,0.00000000
0.09129535,-1.47344828,-0.92346358,-0.04586306,0.28977743,0.00000000,0.00000000,-0.51978266,2.17000008,2.32718563,1.26408720,-0.09790523,0.00000000,0.00000000
0.05709898,-1.46962810,-0.93191022,-0.06369329,0.29887876,0.00000000,0.00000000,-0.50654173,2.17000008,2.33720231,1.23224449,-0.10533892,0.00000000,0.00000000
0.01112471,-1.45959520,-0.94217288,-0.08980000,0.30996504,0.00000000,0.00000000,-0.49350920,2.17000008,2.34268928,1.20067692,-0.11353834,0.00000000,0.00000000
-0.04594557,-1.44358861,-0.95411909,-0.12345730,0.31954557,0.00000000,0.00000000,-0.48095962,2.16992044,2.34412265,1.16890872,-0.12044312,0.00000000,0.00000000
-0.11293831,-1.42363787,-0.96744597,-0.16405208,0.32552966,0.00000000,0.00000000,-0.46869946,2.16862440,2.34133720,1.13594079,-0.12507950,0.00000000,0.00000000
-0.18769783,-1.40297878,-0.98155916,-0.21070775,0.33698478,0.00000000,0.00000000,-0.45585772,2.16349053,2.33390379,1.10044515,-0.12966354,0.00000000,0.00000000
-0.26717848,-1.38492370,-0.99554133,-0.26208401,0.34920540,0.00000000,0.00000000,-0.44106144,2.15434122,2.32157373,1.06149828,-0.13252041,0.00000000,0.00000000
-0.34787646,-1.37188363,-1.00822961,-0.31643918,0.35926682,0.00000000,0.00000000,-0.42313334,2.14290404,2.30472827,1.01896548,-0.13062899,0.00000000,0.00000000
-0.42591006,-1.36517179,-1.01830614,-0.37151378,0.36353675,0.00000000,0.00000000,-0.40282890,2.13133860,2.28434467,0.97321928,-0.13599822,0.00000000,0.00000000
-0.49730456,-1.36473060,-1.02454746,-0.42447200,0.36697671,0.00000000,0.00000000,-0.38387272,2.12337327,2.26130056,0.92584991,-0.14207950,0.00000000,0.00000000
-0.55868727,-1.37017179,-1.02598155,-0.47270325,0.36759055,0.00000000,0.00000000,-0.36770189,2.11930895,2.23669243,0.88180214,-0.15006341,0.00000000,0.00000000
-0.60787565,-1.38227344,-1.02184808,-0.51476741,0.36890307,0.00000000,0.00000000,-0.35424945,2.11830068,2.21117568,0.84401703,-0.15769196,0.00000000,0.00000000
-0.64384997,-1.40133297,-1.01194346,-0.55000430,0.36896577,0.00000000,0.00000000,-0.34370157,2.11924481,2.18545771,0.81339836,-0.16444932,0.00000000,0.00000000
-0.66678762,-1.42506158,-0.99711889,-0.57895017,0.36396602,0.00000000,0.00000000,-0.33675554,2.12041855,2.16055298,0.79033065,-0.15779622,0.00000000,0.00000000
-0.67950642,-1.45256269,-0.97871482,-0.60648489,0.35374841,0.00000000,0.00000000,-0.33584961,2.12059832,2.13762403,0.77393860,-0.14804633,0.00000000,0.00000000
-0.68572736,-1.48319662,-0.95820862,-0.63642687,0.34546459,0.00000000,0.00000000,-0.34155095,2.11997032,2.11644650,0.76382011,-0.14061275,0.00000000,0.00000000
-0.68719149,-1.51644742,-0.93637067,-0.66987491,0.34129569,0.00000000,0.00000000,-0.35258418,2.11980462,2.09574986,0.75961912,-0.12901376,0.00000000,0.00000000
-0.68359941,-1.55354393,-0.91283029,-0.70723933,0.33308280,0.00000000,0.00000000,-0.36901480,2.12314463,2.07386565,0.75779289,-0.12177660,0.00000000,0.00000000
-0.67507011,-1.59610689,-0.88709468,-0.74910736,0.31939515,0.00000000,0.00000000,-0.38968834,2.12990046,2.05025649,0.75453573,-0.11432345,0.00000000,0.00000000
-0.66231537,-1.64447773,-0.85903102,-0.79515535,0.30714867,0.00000000,0.00000000,-0.41047558,2.13870859,2.02435923,0.74766481,-0.10115355,0.00000000,0.00000000
-0.64698726,-1.69797087,-0.82897800,-0.84464037,0.30056813,0.00000000,0.00000000,-0.42715669,2.14767241,1.99608970,0.73700422,-0.09035765,0.00000000,0.00000000
-0.63060290,-1.75395358,-0.79776496,-0.89512444,0.29435167,0.00000000,0.00000000,-0.43878141,2.15599060,1.96570897,0.72194934,-0.07074136,0.00000000,0.00000000
-0.61299086,-1.81048131,-0.76540852,-0.94417125,0.29381058,0.00000000,0.00000000,-0.44428706,2.16319561,1.93324566,0.70274973,-0.04828617,0.00000000,0.00000000
-0.59444380,-1.86591518,-0.73230380,-0.99014604,0.30036873,0.00000000,0.00000000,-0.44224054,2.16820812,1.89898634,0.68079811,-0.02265913,0.00000000,0.00000000
-0.57462853,-1.91936195,-0.69853294,-1.03205609,0.30608493,0.00000000,0.00000000,-0.43081295,2.16982603,1.86459363,0.65933919,0.00033697,0.00000000,0.00000000
-0.55236810,-1.96954000,-0.66412365,-1.06846488,0.31100398,0.00000000,0.00000000,-0.40917042,2.16999483,1.83258367,0.64417440,0.02211640,0.00000000,0.00000000
-0.52659929,-2.01215672,-0.63055205,-1.09613669,0.32076159,0.00000000,0.00000000,-0.37900090,2.17000008,1.80358791,0.64211631,0.04473446,0.00000000,0.00000000
-0.49650589,-2.04282904,-0.59956861,-1.11218667,0.33146080,0.00000000,0.00000000,-0.34523755,2.17000008,1.77748549,0.65334606,0.06474271,0.00000000,0.00000000
-0.46137887,-2.05959344,-0.57172775,-1.11659169,0.34376314,0.00000000,0.00000000,-0.31249410,2.16995716,1.75343382,0.67564154,0.08320434,0.00000000,0.00000000
-0.42150050,-2.06166244,-0.54744530,-1.11182916,0.35941619,0.00000000,0.00000000,-0.28409654,2.16922975,1.73046160,0.70706171,0.10355585,0.00000000,0.00000000
-0.38496813,-2.05146074,-0.53061318,-1.10381329,0.37799662,0.00000000,0.00000000,-0.26182222,2.16594839,1.70835185,0.74627018,0.12098647,0.00000000,0.00000000
-0.35674754,-2.03897524,-0.52075195,-1.10193467,0.39104313,0.00000000,0.00000000,-0.24545248,2.15849781,1.68723762,0.79280651,0.14390619,0.00000000,0.00000000
-0.33660728,-2.02477360,-0.51724637,-1.10467541,0.39935672,0.00000000,0.00000000,-0.23282547,2.14726424,1.66664886,0.84721971,0.16831762,0.00000000,0.00000000
-0.32212302,-2.00620866,-0.51871127,-1.10622668,0.40258312,0.00000000,0.00000000,-0.22244321,2.13643026,1.64435720,0.90873337,0.19273330,0.00000000,0.00000000
-0.31371075,-1.98857188,-0.52239513,-1.10871232,0.40548569,0.00000000,0.00000000,-0.21527453,2.12894702,1.61912465,0.97175926,0.21718787,0.00000000,0.00000000
-0.31277978,-1.97548211,-0.52692771,-1.11465240,0.41332406,0.00000000,0.00000000,-0.20817477,2.12137961,1.59389091,1.03112435,0.24037565,0.00000000,0.00000000
-0.31992421,-1.96878612,-0.53217399,-1.12544489,0.42202851,0.00000000,0.00000000,-0.19873466,2.11271596,1.57061470,1.08457649,0.26604104,0.00000000,0.00000000
-0.33426619,-1.97045171,-0.53833550,-1.14196432,0.43152404,0.00000000,0.00000000,-0.18841851,2.10444021,1.54998505,1.12995672,0.28338110,0.00000000,0.00000000
-0.35454655,-1.98179710,-0.54612643,-1.16408646,0.44917139,0.00000000,0.00000000,-0.17915532,2.09775877,1.53273201,1.16552413,0.29102752,0.00000000,0.00000000
-0.37956867,-2.00212336,-0.55664927,-1.19009137,0.46023613,0.00000000,0.00000000,-0.17238928,2.09341168,1.51940465,1.19025338,0.29954085,0.00000000,0.00000000
-0.40617198,-2.02738810,-0.57035601,-1.21605444,0.46618867,0.00000000,0.00000000,-0.16949709,2.09172225,1.51031339,1.20351744,0.30428275,0.00000000,0.00000000
-0.42796427,-2.05191445,-0.58576351,-1.23844206,0.47255537,0.00000000,0.00000000,-0.17071392,2.09202194,1.50612783,1.20576084,0.29923493,0.00000000,0.00000000
-0.44095320,-2.07180190,-0.60205621,-1.25700521,0.49055636,0.00000000,0.00000000,-0.17534199,2.09231687,1.50812256,1.19849539,0.29467466,0.00000000,0.00000000
-0.44335264,-2.08362818,-0.61954039,-1.26890326,0.50099838,0.00000000,0.00000000,-0.18231057,2.09064960,1.51695013,1.18437791,0.29098958,0.00000000,0.00000000
-0.43429667,-2.08443141,-0.63877457,-1.26750457,0.50623590,0.00000000,0.00000000,-0.19013299,2.08862996,1.52975214,1.16744888,0.29515013,0.00000000,0.00000000
-0.41418615,-2.07360625,-0.66009814,-1.24964845,0.50228518,0.00000000,0.00000000,-0.19864479,2.08924150,1.54247773,1.15042472,0.29088026,0.00000000,0.00000000
-0.38305187,-2.05276418,-0.68260843,-1.21551168,0.49147967,0.00000000,0.00000000,-0.20702370,2.09231973,1.55418730,1.13370395,0.28981057,0.00000000,0.00000000
-0.34172234,-2.02381659,-0.70585793,-1.16650093,0.48065954,0.00000000,0.00000000,-0.21386395,2.09640479,1.56534004,1.11675715,0.28576234,0.00000000,0.00000000
-0.29501045,-1.99122143,-0.73056275,-1.10935330,0.46622086,0.00000000,0.00000000,-0.21918464,2.10103917,1.57550001,1.09893250,0.27783799,0.00000000,0.00000000
-0.25424716,-1.96577799,-0.75791901,-1.06058133,0.45176396,0.00000000,0.00000000,-0.22316748,2.10489702,1.58499420,1.07955563,0.26716214,0.00000000,0.00000000
-0.22304510,-1.94874787,-0.78888893,-1.02358806,0.42688823,0.00000000,0.00000000,-0.22525883,2.10812759,1.59334958,1.05846465,0.25734830,0.00000000,0.00000000
-0.19889994,-1.93841839,-0.82278633,-0.99165827,0.40062737,0.00000000,0.00000000,-0.22373047,2.11133790,1.59994447,1.03627276,0.24876294,0.00000000,0.00000000
-0.17878540,-1.93177879,-0.85926944,-0.95846331,0.37439370,0.00000000,0.00000000,-0.21819706,2.11519694,1.60452414,1.01274323,0.23305537,0.00000000,0.00000000
-0.16040663,-1.92785001,-0.89740109,-0.92114413,0.33824822,0.00000000,0.00000000,-0.20935693,2.11910629,1.60795963,0.98678017,0.21996166,0.00000000,0.00000000
-0.14046012,-1.92642021,-0.93534523,-0.87763548,0.28987688,0.00000000,0.00000000,-0.19916762,2.12304568,1.61075401,0.95660108,0.21046951,0.00000000,0.00000000
-0.11586718,-1.92690599,-0.97105837,-0.82632464,0.24672063,0.00000000,0.00000000,-0.18935779,2.12738657,1.61307859,0.92060155,0.19503541,0.00000000,0.00000000
-0.08406355,-1.92893589,-1.00223291,-0.76672530,0.20724882,0.00000000,0.00000000,-0.18020494,2.13213682,1.61510575,0.87815899,0.17840743,0.00000000,0.00000000
-0.04328794,-1.93346965,-1.02672803,-0.70000315,0.18434098,0.00000000,0.00000000,-0.17053418,2.13703609,1.61695182,0.82984549,0.16585678,0.00000000,0.00000000
0.00786355,-1.94339168,-1.04292774,-0.62867153,0.15656662,0.00000000,0.00000000,-0.15975085,2.14143515,1.61890137,0.77655536,0.15687481,0.00000000,0.00000000
0.06848260,-1.96256745,-1.05044782,-0.55673403,0.13064347,0.00000000,0.00000000,-0.14676316,2.14384723,1.62164295,0.72038335,0.15709595,0.00000000,0.00000000
0.13439544,-1.99406457,-1.05037820,-0.48929897,0.10242701,0.00000000,0.00000000,-0.13158789,2.14499664,1.62489712,0.66406733,0.15780443,0.00000000,0.00000000
0.19901878,-2.03752089,-1.04519856,-0.43112063,0.08574255,0.00000000,0.00000000,-0.11647791,2.15023661,1.62647021,0.61105961,0.16008078,0.00000000,0.00000000
0.25446829,-2.08574152,-1.03881025,-0.38490158,0.06596374,0.00000000,0.00000000,-0.10199268,2.15798044,1.62703097,0.56586820,0.16266252,0.00000000,0.00000000
0.29463714,-2.12671566,-1.03526545,-0.35064051,0.04856376,0.00000000,0.00000000,-0.08767962,2.16253042,1.62845457,0.53045797,0.16106477,0.00000000,0.00000000
0.31779298,-2.15395236,-1.03628469,-0.32768193,0.03343442,0.00000000,0.00000000,-0.07541232,2.16368222,1.63049722,0.50352466,0.15877575,0.00000000,0.00000000
0.32485473,-2.16683960,-1.04208982,-0.31495970,0.01581893,0.00000000,0.00000000,-0.06703965,2.16431141,1.63200426,0.48325744,0.16674422,0.00000000,0.00000000
0.31810895,-2.16967559,-1.05289209,-0.30995259,-0.00961643,0.00000000,0.00000000,-0.06191457,2.16518354,1.63261759,0.46916798,0.18019447,0.00000000,0.00000000
0.29957679,-2.16737771,-1.06897974,-0.31028625,-0.02839876,0.00000000,0.00000000,-0.05800067,2.16470480,1.63278735,0.46152595,0.19084269,0.00000000,0.00000000
0.27102804,-2.15645266,-1.08980787,-0.31544963,-0.04262482,0.00000000,0.00000000,-0.05590941,2.16276073,1.63266063,0.45876136,0.19369532,0.00000000,0.00000000
0.23427592,-2.13417268,-1.11392176,-0.32657343,-0.04509258,0.00000000,0.00000000,-0.05773368,2.16032863,1.63213754,0.45810542,0.20275891,0.00000000,0.00000000
0.19049861,-2.10521579,-1.13989735,-0.34515831,-0.04766753,0.00000000,0.00000000,-0.06317145,2.15730548,1.63138211,0.45833954,0.21215519,0.00000000,0.00000000
0.14131905,-2.07567191,-1.16641343,-0.37184474,-0.04522247,0.00000000,0.00000000,-0.07070178,2.15378213,1.63046122,0.45945016,0.21894933,0.00000000,0.00000000
0.08958710,-2.04958296,-1.19218278,-0.40563828,-0.04342858,0.00000000,0.00000000,-0.07919432,2.15048718,1.62921345,0.46170878,0.22589861,0.00000000,0.00000000
0.03849242,-2.02932191,-1.21595359,-0.44448328,-0.04302385,0.00000000,0.00000000,-0.08791971,2.14816070,1.62740779,0.46536475,0.23523770,0.00000000,0.00000000
-0.00895197,-2.01610827,-1.23657322,-0.48577881,-0.03919135,0.00000000,0.00000000,-0.09618814,2.14710951,1.62489557,0.47050813,0.24957553,0.00000000,0.00000000
-0.05011317,-2.00957775,-1.25330329,-0.52651358,-0.03907675,0.00000000,0.00000000,-0.10301440,2.14680076,1.62175059,0.47717938,0.26404354,0.00000000,0.00000000
-0.08311732,-2.00898862,-1.26568854,-0.56395298,-0.03705514,0.00000000,0.00000000,-0.10734730,2.14666414,1.61809671,0.48559815,0.28456011,0.00000000,0.00000000
-0.10754443,-2.01311803,-1.27373016,-0.59607631,-0.03862025,0.00000000,0.00000000,-0.10868897,2.14701700,1.61388159,0.49598253,0.29743055,0.00000000,0.00000000
-0.12336753,-2.02034450,-1.27775073,-0.62118578,-0.02675592,0.00000000,0.00000000,-0.10772631,2.14748120,1.60933340,0.50775695,0.31208074,0.00000000,0.00000000
-0.13079746,-2.02929974,-1.27813482,-0.63802946,-0.01460360,0.00000000,0.00000000,-0.10555232,2.14791894,1.60460937,0.52007139,0.33743781,0.00000000,0.00000000
-0.13040856,-2.03872347,-1.27535212,-0.64589345,-0.00552189,0.00000000,0.00000000,-0.10288362,2.14835882,1.59974980,0.53228390,0.36990964,0.00000000,0.00000000
-0.12294016,-2.04763079,-1.26984096,-0.64460707,-0.00527146,0.00000000,0.00000000,-0.09997548,2.14912796,1.59466338,0.54411483,0.39990139,0.00000000,0.00000000
-0.10878997,-2.05529761,-1.26196730,-0.63427925,-0.00670285,0.00000000,0.00000000,-0.09682301,2.15018296,1.58939755,0.55549461,0.42452294,0.00000000,0.00000000
-0.08869389,-2.06113291,-1.25212085,-0.61546022,-0.01731121,0.00000000,0.00000000,-0.09323356,2.15104556,1.58421803,0.56646025,0.44337341,0.00000000,0.00000000
-0.06345699,-2.06489658,-1.24057436,-0.58903366,-0.02451279,0.00000000,0.00000000,-0.08930400,2.15168667,1.57931435,0.57696098,0.45052251,0.00000000,0.00000000
-0.03335121,-2.06716323,-1.22726762,-0.55596584,-0.03280307,0.00000000,0.00000000,-0.08529850,2.15230799,1.57480049,0.58674437,0.46060792,0.00000000,0.00000000
0.00125977,-2.06892133,-1.21206284,-0.51740348,-0.04298540,0.00000000,0.00000000,-0.08203313,2.15343428,1.57059348,0.59529918,0.47386080,0.00000000,0.00000000
0.03931239,-2.07146621,-1.19489038,-0.47490367,-0.05012421,0.00000000,0.00000000,-0.08039977,2.15524244,1.56660450,0.60197717,0.49010819,0.00000000,0.00000000
0.07901275,-2.07595897,-1.17589748,-0.43054098,-0.05909817,0.00000000,0.00000000,-0.08087514,2.15763998,1.56272113,0.60622466,0.51356381,0.00000000,0.00000000
0.11810830,-2.08275938,-1.15558267,-0.38668519,-0.05997397,0.00000000,0.00000000,-0.08319812,2.16037989,1.55885172,0.60798198,0.53368008,0.00000000,0.00000000
0.15433073,-2.09091187,-1.13480449,-0.34560964,-0.05985570,0.00000000,0.00000000,-0.08711018,2.16294408,1.55511093,0.60763252,0.54525083,0.00000000,0.00000000
0.18546696,-2.09857011,-1.11457407,-0.30936128,-0.05540042,0.00000000,0.00000000,-0.09282520,2.16480947,1.55174744,0.60583031,0.55774319,0.00000000,0.00000000
0.20941173,-2.10403490,-1.09574389,-0.27968943,-0.05606258,0.00000000,0.00000000,-0.10062615,2.16568899,1.54895985,0.60328954,0.57363504,0.00000000,0.00000000
0.22493197,-2.10654426,-1.07878542,-0.25769675,-0.05789722,0.00000000,0.00000000,-0.11047103,2.16501856,1.54696894,0.60027736,0.58577174,0.00000000,0.00000000
0.23214196,-2.10663581,-1.06374753,-0.24368788,-0.05918006,0.00000000,0.00000000,-0.12164180,2.16291833,1.54558396,0.59684193,0.59507573,0.00000000,0.00000000
0.23158559,-2.10513759,-1.05051291,-0.23745097,-0.06359785,0.00000000,0.00000000,-0.13259275,2.16030598,1.54418588,0.59305769,0.60716075,0.00000000,0.00000000
0.22443214,-2.10234833,-1.03890240,-0.23797339,-0.06387379,0.00000000,0.00000000,-0.14201130,2.15758967,1.54234421,0.58871895,0.62216705,0.00000000,0.00000000
0.21105310,-2.09797931,-1.02882421,-0.24433103,-0.06378401,0.00000000,0.00000000,-0.14947250,2.15448976,1.53999209,0.58340907,0.63288075,0.00000000,0.00000000
0.19137533,-2.09140468,-1.02026713,-0.25576404,-0.06301244,0.00000000,0.00000000,-0.15516238,2.15108871,1.53707743,0.57696301,0.63826793,0.00000000,0.00000000
0.16609627,-2.08272266,-1.01308668,-0.27145573,-0.05940243,0.00000000,0.00000000,-0.15908973,2.14707446,1.53378153,0.56977487,0.64328504,0.00000000,0.00000000
0.13660584,-2.07302523,-1.00695026,-0.29067299,-0.05720656,0.00000000,0.00000000,-0.16142505,2.14203072,1.53031528,0.56255031,0.64481890,0.00000000,0.00000000
0.10479759,-2.06331635,-1.00143445,-0.31241772,-0.04598809,0.00000000,0.00000000,-0.16335931,2.13638949,1.52648556,0.55565345,0.65271908,0.00000000,0.00000000
0.07293077,-2.05416512,-0.99601781,-0.33522695,-0.03613118,0.00000000,0.00000000,-0.16416168,2.13096762,1.52185023,0.54989547,0.66245115,0.00000000,0.00000000
0.04257521,-2.04646158,-0.99009448,-0.35793635,-0.02439450,0.00000000,0.00000000,-0.16268770,2.12664485,1.51587605,0.54591435,0.66453928,0.00000000,0.00000000
0.01438455,-2.04075241,-0.98317456,-0.37965286,-0.00054969,0.00000000,0.00000000,-0.15853600,2.12447071,1.50798559,0.54391241,0.66223186,0.00000000,0.00000000
-0.01123409,-2.03696728,-0.97491986,-0.39944977,0.01549037,0.00000000,0.00000000,-0.15184699,2.12411928,1.49813902,0.54331243,0.65339595,0.00000000,0.00000000
-0.03402505,-2.03478003,-0.96511167,-0.41645795,0.03841319,0.00000000,0.00000000,-0.14344814,2.12481022,1.48655009,0.54300737,0.65257990,0.00000000,0.00000000
-0.05436569,-2.03360558,-0.95373863,-0.43004498,0.06527116,0.00000000,0.00000000,-0.13385856,2.12576342,1.47354603,0.54216307,0.66232967,0.00000000,0.00000000
-0.07222266,-2.03318214,-0.94074655,-0.43959656,0.09270817,0.00000000,0.00000000,-0.12372832,2.12646818,1.45941734,0.53997135,0.68219978,0.00000000,0.00000000
-0.08714119,-2.03359771,-0.92598647,-0.44454888,0.11520068,0.00000000,0.00000000,-0.11342559,2.12679172,1.44432521,0.53579426,0.70369381,0.00000000,0.00000000
-0.09838655,-2.03533578,-0.90917957,-0.44449660,0.14676324,0.00000000,0.00000000,-0.10314833,2.12716484,1.42816484,0.52913570,0.72114956,0.00000000,0.00000000
-0.10517239,-2.03894997,-0.89002609,-0.43920016,0.17212085,0.00000000,0.00000000,-0.09263133,2.12790585,1.41078997,0.51988626,0.73930085,0.00000000,0.00000000
-0.10742778,-2.04442239,-0.86850166,-0.42859098,0.20312376,0.00000000,0.00000000,-0.08117633,2.12881041,1.39222395,0.50831610,0.75659049,0.00000000,0.00000000
-0.10543025,-2.05117965,-0.84482819,-0.41257074,0.22641602,0.00000000,0.00000000,-0.06838796,2.12960100,1.37261617,0.49470595,0.77317417,0.00000000,0.00000000
-0.09952577,-2.05830121,-0.81938344,-0.39098394,0.25411114,0.00000000,0.00000000,-0.05453917,2.13027596,1.35216630,0.47903612,0.79454851,0.00000000,0.00000000
-0.09018217,-2.06509256,-0.79256570,-0.36400470,0.27183443,0.00000000,0.00000000,-0.04033049,2.13121533,1.33099353,0.46101555,0.80871373,0.00000000,0.00000000
-0.07811224,-2.07147288,-0.76473212,-0.33250749,0.29238209,0.00000000,0.00000000,-0.02647340,2.13284612,1.30912423,0.44044885,0.82215345,0.00000000,0.00000000
-0.06446840,-2.07780790,-0.73627359,-0.29808989,0.31287211,0.00000000,0.00000000,-0.01318846,2.13534713,1.28662014,0.41766283,0.83791614,0.00000000,0.00000000
-0.05117561,-2.08445787,-0.70774877,-0.26291087,0.33672020,0.00000000,0.00000000,0.00022490,2.13846159,1.26373887,0.39364406,0.86134809,0.00000000,0.00000000
-0.03981904,-2.09202909,-0.67965591,-0.22904123,0.35586640,0.00000000,0.00000000,0.01422000,2.14186192,1.24080467,0.36936998,0.88377172,0.00000000,0.00000000
-0.03138148,-2.10071540,-0.65242320,-0.19787623,0.37981072,0.00000000,0.00000000,0.02670261,2.14529896,1.21798468,0.34488106,0.90809071,0.00000000,0.00000000
-0.02627818,-2.10982513,-0.62643224,-0.16998096,0.40663150,0.00000000,0.00000000,0.03527517,2.14965248,1.19521940,0.32111391,0.93150228,0.00000000,0.00000000
-0.02419157,-2.11854911,-0.60193723,-0.14545786,0.43531409,0.00000000,0.00000000,0.04178648,2.15643764,1.17262006,0.30127493,0.95873940,0.00000000,0.00000000
-0.02441180,-2.12563992,-0.57908195,-0.12391683,0.46536598,0.00000000,0.00000000,0.04707637,2.16378546,1.15079951,0.28587142,0.98806065,0.00000000,0.00000000
-0.02649020,-2.13004684,-0.55794889,-0.10527302,0.49519867,0.00000000,0.00000000,0.05025628,2.16860533,1.13042665,0.27354783,1.01656222,0.00000000,0.00000000
-0.03068079,-2.13661003,-0.53840005,-0.09292562,0.52484214,0.00000000,0.00000000,0.05117788,2.16991758,1.11205280,0.26352608,1.04775465,0.00000000,0.00000000
-0.03714069,-2.14573073,-0.52042109,-0.08716048,0.55589616,0.00000000,0.00000000,0.05035077,2.17000008,1.09605598,0.25566003,1.07422972,0.00000000,0.00000000
-0.04527176,-2.15512633,-0.50402474,-0.08630966,0.57793850,0.00000000,0.00000000,0.04828953,2.17000008,1.08258915,0.25010413,1.10122871,0.00000000,0.00000000
-0.05448974,-2.16321421,-0.48919395,-0.08912972,0.59136140,0.00000000,0.00000000,0.04523345,2.17000008,1.07169890,0.24699554,1.13061607,0.00000000,0.00000000
-0.06455158,-2.16836548,-0.47593254,-0.09450579,0.61286527,0.00000000,0.00000000,0.04126473,2.17000008,1.06342304,0.24635395,1.16463876,0.00000000,0.00000000
-0.07545295,-2.16986799,-0.46427396,-0.10102236,0.63186735,0.00000000,0.00000000,0.03637046,2.17000008,1.05781186,0.24808468,1.19471800,0.00000000,0.00000000
-0.08728602,-2.16999722,-0.45426995,-0.10693434,0.64831185,0.00000000,0.00000000,0.03039086,2.17000008,1.05493283,0.25196943,1.21719694,0.00000000,0.00000000
-0.10023601,-2.17000008,-0.44597456,-0.11051055,0.66357458,0.00000000,0.00000000,0.02305065,2.17000008,1.05488133,0.25768453,1.23508525,0.00000000,0.00000000
-0.11456639,-2.17000008,-0.43942001,-0.11050092,0.68288821,0.00000000,0.00000000,0.01390910,2.17000008,1.05777276,0.26481235,1.24963760,0.00000000,0.00000000
-0.13055682,-2.16988826,-0.43459210,-0.10635138,0.69613373,0.00000000,0.00000000,0.00245640,2.17000008,1.06374550,0.27292451,1.27097225,0.00000000,0.00000000
-0.14827658,-2.16811919,-0.43138158,-0.09852209,0.70855302,0.00000000,0.00000000,-0.01174273,2.17000008,1.07293808,0.28169617,1.29181492,0.00000000,0.00000000
-0.16688305,-2.16163802,-0.42953771,-0.08893875,0.71628153,0.00000000,0.00000000,-0.02887210,2.16995287,1.08543837,0.29111648,1.30314291,0.00000000,0.00000000
-0.18278654,-2.15064359,-0.42865837,-0.07943480,0.72393477,0.00000000,0.00000000,-0.04867536,2.16918969,1.10119343,0.30174968,1.31362343,0.00000000,0.00000000
-0.19191527,-2.13588572,-0.42844835,-0.06982788,0.72298920,0.00000000,0.00000000,-0.07027674,2.16619134,1.12003398,0.31475344,1.31926215,0.00000000,0.00000000
-0.19351646,-2.11918688,-0.42883751,-0.06147355,0.72739851,0.00000000,0.00000000,-0.09307530,2.16065192,1.14195561,0.33083975,1.33105218,0.00000000,0.00000000
-0.18809246,-2.10097384,-0.42987657,-0.05525494,0.73518914,0.00000000,0.00000000,-0.11678156,2.15285993,1.16708875,0.35035616,1.34216487,0.00000000,0.00000000
-0.17616065,-2.08138919,-0.43163139,-0.05149075,0.73954505,0.00000000,0.00000000,-0.14118452,2.14305568,1.19561970,0.37359998,1.35542285,0.00000000,0.00000000
-0.15826771,-2.06071401,-0.43415466,-0.05029646,0.73880941,0.00000000,0.00000000,-0.16612750,2.13146091,1.22777748,0.40087482,1.35906947,0.00000000,0.00000000
-0.13493405,-2.03925610,-0.43747249,-0.05158235,0.74189311,0.00000000,0.00000000,-0.19151576,2.11848521,1.26377165,0.43252343,1.36500001,0.00000000,0.00000000
-0.10671525,-2.01734185,-0.44158059,-0.05507345,0.73539650,0.00000000,0.00000000,-0.21706563,2.10506582,1.30370426,0.46914721,1.37128222,0.00000000,0.00000000
-0.07431404,-1.99523485,-0.44645205,-0.06036890,0.72558427,0.00000000,0.00000000,-0.24186411,2.09287357,1.34747744,0.51194495,1.37971222,0.00000000,0.00000000
-0.03893746,-1.97336972,-0.45205295,-0.06722318,0.71566498,0.00000000,0.00000000,-0.26572946,2.08415556,1.39453554,0.56009227,1.38692284,0.00000000,0.00000000
-0.00220120,-1.95275331,-0.45834044,-0.07575463,0.70704883,0.00000000,0.00000000,-0.29023615,2.08088326,1.44372785,0.60815531,1.39024138,0.00000000,0.00000000
0.03441982,-1.93393815,-0.46526834,-0.08590671,0.70229501,0.00000000,0.00000000,-0.31389186,2.08441305,1.49347973,0.65531975,1.39680004,0.00000000,0.00000000
0.06960169,-1.91695690,-0.47279763,-0.09739728,0.68933380,0.00000000,0.00000000,-0.33706355,2.09392858,1.54173589,0.70109755,1.39967287,0.00000000,0.00000000
0.10225436,-1.90228987,-0.48087484,-0.11017062,0.66954988,0.00000000,0.00000000,-0.35803965,2.10463190,1.58741832,0.74499625,1.40368307,0.00000000,0.00000000
0.13240589,-1.89049172,-0.48938391,-0.12404051,0.65296966,0.00000000,0.00000000,-0.37284932,2.11366677,1.63009369,0.78746879,1.39765179,0.00000000,0.00000000
0.16033265,-1.88142622,-0.49821556,-0.13852920,0.64300144,0.00000000,0.00000000,-0.37900370,2.12096477,1.66925657,0.82863116,1.38841736,0.00000000,0.00000000
0.18516982,-1.87422252,-0.50738007,-0.15323764,0.63708705,0.00000000,0.00000000,-0.37599835,2.12699842,1.70438778,0.86785847,1.38449848,0.00000000,0.00000000
0.20507945,-1.86765814,-0.51700729,-0.16798773,0.63447320,0.00000000,0.00000000,-0.36395875,2.13228726,1.73494864,0.90435541,1.38582051,0.00000000,0.00000000
0.21846274,-1.86126459,-0.52720791,-0.18301028,0.63933372,0.00000000,0.00000000,-0.34333944,2.13707542,1.76054788,0.93726838,1.38279593,0.00000000,0.00000000
0.22451688,-1.85472798,-0.53803575,-0.19848612,0.64191711,0.00000000,0.00000000,-0.31488267,2.14121008,1.78095150,0.96582884,1.38497746,0.00000000,0.00000000
0.22287570,-1.84757161,-0.54952168,-0.21443014,0.64061487,0.00000000,0.00000000,-0.27955121,2.14432812,1.79607475,0.98930913,1.38595128,0.00000000,0.00000000
0.21411130,-1.83933532,-0.56159276,-0.23067899,0.64107257,0.00000000,0.00000000,-0.23857741,2.14617276,1.80590880,1.00693250,1.37977183,0.00000000,0.00000000
0.19972767,-1.83008766,-0.57401729,-0.24715699,0.64180386,0.00000000,0.00000000,-0.19358248,2.14657545,1.81053209,1.01789498,1.37278640,0.00000000,0.00000000
0.18071070,-1.82079256,-0.58653826,-0.26409122,0.64099777,0.00000000,0.00000000,-0.14650942,2.14548326,1.81006777,1.02144396,1.36875939,0.00000000,0.00000000
0.15720633,-1.81298649,-0.59893066,-0.28181544,0.64066559,0.00000000,0.00000000,-0.09947568,2.14297843,1.80459929,1.01699996,1.36792099,0.00000000,0.00000000
0.12923074,-1.80862772,-0.61091453,-0.30086946,0.64415765,0.00000000,0.00000000,-0.05452107,2.13889670,1.79422605,1.00436211,1.37422848,0.00000000,0.00000000
0.09782831,-1.80798829,-0.62217110,-0.32071474,0.64865965,0.00000000,0.00000000,-0.01371331,2.13259268,1.77910984,0.98373604,1.38017881,0.00000000,0.00000000
0.06431167,-1.81026185,-0.63242769,-0.34023955,0.64814395,0.00000000,0.00000000,0.02110175,2.12349701,1.75943553,0.95575315,1.39002490,0.00000000,0.00000000
0.02994159,-1.81449461,-0.64143950,-0.35836971,0.64457130,0.00000000,0.00000000,0.04866309,2.11240673,1.73562002,0.92118710,1.39689255,0.00000000,0.00000000
-0.00441108,-1.82017636,-0.64899993,-0.37459537,0.64379722,0.00000000,0.00000000,0.06900652,2.10100269,1.70881629,0.88034856,1.40761983,0.00000000,0.00000000
-0.03801765,-1.82689846,-0.65494448,-0.38883072,0.64465171,0.00000000,0.00000000,0.08352276,2.08932257,1.68105161,0.83337355,1.41617477,0.00000000,0.00000000
-0.06947593,-1.83354008,-0.65911150,-0.40090141,0.65859038,0.00000000,0.00000000,0.09250955,2.07709622,1.65396845,0.78056043,1.42177999,0.00000000,0.00000000
-0.09639015,-1.83790302,-0.66134888,-0.41033512,0.67214775,0.00000000,0.00000000,0.09373236,2.06732345,1.62707520,0.72421962,1.43670440,0.00000000,0.00000000
-0.11685946,-1.83809531,-0.66160905,-0.41716364,0.68447793,0.00000000,0.00000000,0.09080859,2.05976987,1.60090721,0.67149860,1.44543052,0.00000000,0.00000000
-0.13039456,-1.83346665,-0.65993381,-0.42207459,0.69661939,0.00000000,0.00000000,0.08460417,2.05337334,1.57616901,0.62397236,1.45223284,0.00000000,0.00000000
-0.13720523,-1.82435894,-0.65633303,-0.42582038,0.70602816,0.00000000,0.00000000,0.07502659,2.04737616,1.55328393,0.58103085,1.45577729,0.00000000,0.00000000
-0.13753743,-1.81169868,-0.65074456,-0.42888302,0.72375953,0.00000000,0.00000000,0.06271877,2.04130888,1.53248239,0.54264343,1.46079600,0.00000000,0.00000000
-0.13155140,-1.79665601,-0.64308906,-0.43149328,0.73527896,0.00000000,0.00000000,0.04827132,2.03497124,1.51384580,0.50885355,1.47041988,0.00000000,0.00000000
-0.11941584,-1.78043592,-0.63332313,-0.43379670,0.74750614,0.00000000,0.00000000,0.03196357,2.02841067,1.49734640,0.47956780,1.48922753,0.00000000,0.00000000
-0.10140272,-1.76416218,-0.62144291,-0.43594709,0.75604677,0.00000000,0.00000000,0.01390846,2.02182961,1.48290122,0.45461220,1.50955486,0.00000000,0.00000000
-0.07798220,-1.74878478,-0.60749334,-0.43810627,0.76178920,0.00000000,0.00000000,-0.00575366,2.01549196,1.47041082,0.43381551,1.52618682,0.00000000,0.00000000
-0.04979449,-1.73510396,-0.59155196,-0.44046593,0.76727587,0.00000000,0.00000000,-0.02685747,2.00965285,1.45977414,0.41698581,1.53520131,0.00000000,0.00000000
-0.01769299,-1.72379315,-0.57373685,-0.44329146,0.76997107,0.00000000,0.00000000,-0.04916123,2.00461245,1.45087361,0.40395957,1.54840624,0.00000000,0.00000000
0.01725067,-1.71541679,-0.55420840,-0.44695118,0.77371347,0.00000000,0.00000000,-0.07235748,2.00073767,1.44356978,0.39460978,1.55781090,0.00000000,0.00000000
0.05397545,-1.71029508,-0.53314638,-0.45181286,0.77719843,0.00000000,0.00000000,-0.09630649,1.99845791,1.43769515,0.38873813,1.57318377,0.00000000,0.00000000
0.09117512,-1.70855904,-0.51079172,-0.45832089,0.77955079,0.00000000,0.00000000,-0.12057190,1.99809659,1.43309534,0.38629830,1.59123552,0.00000000,0.00000000
0.12742330,-1.71015894,-0.48743370,-0.46697074,0.78311300,0.00000000,0.00000000,-0.14452174,1.99990582,1.42961383,0.38734233,1.61216879,0.00000000,0.00000000
0.16131902,-1.71482313,-0.46339673,-0.47822827,0.78733891,0.00000000,0.00000000,-0.16750433,2.00396490,1.42710137,0.39193279,1.63817859,0.00000000,0.00000000
0.19153506,-1.72192287,-0.43906066,-0.49237478,0.79654801,0.00000000,0.00000000,-0.18900543,2.01006579,1.42543066,0.40007401,1.66680765,0.00000000,0.00000000
0.21678434,-1.73035216,-0.41488439,-0.50937647,0.80107588,0.00000000,0.00000000,-0.20838189,2.01771688,1.42450821,0.41188654,1.69701254,0.00000000,0.00000000
0.23567736,-1.73852944,-0.39143690,-0.52887535,0.80956650,0.00000000,0.00000000,-0.22400911,2.02639818,1.42424524,0.42814896,1.71804881,0.00000000,0.00000000
0.24680515,-1.74476421,-0.36933613,-0.55037194,0.81891710,0.00000000,0.00000000,-0.23517621,2.03637314,1.42427146,0.44858867,1.73551667,0.00000000,0.00000000
0.24928136,-1.74796498,-0.34901062,-0.57349461,0.83733386,0.00000000,0.00000000,-0.24438553,2.04769778,1.42406833,0.46914995,1.75370729,0.00000000,0.00000000
0.24266429,-1.74777317,-0.33073249,-0.59813792,0.85506511,0.00000000,0.00000000,-0.24936685,2.05888605,1.42373896,0.48817512,1.76983237,0.00000000,0.00000000
0.22713281,-1.74453127,-0.31450266,-0.62439603,0.87040573,0.00000000,0.00000000,-0.24758476,2.06839085,1.42349458,0.50565273,1.78799725,0.00000000,0.00000000
0.20356330,-1.73884761,-0.30000353,-0.65227997,0.87820309,0.00000000,0.00000000,-0.23896380,2.07528782,1.42332935,0.52135533,1.80991018,0.00000000,0.00000000
0.17297658,-1.73094690,-0.28682208,-0.68144453,0.88523668,0.00000000,0.00000000,-0.22405078,2.07897258,1.42315590,0.53512132,1.82933259,0.00000000,0.00000000
0.13645233,-1.72088611,-0.27445897,-0.71137697,0.89315945,0.00000000,0.00000000,-0.20476218,2.07954669,1.42263925,0.54618889,1.85177040,0.00000000,0.00000000
0.09540685,-1.70926118,-0.26216310,-0.74188864,0.89414519,0.00000000,0.00000000,-0.18318568,2.07733083,1.42143691,0.55392963,1.88035512,0.00000000,0.00000000
0.05283263,-1.69709909,-0.24841443,-0.77295059,0.90205848,0.00000000,0.00000000,-0.16010588,2.07244658,1.41941571,0.55892378,1.91156697,0.00000000,0.00000000
0.01270960,-1.68520641,-0.23118328,-0.80442512,0.90574491,0.00000000,0.00000000,-0.13721590,2.06528330,1.41638112,0.56222653,1.93531942,0.00000000,0.00000000
-0.02142212,-1.67324591,-0.20862980,-0.83560598,0.91780776,0.00000000,0.00000000,-0.11552871,2.05628967,1.41223502,0.56585687,1.95489180,0.00000000,0.00000000
-0.04778038,-1.65968454,-0.17977469,-0.86518782,0.92719185,0.00000000,0.00000000,-0.09466651,2.04643440,1.40679741,0.57168877,1.97360563,0.00000000,0.00000000
-0.06650704,-1.64408886,-0.14446707,-0.89271361,0.93495494,0.00000000,0.00000000,-0.07452708,2.03690028,1.39976752,0.57998621,1.98953664,0.00000000,0.00000000
-0.07889633,-1.62730277,-0.10311794,-0.91863436,0.93647200,0.00000000,0.00000000,-0.05600617,2.02773046,1.39115381,0.58903468,2.00840163,0.00000000,0.00000000
-0.08590728,-1.61041129,-0.05609883,-0.94364810,0.92910117,0.00000000,0.00000000,-0.03955410,2.01885152,1.38103056,0.59725207,2.02653551,0.00000000,0.00000000
-0.08815866,-1.59432340,-0.00378149,-0.96842998,0.92701733,0.00000000,0.00000000,-0.02478470,2.01026678,1.36955571,0.60445935,2.04225922,0.00000000,0.00000000
-0.08739505,-1.57962275,0.05267683,-0.99337602,0.91645056,0.00000000,0.00000000,-0.01176587,2.00230479,1.35676599,0.61042559,2.05651355,0.00000000,0.00000000
-0.08669691,-1.56594300,0.11123393,-1.01825964,0.90758836,0.00000000,0.00000000,-0.00183561,1.99525106,1.34259880,0.61302501,2.06992269,0.00000000,0.00000000
-0.08821056,-1.55095756,0.17043427,-1.04283118,0.89610803,0.00000000,0.00000000,0.00514309,1.98909426,1.32725298,0.61024928,2.08172488,0.00000000,0.00000000
-0.09159002,-1.53169787,0.23044659,-1.06861222,0.88827240,0.00000000,0.00000000,0.01074651,1.98285985,1.31146717,0.60138118,2.09221697,0.00000000,0.00000000
-0.09609190,-1.50782180,0.29160511,-1.09783733,0.88402885,0.00000000,0.00000000,0.01556999,1.97563148,1.29594207,0.58651757,2.10111141,0.00000000,0.00000000
-0.10010646,-1.48036087,0.35468793,-1.13033986,0.87553650,0.00000000,0.00000000,0.01915038,1.96865511,1.28057981,0.56781906,2.10274172,0.00000000,0.00000000
-0.10278377,-1.45167375,0.41980368,-1.16401958,0.86799330,0.00000000,0.00000000,0.02224035,1.96358955,1.26521277,0.54973298,2.09692049,0.00000000,0.00000000
-0.10563259,-1.42410028,0.48544827,-1.19704533,0.85707533,0.00000000,0.00000000,0.02597496,1.95903111,1.25061369,0.53424126,2.09738278,0.00000000,0.00000000
-0.11150827,-1.39855683,0.54936415,-1.22811186,0.85243225,0.00000000,0.00000000,0.02962927,1.95394087,1.23713565,0.52079904,2.10066748,0.00000000,0.00000000
-0.12302350,-1.37475514,0.60966641,-1.25632238,0.84544140,0.00000000,0.00000000,0.03217469,1.94830096,1.22466278,0.50874323,2.10138202,0.00000000,0.00000000
-0.14164679,-1.35152912,0.66547543,-1.28146482,0.84341359,0.00000000,0.00000000,0.03345025,1.94254291,1.21293986,0.49805039,2.10577631,0.00000000,0.00000000
-0.16778348,-1.32618761,0.71713513,-1.30305171,0.84142494,0.00000000,0.00000000,0.03382490,1.93702734,1.20174348,0.48898220,2.10505509,0.00000000,0.00000000
-0.20188500,-1.29534411,0.76526284,-1.32084870,0.83965743,0.00000000,0.00000000,0.03355734,1.93218374,1.19082856,0.48174047,2.09761071,0.00000000,0.00000000
-0.24756667,-1.26096058,0.80679893,-1.33788157,0.83947629,0.00000000,0.00000000,0.03275614,1.92835903,1.17999589,0.47640356,2.08404875,0.00000000,0.00000000
-0.30313566,-1.22455609,0.84228563,-1.35661268,0.84117293,0.00000000,0.00000000,0.03096234,1.92558575,1.16911793,0.47261637,2.06793857,0.00000000,0.00000000
-0.36837068,-1.18596435,0.87173259,-1.37619698,0.84837109,0.00000000,0.00000000,0.02687598,1.92376983,1.15804386,0.46947989,2.04639554,0.00000000,0.00000000
-0.44409314,-1.14409542,0.89469731,-1.39431322,0.84547520,0.00000000,0.00000000,0.01964431,1.92269599,1.14672089,0.46630865,2.02278042,0.00000000,0.00000000
-0.52589369,-1.09458447,0.91536987,-1.40927005,0.84739190,0.00000000,0.00000000,0.00931918,1.92116237,1.13547552,0.46263415,2.00354505,0.00000000,0.00000000
-0.61279601,-1.03684831,0.93426782,-1.42237318,0.84644979,0.00000000,0.00000000,-0.00352587,1.91724777,1.12491417,0.45802718,1.98154807,0.00000000,0.00000000
-0.70486987,-0.97075099,0.95084333,-1.43430042,0.85159099,0.00000000,0.00000000,-0.01841508,1.90894186,1.11569250,0.45189410,1.96007526,0.00000000,0.00000000
-0.80150372,-0.89615780,0.96485060,-1.44534147,0.85873008,0.00000000,0.00000000,-0.03456145,1.89463222,1.10844767,0.44390702,1.94379687,0.00000000,0.00000000
-0.90218759,-0.81376576,0.97551531,-1.45620978,0.86246186,0.00000000,0.00000000,-0.05019632,1.87290335,1.10392725,0.43442842,1.92872465,0.00000000,0.00000000
-1.00666475,-0.72452092,0.98148304,-1.46698701,0.86718315,0.00000000,0.00000000,-0.06213421,1.84234512,1.10307550,0.42476052,1.91327381,0.00000000,0.00000000
-1.11477268,-0.62992901,0.98084760,-1.47731709,0.86756176,0.00000000,0.00000000,-0.06690530,1.80232775,1.10669184,0.41680974,1.89740181,0.00000000,0.00000000
-1.22460735,-0.53035599,0.97289121,-1.48324382,0.87898302,0.00000000,0.00000000,-0.06134189,1.75287664,1.11539042,0.41271794,1.88814211,0.00000000,0.00000000
-1.33255744,-0.42591584,0.95900947,-1.47690117,0.89083052,0.00000000,0.00000000,-0.04427070,1.69591975,1.12918305,0.41431728,1.87745488,0.00000000,0.00000000
-1.43637884,-0.32013270,0.94187188,-1.45585513,0.89950389,0.00000000,0.00000000,-0.01773299,1.63710237,1.14695656,0.42299861,1.86862433,0.00000000,0.00000000
-1.53265846,-0.21419923,0.92721570,-1.42259669,0.90030134,0.00000000,0.00000000,0.01512978,1.58205009,1.16740263,0.43957052,1.85732758,0.00000000,0.00000000
-1.61939967,-0.10795128,0.91854876,-1.37916934,0.89393336,0.00000000,0.00000000,0.05254967,1.53244114,1.19005227,0.46435937,1.84177268,0.00000000,0.00000000
-1.69623542,-0.00163776,0.91615826,-1.32604396,0.88343501,0.00000000,0.00000000,0.09385111,1.48724401,1.21504295,0.49741358,1.83335912,0.00000000,0.00000000
-1.76330841,0.10374920,0.91878891,-1.26331198,0.87065411,0.00000000,0.00000000,0.13879161,1.44491780,1.24264586,0.53887331,1.82672656,0.00000000,0.00000000
-1.82082403,0.20655984,0.92480338,-1.19147909,0.86067361,0.00000000,0.00000000,0.18708010,1.40464795,1.27295530,0.58912879,1.81839049,0.00000000,0.00000000
-1.86896670,0.30499107,0.93294013,-1.11162269,0.84511065,0.00000000,0.00000000,0.23785816,1.36700952,1.30559289,0.64873207,1.80695665,0.00000000,0.00000000
-1.90766943,0.39785546,0.94254005,-1.02494085,0.83322561,0.00000000,0.00000000,0.28894967,1.33401859,1.33944309,0.71779615,1.79893553,0.00000000,0.00000000
-1.93679512,0.48419094,0.95300817,-0.93270946,0.81646180,0.00000000,0.00000000,0.33735347,1.30820000,1.37287807,0.79601759,1.78524435,0.00000000,0.00000000
-1.95672262,0.56374371,0.96420527,-0.83640349,0.80292249,0.00000000,0.00000000,0.37928954,1.29221058,1.40374541,0.88235420,1.77244091,0.00000000,0.00000000
-1.97065282,0.63591015,0.97668004,-0.73947895,0.79475820,0.00000000,0.00000000,0.40850911,1.29034448,1.42806363,0.97225368,1.76482666,0.00000000,0.00000000
-1.98566020,0.69707716,0.99062580,-0.65061265,0.78211755,0.00000000,0.00000000,0.41964844,1.30689979,1.44144523,1.05795145,1.76345730,0.00000000,0.00000000
-2.00361705,0.74852806,1.00652897,-0.57639086,0.76472890,0.00000000,0.00000000,0.41612563,1.33794403,1.44569325,1.13633311,1.76049042,0.00000000,0.00000000
-2.02411151,0.79187602,1.02433360,-0.51743478,0.74825752,0.00000000,0.00000000,0.40118256,1.37878931,1.44329464,1.20621085,1.75974035,0.00000000,0.00000000
-2.04815555,0.82684445,1.04374635,-0.47342443,0.72975159,0.00000000,0.00000000,0.37667990,1.42616498,1.43585491,1.26637352,1.76381397,0.00000000,0.00000000
-2.07622051,0.85227150,1.06425464,-0.44411364,0.70375484,0.00000000,0.00000000,0.34476221,1.47706401,1.42492127,1.31595755,1.76611781,0.00000000,0.00000000
-2.10778689,0.86726940,1.08533061,-0.42885575,0.67720956,0.00000000,0.00000000,0.30753884,1.52882516,1.41190052,1.35439503,1.76568556,0.00000000,0.00000000
-2.14191365,0.87138832,1.10655332,-0.42680159,0.65486199,0.00000000,0.00000000,0.26701805,1.57914889,1.39798081,1.38149035,1.77171004,0.00000000,0.00000000
-2.17755699,0.86479068,1.12769330,-0.43705568,0.63672346,0.00000000,0.00000000,0.22481194,1.62626719,1.38394105,1.39749348,1.77238441,0.00000000,0.00000000
-2.21352053,0.84835702,1.14872944,-0.45857194,0.62446988,0.00000000,0.00000000,0.18220380,1.66882157,1.37026274,1.40302229,1.77223992,0.00000000,0.00000000
-2.24819112,0.82282090,1.16957200,-0.48989558,0.61734146,0.00000000,0.00000000,0.14029561,1.70564628,1.35735118,1.39902020,1.77945554,0.00000000,0.00000000
-2.27867365,0.78752679,1.18956590,-0.52852941,0.60900092,0.00000000,0.00000000,0.10026346,1.73564041,1.34586596,1.38673663,1.78659475,0.00000000,0.00000000
-2.29988647,0.74142671,1.20753753,-0.57099903,0.59460795,0.00000000,0.00000000,0.06336069,1.75780487,1.33674729,1.36748159,1.78988254,0.00000000,0.00000000
-2.30666113,0.68542480,1.22284436,-0.61461902,0.57464337,0.00000000,0.00000000,0.03071327,1.77136409,1.33093143,1.34227931,1.79403651,0.00000000,0.00000000
-2.29724574,0.62336493,1.23647451,-0.65861523,0.55984604,0.00000000,0.00000000,0.00271959,1.77629566,1.32873034,1.31165159,1.79703999,0.00000000,0.00000000
-2.27382493,0.55707610,1.24944150,-0.70474428,0.54358357,0.00000000,0.00000000,-0.02080510,1.77345383,1.32963932,1.27579021,1.80192959,0.00000000,0.00000000
-2.23836398,0.48600116,1.26194167,-0.75495708,0.53666711,0.00000000,0.00000000,-0.04037679,1.76415324,1.33275676,1.23452497,1.80568838,0.00000000,0.00000000
-2.19225645,0.40894625,1.27387214,-0.81105924,0.53047305,0.00000000,0.00000000,-0.05701590,1.75051844,1.33649504,1.18748021,1.80589128,0.00000000,0.00000000
-2.13596249,0.32396182,1.28454351,-0.87421978,0.52714729,0.00000000,0.00000000,-0.07182895,1.73502767,1.33906388,1.13441277,1.80646098,0.00000000,0.00000000
-2.06873894,0.22789183,1.29204106,-0.94432139,0.51825023,0.00000000,0.00000000,-0.08563378,1.71992254,1.33899438,1.07538211,1.81099355,0.00000000,0.00000000
-1.98909879,0.11718306,1.29326785,-1.01936948,0.50471759,0.00000000,0.00000000,-0.09922558,1.70706344,1.33518374,1.01072049,1.81153655,0.00000000,0.00000000
-1.89575040,-0.01055742,1.28476608,-1.09524751,0.48035836,0.00000000,0.00000000,-0.11365093,1.69794452,1.32678199,0.94104457,1.81302619,0.00000000,0.00000000
-1.78883910,-0.15500152,1.26420319,-1.16670716,0.45914328,0.00000000,0.00000000,-0.12994230,1.69398022,1.31309295,0.86753899,1.81601095,0.00000000,0.00000000
-1.67043459,-0.31289086,1.23121274,-1.22885168,0.43614262,0.00000000,0.00000000,-0.14849575,1.69682920,1.29361975,0.79230994,1.82865465,0.00000000,0.00000000
-1.54415524,-0.47907877,1.18707800,-1.27797198,0.40426046,0.00000000,0.00000000,-0.16852431,1.70836627,1.26828933,0.71835077,1.84253836,0.00000000,0.00000000
-1.41448283,-0.64764595,1.13402283,-1.31166565,0.37916270,0.00000000,0.00000000,-0.18786314,1.73006749,1.23771513,0.64908069,1.85261083,0.00000000,0.00000000
-1.28608942,-0.81261021,1.07464468,-1.32857466,0.35164088,0.00000000,0.00000000,-0.20324674,1.76204967,1.20326805,0.58758134,1.86415708,0.00000000,0.00000000
-1.16339457,-0.96842533,1.01146686,-1.32823110,0.32004824,0.00000000,0.00000000,-0.21119745,1.80138946,1.16716385,0.53540087,1.87896800,0.00000000,0.00000000
-1.05015278,-1.11016500,0.94675851,-1.31081557,0.29578263,0.00000000,0.00000000,-0.21045418,1.84240842,1.13176489,0.49168727,1.88823462,0.00000000,0.00000000
-0.94895130,-1.23350036,0.88265049,-1.27710927,0.27790004,0.00000000,0.00000000,-0.20166570,1.88012516,1.09859967,0.45520994,1.90419567,0.00000000,0.00000000
-0.86107236,-1.33511424,0.82098925,-1.22882986,0.26333562,0.00000000,0.00000000,-0.18673094,1.91201174,1.06810749,0.42547661,1.92218101,0.00000000,0.00000000
-0.78695786,-1.41375148,0.76272953,-1.16906285,0.23608539,0.00000000,0.00000000,-0.16747490,1.93598545,1.04046941,0.40194124,1.92965639,0.00000000,0.00000000
-0.72665137,-1.47204590,0.70728195,-1.10260701,0.20176145,0.00000000,0.00000000,-0.14552510,1.95205271,1.01537108,0.38418341,1.93942904,0.00000000,0.00000000
-0.67739528,-1.51620328,0.65427440,-1.03454435,0.16887122,0.00000000,0.00000000,-0.12123623,1.96236897,0.99224627,0.37281299,1.94370389,0.00000000,0.00000000
-0.63548696,-1.55379808,0.60343367,-0.96737087,0.13425480,0.00000000,0.00000000,-0.09561840,1.97144890,0.97002804,0.36826578,1.94429600,0.00000000,0.00000000
-0.59953123,-1.59077549,0.55392998,-0.90236521,0.09870528,0.00000000,0.00000000,-0.06984655,1.98219109,0.94790334,0.36932746,1.94653535,0.00000000,0.00000000
-0.56889117,-1.62935591,0.50568938,-0.84024483,0.06867352,0.00000000,0.00000000,-0.04240232,1.99553156,0.92570251,0.37484488,1.94700372,0.00000000,0.00000000
-0.54244918,-1.66870987,0.45955691,-0.78134853,0.04307960,0.00000000,0.00000000,-0.01200607,2.01099396,0.90344870,0.38353845,1.94385648,0.00000000,0.00000000
-0.51898700,-1.70753777,0.41640663,-0.72625142,0.02005031,0.00000000,0.00000000,0.01930672,2.02736139,0.88085604,0.39285833,1.93976271,0.00000000,0.00000000
-0.49826416,-1.74478722,0.37654981,-0.67508316,-0.00382549,0.00000000,0.00000000,0.04939903,2.04294682,0.85775208,0.40017283,1.93420315,0.00000000,0.00000000
-0.48078734,-1.77920973,0.33996657,-0.62668025,-0.03509313,0.00000000,0.00000000,0.07796530,2.05551910,0.83440697,0.40340361,1.93424666,0.00000000,0.00000000
-0.46597362,-1.81062496,0.30690357,-0.57948500,-0.06286398,0.00000000,0.00000000,0.10543285,2.06394506,0.81110275,0.40120554,1.93733418,0.00000000,0.00000000
-0.45211521,-1.83969855,0.27791017,-0.53241754,-0.08819892,0.00000000,0.00000000,0.13115928,2.06739950,0.78797823,0.39195058,1.94371748,0.00000000,0.00000000
-0.43611842,-1.86642957,0.25392497,-0.48516431,-0.10946133,0.00000000,0.00000000,0.15297447,2.06555724,0.76488507,0.37402633,1.95268810,0.00000000,0.00000000
-0.41434681,-1.88996160,0.23582657,-0.43773833,-0.13006340,0.00000000,0.00000000,0.16805179,2.06252956,0.74091810,0.34905058,1.96528912,0.00000000,0.00000000
-0.38523036,-1.90670776,0.22377907,-0.38889605,-0.14272855,0.00000000,0.00000000,0.17527099,2.06282043,0.71548855,0.32139206,1.97461784,0.00000000,0.00000000
-0.34897548,-1.91547847,0.21717060,-0.33979344,-0.15910776,0.00000000,0.00000000,0.17422527,2.06389832,0.68913150,0.29157254,1.98626220,0.00000000,0.00000000
-0.30712891,-1.92234409,0.21471997,-0.29589772,-0.17769605,0.00000000,0.00000000,0.16605562,2.06525469,0.66229177,0.26049238,1.99511743,0.00000000,0.00000000
-0.26308155,-1.92998242,0.21502733,-0.25878936,-0.19401795,0.00000000,0.00000000,0.15259464,2.06763721,0.63532114,0.22960269,2.00208735,0.00000000,0.00000000
-0.21933915,-1.93826306,0.21713598,-0.22773965,-0.21551728,0.00000000,0.00000000,0.13550709,2.07128882,0.60859239,0.19992322,2.00807548,0.00000000,0.00000000
-0.17762268,-1.94766533,0.22035095,-0.20243864,-0.23404938,0.00000000,0.00000000,0.11618990,2.07645369,0.58241254,0.17224127,2.01509929,0.00000000,0.00000000
-0.13925140,-1.95884836,0.22417054,-0.18264139,-0.25023562,0.00000000,0.00000000,0.09603446,2.08294249,0.55706513,0.14704402,2.02269244,0.00000000,0.00000000
-0.10515491,-1.97189295,0.22827688,-0.16777094,-0.27300498,0.00000000,0.00000000,0.07630496,2.09007907,0.53279340,0.12442663,2.03066564,0.00000000,0.00000000
-0.07591479,-1.98631275,0.23248450,-0.15694024,-0.30221415,0.00000000,0.00000000,0.05795790,2.09713984,0.50975776,0.10430243,2.03415227,0.00000000,0.00000000
-0.05171069,-2.00135183,0.23670530,-0.14913715,-0.32881460,0.00000000,0.00000000,0.04154467,2.10360622,0.48802611,0.08654135,2.04042268,0.00000000,0.00000000
-0.03243171,-2.01616025,0.24091807,-0.14335273,-0.34630975,0.00000000,0.00000000,0.02741272,2.10916758,0.46760190,0.07102721,2.04913950,0.00000000,0.00000000
-0.01781069,-2.02977800,0.24515338,-0.13857006,-0.36202753,0.00000000,0.00000000,0.01588716,2.11356568,0.44845006,0.05764227,2.05875278,0.00000000,0.00000000
-0.00740812,-2.04139590,0.24947219,-0.13397442,-0.37325943,0.00000000,0.00000000,0.00707743,2.11681700,0.43050182,0.04630233,2.07504630,0.00000000,0.00000000
-0.00052624,-2.05064106,0.25396010,-0.12914492,-0.38269481,0.00000000,0.00000000,0.00080271,2.11908603,0.41367173,0.03685030,2.09272265,0.00000000,0.00000000
0.00373635,-2.05749798,0.25871652,-0.12400206,-0.39520931,0.00000000,0.00000000,-0.00334503,2.12057281,0.39787319,0.02904933,2.11828780,0.00000000,0.00000000
0.00635543,-2.06232095,0.26383647,-0.11876334,-0.40273595,0.00000000,0.00000000,-0.00592899,2.12155199,0.38302535,0.02265283,2.14392281,0.00000000,0.00000000
0.00815735,-2.06555176,0.26939261,-0.11369070,-0.40857312,0.00000000,0.00000000,-0.00747785,2.12228251,0.36905870,0.01742756,2.16508985,0.00000000,0.00000000
0.00968140,-2.06748581,0.27542478,-0.10889331,-0.42129159,0.00000000,0.00000000,-0.00841899,2.12291956,0.35591501,0.01313804,2.18713689,0.00000000,0.00000000
0.01126368,-2.06838155,0.28194907,-0.10440370,-0.42979094,0.00000000,0.00000000,-0.00911973,2.12354732,0.34354389,0.00955737,2.21563768,0.00000000,0.00000000
0.01306696,-2.06853962,0.28896347,-0.10024555,-0.43591335,0.00000000,0.00000000,-0.00984256,2.12423491,0.33190098,0.00652810,2.23487854,0.00000000,0.00000000
0.01514792,-2.06831813,0.29645553,-0.09647873,-0.44222748,0.00000000,0.00000000,-0.01079786,2.12513280,0.32094622,0.00398800,2.25501800,0.00000000,0.00000000
0.01750064,-2.06809139,0.30440918,-0.09319836,-0.45056581,0.00000000,0.00000000,-0.01213404,2.12641692,0.31064293,0.00192613,2.26907301,0.00000000,0.00000000
0.02007350,-2.06822443,0.31280756,-0.09051894,-0.46105736,0.00000000,0.00000000,-0.01388256,2.12815523,0.30095747,0.00032682,2.27739549,0.00000000,0.00000000
0.02282185,-2.06908393,0.32163590,-0.08858947,-0.46799609,0.00000000,0.00000000,-0.01598969,2.13034797,0.29185870,-0.00082897,2.28331709,0.00000000,0.00000000
0.02570241,-2.07087564,0.33088261,-0.08751411,-0.47358191,0.00000000,0.00000000,-0.01838078,2.13294673,0.28331721,-0.00157955,2.29438186,0.00000000,0.00000000
0.02859855,-2.07356763,0.34053308,-0.08724481,-0.47800010,0.00000000,0.00000000,-0.02095893,2.13581681,0.27530512,-0.00200386,2.30135822,0.00000000,0.00000000
0.03133205,-2.07699370,0.35056949,-0.08762764,-0.48301810,0.00000000,0.00000000,-0.02359467,2.13879919,0.26779595,-0.00218270,2.30469894,0.00000000,0.00000000
0.03372158,-2.08092427,0.36097446,-0.08847056,-0.48070759,0.00000000,0.00000000,-0.02616700,2.14174771,0.26076433,-0.00219084,2.31206393,0.00000000,0.00000000
0.03565396,-2.08510995,0.37173456,-0.08958965,-0.47539887,0.00000000,0.00000000,-0.02861681,2.14453554,0.25418571,-0.00210858,2.31643057,0.00000000,0.00000000
0.03704039,-2.08933425,0.38283738,-0.09082563,-0.46663094,0.00000000,0.00000000,-0.03089268,2.14705491,0.24803613,-0.00201892,2.32094693,0.00000000,0.00000000
0.03779217,-2.09340477,0.39427221,-0.09204384,-0.45752448,0.00000000,0.00000000,-0.03292488,2.14918852,0.24229179,-0.00201612,2.32265377,0.00000000,0.00000000
0.03785228,-2.09716034,0.40603310,-0.09315386,-0.44480756,0.00000000,0.00000000,-0.03464682,2.15084720,0.23692879,-0.00217844,2.32572460,0.00000000,0.00000000
0.03718168,-2.10049939,0.41811639,-0.09412381,-0.43346667,0.00000000,0.00000000,-0.03597559,2.15201283,0.23192289,-0.00253898,2.32817316,0.00000000,0.00000000
0.03570245,-2.10335994,0.43051845,-0.09494554,-0.41765079,0.00000000,0.00000000,-0.03675709,2.15273237,0.22724912,-0.00306620,2.33420181,0.00000000,0.00000000
0.03332943,-2.10572886,0.44323832,-0.09563387,-0.39836469,0.00000000,0.00000000,-0.03676901,2.15309024,0.22288196,-0.00368184,2.33465672,0.00000000,0.00000000
0.03001800,-2.10770869,0.45627606,-0.09626926,-0.37827238,0.00000000,0.00000000,-0.03581009,2.15328741,0.21879557,-0.00426346,2.33319831,0.00000000,0.00000000
0.02569708,-2.10946298,0.46962869,-0.09694225,-0.36215296,0.00000000,0.00000000,-0.03367698,2.15356421,0.21496424,-0.00465947,2.32984114,0.00000000,0.00000000
0.02022035,-2.11106968,0.48328760,-0.09766420,-0.34759194,0.00000000,0.00000000,-0.03018405,2.15409327,0.21136315,-0.00473551,2.31555128,0.00000000,0.00000000
0.01343395,-2.11261296,0.49724042,-0.09841792,-0.32860556,0.00000000,0.00000000,-0.02526399,2.15500498,0.20796928,-0.00440176,2.29624581,0.00000000,0.00000000
0.00528463,-2.11418891,0.51147830,-0.09918898,-0.31317890,0.00000000,0.00000000,-0.01907277,2.15636897,0.20476188,-0.00365250,2.27841282,0.00000000,0.00000000
-0.00420729,-2.11579108,0.52600276,-0.09993250,-0.30453974,0.00000000,0.00000000,-0.01185789,2.15816092,0.20172231,-0.00254136,2.26676130,0.00000000,0.00000000
-0.01502396,-2.11733818,0.54082096,-0.10058552,-0.29075822,0.00000000,0.00000000,-0.00380283,2.16033673,0.19883285,-0.00110415,2.25995612,0.00000000,0.00000000
-0.02711785,-2.11879969,0.55594289,-0.10115261,-0.27562234,0.00000000,0.00000000,0.00501536,2.16287136,0.19607688,0.00066787,2.24640942,0.00000000,0.00000000
-0.04031581,-2.12017584,0.57138520,-0.10172181,-0.25941962,0.00000000,0.00000000,0.01454823,2.16560411,0.19343889,0.00276266,2.23871279,0.00000000,0.00000000
-0.05437456,-2.12133050,0.58717155,-0.10233835,-0.24228609,0.00000000,0.00000000,0.02474571,2.16804981,0.19090486,0.00504930,2.22903252,0.00000000,0.00000000
-0.06900547,-2.12194896,0.60333312,-0.10297988,-0.22408302,0.00000000,0.00000000,0.03550462,2.16956663,0.18846180,0.00726300,2.21771932,0.00000000,0.00000000
-0.08388212,-2.12141919,0.61991483,-0.10351809,-0.20452575,0.00000000,0.00000000,0.04665981,2.16997480,0.18609695,0.00898121,2.20891547,0.00000000,0.00000000
-0.09877530,-2.11841249,0.63698447,-0.10345051,-0.18061627,0.00000000,0.00000000,0.05809953,2.16990733,0.18379705,0.00947283,2.19840050,0.00000000,0.00000000
-0.11358803,-2.11117363,0.65462309,-0.10202944,-0.16562046,0.00000000,0.00000000,0.06974716,2.16836119,0.18154567,0.00779298,2.18567276,0.00000000,0.00000000
-0.12834817,-2.09794831,0.67290592,-0.09847613,-0.15429536,0.00000000,0.00000000,0.08142576,2.16168094,0.17931966,0.00298053,2.16781473,0.00000000,0.00000000
-0.14316069,-2.07724094,0.69189113,-0.09212000,-0.15002564,0.00000000,0.00000000,0.09268507,2.14726257,0.17708926,-0.00592253,2.15054703,0.00000000,0.00000000
-0.15816377,-2.04795218,0.71161568,-0.08252698,-0.15220100,0.00000000,0.00000000,0.10269913,2.12382030,0.17483035,-0.01993614,2.12324739,0.00000000,0.00000000
-0.17338240,-2.00923038,0.73210710,-0.06955006,-0.14912929,0.00000000,0.00000000,0.11013015,2.08967924,0.17255540,-0.04060286,2.10238743,0.00000000,0.00000000
-0.18879153,-1.96015477,0.75338739,-0.05304731,-0.14126401,0.00000000,0.00000000,0.11143943,2.04468608,0.17049329,-0.06871825,2.08473015,0.00000000,0.00000000
-0.20253555,-1.90323079,0.77544147,-0.03521524,-0.13154504,0.00000000,0.00000000,0.10133001,1.99379921,0.16924553,-0.10163620,2.06746745,0.00000000,0.00000000
-0.21092936,-1.84473920,0.79819483,-0.02097070,-0.11379255,0.00000000,0.00000000,0.08148534,1.93691516,0.16930154,-0.13838747,2.05452776,0.00000000,0.00000000
-0.21700870,-1.78146827,0.82158154,-0.00819887,-0.09553061,0.00000000,0.00000000,0.05482925,1.87748587,0.17111455,-0.17594521,2.04178143,0.00000000,0.00000000
-0.22250108,-1.71284521,0.84552002,0.00344288,-0.08279932,0.00000000,0.00000000,0.02426543,1.81769717,0.17498486,-0.21217005,2.02671957,0.00000000,0.00000000
-0.22811204,-1.63961864,0.86992627,0.01347910,-0.06855008,0.00000000,0.00000000,-0.00759766,1.75732017,0.18107608,-0.24640781,2.01870346,0.00000000,0.00000000
-0.23421335,-1.56305087,0.89472967,0.02133441,-0.05029050,0.00000000,0.00000000,-0.03934418,1.69615352,0.18960282,-0.27825680,2.01275039,0.00000000,0.00000000
-0.24088059,-1.48511446,0.91987997,0.02618504,-0.03309991,0.00000000,0.00000000,-0.07031494,1.63459837,0.20087318,-0.30729449,2.01216888,0.00000000,0.00000000
-0.24765237,-1.40812504,0.94534755,0.02675691,-0.01653960,0.00000000,0.00000000,-0.10041326,1.57346845,0.21533453,-0.33312547,2.02140141,0.00000000,0.00000000
-0.25392646,-1.33422387,0.97111946,0.02174260,-0.00199031,0.00000000,0.00000000,-0.12970521,1.51374543,0.23350084,-0.35540605,2.03243327,0.00000000,0.00000000
-0.25941008,-1.26552284,0.99719030,0.01012376,0.00595976,0.00000000,0.00000000,-0.15808108,1.45662999,0.25583768,-0.37384212,2.04339552,0.00000000,0.00000000
-0.26411819,-1.20368659,1.02352715,-0.00850971,0.01764540,0.00000000,0.00000000,-0.18516102,1.40378499,0.28261593,-0.38821396,2.05389977,0.00000000,0.00000000
-0.26863685,-1.14942694,1.05002820,-0.03324364,0.02784485,0.00000000,0.00000000,-0.21003485,1.35722482,0.31348205,-0.39831847,2.06611514,0.00000000,0.00000000
-0.27399856,-1.10310316,1.07648706,-0.06194541,0.04328517,0.00000000,0.00000000,-0.23154783,1.31805146,0.34706381,-0.40422145,2.08054471,0.00000000,0.00000000
-0.28127140,-1.06492269,1.10259402,-0.09186830,0.05993772,0.00000000,0.00000000,-0.24894834,1.28605711,0.38111517,-0.40629217,2.09078622,0.00000000,0.00000000
-0.29085487,-1.03502560,1.12799954,-0.12109610,0.07979500,0.00000000,0.00000000,-0.26254287,1.25980353,0.41347933,-0.40553072,2.09760404,0.00000000,0.00000000
-0.30272311,-1.01352096,1.15236044,-0.14861302,0.09893400,0.00000000,0.00000000,-0.27300748,1.23753929,0.44286439,-0.40293938,2.11039853,0.00000000,0.00000000
-0.31680626,-1.00016284,1.17539930,-0.17375612,0.11869878,0.00000000,0.00000000,-0.28067982,1.21826649,0.46878901,-0.39903200,2.12495661,0.00000000,0.00000000
-0.33298028,-0.99427241,1.19695544,-0.19608501,0.13483821,0.00000000,0.00000000,-0.28567386,1.20147729,0.49137214,-0.39422563,2.14701223,0.00000000,0.00000000
-0.35105678,-0.99465889,1.21699476,-0.21512553,0.15660979,0.00000000,0.00000000,-0.28800774,1.18721664,0.51104945,-0.38888729,2.17123556,0.00000000,0.00000000
-0.37082520,-0.99977648,1.23556256,-0.23028791,0.18261378,0.00000000,0.00000000,-0.28764412,1.17628551,0.52835983,-0.38320094,2.19828343,0.00000000,0.00000000
-0.39185223,-1.00853014,1.25274467,-0.24178182,0.21763860,0.00000000,0.00000000,-0.28466541,1.17000663,0.54378057,-0.37712729,2.21843171,0.00000000,0.00000000
-0.41308346,-1.01988602,1.26879370,-0.25134128,0.25171071,0.00000000,0.00000000,-0.27964768,1.16938603,0.55765128,-0.37078482,2.24863839,0.00000000,0.00000000
-0.43268865,-1.03251743,1.28418553,-0.26227924,0.27932096,0.00000000,0.00000000,-0.27369893,1.17493355,0.57019728,-0.36437643,2.27550626,0.00000000,0.00000000
-0.44902194,-1.04458666,1.29943073,-0.27714169,0.30204228,0.00000000,0.00000000,-0.26788521,1.18586218,0.58151829,-0.35814223,2.29643178,0.00000000,0.00000000
-0.46140325,-1.05451703,1.31483388,-0.29645535,0.31805661,0.00000000,0.00000000,-0.26293707,1.19983637,0.59169549,-0.35266653,2.32251835,0.00000000,0.00000000
-0.47033647,-1.06114304,1.33044970,-0.31846821,0.32523513,0.00000000,0.00000000,-0.25907496,1.21380115,0.60091865,-0.34880927,2.34471536,0.00000000,0.00000000
-0.47689623,-1.06347764,1.34620881,-0.34037668,0.33522514,0.00000000,0.00000000,-0.25627610,1.22543812,0.60936922,-0.34713086,2.37357521,0.00000000,0.00000000
-0.48239523,-1.06182015,1.36180067,-0.35952938,0.34641159,0.00000000,0.00000000,-0.25404462,1.23426366,0.61711055,-0.34730691,2.39793205,0.00000000,0.00000000
-0.48760399,-1.05677700,1.37698078,-0.37443492,0.35101584,0.00000000,0.00000000,-0.25183403,1.24084592,0.62416977,-0.34864536,2.42501855,0.00000000,0.00000000
-0.49273914,-1.04971015,1.39147055,-0.38506964,0.34772989,0.00000000,0.00000000,-0.24922106,1.24599528,0.63051432,-0.35045698,2.45308161,0.00000000,0.00000000
-0.49767664,-1.04187763,1.40505040,-0.39205691,0.34571895,0.00000000,0.00000000,-0.24612021,1.25018454,0.63606513,-0.35243168,2.47484159,0.00000000,0.00000000
-0.50230736,-1.03378272,1.41762710,-0.39560241,0.34307846,0.00000000,0.00000000,-0.24258079,1.25330853,0.64064556,-0.35450286,2.49399281,0.00000000,0.00000000
-0.50665283,-1.02577031,1.42914009,-0.39556232,0.34515151,0.00000000,0.00000000,-0.23848049,1.25486994,0.64401037,-0.35665226,2.50204444,0.00000000,0.00000000
-0.51074725,-1.01895750,1.43936968,-0.39229959,0.35006091,0.00000000,0.00000000,-0.23358461,1.25520432,0.64606500,-0.35854232,2.51221466,0.00000000,0.00000000
-0.51483780,-1.01514399,1.44791555,-0.38622928,0.35453114,0.00000000,0.00000000,-0.22742069,1.25497234,0.64672369,-0.35946506,2.51744676,0.00000000,0.00000000
-0.51918334,-1.01536536,1.45451272,-0.37738353,0.35837802,0.00000000,0.00000000,-0.21979252,1.25397348,0.64582205,-0.35919878,2.51558685,0.00000000,0.00000000
-0.52358872,-1.01968729,1.45921564,-0.36628366,0.35235831,0.00000000,0.00000000,-0.21084088,1.25211537,0.64337450,-0.35772812,2.51664448,0.00000000,0.00000000
-0.52736408,-1.02717626,1.46234071,-0.35411572,0.34862366,0.00000000,0.00000000,-0.20119266,1.24965572,0.63966507,-0.35533056,2.52069306,0.00000000,0.00000000
-0.52976036,-1.03646314,1.46431017,-0.34199357,0.34092709,0.00000000,0.00000000,-0.19148166,1.24678719,0.63507009,-0.35249230,2.52480292,0.00000000,0.00000000
-0.53006935,-1.04643905,1.46547699,-0.33112088,0.33413211,0.00000000,0.00000000,-0.18230090,1.24403036,0.63011616,-0.34973466,2.53035402,0.00000000,0.00000000
-0.52782112,-1.05652404,1.46602082,-0.32247987,0.32460710,0.00000000,0.00000000,-0.17415650,1.24165785,0.62531602,-0.34763828,2.53470111,0.00000000,0.00000000
-0.52294570,-1.06664193,1.46598887,-0.31641400,0.31408054,0.00000000,0.00000000,-0.16720471,1.23990047,0.62106687,-0.34649038,2.52931070,0.00000000,0.00000000
-0.51576662,-1.07694185,1.46538234,-0.31256011,0.30895934,0.00000000,0.00000000,-0.16117778,1.23893738,0.61753035,-0.34616059,2.51521683,0.00000000,0.00000000
-0.50692230,-1.08747959,1.46417117,-0.30989924,0.30081928,0.00000000,0.00000000,-0.15565179,1.23882079,0.61464000,-0.34629965,2.50877666,0.00000000,0.00000000
-0.49717379,-1.09830594,1.46230876,-0.30723050,0.29374379,0.00000000,0.00000000,-0.15018931,1.23960662,0.61216360,-0.34642348,2.50441623,0.00000000,0.00000000
-0.48703054,-1.10927534,1.45978475,-0.30384657,0.29231262,0.00000000,0.00000000,-0.14466186,1.24146235,0.60991395,-0.34615263,2.49967384,0.00000000,0.00000000
-0.47686008,-1.11985910,1.45667636,-0.29921454,0.29074836,0.00000000,0.00000000,-0.13901938,1.24391067,0.60766393,-0.34540114,2.49940658,0.00000000,0.00000000
-0.46675923,-1.12912595,1.45315707,-0.29311717,0.28717917,0.00000000,0.00000000,-0.13326235,1.24651694,0.60534602,-0.34425935,2.49687171,0.00000000,0.00000000
-0.45678365,-1.13647461,1.44933259,-0.28549787,0.28488633,0.00000000,0.00000000,-0.12749435,1.24883306,0.60294795,-0.34302452,2.49151564,0.00000000,0.00000000
-0.44690242,-1.14169252,1.44524801,-0.27656031,0.28066698,0.00000000,0.00000000,-0.12185452,1.25046706,0.60053843,-0.34197488,2.48680425,0.00000000,0.00000000
-0.43700099,-1.14474809,1.44094527,-0.26669878,0.27209672,0.00000000,0.00000000,-0.11645398,1.25123429,0.59819221,-0.34128532,2.47764254,0.00000000,0.00000000
-0.42702225,-1.14606333,1.43639565,-0.25632873,0.26515141,0.00000000,0.00000000,-0.11132023,1.25111806,0.59594566,-0.34109044,2.46464992,0.00000000,0.00000000
-0.41684294,-1.14611125,1.43156087,-0.24597299,0.26142517,0.00000000,0.00000000,-0.10646388,1.25030041,0.59388947,-0.34137791,2.44943976,0.00000000,0.00000000
-0.40652084,-1.14575243,1.42634475,-0.23596187,0.25655681,0.00000000,0.00000000,-0.10165527,1.24906421,0.59202617,-0.34186032,2.42979622,0.00000000,0.00000000
-0.39623475,-1.14583373,1.42065430,-0.22637190,0.24970661,0.00000000,0.00000000,-0.09662817,1.24781895,0.59034687,-0.34222677,2.40786719,0.00000000,0.00000000
-0.38610911,-1.14690232,1.41444135,-0.21726431,0.24566783,0.00000000,0.00000000,-0.09128038,1.24677217,0.58887202,-0.34241262,2.39200091,0.00000000,0.00000000
-0.37613857,-1.14891601,1.40774477,-0.20875520,0.23644617,0.00000000,0.00000000,-0.08566501,1.24605942,0.58765531,-0.34248236,2.37915444,0.00000000,0.00000000
-0.36639327,-1.15167010,1.40061736,-0.20080341,0.22697219,0.00000000,0.00000000,-0.07979234,1.24577200,0.58673751,-0.34242302,2.36378098,0.00000000,0.00000000
-0.35706496,-1.15488732,1.39310718,-0.19314115,0.21830750,0.00000000,0.00000000,-0.07367961,1.24587941,0.58609009,-0.34220386,2.36224198,0.00000000,0.00000000
-0.34823945,-1.15834653,1.38526261,-0.18569338,0.21376358,0.00000000,0.00000000,-0.06744412,1.24631965,0.58569425,-0.34183517,2.36445403,0.00000000,0.00000000
-0.33997649,-1.16180444,1.37713277,-0.17839003,0.22039475,0.00000000,0.00000000,-0.06120933,1.24674511,0.58552784,-0.34141451,2.36050582,0.00000000,0.00000000
-0.33223331,-1.16515231,1.36874449,-0.17119820,0.22078489,0.00000000,0.00000000,-0.05511620,1.24695492,0.58561522,-0.34100142,2.36404467,0.00000000,0.00000000
-0.32490337,-1.16854239,1.36009419,-0.16416793,0.22557014,0.00000000,0.00000000,-0.04930487,1.24691749,0.58601815,-0.34065095,2.36939597,0.00000000,0.00000000
-0.31802791,-1.17237198,1.35116124,-0.15733457,0.23672202,0.00000000,0.00000000,-0.04377884,1.24644661,0.58671194,-0.34044224,2.37805772,0.00000000,0.00000000
-0.31166220,-1.17686093,1.34194005,-0.15070838,0.24825290,0.00000000,0.00000000,-0.03846397,1.24509478,0.58756095,-0.34044719,2.38882709,0.00000000,0.00000000
-0.30563852,-1.18165267,1.33248317,-0.14443706,0.26001313,0.00000000,0.00000000,-0.03326984,1.24205744,0.58832389,-0.34076279,2.40248442,0.00000000,0.00000000
-0.29957986,-1.18632960,1.32285798,-0.13891958,0.26951733,0.00000000,0.00000000,-0.02806640,1.23669076,0.58869010,-0.34132251,2.42351151,0.00000000,0.00000000
-0.29309186,-1.19034255,1.31313157,-0.13441741,0.28027549,0.00000000,0.00000000,-0.02266875,1.22941148,0.58849597,-0.34169126,2.43975210,0.00000000,0.00000000
-0.28602254,-1.19265020,1.30341327,-0.13086265,0.28869754,0.00000000,0.00000000,-0.01695261,1.22137702,0.58779746,-0.34145316,2.46630263,0.00000000,0.00000000
-0.27867892,-1.19259858,1.29377615,-0.12772793,0.28919896,0.00000000,0.00000000,-0.01097633,1.21385598,0.58680749,-0.34050408,2.48676443,0.00000000,0.00000000
-0.27169266,-1.19107485,1.28416252,-0.12438715,0.29012117,0.00000000,0.00000000,-0.00486852,1.20843983,0.58589411,-0.33880919,2.50022149,0.00000000,0.00000000
-0.26544708,-1.18914378,1.27451158,-0.12051480,0.29209203,0.00000000,0.00000000,0.00118649,1.20632041,0.58549434,-0.33643678,2.51895785,0.00000000,0.00000000
-0.26013175,-1.18769753,1.26480424,-0.11627255,0.29868695,0.00000000,0.00000000,0.00713150,1.20818293,0.58591485,-0.33332738,2.52874112,0.00000000,0.00000000
-0.25542489,-1.18762529,1.25505257,-0.11253166,0.30426967,0.00000000,0.00000000,0.01278299,1.21427226,0.58738577,-0.32942295,2.54029536,0.00000000,0.00000000
-0.25074571,-1.18899918,1.24531090,-0.11007027,0.32310888,0.00000000,0.00000000,0.01777734,1.22354019,0.59003669,-0.32513604,2.55453920,0.00000000,0.00000000
-0.24615136,-1.19062412,1.23566866,-0.10837778,0.34049749,0.00000000,0.00000000,0.02188192,1.23335278,0.59366751,-0.32128438,2.57326317,0.00000000,0.00000000
-0.24223073,-1.19130433,1.22619092,-0.10629695,0.35125923,0.00000000,0.00000000,0.02510739,1.24137390,0.59790456,-0.31839857,2.58916807,0.00000000,0.00000000
-0.23926531,-1.19087374,1.21689582,-0.10345841,0.37096384,0.00000000,0.00000000,0.02760271,1.24677861,0.60247403,-0.31631956,2.60844254,0.00000000,0.00000000
-0.23701411,-1.19008243,1.20776653,-0.10043795,0.38413176,0.00000000,0.00000000,0.02955198,1.25008547,0.60731429,-0.31442723,2.63206315,0.00000000,0.00000000
-0.23526849,-1.18965423,1.19878912,-0.09776739,0.39729768,0.00000000,0.00000000,0.03123104,1.25210178,0.61241418,-0.31202540,2.65414476,0.00000000,0.00000000
-0.23414466,-1.18999743,1.18995273,-0.09545514,0.41481066,0.00000000,0.00000000,0.03294607,1.25335932,0.61768883,-0.30858943,2.67511082,0.00000000,0.00000000
-0.23380227,-1.19119728,1.18125176,-0.09315652,0.43491343,0.00000000,0.00000000,0.03471054,1.25377178,0.62309599,-0.30410221,2.69406295,0.00000000,0.00000000
-0.23450714,-1.19327474,1.17267561,-0.09031478,0.45064655,0.00000000,0.00000000,0.03627712,1.25304496,0.62871134,-0.29886806,2.70689225,0.00000000,0.00000000
-0.23598062,-1.19591284,1.16424870,-0.08682347,0.46130952,0.00000000,0.00000000,0.03738705,1.25114799,0.63468468,-0.29309610,2.71705198,0.00000000,0.00000000
-0.23727113,-1.19830978,1.15604746,-0.08331390,0.46537682,0.00000000,0.00000000,0.03788192,1.24828935,0.64113027,-0.28680348,2.73104167,0.00000000,0.00000000
-0.23782845,-1.19999182,1.14812982,-0.08026364,0.47080675,0.00000000,0.00000000,0.03763591,1.24475372,0.64811456,-0.27994496,2.73714757,0.00000000,0.00000000
-0.23744150,-1.20100093,1.14051867,-0.07796530,0.46648028,0.00000000,0.00000000,0.03656808,1.24084187,0.65570235,-0.27247038,2.74372244,0.00000000,0.00000000
-0.23628642,-1.20164871,1.13320267,-0.07632079,0.45612642,0.00000000,0.00000000,0.03442890,1.23681247,0.66400379,-0.26453879,2.74809551,0.00000000,0.00000000
-0.23460129,-1.20206976,1.12617195,-0.07512849,0.44417742,0.00000000,0.00000000,0.03093703,1.23269010,0.67306393,-0.25634739,2.74221110,0.00000000,0.00000000
-0.23252729,-1.20230341,1.11942196,-0.07430790,0.43305114,0.00000000,0.00000000,0.02597239,1.22851908,0.68287140,-0.24788570,2.73945093,0.00000000,0.00000000
-0.23013304,-1.20246601,1.11294377,-0.07376032,0.42582598,0.00000000,0.00000000,0.01957898,1.22432804,0.69337034,-0.23899081,2.73048735,0.00000000,0.00000000
-0.22733679,-1.20263886,1.10673177,-0.07346192,0.41804197,0.00000000,0.00000000,0.01177094,1.22027087,0.70452011,-0.22947410,2.72360349,0.00000000,0.00000000
-0.22418040,-1.20293236,1.10077643,-0.07329916,0.41542292,0.00000000,0.00000000,0.00252617,1.21647561,0.71627951,-0.21915393,2.71426988,0.00000000,0.00000000
-0.22100250,-1.20353425,1.09505546,-0.07296082,0.41375253,0.00000000,0.00000000,-0.00822453,1.21280527,0.72858095,-0.20794716,2.70324993,0.00000000,0.00000000
-0.21817550,-1.20451844,1.08954978,-0.07218037,0.41761258,0.00000000,0.00000000,-0.02067972,1.20897043,0.74137282,-0.19595283,2.69328713,0.00000000,0.00000000
-0.21566030,-1.20581567,1.08426309,-0.07113205,0.42132434,0.00000000,0.00000000,-0.03500136,1.20475316,0.75458473,-0.18320833,2.68539405,0.00000000,0.00000000
-0.21319292,-1.20727050,1.07920969,-0.07004423,0.42690939,0.00000000,0.00000000,-0.05130285,1.20008612,0.76814079,-0.16964899,2.69064260,0.00000000,0.00000000
-0.21056832,-1.20876610,1.07440031,-0.06903529,0.43570098,0.00000000,0.00000000,-0.06968699,1.19489312,0.78197336,-0.15524381,2.69445586,0.00000000,0.00000000
