isaac-sim2real/sage/motion_files/wr75s/amass/0-CMU_31_31_13_poses_idx19.txt
l_joint1,l_joint2,l_joint3,l_joint4,l_joint5,l_joint6,l_joint7,r_joint1,r_joint2,r_joint3,r_joint4,r_joint5,r_joint6,r_joint7
-0.17097251,-0.05443142,0.22567618,0.52070230,0.05296447,0.00000000,0.00000000,-1.29068244,1.33203351,-0.11415339,-1.94670153,0.08722739,0.00000000,0.00000000
-0.16377990,-0.05708238,0.22725643,0.52425605,0.05724853,0.00000000,0.00000000,-1.29306078,1.32872140,-0.11519587,-1.94716656,0.09479399,0.00000000,0.00000000
-0.15128322,-0.05904435,0.22964415,0.53195441,0.06224431,0.00000000,0.00000000,-1.29662764,1.32334352,-0.11580762,-1.94701362,0.10252573,0.00000000,0.00000000
-0.13515615,-0.06236844,0.23237984,0.54155880,0.06335110,0.00000000,0.00000000,-1.30025840,1.31666028,-0.11454596,-1.94563949,0.10987239,0.00000000,0.00000000
-0.11632188,-0.06760053,0.23520175,0.55187565,0.06966081,0.00000000,0.00000000,-1.30360651,1.30901039,-0.11118855,-1.94300127,0.11930969,0.00000000,0.00000000
-0.09522156,-0.07323716,0.23792213,0.56305349,0.07402998,0.00000000,0.00000000,-1.30637980,1.30029142,-0.10560278,-1.93954730,0.13041531,0.00000000,0.00000000
-0.07246496,-0.07887502,0.24034895,0.57469147,0.07964455,0.00000000,0.00000000,-1.30873203,1.29071867,-0.09821953,-1.93541086,0.13937677,0.00000000,0.00000000
-0.04866709,-0.08468439,0.24232766,0.58625132,0.08566549,0.00000000,0.00000000,-1.31119084,1.28068972,-0.08995787,-1.93069172,0.15074033,0.00000000,0.00000000
-0.02448802,-0.09102568,0.24370515,0.59716195,0.09216690,0.00000000,0.00000000,-1.31414926,1.27055955,-0.08152056,-1.92560875,0.15937440,0.00000000,0.00000000
-0.00024449,-0.09807587,0.24445224,0.60713989,0.09853329,0.00000000,0.00000000,-1.31764495,1.26026165,-0.07311217,-1.92053878,0.17059821,0.00000000,0.00000000
0.02374561,-0.10600732,0.24453844,0.61600167,0.10409778,0.00000000,0.00000000,-1.32189560,1.25010514,-0.06513987,-1.91545856,0.17770515,0.00000000,0.00000000
0.04769523,-0.11467480,0.24412747,0.62393570,0.11259606,0.00000000,0.00000000,-1.32683158,1.23973703,-0.05764207,-1.91060114,0.18076614,0.00000000,0.00000000
0.07161504,-0.12392567,0.24330334,0.63108486,0.11957534,0.00000000,0.00000000,-1.33225083,1.22897828,-0.05044048,-1.90584803,0.18647785,0.00000000,0.00000000
0.09529128,-0.13371554,0.24205442,0.63745630,0.12681955,0.00000000,0.00000000,-1.33843112,1.21823943,-0.04395941,-1.90078902,0.19186901,0.00000000,0.00000000
0.11860590,-0.14379992,0.24038783,0.64325458,0.13751319,0.00000000,0.00000000,-1.34551024,1.20761538,-0.03844206,-1.89530861,0.19781615,0.00000000,0.00000000
0.14155433,-0.15408385,0.23836835,0.64861113,0.15014942,0.00000000,0.00000000,-1.35323739,1.19672930,-0.03361455,-1.88952255,0.20329498,0.00000000,0.00000000
0.16387111,-0.16462737,0.23595533,0.65350801,0.16374265,0.00000000,0.00000000,-1.36139619,1.18560529,-0.02923845,-1.88323581,0.21391907,0.00000000,0.00000000
0.18570136,-0.17523341,0.23327118,0.65817851,0.17772844,0.00000000,0.00000000,-1.37000573,1.17423415,-0.02540221,-1.87645376,0.22318323,0.00000000,0.00000000
0.20686324,-0.18571365,0.23029123,0.66278148,0.18726420,0.00000000,0.00000000,-1.37896657,1.16256797,-0.02205582,-1.86918831,0.22456503,0.00000000,0.00000000
0.22749846,-0.19600666,0.22713879,0.66742730,0.19782338,0.00000000,0.00000000,-1.38818014,1.15038610,-0.01913769,-1.86163867,0.22768991,0.00000000,0.00000000
0.24783437,-0.20614450,0.22398482,0.67217171,0.20668048,0.00000000,0.00000000,-1.39762652,1.13763964,-0.01667796,-1.85385811,0.23644204,0.00000000,0.00000000
0.26783693,-0.21605790,0.22086728,0.67708337,0.21491784,0.00000000,0.00000000,-1.40714943,1.12420952,-0.01454118,-1.84600604,0.24243237,0.00000000,0.00000000
0.28785178,-0.22572641,0.21802065,0.68226767,0.22436078,0.00000000,0.00000000,-1.41678584,1.10989535,-0.01281953,-1.83833683,0.24811402,0.00000000,0.00000000
0.30801225,-0.23556957,0.21560612,0.68749571,0.23500167,0.00000000,0.00000000,-1.42636955,1.09461880,-0.01135509,-1.83095360,0.25422388,0.00000000,0.00000000
0.32811531,-0.24566507,0.21359839,0.69272840,0.25043434,0.00000000,0.00000000,-1.43569934,1.07849574,-0.00996511,-1.82376897,0.25954700,0.00000000,0.00000000
0.34814098,-0.25600544,0.21204717,0.69799876,0.26288736,0.00000000,0.00000000,-1.44466507,1.06155288,-0.00857738,-1.81681967,0.25916979,0.00000000,0.00000000
0.36805001,-0.26656279,0.21098833,0.70333862,0.27604246,0.00000000,0.00000000,-1.45329249,1.04382634,-0.00727174,-1.81012440,0.25620788,0.00000000,0.00000000
0.38785845,-0.27765331,0.21049322,0.70856041,0.28845674,0.00000000,0.00000000,-1.46166635,1.02555859,-0.00620038,-1.80348802,0.25281528,0.00000000,0.00000000
0.40722767,-0.28914997,0.21043585,0.71370018,0.30009887,0.00000000,0.00000000,-1.46956754,1.00701487,-0.00516533,-1.79669762,0.24457204,0.00000000,0.00000000
0.42597508,-0.30086485,0.21075752,0.71886104,0.31446755,0.00000000,0.00000000,-1.47686219,0.98822379,-0.00406953,-1.78982687,0.23316588,0.00000000,0.00000000
0.44409531,-0.31286040,0.21149556,0.72401154,0.33044940,0.00000000,0.00000000,-1.48354328,0.96918547,-0.00296394,-1.78298557,0.22084728,0.00000000,0.00000000
0.46140572,-0.32527310,0.21259931,0.72903788,0.34685987,0.00000000,0.00000000,-1.48951375,0.95010442,-0.00180020,-1.77603877,0.21076882,0.00000000,0.00000000
0.47762737,-0.33810455,0.21395880,0.73386246,0.36522308,0.00000000,0.00000000,-1.49479020,0.93122953,-0.00065085,-1.76880872,0.20022178,0.00000000,0.00000000
0.49253911,-0.35119855,0.21548526,0.73850155,0.38627559,0.00000000,0.00000000,-1.49937463,0.91251981,0.00043618,-1.76140928,0.19501655,0.00000000,0.00000000
0.50639391,-0.36477441,0.21736613,0.74281996,0.40427014,0.00000000,0.00000000,-1.50330210,0.89390200,0.00138471,-1.75397813,0.18375935,0.00000000,0.00000000
0.51906139,-0.37867311,0.21955164,0.74686098,0.42599210,0.00000000,0.00000000,-1.50673854,0.87543535,0.00198468,-1.74650729,0.17193176,0.00000000,0.00000000
0.53056306,-0.39284521,0.22207205,0.75061476,0.44159803,0.00000000,0.00000000,-1.50983310,0.85719854,0.00205417,-1.73897338,0.16218619,0.00000000,0.00000000
0.54103738,-0.40751979,0.22503236,0.75389951,0.46085888,0.00000000,0.00000000,-1.51272428,0.83924848,0.00143302,-1.73137629,0.14774786,0.00000000,0.00000000
0.55060005,-0.42271054,0.22851147,0.75665671,0.48449403,0.00000000,0.00000000,-1.51530862,0.82146448,0.00022473,-1.72388422,0.13584012,0.00000000,0.00000000
0.55934519,-0.43826413,0.23256509,0.75893164,0.50588661,0.00000000,0.00000000,-1.51750231,0.80364746,-0.00147974,-1.71673429,0.12285218,0.00000000,0.00000000
0.56743592,-0.45420608,0.23730190,0.76068276,0.52552783,0.00000000,0.00000000,-1.51926446,0.78575665,-0.00362753,-1.70999050,0.10954235,0.00000000,0.00000000
0.57492316,-0.47033504,0.24274588,0.76203364,0.54732597,0.00000000,0.00000000,-1.52048171,0.76783967,-0.00608744,-1.70362425,0.09086441,0.00000000,0.00000000
0.58171654,-0.48652068,0.24883877,0.76302367,0.56983697,0.00000000,0.00000000,-1.52117133,0.74999934,-0.00885152,-1.69755924,0.07515947,0.00000000,0.00000000
0.58779669,-0.50268126,0.25556248,0.76370925,0.58798617,0.00000000,0.00000000,-1.52161276,0.73225355,-0.01216515,-1.69180810,0.06524036,0.00000000,0.00000000
0.59331083,-0.51866013,0.26299536,0.76426303,0.61199659,0.00000000,0.00000000,-1.52184069,0.71460313,-0.01602842,-1.68637848,0.04965832,0.00000000,0.00000000
0.59821129,-0.53462374,0.27110231,0.76443368,0.63428581,0.00000000,0.00000000,-1.52183223,0.69715238,-0.02038301,-1.68117058,0.03223008,0.00000000,0.00000000
0.60226727,-0.55044204,0.27971095,0.76409650,0.65340853,0.00000000,0.00000000,-1.52142119,0.68013954,-0.02503364,-1.67593002,0.01399364,0.00000000,0.00000000
0.60560817,-0.56603777,0.28889221,0.76324803,0.66841799,0.00000000,0.00000000,-1.52041388,0.66344965,-0.02975605,-1.67074311,-0.00475532,0.00000000,0.00000000
0.60827422,-0.58114159,0.29863679,0.76207525,0.68709910,0.00000000,0.00000000,-1.51874614,0.64694268,-0.03444565,-1.66574550,-0.03032826,0.00000000,0.00000000
0.61005896,-0.59547949,0.30876219,0.76069975,0.70510787,0.00000000,0.00000000,-1.51636434,0.63083941,-0.03900464,-1.66073310,-0.05326141,0.00000000,0.00000000
0.61141849,-0.60956097,0.31959319,0.75898880,0.72901005,0.00000000,0.00000000,-1.51345563,0.61490160,-0.04355334,-1.65593338,-0.07115932,0.00000000,0.00000000
0.61257654,-0.62349337,0.33126977,0.75712532,0.75291765,0.00000000,0.00000000,-1.51029015,0.59895432,-0.04828383,-1.65151334,-0.09071561,0.00000000,0.00000000
0.61330509,-0.63712770,0.34359473,0.75514036,0.77915239,0.00000000,0.00000000,-1.50718880,0.58354610,-0.05344486,-1.64697397,-0.11562914,0.00000000,0.00000000
0.61360580,-0.65058303,0.35654634,0.75295931,0.80456293,0.00000000,0.00000000,-1.50383031,0.56893575,-0.05870784,-1.64205956,-0.13638212,0.00000000,0.00000000
0.61345208,-0.66381747,0.37006342,0.75059295,0.82635570,0.00000000,0.00000000,-1.50004053,0.55500758,-0.06388190,-1.63695049,-0.15609969,0.00000000,0.00000000
0.61260921,-0.67663151,0.38391280,0.74797738,0.85012990,0.00000000,0.00000000,-1.49583781,0.54176837,-0.06896199,-1.63175297,-0.17734590,0.00000000,0.00000000
0.61096066,-0.68900663,0.39795342,0.74516046,0.87182194,0.00000000,0.00000000,-1.49144125,0.52955073,-0.07413819,-1.62643278,-0.20032570,0.00000000,0.00000000
0.60847443,-0.70108372,0.41211435,0.74226433,0.89218658,0.00000000,0.00000000,-1.48715711,0.51870435,-0.07968972,-1.62114620,-0.22322825,0.00000000,0.00000000
0.60530996,-0.71322858,0.42648530,0.73938519,0.91112900,0.00000000,0.00000000,-1.48287702,0.50890177,-0.08551148,-1.61660409,-0.23943298,0.00000000,0.00000000
0.60155839,-0.72562164,0.44108278,0.73710006,0.92879307,0.00000000,0.00000000,-1.47835755,0.50018388,-0.09137559,-1.61330032,-0.25304559,0.00000000,0.00000000
0.59704578,-0.73796272,0.45567539,0.73646474,0.94385183,0.00000000,0.00000000,-1.47327626,0.49321869,-0.09698217,-1.61125803,-0.26163033,0.00000000,0.00000000
0.59165806,-0.75021333,0.47008520,0.73798794,0.96048832,0.00000000,0.00000000,-1.46738458,0.48833773,-0.10208137,-1.61070848,-0.27086958,0.00000000,0.00000000
0.58541012,-0.76270080,0.48424008,0.74170738,0.97706133,0.00000000,0.00000000,-1.46062410,0.48578021,-0.10659984,-1.61185002,-0.27861747,0.00000000,0.00000000
0.57805675,-0.77552342,0.49780962,0.74758512,0.99377996,0.00000000,0.00000000,-1.45322776,0.48590323,-0.11075318,-1.61509418,-0.29068086,0.00000000,0.00000000
0.56925768,-0.78869325,0.51034898,0.75539339,1.00471711,0.00000000,0.00000000,-1.44519413,0.48917425,-0.11457463,-1.62070501,-0.29853377,0.00000000,0.00000000
0.55855411,-0.80241311,0.52127087,0.76468325,1.01548266,0.00000000,0.00000000,-1.43643129,0.49658114,-0.11803077,-1.62840629,-0.31290206,0.00000000,0.00000000
0.54589772,-0.81660658,0.53036767,0.77526236,1.02849030,0.00000000,0.00000000,-1.42655885,0.50809443,-0.12077873,-1.63824630,-0.32304952,0.00000000,0.00000000
0.53143442,-0.83119166,0.53761798,0.78703934,1.04129589,0.00000000,0.00000000,-1.41562176,0.52325910,-0.12280273,-1.65059352,-0.33444527,0.00000000,0.00000000
0.51534474,-0.84605259,0.54303730,0.80014974,1.05542958,0.00000000,0.00000000,-1.40373015,0.54166687,-0.12411658,-1.66525519,-0.35025468,0.00000000,0.00000000
0.49794456,-0.86116117,0.54680896,0.81495351,1.06646395,0.00000000,0.00000000,-1.39093864,0.56260198,-0.12466566,-1.68159783,-0.36670199,0.00000000,0.00000000
0.47999176,-0.87700260,0.54963261,0.83137655,1.07318676,0.00000000,0.00000000,-1.37774611,0.58559710,-0.12481137,-1.69851792,-0.38391408,0.00000000,0.00000000
0.46158618,-0.89370233,0.55145609,0.84839052,1.08587587,0.00000000,0.00000000,-1.36466420,0.60971051,-0.12491931,-1.71540916,-0.40350857,0.00000000,0.00000000
0.44211891,-0.90975338,0.55147141,0.86553514,1.09613836,0.00000000,0.00000000,-1.35100734,0.63371736,-0.12425541,-1.73230827,-0.42204320,0.00000000,0.00000000
0.42152488,-0.92412663,0.54954451,0.88287461,1.10623717,0.00000000,0.00000000,-1.33665240,0.65707189,-0.12261487,-1.74942148,-0.43816853,0.00000000,0.00000000
0.40129384,-0.94100267,0.54712546,0.89808577,1.11310637,0.00000000,0.00000000,-1.32181132,0.67929935,-0.12010171,-1.76713872,-0.45433378,0.00000000,0.00000000
0.38152894,-0.96010220,0.54424143,0.91164482,1.11943018,0.00000000,0.00000000,-1.30653214,0.70036328,-0.11669060,-1.78539979,-0.47327799,0.00000000,0.00000000
0.36159441,-0.98056722,0.53984934,0.92238355,1.12257576,0.00000000,0.00000000,-1.29068255,0.72013748,-0.11220329,-1.80424643,-0.49064946,0.00000000,0.00000000
0.34092301,-1.00102365,0.53298312,0.92908448,1.12848341,0.00000000,0.00000000,-1.27421665,0.73856342,-0.10656551,-1.82361448,-0.50994158,0.00000000,0.00000000
0.31941375,-1.02066147,0.52321970,0.93131673,1.13151348,0.00000000,0.00000000,-1.25737178,0.75584620,-0.09998951,-1.84314585,-0.52906150,0.00000000,0.00000000
0.29708949,-1.03919876,0.51023185,0.92883837,1.13882208,0.00000000,0.00000000,-1.24035847,0.77257675,-0.09266651,-1.86204708,-0.54997563,0.00000000,0.00000000
0.27393290,-1.05620706,0.49371022,0.92162478,1.14186275,0.00000000,0.00000000,-1.22341704,0.78894389,-0.08480618,-1.87999189,-0.56468236,0.00000000,0.00000000
0.24989112,-1.07133555,0.47337571,0.90965098,1.14655232,0.00000000,0.00000000,-1.20692182,0.80493897,-0.07674027,-1.89694393,-0.58203566,0.00000000,0.00000000
0.22494414,-1.08444488,0.44906211,0.89280599,1.15048993,0.00000000,0.00000000,-1.19103181,0.82039350,-0.06857999,-1.91310656,-0.59789461,0.00000000,0.00000000
0.19910066,-1.09554553,0.42067072,0.87090373,1.15017724,0.00000000,0.00000000,-1.17569065,0.83527273,-0.06022114,-1.92857456,-0.61449307,0.00000000,0.00000000
0.17227131,-1.10462821,0.38803270,0.84379280,1.14955020,0.00000000,0.00000000,-1.16080701,0.84967256,-0.05152797,-1.94327450,-0.63018900,0.00000000,0.00000000
0.14428869,-1.11153364,0.35092115,0.81144911,1.15080786,0.00000000,0.00000000,-1.14614582,0.86367303,-0.04222309,-1.95715272,-0.64739853,0.00000000,0.00000000
0.11495899,-1.11608708,0.30907860,0.77391696,1.15152955,0.00000000,0.00000000,-1.13148069,0.87744832,-0.03203895,-1.97005534,-0.65860832,0.00000000,0.00000000
0.08408112,-1.11825001,0.26230478,0.73127496,1.14813077,0.00000000,0.00000000,-1.11677635,0.89099348,-0.02090815,-1.98207533,-0.67124933,0.00000000,0.00000000
0.05153050,-1.11802363,0.21052659,0.68368763,1.13865471,0.00000000,0.00000000,-1.10205102,0.90420544,-0.00882352,-1.99340808,-0.68355376,0.00000000,0.00000000
0.01731773,-1.11554372,0.15382655,0.63138652,1.12910604,0.00000000,0.00000000,-1.08768117,0.91718775,0.00384091,-2.00400925,-0.69492900,0.00000000,0.00000000
-0.01842835,-1.11127925,0.09241302,0.57459873,1.12221396,0.00000000,0.00000000,-1.07385576,0.93005651,0.01689456,-2.01380491,-0.70957673,0.00000000,0.00000000
-0.05545379,-1.10579014,0.02658485,0.51360917,1.12085640,0.00000000,0.00000000,-1.06079316,0.94302088,0.03010508,-2.02275872,-0.72735751,0.00000000,0.00000000
-0.09336960,-1.09963834,-0.04328099,0.44876778,1.12150049,0.00000000,0.00000000,-1.04868925,0.95647132,0.04325413,-2.03088903,-0.74046969,0.00000000,0.00000000
-0.13169321,-1.09346938,-0.11674123,0.38049695,1.11827695,0.00000000,0.00000000,-1.03738093,0.97060239,0.05648339,-2.03858757,-0.75255501,0.00000000,0.00000000
-0.16984631,-1.08796871,-0.19328961,0.30928805,1.11392629,0.00000000,0.00000000,-1.02638745,0.98552877,0.07024640,-2.04624867,-0.76241219,0.00000000,0.00000000
-0.20718102,-1.08391547,-0.27234867,0.23565114,1.10639918,0.00000000,0.00000000,-1.01551056,1.00143957,0.08466525,-2.05417776,-0.77252442,0.00000000,0.00000000
-0.24300325,-1.08218586,-0.35327232,0.16005883,1.10393000,0.00000000,0.00000000,-1.00442445,1.01884723,0.09995176,-2.06134462,-0.78229457,0.00000000,0.00000000
-0.27659151,-1.08367777,-0.43535888,0.08293729,1.09810317,0.00000000,0.00000000,-0.99284953,1.03781176,0.11624318,-2.06727052,-0.78767276,0.00000000,0.00000000
-0.30719820,-1.08916664,-0.51787585,0.00474528,1.09039032,0.00000000,0.00000000,-0.98077220,1.05784738,0.13338251,-2.07292032,-0.78901047,0.00000000,0.00000000
-0.33404613,-1.09917724,-0.60008025,-0.07398275,1.08394790,0.00000000,0.00000000,-0.96844167,1.07816195,0.15093501,-2.08006620,-0.78946239,0.00000000,0.00000000
-0.35635754,-1.11408305,-0.68123865,-0.15271115,1.07712889,0.00000000,0.00000000,-0.95567489,1.09876704,0.16889110,-2.08799815,-0.78274012,0.00000000,0.00000000
-0.37341323,-1.13415694,-0.76065034,-0.23096253,1.07387948,0.00000000,0.00000000,-0.94237608,1.11964762,0.18713635,-2.09590530,-0.77603370,0.00000000,0.00000000
-0.38465714,-1.15959978,-0.83767778,-0.30836511,1.06694365,0.00000000,0.00000000,-0.92860490,1.14025307,0.20540467,-2.10371900,-0.76999331,0.00000000,0.00000000
-0.38974887,-1.19044995,-0.91177809,-0.38464338,1.05576730,0.00000000,0.00000000,-0.91427189,1.16000962,0.22361380,-2.11067176,-0.76278007,0.00000000,0.00000000
-0.38858232,-1.22649133,-0.98252583,-0.45954710,1.04338694,0.00000000,0.00000000,-0.89946711,1.17835915,0.24149498,-2.11606812,-0.75603652,0.00000000,0.00000000
-0.38129675,-1.26729214,-1.04961979,-0.53286016,1.02849257,0.00000000,0.00000000,-0.88443923,1.19457340,0.25864118,-2.11972427,-0.74920362,0.00000000,0.00000000
-0.36824253,-1.31221068,-1.11288023,-0.60440063,1.01615489,0.00000000,0.00000000,-0.86927450,1.20783377,0.27488545,-2.12162495,-0.74562067,0.00000000,0.00000000
-0.34997481,-1.36047935,-1.17223203,-0.67405593,1.00376737,0.00000000,0.00000000,-0.85418618,1.21708560,0.28998899,-2.12269258,-0.74397480,0.00000000,0.00000000
-0.32712764,-1.41133869,-1.22764075,-0.74174303,0.98893464,0.00000000,0.00000000,-0.83931971,1.22183216,0.30375999,-2.12300897,-0.73829675,0.00000000,0.00000000
-0.30038375,-1.46398628,-1.27912068,-0.80736715,0.97103280,0.00000000,0.00000000,-0.82472253,1.22184062,0.31613773,-2.12204599,-0.72572631,0.00000000,0.00000000
-0.27043653,-1.51767313,-1.32668912,-0.87086445,0.95603669,0.00000000,0.00000000,-0.81037998,1.21706426,0.32715666,-2.11912036,-0.71314782,0.00000000,0.00000000
-0.23792313,-1.57178879,-1.37030673,-0.93221259,0.93774951,0.00000000,0.00000000,-0.79646236,1.20740843,0.33668891,-2.11405039,-0.69881821,0.00000000,0.00000000
-0.20344160,-1.62583399,-1.40988982,-0.99141574,0.92004693,0.00000000,0.00000000,-0.78324783,1.19286489,0.34451431,-2.10679889,-0.68733555,0.00000000,0.00000000
-0.16752870,-1.67932165,-1.44536757,-1.04841721,0.90320718,0.00000000,0.00000000,-0.77089071,1.17349589,0.35059810,-2.09721994,-0.67478877,0.00000000,0.00000000
-0.13063316,-1.73176706,-1.47669733,-1.10308158,0.88409108,0.00000000,0.00000000,-0.75952923,1.14947784,0.35495183,-2.08514166,-0.66661054,0.00000000,0.00000000
-0.09315767,-1.78273165,-1.50385356,-1.15527058,0.86955595,0.00000000,0.00000000,-0.74918175,1.12092376,0.35777727,-2.07034087,-0.65548432,0.00000000,0.00000000
-0.05548678,-1.83179712,-1.52685237,-1.20485222,0.85506636,0.00000000,0.00000000,-0.73991430,1.08811224,0.35924423,-2.05249667,-0.64468569,0.00000000,0.00000000
-0.01811019,-1.87847865,-1.54583967,-1.25173306,0.84241956,0.00000000,0.00000000,-0.73202771,1.05156064,0.35927144,-2.03146124,-0.63378835,0.00000000,0.00000000
0.01844255,-1.92219985,-1.56112742,-1.29583061,0.83316886,0.00000000,0.00000000,-0.72583365,1.01193833,0.35780048,-2.00722194,-0.62876981,0.00000000,0.00000000
0.05359477,-1.96234715,-1.57319367,-1.33712816,0.82615727,0.00000000,0.00000000,-0.72172201,0.97010905,0.35471982,-1.98010433,-0.62584132,0.00000000,0.00000000
0.08678138,-1.99838865,-1.58257365,-1.37571740,0.82080787,0.00000000,0.00000000,-0.72018021,0.92690480,0.34986770,-1.95090997,-0.61619109,0.00000000,0.00000000
0.11767022,-2.02999043,-1.58974016,-1.41171014,0.81940609,0.00000000,0.00000000,-0.72142088,0.88316631,0.34341693,-1.92004228,-0.60712391,0.00000000,0.00000000
0.14605880,-2.05695748,-1.59516442,-1.44526970,0.81806803,0.00000000,0.00000000,-0.72494996,0.83986747,0.33628821,-1.88690913,-0.59855592,0.00000000,0.00000000
0.17190775,-2.07922840,-1.59930360,-1.47659051,0.81308270,0.00000000,0.00000000,-0.73057687,0.79720336,0.32909647,-1.85218203,-0.59034646,0.00000000,0.00000000
0.19541280,-2.09704709,-1.60233939,-1.50584948,0.81060982,0.00000000,0.00000000,-0.73819387,0.75497293,0.32235071,-1.81701779,-0.58013183,0.00000000,0.00000000
0.21685264,-2.11094928,-1.60410607,-1.53327847,0.80649233,0.00000000,0.00000000,-0.74789274,0.71282834,0.31631669,-1.78328788,-0.56808728,0.00000000,0.00000000
0.23668531,-2.12154341,-1.60437858,-1.55896473,0.80901295,0.00000000,0.00000000,-0.75970244,0.67086989,0.31129235,-1.75204289,-0.56202298,0.00000000,0.00000000
0.25552213,-2.12942910,-1.60298240,-1.58281565,0.81516457,0.00000000,0.00000000,-0.77356881,0.63088560,0.30767921,-1.72033226,-0.55788195,0.00000000,0.00000000
0.27383187,-2.13526464,-1.59970689,-1.60480857,0.82354754,0.00000000,0.00000000,-0.79019684,0.59343517,0.30509794,-1.68855810,-0.55333012,0.00000000,0.00000000
0.29194927,-2.13950706,-1.59457314,-1.62493205,0.83223742,0.00000000,0.00000000,-0.81025118,0.55854744,0.30316088,-1.65820515,-0.54702932,0.00000000,0.00000000
0.31000310,-2.14228129,-1.58797050,-1.64322710,0.84709662,0.00000000,0.00000000,-0.83407396,0.52646899,0.30175292,-1.62979496,-0.54299402,0.00000000,0.00000000
0.32769832,-2.14349723,-1.58046472,-1.66004765,0.86346120,0.00000000,0.00000000,-0.86180997,0.49733642,0.30088907,-1.60313070,-0.53533196,0.00000000,0.00000000
0.34454590,-2.14318705,-1.57228410,-1.67600286,0.87620193,0.00000000,0.00000000,-0.89351594,0.47091934,0.30059242,-1.57768977,-0.53732616,0.00000000,0.00000000
0.36027637,-2.14147520,-1.56340015,-1.69156277,0.88623005,0.00000000,0.00000000,-0.92890280,0.44692865,0.30113307,-1.55254185,-0.53489661,0.00000000,0.00000000
0.37445483,-2.13819790,-1.55429542,-1.70725012,0.89693195,0.00000000,0.00000000,-0.96720564,0.42517510,0.30312368,-1.52660596,-0.52874613,0.00000000,0.00000000
0.38684234,-2.13337278,-1.54516232,-1.72348678,0.90283793,0.00000000,0.00000000,-1.00794172,0.40517607,0.30684933,-1.49961591,-0.52494985,0.00000000,0.00000000
0.39744672,-2.12706804,-1.53622890,-1.74044013,0.91271824,0.00000000,0.00000000,-1.05066323,0.38672352,0.31253046,-1.47137427,-0.52128166,0.00000000,0.00000000
0.40680715,-2.11945033,-1.52772915,-1.75768650,0.92003268,0.00000000,0.00000000,-1.09531903,0.36980513,0.32004553,-1.44210911,-0.51822609,0.00000000,0.00000000
0.41543955,-2.11070037,-1.51994753,-1.77478766,0.92685372,0.00000000,0.00000000,-1.14149582,0.35411787,0.32953548,-1.41243088,-0.51316816,0.00000000,0.00000000
0.42336133,-2.10097146,-1.51352334,-1.79174042,0.93770736,0.00000000,0.00000000,-1.18950057,0.33937228,0.34056431,-1.38342512,-0.50712144,0.00000000,0.00000000
0.43056545,-2.09040427,-1.50921428,-1.80847955,0.94809836,0.00000000,0.00000000,-1.23962951,0.32571349,0.35273767,-1.35552490,-0.50525165,0.00000000,0.00000000
0.43683219,-2.07917190,-1.50757647,-1.82514882,0.95902020,0.00000000,0.00000000,-1.29201460,0.31317937,0.36575618,-1.32877982,-0.50713181,0.00000000,0.00000000
0.44217482,-2.06746602,-1.50877547,-1.84161770,0.96792746,0.00000000,0.00000000,-1.34685862,0.30158114,0.37924156,-1.30331516,-0.50571406,0.00000000,0.00000000
0.44666862,-2.05544662,-1.51256466,-1.85768402,0.97963262,0.00000000,0.00000000,-1.40377951,0.29057750,0.39324749,-1.27899802,-0.50270963,0.00000000,0.00000000
0.45040801,-2.04315138,-1.51844013,-1.87310040,0.99423635,0.00000000,0.00000000,-1.46241665,0.27984464,0.40781927,-1.25548768,-0.50170165,0.00000000,0.00000000
0.45336524,-2.03046942,-1.52584887,-1.88768256,1.01279712,0.00000000,0.00000000,-1.52249396,0.26919460,0.42293629,-1.23217010,-0.50180173,0.00000000,0.00000000
0.45536718,-2.01716042,-1.53439796,-1.90131354,1.03150439,0.00000000,0.00000000,-1.58265400,0.25804228,0.43923041,-1.20889401,-0.50092381,0.00000000,0.00000000
0.45606181,-2.00300121,-1.54383290,-1.91400468,1.04744303,0.00000000,0.00000000,-1.64186192,0.24603796,0.45707273,-1.18587160,-0.49742103,0.00000000,0.00000000
0.45493895,-1.98776555,-1.55407405,-1.92593050,1.06667626,0.00000000,0.00000000,-1.70003796,0.23324779,0.47619149,-1.16312110,-0.49119449,0.00000000,0.00000000
0.45160732,-1.97131944,-1.56495857,-1.93722296,1.08524454,0.00000000,0.00000000,-1.75659835,0.21983060,0.49661353,-1.14076304,-0.48366702,0.00000000,0.00000000
0.44578218,-1.95353687,-1.57635570,-1.94780600,1.10157204,0.00000000,0.00000000,-1.81108356,0.20585772,0.51821709,-1.11895168,-0.48013002,0.00000000,0.00000000
0.43721586,-1.93434608,-1.58832490,-1.95744264,1.11042130,0.00000000,0.00000000,-1.86333299,0.19160998,0.54067165,-1.09750009,-0.47635311,0.00000000,0.00000000
0.42567945,-1.91377008,-1.60081041,-1.96596003,1.11966062,0.00000000,0.00000000,-1.91342831,0.17728186,0.56347352,-1.07611239,-0.47964963,0.00000000,0.00000000
0.41098240,-1.89190030,-1.61360586,-1.97325206,1.12317801,0.00000000,0.00000000,-1.96158433,0.16280313,0.58605319,-1.05461621,-0.48443803,0.00000000,0.00000000
0.39304978,-1.86883223,-1.62643218,-1.97914922,1.12580121,0.00000000,0.00000000,-2.00785017,0.14796032,0.60800153,-1.03298151,-0.48704436,0.00000000,0.00000000
0.37198344,-1.84466398,-1.63896656,-1.98339057,1.12772965,0.00000000,0.00000000,-2.05210924,0.13259193,0.62909299,-1.01116621,-0.48813742,0.00000000,0.00000000
0.34803507,-1.81952250,-1.65081644,-1.98570204,1.12754059,0.00000000,0.00000000,-2.09409142,0.11650945,0.64925414,-0.98924142,-0.49423701,0.00000000,0.00000000
0.32156822,-1.79361677,-1.66155541,-1.98578465,1.12384367,0.00000000,0.00000000,-2.13350081,0.09953150,0.66847688,-0.96730649,-0.50445521,0.00000000,0.00000000
0.29304320,-1.76736462,-1.67071509,-1.98329377,1.11574340,0.00000000,0.00000000,-2.17014956,0.08151603,0.68673593,-0.94541216,-0.50734824,0.00000000,0.00000000
0.26290944,-1.74127948,-1.67784238,-1.97798097,1.10721648,0.00000000,0.00000000,-2.20376468,0.06238652,0.70408624,-0.92360842,-0.50642550,0.00000000,0.00000000
0.23159692,-1.71606302,-1.68252778,-1.96978724,1.09090257,0.00000000,0.00000000,-2.23425078,0.04205161,0.72051364,-0.90190017,-0.51250899,0.00000000,0.00000000
0.19948278,-1.69272387,-1.68443418,-1.95886779,1.07791722,0.00000000,0.00000000,-2.26172256,0.02046250,0.73593313,-0.88018727,-0.52300245,0.00000000,0.00000000
0.16692220,-1.67211330,-1.68334055,-1.94547307,1.05991852,0.00000000,0.00000000,-2.28630471,-0.00232167,0.75030088,-0.85828429,-0.53436089,0.00000000,0.00000000
0.13428023,-1.65481210,-1.67916369,-1.92988408,1.03926158,0.00000000,0.00000000,-2.30820918,-0.02604658,0.76360267,-0.83581609,-0.55277818,0.00000000,0.00000000
0.10190265,-1.64113033,-1.67191172,-1.91243136,1.01979887,0.00000000,0.00000000,-2.32775378,-0.05029801,0.77583557,-0.81228095,-0.56509990,0.00000000,0.00000000
0.07001945,-1.63107347,-1.66167045,-1.89343178,1.00083482,0.00000000,0.00000000,-2.34528184,-0.07473835,0.78698391,-0.78724694,-0.58128029,0.00000000,0.00000000
0.03882508,-1.62427652,-1.64850593,-1.87311482,0.98312718,0.00000000,0.00000000,-2.36103153,-0.09916500,0.79705989,-0.76041025,-0.60437894,0.00000000,0.00000000
0.00847804,-1.62016714,-1.63251388,-1.85155666,0.97184831,0.00000000,0.00000000,-2.37509489,-0.12335610,0.80616301,-0.73146510,-0.62452090,0.00000000,0.00000000
-0.02094960,-1.61797142,-1.61385512,-1.82886732,0.96345472,0.00000000,0.00000000,-2.38749719,-0.14696990,0.81447041,-0.70008624,-0.64147556,0.00000000,0.00000000
-0.04946803,-1.61692774,-1.59268641,-1.80513108,0.95716393,0.00000000,0.00000000,-2.39826751,-0.16983439,0.82213873,-0.66608047,-0.65703982,0.00000000,0.00000000
-0.07714953,-1.61639082,-1.56915534,-1.78033364,0.95603573,0.00000000,0.00000000,-2.40738082,-0.19199036,0.82931513,-0.62941724,-0.66716236,0.00000000,0.00000000
-0.10400574,-1.61584330,-1.54333651,-1.75435901,0.95373696,0.00000000,0.00000000,-2.41482544,-0.21355970,0.83615047,-0.59010929,-0.67324603,0.00000000,0.00000000
-0.12993476,-1.61496973,-1.51522040,-1.72711718,0.95393252,0.00000000,0.00000000,-2.42084432,-0.23465826,0.84276122,-0.54804194,-0.68271923,0.00000000,0.00000000
-0.15486017,-1.61390686,-1.48475337,-1.69876516,0.95500284,0.00000000,0.00000000,-2.42575979,-0.25557718,0.84925020,-0.50311643,-0.69092053,0.00000000,0.00000000
-0.17872949,-1.61305463,-1.45194519,-1.66957748,0.95980161,0.00000000,0.00000000,-2.42975426,-0.27554604,0.85597891,-0.45501092,-0.70388317,0.00000000,0.00000000
-0.20154028,-1.61267102,-1.41713274,-1.63971782,0.96596974,0.00000000,0.00000000,-2.43355393,-0.29293910,0.86338621,-0.40392727,-0.71580911,0.00000000,0.00000000
-0.22351438,-1.61251962,-1.38119853,-1.60913122,0.96939862,0.00000000,0.00000000,-2.43858981,-0.31197190,0.87072498,-0.35351670,-0.72827524,0.00000000,0.00000000
-0.24510807,-1.61240339,-1.34503973,-1.57796109,0.96642816,0.00000000,0.00000000,-2.44332623,-0.33364126,0.87839335,-0.30546901,-0.73991358,0.00000000,0.00000000
-0.26663905,-1.61231840,-1.30903292,-1.54655612,0.96612483,0.00000000,0.00000000,-2.44705009,-0.35611558,0.88709199,-0.25875530,-0.75580084,0.00000000,0.00000000
-0.28829581,-1.61222637,-1.27328241,-1.51524174,0.96166933,0.00000000,0.00000000,-2.44953346,-0.37852272,0.89721048,-0.21246924,-0.77225935,0.00000000,0.00000000
-0.31020531,-1.61209822,-1.23781037,-1.48427355,0.95575416,0.00000000,0.00000000,-2.45023584,-0.40054271,0.90903729,-0.16612081,-0.78615063,0.00000000,0.00000000
-0.33208576,-1.61202431,-1.20237243,-1.45392072,0.94324541,0.00000000,0.00000000,-2.44853997,-0.42152894,0.92283058,-0.11914813,-0.80668008,0.00000000,0.00000000
-0.35356346,-1.61220455,-1.16661644,-1.42535901,0.93301243,0.00000000,0.00000000,-2.44396853,-0.44018471,0.93880767,-0.07069269,-0.82407147,0.00000000,0.00000000
-0.37458223,-1.61289001,-1.13036692,-1.40053535,0.92971951,0.00000000,0.00000000,-2.43593287,-0.45493406,0.95710891,-0.01985804,-0.84452224,0.00000000,0.00000000
-0.39537752,-1.61425030,-1.09364808,-1.38080966,0.93002814,0.00000000,0.00000000,-2.42344522,-0.46420723,0.97776270,0.03402847,-0.86047351,0.00000000,0.00000000
-0.41604072,-1.61620796,-1.05657125,-1.36623430,0.93164504,0.00000000,0.00000000,-2.40501165,-0.46631581,1.00064886,0.09137678,-0.86945611,0.00000000,0.00000000
-0.43655550,-1.61837065,-1.01940584,-1.35582840,0.93278021,0.00000000,0.00000000,-2.37870812,-0.45922786,1.02543962,0.15239520,-0.88025641,0.00000000,0.00000000
-0.45666081,-1.62030828,-0.98217994,-1.34874296,0.93418938,0.00000000,0.00000000,-2.34215713,-0.44048148,1.05152071,0.21700437,-0.89268732,0.00000000,0.00000000
-0.47618777,-1.62168050,-0.94484830,-1.34454703,0.93364602,0.00000000,0.00000000,-2.29278517,-0.40715712,1.07792640,0.28484234,-0.90841842,0.00000000,0.00000000
-0.49517697,-1.62232649,-0.90740997,-1.34318352,0.93517137,0.00000000,0.00000000,-2.22822237,-0.35635597,1.10336173,0.35520193,-0.92125344,0.00000000,0.00000000
-0.51372343,-1.62239826,-0.86975396,-1.34522676,0.93912989,0.00000000,0.00000000,-2.14657712,-0.28571442,1.12629819,0.42691606,-0.94094408,0.00000000,0.00000000
-0.53174901,-1.62217820,-0.83170700,-1.35124183,0.94143295,0.00000000,0.00000000,-2.04679656,-0.19403291,1.14519083,0.49836433,-0.96400404,0.00000000,0.00000000
-0.54942030,-1.62176156,-0.79353786,-1.36108863,0.94504863,0.00000000,0.00000000,-1.92893505,-0.08149522,1.15866876,0.56757224,-0.98712403,0.00000000,0.00000000
-0.56717515,-1.62126899,-0.75588638,-1.37459755,0.94301784,0.00000000,0.00000000,-1.79431689,0.05029205,1.16569936,0.63236541,-1.01394141,0.00000000,0.00000000
-0.58484352,-1.62066472,-0.71919310,-1.39135253,0.94441587,0.00000000,0.00000000,-1.64551187,0.19833058,1.16571438,0.69048804,-1.03816938,0.00000000,0.00000000
-0.60200155,-1.61962819,-0.68391216,-1.41072166,0.94548655,0.00000000,0.00000000,-1.48620248,0.35843778,1.15867007,0.73975074,-1.05643260,0.00000000,0.00000000
-0.61849838,-1.61783922,-0.65069532,-1.43258834,0.94169259,0.00000000,0.00000000,-1.32094812,0.52556634,1.14503944,0.77821219,-1.07849479,0.00000000,0.00000000
-0.63424498,-1.61459398,-0.62028462,-1.45653844,0.93960190,0.00000000,0.00000000,-1.15481508,0.69419008,1.12573659,0.80435354,-1.09594858,0.00000000,0.00000000
-0.64914680,-1.60900247,-0.59333318,-1.48202789,0.93518060,0.00000000,0.00000000,-0.99292368,0.85877293,1.10197330,0.81725067,-1.11544013,0.00000000,0.00000000
-0.66330886,-1.60031950,-0.57043248,-1.50872254,0.93109238,0.00000000,0.00000000,-0.83995801,1.01426554,1.07507885,0.81670511,-1.13517857,0.00000000,0.00000000
-0.67689824,-1.58810449,-0.55194092,-1.53643262,0.92850119,0.00000000,0.00000000,-0.69970375,1.15656209,1.04632092,0.80331874,-1.15726972,0.00000000,0.00000000
-0.69006175,-1.57205951,-0.53802490,-1.56441915,0.92218226,0.00000000,0.00000000,-0.57472175,1.28292227,1.01673841,0.77849376,-1.18157268,0.00000000,0.00000000
-0.70279586,-1.55257833,-0.52840412,-1.59240413,0.91083193,0.00000000,0.00000000,-0.46618059,1.39217257,0.98706162,0.74431360,-1.20395374,0.00000000,0.00000000
-0.71474087,-1.53074384,-0.52220672,-1.62065387,0.89913791,0.00000000,0.00000000,-0.37386340,1.48458934,0.95774484,0.70332116,-1.22742021,0.00000000,0.00000000
-0.72571176,-1.50730622,-0.51876742,-1.64813221,0.88737416,0.00000000,0.00000000,-0.29646793,1.56154048,0.92902929,0.65816861,-1.24265289,0.00000000,0.00000000
-0.73556715,-1.48326790,-0.51734525,-1.67450738,0.87237984,0.00000000,0.00000000,-0.23211724,1.62499964,0.90101147,0.61123925,-1.25835764,0.00000000,0.00000000
-0.74408871,-1.45997012,-0.51703304,-1.70069182,0.85046363,0.00000000,0.00000000,-0.17878310,1.67710245,0.87371773,0.56446600,-1.27402496,0.00000000,0.00000000
-0.75173742,-1.43821025,-0.51772809,-1.72630167,0.82294178,0.00000000,0.00000000,-0.13462803,1.71980917,0.84714919,0.51924819,-1.29392350,0.00000000,0.00000000
-0.75887257,-1.41853762,-0.51937824,-1.75102699,0.79416841,0.00000000,0.00000000,-0.09806614,1.75482357,0.82130682,0.47656330,-1.31772101,0.00000000,0.00000000
-0.76578760,-1.40131831,-0.52197248,-1.77461958,0.76825511,0.00000000,0.00000000,-0.06780101,1.78356016,0.79619288,0.43705401,-1.34009385,0.00000000,0.00000000
-0.77257729,-1.38667822,-0.52542758,-1.79649556,0.73963827,0.00000000,0.00000000,-0.04284199,1.80718601,0.77179891,0.40110478,-1.35909283,0.00000000,0.00000000
-0.77904582,-1.37471986,-0.52943969,-1.81619322,0.71608979,0.00000000,0.00000000,-0.02233350,1.82665563,0.74813926,0.36898410,-1.37948763,0.00000000,0.00000000
-0.78493077,-1.36553741,-0.53365636,-1.83341086,0.69330633,0.00000000,0.00000000,-0.00557658,1.84267616,0.72524881,0.34084043,-1.40313804,0.00000000,0.00000000
-0.79007667,-1.35907388,-0.53783882,-1.84764338,0.67649710,0.00000000,0.00000000,0.00800009,1.85576260,0.70316821,0.31674814,-1.42097759,0.00000000,0.00000000
-0.79414284,-1.35517037,-0.54154038,-1.85846066,0.66256446,0.00000000,0.00000000,0.01888196,1.86628234,0.68193597,0.29675680,-1.44101882,0.00000000,0.00000000
-0.79689407,-1.35386837,-0.54429811,-1.86611748,0.64874661,0.00000000,0.00000000,0.02735304,1.87436342,0.66157550,0.28079489,-1.45543480,0.00000000,0.00000000
-0.79816800,-1.35518789,-0.54569775,-1.87096107,0.63311613,0.00000000,0.00000000,0.03356866,1.88000119,0.64209735,0.26873800,-1.47629237,0.00000000,0.00000000
-0.79833543,-1.35896647,-0.54587972,-1.87303853,0.62150091,0.00000000,0.00000000,0.03748696,1.88305449,0.62349546,0.26039019,-1.50274456,0.00000000,0.00000000
-0.79802036,-1.36521280,-0.54520512,-1.87284565,0.60877860,0.00000000,0.00000000,0.03886412,1.88324428,0.60574955,0.25547665,-1.52904856,0.00000000,0.00000000
-0.79771447,-1.37416983,-0.54390472,-1.87132585,0.59435374,0.00000000,0.00000000,0.03734475,1.88027167,0.58882618,0.25373113,-1.55492902,0.00000000,0.00000000
-0.79788065,-1.38602948,-0.54225886,-1.86919451,0.58392298,0.00000000,0.00000000,0.03243136,1.87379003,0.57267606,0.25488397,-1.58245635,0.00000000,0.00000000
-0.79891765,-1.40068197,-0.54062802,-1.86648977,0.57353181,0.00000000,0.00000000,0.02338406,1.86338699,0.55721897,0.25862083,-1.61245918,0.00000000,0.00000000
-0.80042642,-1.41816354,-0.53866285,-1.86360848,0.56176203,0.00000000,0.00000000,0.00920598,1.84856153,0.54234433,0.26455677,-1.63663793,0.00000000,0.00000000
-0.80197757,-1.43829179,-0.53610045,-1.86066985,0.54929250,0.00000000,0.00000000,-0.01139996,1.82852471,0.52791226,0.27213070,-1.66069758,0.00000000,0.00000000
-0.80302691,-1.46061754,-0.53266966,-1.85783148,0.54139477,0.00000000,0.00000000,-0.04014478,1.80210173,0.51374096,0.28050649,-1.67983973,0.00000000,0.00000000
-0.80302924,-1.48410988,-0.52831787,-1.85468304,0.53724712,0.00000000,0.00000000,-0.07928972,1.76761091,0.49958798,0.28845084,-1.68982899,0.00000000,0.00000000
-0.80138534,-1.50725365,-0.52311486,-1.85068023,0.53113586,0.00000000,0.00000000,-0.13167286,1.72273719,0.48514128,0.29423198,-1.70333266,0.00000000,0.00000000
-0.79771113,-1.52842712,-0.51736182,-1.84563899,0.52640432,0.00000000,0.00000000,-0.20074229,1.66442990,0.47000855,0.29549614,-1.71783888,0.00000000,0.00000000
-0.79205161,-1.54629385,-0.51166636,-1.83984053,0.52890569,0.00000000,0.00000000,-0.29010844,1.58929420,0.45375168,0.28951064,-1.73434651,0.00000000,0.00000000
-0.78541267,-1.55998766,-0.50738811,-1.83441591,0.52930343,0.00000000,0.00000000,-0.40260637,1.49436724,0.43599400,0.27374566,-1.75195765,0.00000000,0.00000000
-0.77936643,-1.56843364,-0.50649911,-1.83023155,0.53162557,0.00000000,0.00000000,-0.53944010,1.37804151,0.41652134,0.24652235,-1.76271403,0.00000000,0.00000000
-0.77485406,-1.57082665,-0.51026112,-1.82692146,0.53268528,0.00000000,0.00000000,-0.69966722,1.24064064,0.39535135,0.20738745,-1.77576602,0.00000000,0.00000000
-0.77196997,-1.56748641,-0.51867515,-1.82476068,0.53297603,0.00000000,0.00000000,-0.88014549,1.08454096,0.37275383,0.15713327,-1.78990304,0.00000000,0.00000000
-0.77018166,-1.55969167,-0.53077286,-1.82445765,0.53819138,0.00000000,0.00000000,-1.07575893,0.91398180,0.34925014,0.09763730,-1.80603838,0.00000000,0.00000000
-0.76794845,-1.54853427,-0.54470736,-1.82537353,0.54220915,0.00000000,0.00000000,-1.27983773,0.73469174,0.32560351,0.03163266,-1.82162583,0.00000000,0.00000000
-0.76437086,-1.53488028,-0.55934167,-1.82664967,0.54561198,0.00000000,0.00000000,-1.48480153,0.55328077,0.30278492,-0.03764260,-1.83867133,0.00000000,0.00000000
-0.75928885,-1.51984453,-0.57412559,-1.82792914,0.55290037,0.00000000,0.00000000,-1.68295193,0.37646803,0.28190511,-0.10687566,-1.85845184,0.00000000,0.00000000
-0.75262803,-1.50456250,-0.58857518,-1.82900023,0.56494272,0.00000000,0.00000000,-1.86725187,0.21037085,0.26412341,-0.17307748,-1.87803125,0.00000000,0.00000000
-0.74416560,-1.48987460,-0.60222226,-1.82902348,0.58099544,0.00000000,0.00000000,-2.03192568,0.05993560,0.25055233,-0.23389702,-1.89910328,0.00000000,0.00000000
-0.73365450,-1.47636724,-0.61470628,-1.82711852,0.60241348,0.00000000,0.00000000,-2.17279744,-0.07137427,0.24217197,-0.28779703,-1.92110682,0.00000000,0.00000000
-0.72095126,-1.46401513,-0.62601477,-1.82201445,0.62488729,0.00000000,0.00000000,-2.28741145,-0.18167892,0.23975104,-0.33411023,-1.93798709,0.00000000,0.00000000
-0.70611888,-1.45263183,-0.63643754,-1.81290007,0.64434636,0.00000000,0.00000000,-2.37510777,-0.27064350,0.24374588,-0.37302151,-1.95538449,0.00000000,0.00000000
-0.68933135,-1.44196844,-0.64641321,-1.79923022,0.66180503,0.00000000,0.00000000,-2.43714666,-0.33947781,0.25415584,-0.40553787,-1.97098184,0.00000000,0.00000000
-0.67093992,-1.43211746,-0.65642881,-1.78098547,0.68375015,0.00000000,0.00000000,-2.47674918,-0.39092606,0.27038103,-0.43341497,-1.99087870,0.00000000,0.00000000
-0.65138626,-1.42361081,-0.66688764,-1.75864935,0.70156646,0.00000000,0.00000000,-2.49864316,-0.42885739,0.29124552,-0.45881602,-2.01241326,0.00000000,0.00000000
-0.63090616,-1.41701579,-0.67796594,-1.73263633,0.71268708,0.00000000,0.00000000,-2.50784087,-0.45699760,0.31533203,-0.48355266,-2.03240013,0.00000000,0.00000000
-0.60929394,-1.41280925,-0.68946278,-1.70314384,0.72114658,0.00000000,0.00000000,-2.50860286,-0.47811186,0.34132487,-0.50874180,-2.05565286,0.00000000,0.00000000
-0.58646351,-1.41146445,-0.70127779,-1.67041194,0.72777921,0.00000000,0.00000000,-2.50419664,-0.49418575,0.36811653,-0.53504527,-2.07971692,0.00000000,0.00000000
-0.56222153,-1.41335785,-0.71314430,-1.63466024,0.73654437,0.00000000,0.00000000,-2.49682474,-0.50667703,0.39485499,-0.56291294,-2.09837127,0.00000000,0.00000000
-0.53618842,-1.41865075,-0.72455281,-1.59602153,0.74200767,0.00000000,0.00000000,-2.48803425,-0.51676780,0.42083538,-0.59272224,-2.11241961,0.00000000,0.00000000
-0.50837862,-1.42725980,-0.73516619,-1.55487692,0.74472219,0.00000000,0.00000000,-2.47903490,-0.52569211,0.44538435,-0.62494856,-2.12927318,0.00000000,0.00000000
-0.47915167,-1.43840599,-0.74465662,-1.51192188,0.74990577,0.00000000,0.00000000,-2.47066164,-0.53446376,0.46793598,-0.66000414,-2.14866066,0.00000000,0.00000000
-0.44907150,-1.45049977,-0.75258696,-1.46766353,0.75316519,0.00000000,0.00000000,-2.46317434,-0.54212302,0.48843268,-0.69693708,-2.16674113,0.00000000,0.00000000
-0.41917431,-1.46387076,-0.75831741,-1.42238009,0.75949883,0.00000000,0.00000000,-2.45629358,-0.54780781,0.50702715,-0.73395872,-2.18367052,0.00000000,0.00000000
-0.39049804,-1.47978449,-0.76125139,-1.37648308,0.76588535,0.00000000,0.00000000,-2.44967556,-0.55271208,0.52356803,-0.76973259,-2.19988918,0.00000000,0.00000000
-0.36390430,-1.49898922,-0.76145238,-1.33024240,0.77658874,0.00000000,0.00000000,-2.44303274,-0.55786729,0.53795373,-0.80321032,-2.21242356,0.00000000,0.00000000
-0.33987990,-1.52183282,-0.75915611,-1.28390884,0.78763884,0.00000000,0.00000000,-2.43613482,-0.56351608,0.55026585,-0.83354610,-2.22950006,0.00000000,0.00000000
-0.31850588,-1.54859126,-0.75436318,-1.23771286,0.79975766,0.00000000,0.00000000,-2.42893934,-0.56996351,0.56050718,-0.86042124,-2.24730062,0.00000000,0.00000000
-0.29988408,-1.57963264,-0.74699825,-1.19193995,0.81308293,0.00000000,0.00000000,-2.42192364,-0.57811970,0.56831002,-0.88387835,-2.26331162,0.00000000,0.00000000
-0.28362125,-1.61462510,-0.73699701,-1.14606512,0.82209104,0.00000000,0.00000000,-2.41439152,-0.58804560,0.57409286,-0.90387410,-2.27662230,0.00000000,0.00000000
-0.26945469,-1.65297174,-0.72451282,-1.09928572,0.83078688,0.00000000,0.00000000,-2.40628242,-0.59989363,0.57794881,-0.92059970,-2.28671479,0.00000000,0.00000000
-0.25771499,-1.69395304,-0.71011531,-1.05084205,0.83608985,0.00000000,0.00000000,-2.39863276,-0.61435509,0.57929754,-0.93438178,-2.29981446,0.00000000,0.00000000
-0.24918668,-1.73527277,-0.69519365,-0.99921072,0.84387875,0.00000000,0.00000000,-2.39214683,-0.63151664,0.57792830,-0.94534731,-2.31384850,0.00000000,0.00000000
-0.24459055,-1.77448440,-0.68115896,-0.94363010,0.84877855,0.00000000,0.00000000,-2.38746738,-0.65065724,0.57395679,-0.95388430,-2.32610822,0.00000000,0.00000000
-0.24405216,-1.81271887,-0.66798270,-0.88799942,0.84633374,0.00000000,0.00000000,-2.38474679,-0.67019433,0.56807244,-0.96085066,-2.33509254,0.00000000,0.00000000
-0.24738519,-1.84895217,-0.65612847,-0.83666849,0.84291679,0.00000000,0.00000000,-2.38388133,-0.68834770,0.56117153,-0.96714574,-2.33910775,0.00000000,0.00000000
-0.25386092,-1.87969565,-0.64640719,-0.78919411,0.84159070,0.00000000,0.00000000,-2.38517761,-0.70421094,0.55363274,-0.97300392,-2.35431314,0.00000000,0.00000000
-0.26286322,-1.90375686,-0.63886905,-0.74446309,0.84492946,0.00000000,0.00000000,-2.38870811,-0.71753013,0.54570991,-0.97842366,-2.36882067,0.00000000,0.00000000
-0.27403778,-1.92199659,-0.63306516,-0.70250237,0.84392333,0.00000000,0.00000000,-2.39464569,-0.72799176,0.53754866,-0.98328835,-2.38401771,0.00000000,0.00000000
-0.28683698,-1.93477345,-0.62858945,-0.66312927,0.84339237,0.00000000,0.00000000,-2.40387917,-0.73571134,0.52867967,-0.98672628,-2.39917135,0.00000000,0.00000000
-0.30067044,-1.94197929,-0.62511289,-0.62602413,0.84766436,0.00000000,0.00000000,-2.41584015,-0.74129975,0.51921499,-0.98810267,-2.40934014,0.00000000,0.00000000
-0.31497258,-1.94441235,-0.62213701,-0.59140837,0.84845835,0.00000000,0.00000000,-2.43087888,-0.74499220,0.50875586,-0.98723924,-2.41768813,0.00000000,0.00000000
-0.32969540,-1.94292760,-0.61937517,-0.55966467,0.85098690,0.00000000,0.00000000,-2.44816780,-0.74649006,0.49770334,-0.98460168,-2.42898774,0.00000000,0.00000000
-0.34443340,-1.93825889,-0.61653346,-0.53096646,0.85358167,0.00000000,0.00000000,-2.46696544,-0.74647295,0.48607916,-0.98068559,-2.43952012,0.00000000,0.00000000
-0.35849175,-1.93165529,-0.61320078,-0.50558913,0.85934883,0.00000000,0.00000000,-2.48625231,-0.74570143,0.47407356,-0.97612041,-2.44876194,0.00000000,0.00000000
-0.37118080,-1.92442119,-0.60901278,-0.48376462,0.86254609,0.00000000,0.00000000,-2.50458169,-0.74461395,0.46226469,-0.97134835,-2.45864248,0.00000000,0.00000000
-0.38181162,-1.91759109,-0.60367858,-0.46552855,0.86543679,0.00000000,0.00000000,-2.52083778,-0.74354428,0.45108286,-0.96659380,-2.46969604,0.00000000,0.00000000
-0.38975719,-1.91206336,-0.59695023,-0.45084450,0.87277156,0.00000000,0.00000000,-2.53441501,-0.74284548,0.44068077,-0.96214449,-2.48225164,0.00000000,0.00000000
-0.39460984,-1.90840018,-0.58868867,-0.43958130,0.87910473,0.00000000,0.00000000,-2.54700255,-0.74325019,0.42978248,-0.95841020,-2.48884511,0.00000000,0.00000000
-0.39651045,-1.90690494,-0.57892269,-0.43169940,0.88965607,0.00000000,0.00000000,-2.55498219,-0.74510902,0.42035037,-0.95664901,-2.49341011,0.00000000,0.00000000
-0.39575449,-1.90762591,-0.56775540,-0.42718703,0.90006310,0.00000000,0.00000000,-2.56145501,-0.74784976,0.41069341,-0.95462221,-2.49787903,0.00000000,0.00000000
-0.39317486,-1.91060984,-0.55540121,-0.42631069,0.91095436,0.00000000,0.00000000,-2.56629157,-0.75036407,0.40115878,-0.95060927,-2.51078343,0.00000000,0.00000000
-0.38971856,-1.91548467,-0.54214209,-0.42928183,0.92742765,0.00000000,0.00000000,-2.56891418,-0.75137281,0.39236075,-0.94274908,-2.51561451,0.00000000,0.00000000
-0.38641059,-1.92158616,-0.52831638,-0.43625551,0.94178832,0.00000000,0.00000000,-2.57016373,-0.74931890,0.38410473,-0.92876709,-2.51750398,0.00000000,0.00000000
-0.38403946,-1.92816067,-0.51422721,-0.44728473,0.95605993,0.00000000,0.00000000,-2.57119155,-0.74254203,0.37603593,-0.90678650,-2.51345420,0.00000000,0.00000000
-0.38299909,-1.93424428,-0.50011373,-0.46214697,0.96951425,0.00000000,0.00000000,-2.57253289,-0.73004633,0.36801729,-0.87642103,-2.50719857,0.00000000,0.00000000
-0.38327682,-1.93873584,-0.48613369,-0.48035762,0.98791790,0.00000000,0.00000000,-2.57384396,-0.71283031,0.35999024,-0.83974159,-2.50319934,0.00000000,0.00000000
-0.38472992,-1.94043493,-0.47241542,-0.50125235,1.00720298,0.00000000,0.00000000,-2.57387948,-0.69231349,0.35231152,-0.80033994,-2.50173068,0.00000000,0.00000000
-0.38691145,-1.93792045,-0.45902199,-0.52387547,1.02754080,0.00000000,0.00000000,-2.57206368,-0.66908747,0.34513411,-0.76048940,-2.49939299,0.00000000,0.00000000
-0.38951227,-1.92996240,-0.44601497,-0.54731733,1.04736114,0.00000000,0.00000000,-2.56719017,-0.64314419,0.33897796,-0.72120708,-2.49856067,0.00000000,0.00000000
-0.39249828,-1.91575420,-0.43348369,-0.57089525,1.06472278,0.00000000,0.00000000,-2.55880880,-0.61410683,0.33405644,-0.68248129,-2.50174761,0.00000000,0.00000000
-0.39595938,-1.89469695,-0.42154214,-0.59404951,1.08881700,0.00000000,0.00000000,-2.54679918,-0.58129072,0.33043340,-0.64381379,-2.50503492,0.00000000,0.00000000
-0.40001875,-1.86638284,-0.41030794,-0.61636132,1.11155140,0.00000000,0.00000000,-2.53096700,-0.54430091,0.32815543,-0.60492134,-2.50804257,0.00000000,0.00000000
-0.40528122,-1.83091414,-0.40002197,-0.63786989,1.13961685,0.00000000,0.00000000,-2.51222825,-0.50390399,0.32675925,-0.56604254,-2.50921822,0.00000000,0.00000000
-0.41209397,-1.78919554,-0.39073625,-0.65910333,1.16363513,0.00000000,0.00000000,-2.49136686,-0.46133015,0.32577136,-0.52768987,-2.51247835,0.00000000,0.00000000
-0.41919979,-1.74220812,-0.38191304,-0.68036491,1.19249046,0.00000000,0.00000000,-2.46726966,-0.41533241,0.32558236,-0.48907202,-2.51929855,0.00000000,0.00000000
-0.42691347,-1.69135797,-0.37356573,-0.70266557,1.22733116,0.00000000,0.00000000,-2.44128370,-0.36697674,0.32567951,-0.45031679,-2.52455020,0.00000000,0.00000000
-0.43592462,-1.63941634,-0.36571202,-0.72777855,1.26342499,0.00000000,0.00000000,-2.41587400,-0.31891102,0.32515717,-0.41227135,-2.52767920,0.00000000,0.00000000
-0.44609925,-1.58864737,-0.35812593,-0.75635749,1.29989588,0.00000000,0.00000000,-2.39284229,-0.27295643,0.32346687,-0.37539071,-2.52768183,0.00000000,0.00000000
-0.45739150,-1.53979492,-0.35081589,-0.78729302,1.33351505,0.00000000,0.00000000,-2.37332129,-0.23084021,0.32032543,-0.34025773,-2.52589822,0.00000000,0.00000000
-0.46985745,-1.49233437,-0.34399089,-0.81867290,1.36775970,0.00000000,0.00000000,-2.35787487,-0.19397403,0.31566229,-0.30745095,-2.52508044,0.00000000,0.00000000
-0.48325670,-1.44631326,-0.33761415,-0.84968138,1.40042627,0.00000000,0.00000000,-2.34646177,-0.16290215,0.30961871,-0.27723849,-2.52488327,0.00000000,0.00000000
-0.49739078,-1.40215063,-0.33160004,-0.87982690,1.43017530,0.00000000,0.00000000,-2.33916450,-0.13823861,0.30232382,-0.24996004,-2.52435040,0.00000000,0.00000000
-0.51183504,-1.35941970,-0.32583293,-0.90796077,1.46023726,0.00000000,0.00000000,-2.33651924,-0.12033227,0.29384577,-0.22575206,-2.52258849,0.00000000,0.00000000
-0.52613181,-1.31800199,-0.32009959,-0.93405801,1.49049509,0.00000000,0.00000000,-2.33885193,-0.10892259,0.28431392,-0.20453300,-2.51838708,0.00000000,0.00000000
-0.53986412,-1.27791893,-0.31414947,-0.95877731,1.52260149,0.00000000,0.00000000,-2.34642839,-0.10360041,0.27386689,-0.18623082,-2.51403928,0.00000000,0.00000000
-0.55272096,-1.23905861,-0.30775285,-0.98284411,1.55400062,0.00000000,0.00000000,-2.35928440,-0.10396737,0.26266026,-0.17089951,-2.50998592,0.00000000,0.00000000
-0.56451845,-1.20131683,-0.30070394,-1.00703597,1.58313477,0.00000000,0.00000000,-2.37708640,-0.10974230,0.25087231,-0.15878420,-2.50456190,0.00000000,0.00000000
-0.57537186,-1.16459298,-0.29295936,-1.03216267,1.61702240,0.00000000,0.00000000,-2.39924645,-0.12095119,0.23867357,-0.15039422,-2.49717784,0.00000000,0.00000000
-0.58554423,-1.12902987,-0.28457662,-1.05906844,1.65166473,0.00000000,0.00000000,-2.42507195,-0.13805003,0.22620282,-0.14653616,-2.48717070,0.00000000,0.00000000
-0.59548438,-1.09489965,-0.27578110,-1.08834684,1.68503857,0.00000000,0.00000000,-2.45371485,-0.16189376,0.21357159,-0.14828655,-2.47377229,0.00000000,0.00000000
-0.60580122,-1.06259024,-0.26696908,-1.12010133,1.72040701,0.00000000,0.00000000,-2.48403144,-0.19368944,0.20088156,-0.15698132,-2.46158171,0.00000000,0.00000000
-0.61708504,-1.03292751,-0.25860041,-1.15412712,1.75429463,0.00000000,0.00000000,-2.51450610,-0.23484740,0.18824820,-0.17412184,-2.45252776,0.00000000,0.00000000
-0.62975961,-1.00706685,-0.25107101,-1.19016969,1.78879142,0.00000000,0.00000000,-2.54324007,-0.28649202,0.17583817,-0.20105609,-2.43860698,0.00000000,0.00000000
-0.64415199,-0.98591870,-0.24474360,-1.22801220,1.82305157,0.00000000,0.00000000,-2.56815052,-0.34894180,0.16389400,-0.23861653,-2.43069482,0.00000000,0.00000000
-0.66040438,-0.96962297,-0.23985837,-1.26718104,1.85749483,0.00000000,0.00000000,-2.58729863,-0.42125371,0.15272941,-0.28676689,-2.42024374,0.00000000,0.00000000
-0.67852640,-0.95743531,-0.23656701,-1.30689406,1.89307213,0.00000000,0.00000000,-2.59911537,-0.50102472,0.14271453,-0.34445596,-2.41056323,0.00000000,0.00000000
-0.69849944,-0.94769770,-0.23501758,-1.34589589,1.92988944,0.00000000,0.00000000,-2.60261369,-0.58468109,0.13425863,-0.40983433,-2.39837217,0.00000000,0.00000000
-0.72061110,-0.93768549,-0.23564304,-1.38222396,1.96314621,0.00000000,0.00000000,-2.59750700,-0.66803324,0.12776878,-0.48068655,-2.39056468,0.00000000,0.00000000
-0.74539745,-0.92492044,-0.23904988,-1.41516292,1.99274468,0.00000000,0.00000000,-2.58436894,-0.74637562,0.12353884,-0.55456460,-2.37585282,0.00000000,0.00000000
-0.77272326,-0.90930045,-0.24512288,-1.44809854,2.01970887,0.00000000,0.00000000,-2.56441474,-0.81495941,0.12170094,-0.62896156,-2.35621476,0.00000000,0.00000000
-0.80170166,-0.88975912,-0.25306442,-1.48217559,2.04342961,0.00000000,0.00000000,-2.53912568,-0.86993110,0.12219340,-0.70173258,-2.33622169,0.00000000,0.00000000
-0.83103955,-0.86571318,-0.26165780,-1.51532459,2.07141566,0.00000000,0.00000000,-2.51009941,-0.90886050,0.12464313,-0.77143222,-2.31306458,0.00000000,0.00000000
-0.85911316,-0.83664942,-0.26933643,-1.54410934,2.09240723,0.00000000,0.00000000,-2.47908831,-0.93059152,0.12830254,-0.83725566,-2.29411840,0.00000000,0.00000000
-0.88488233,-0.80285025,-0.27502027,-1.56699812,2.11307979,0.00000000,0.00000000,-2.44796491,-0.93505704,0.13208191,-0.89897895,-2.27574277,0.00000000,0.00000000
-0.90779382,-0.76548231,-0.27802926,-1.58425224,2.13430357,0.00000000,0.00000000,-2.41833067,-0.92319500,0.13479403,-0.95706880,-2.25095391,0.00000000,0.00000000
-0.92769647,-0.72601312,-0.27804536,-1.59689033,2.16320562,0.00000000,0.00000000,-2.39123344,-0.89693713,0.13541076,-1.01284468,-2.22317743,0.00000000,0.00000000
-0.94453859,-0.68581265,-0.27484658,-1.60572720,2.18965554,0.00000000,0.00000000,-2.36687684,-0.85933584,0.13334052,-1.06866634,-2.18940568,0.00000000,0.00000000
-0.95874393,-0.64583170,-0.26873747,-1.61063516,2.21435785,0.00000000,0.00000000,-2.34447336,-0.81514680,0.12857893,-1.12812471,-2.15802455,0.00000000,0.00000000
-0.97106755,-0.60753697,-0.26048106,-1.61249304,2.23652148,0.00000000,0.00000000,-2.32242846,-0.76827365,0.12194595,-1.19342947,-2.13036251,0.00000000,0.00000000
-0.98178524,-0.57341492,-0.25050673,-1.61389625,2.25452328,0.00000000,0.00000000,-2.29911613,-0.71930164,0.11470217,-1.26240873,-2.10139608,0.00000000,0.00000000
-0.99135751,-0.54466397,-0.23960470,-1.61643553,2.27120423,0.00000000,0.00000000,-2.27352738,-0.66934764,0.10749109,-1.33167267,-2.07254195,0.00000000,0.00000000
-1.00014877,-0.52180487,-0.22866665,-1.62123156,2.29001880,0.00000000,0.00000000,-2.24420714,-0.61885130,0.10145179,-1.39957619,-2.04354501,0.00000000,0.00000000
-1.00818992,-0.50469071,-0.21834019,-1.62870455,2.30909085,0.00000000,0.00000000,-2.21170759,-0.56763476,0.09579626,-1.46469343,-2.01104856,0.00000000,0.00000000
-1.01557362,-0.49274892,-0.20939142,-1.63868225,2.32616425,0.00000000,0.00000000,-2.17727804,-0.51670015,0.08882878,-1.52597272,-1.97979331,0.00000000,0.00000000
-1.02233052,-0.48518789,-0.20243883,-1.65051711,2.34317780,0.00000000,0.00000000,-2.14199948,-0.46629462,0.07901204,-1.58310115,-1.94533336,0.00000000,0.00000000
-1.02835262,-0.48102152,-0.19773076,-1.66320169,2.35522079,0.00000000,0.00000000,-2.10623813,-0.41578582,0.06564242,-1.63572013,-1.90954447,0.00000000,0.00000000
-1.03371954,-0.47910312,-0.19556265,-1.67557335,2.36579156,0.00000000,0.00000000,-2.07005143,-0.36407265,0.04842160,-1.68308258,-1.87462831,0.00000000,0.00000000
-1.03852570,-0.47862270,-0.19615397,-1.68682969,2.37706828,0.00000000,0.00000000,-2.03361464,-0.31036931,0.02691819,-1.72471511,-1.84127700,0.00000000,0.00000000
-1.04275990,-0.47915184,-0.19955923,-1.69648969,2.39315557,0.00000000,0.00000000,-1.99666703,-0.25442949,0.00116814,-1.76054883,-1.80649638,0.00000000,0.00000000
-1.04606485,-0.48078111,-0.20538312,-1.70453632,2.40626907,0.00000000,0.00000000,-1.95868909,-0.19627009,-0.02854738,-1.79069293,-1.76641679,0.00000000,0.00000000
-1.04803801,-0.48391685,-0.21316743,-1.71126151,2.42014050,0.00000000,0.00000000,-1.91905868,-0.13605478,-0.06192811,-1.81535637,-1.72409403,0.00000000,0.00000000
-1.04856837,-0.48907787,-0.22280493,-1.71712434,2.43837714,0.00000000,0.00000000,-1.87749898,-0.07408676,-0.09914409,-1.83490252,-1.68432248,0.00000000,0.00000000
-1.04768419,-0.49703038,-0.23434284,-1.72289002,2.45258260,0.00000000,0.00000000,-1.83432972,-0.01093972,-0.14101449,-1.84997106,-1.64078546,0.00000000,0.00000000
-1.04553330,-0.50863552,-0.24790478,-1.72950804,2.46656656,0.00000000,0.00000000,-1.79056776,0.05280950,-0.18898170,-1.86120975,-1.59674263,0.00000000,0.00000000
-1.04230690,-0.52453655,-0.26350516,-1.73780382,2.48242927,0.00000000,0.00000000,-1.74780321,0.11750375,-0.24499227,-1.86862397,-1.55458724,0.00000000,0.00000000
-1.03826165,-0.54466605,-0.28099114,-1.74796391,2.49653053,0.00000000,0.00000000,-1.70644546,0.18512282,-0.30988938,-1.87185931,-1.51119840,0.00000000,0.00000000
-1.03381217,-0.56752181,-0.30015963,-1.75880647,2.51406980,0.00000000,0.00000000,-1.66439509,0.25824934,-0.38212517,-1.87144780,-1.47106528,0.00000000,0.00000000
-1.02836514,-0.58970058,-0.31956676,-1.76690948,2.52725720,0.00000000,0.00000000,-1.61669755,0.34220278,-0.45791122,-1.86478007,-1.43469751,0.00000000,0.00000000
-1.02087510,-0.60814667,-0.33751965,-1.76954734,2.53796673,0.00000000,0.00000000,-1.55683851,0.44235548,-0.53185791,-1.84800875,-1.40422332,0.00000000,0.00000000
-1.01116455,-0.62348855,-0.35370663,-1.76868224,2.54385138,0.00000000,0.00000000,-1.48297286,0.55906093,-0.60153121,-1.81944788,-1.36932623,0.00000000,0.00000000
-0.99964482,-0.63650000,-0.36852297,-1.76591766,2.55066252,0.00000000,0.00000000,-1.39577305,0.69008684,-0.66571414,-1.77864337,-1.34098399,0.00000000,0.00000000
-0.98679292,-0.64756644,-0.38241950,-1.76198375,2.55413437,0.00000000,0.00000000,-1.29671490,0.83264899,-0.72317892,-1.72534347,-1.31706262,0.00000000,0.00000000
-0.97312558,-0.65689802,-0.39587715,-1.75734198,2.55832672,0.00000000,0.00000000,-1.18798840,0.98345530,-0.77266669,-1.65961897,-1.29728603,0.00000000,0.00000000
-0.95921892,-0.66457552,-0.40940928,-1.75250947,2.55618453,0.00000000,0.00000000,-1.07232475,1.13863671,-0.81284434,-1.58206105,-1.27322781,0.00000000,0.00000000
-0.94583297,-0.67075664,-0.42368478,-1.74823034,2.55574059,0.00000000,0.00000000,-0.95283628,1.29384935,-0.84239912,-1.49381757,-1.24716187,0.00000000,0.00000000
-0.93376338,-0.67576772,-0.43936417,-1.74511981,2.55599284,0.00000000,0.00000000,-0.83281147,1.44452894,-0.86018348,-1.39658237,-1.22282326,0.00000000,0.00000000
-0.92348158,-0.68008906,-0.45673737,-1.74212503,2.55181289,0.00000000,0.00000000,-0.71545726,1.58625042,-0.86538631,-1.29248726,-1.20630109,0.00000000,0.00000000
-0.91548020,-0.68363225,-0.47610652,-1.73533523,2.54374075,0.00000000,0.00000000,-0.60356587,1.71510124,-0.85766268,-1.18392813,-1.19354403,0.00000000,0.00000000
-0.90964091,-0.68571919,-0.49714577,-1.72110462,2.53461003,0.00000000,0.00000000,-0.49921447,1.82808387,-0.83717012,-1.07339025,-1.18304861,0.00000000,0.00000000
-0.90465546,-0.68670177,-0.51836586,-1.69799399,2.52373433,0.00000000,0.00000000,-0.40362319,1.92337561,-0.80452752,-0.96328878,-1.17086017,0.00000000,0.00000000
-0.89867204,-0.68756014,-0.53776252,-1.66552889,2.51558685,0.00000000,0.00000000,-0.31736580,2.00022864,-0.76072639,-0.85581231,-1.15731978,0.00000000,0.00000000
-0.89013183,-0.68901408,-0.55364954,-1.62333095,2.50652385,0.00000000,0.00000000,-0.24087696,2.05872583,-0.70702851,-0.75276756,-1.14185810,0.00000000,0.00000000
-0.87814778,-0.69146001,-0.56505728,-1.57113063,2.49957776,0.00000000,0.00000000,-0.17466016,2.09943819,-0.64491814,-0.65559512,-1.13227999,0.00000000,0.00000000
-0.86229402,-0.69535601,-0.57153624,-1.50906301,2.49202490,0.00000000,0.00000000,-0.11902998,2.12327552,-0.57609493,-0.56555051,-1.12550557,0.00000000,0.00000000
-0.84284920,-0.70093173,-0.57340235,-1.43735993,2.48685813,0.00000000,0.00000000,-0.07415499,2.13196874,-0.50235182,-0.48325256,-1.12204635,0.00000000,0.00000000
-0.81994784,-0.70905548,-0.57088184,-1.35707021,2.48317933,0.00000000,0.00000000,-0.03946840,2.12801862,-0.42557397,-0.40888813,-1.12199163,0.00000000,0.00000000
-0.79347944,-0.72114199,-0.56399518,-1.26988935,2.47760415,0.00000000,0.00000000,-0.01377567,2.11460876,-0.34750178,-0.34207401,-1.12925220,0.00000000,0.00000000
-0.76342577,-0.73859030,-0.55290842,-1.17781949,2.47048354,0.00000000,0.00000000,0.00430753,2.09476805,-0.26949531,-0.28202227,-1.13595355,0.00000000,0.00000000
-0.73001504,-0.76248890,-0.53808606,-1.08293009,2.45978022,0.00000000,0.00000000,0.01610688,2.07074594,-0.19249184,-0.22789182,-1.14179170,0.00000000,0.00000000
-0.69364297,-0.79367548,-0.52019119,-0.98734510,2.44915414,0.00000000,0.00000000,0.02294082,2.04416776,-0.11711401,-0.17882767,-1.14745820,0.00000000,0.00000000
-0.65482944,-0.83275056,-0.50000578,-0.89320940,2.43377733,0.00000000,0.00000000,0.02616495,2.01632571,-0.04375402,-0.13387559,-1.15096724,0.00000000,0.00000000
-0.61398578,-0.88043445,-0.47815627,-0.80285650,2.41971898,0.00000000,0.00000000,0.02729071,1.98828602,0.02737186,-0.09197969,-1.16235936,0.00000000,0.00000000
-0.57131779,-0.93870956,-0.45492589,-0.72065163,2.40291405,0.00000000,0.00000000,0.02819694,1.96116674,0.09617285,-0.05186924,-1.17887366,0.00000000,0.00000000
-0.52768612,-1.00963175,-0.43092355,-0.65308309,2.38104939,0.00000000,0.00000000,0.03047717,1.93566930,0.16267295,-0.01239962,-1.19708467,0.00000000,0.00000000
-0.48498511,-1.09088516,-0.40748164,-0.60153121,2.36058593,0.00000000,0.00000000,0.03467564,1.91164911,0.22697772,0.02707592,-1.22398400,0.00000000,0.00000000
-0.44467157,-1.17975986,-0.38536763,-0.56495970,2.34162426,0.00000000,0.00000000,0.04135920,1.88942826,0.28920290,0.06742945,-1.24877465,0.00000000,0.00000000
-0.40787616,-1.27425313,-0.36491746,-0.54224521,2.31789374,0.00000000,0.00000000,0.05117586,1.86975324,0.34943974,0.10972264,-1.27627039,0.00000000,0.00000000
-0.37584040,-1.37206364,-0.34648448,-0.53200036,2.29448748,0.00000000,0.00000000,0.06432503,1.85340774,0.40771180,0.15488252,-1.30368090,0.00000000,0.00000000
-0.34983975,-1.47028625,-0.33048350,-0.53244311,2.27007532,0.00000000,0.00000000,0.08008271,1.84090698,0.46389896,0.20336749,-1.33020222,0.00000000,0.00000000
-0.33102340,-1.56562459,-0.31735331,-0.54150444,2.24854374,0.00000000,0.00000000,0.09701014,1.83282161,0.51770031,0.25534326,-1.35565591,0.00000000,0.00000000
-0.32035777,-1.65510952,-0.30750123,-0.55728418,2.23046184,0.00000000,0.00000000,0.11467651,1.82996595,0.56887597,0.31070352,-1.38028383,0.00000000,0.00000000
-0.31858450,-1.73638260,-0.30126610,-0.57827872,2.21390104,0.00000000,0.00000000,0.13226567,1.82996106,0.61736631,0.36625001,-1.40632749,0.00000000,0.00000000
-0.32585558,-1.80754614,-0.29880702,-0.60327041,2.19649458,0.00000000,0.00000000,0.14612852,1.82912970,0.66278064,0.41770586,-1.43113399,0.00000000,0.00000000
-0.34154224,-1.86733651,-0.30002409,-0.63138765,2.18147302,0.00000000,0.00000000,0.15486108,1.82678759,0.70487326,0.46394515,-1.45464098,0.00000000,0.00000000
-0.36435899,-1.91523755,-0.30453840,-0.66213721,2.16701698,0.00000000,0.00000000,0.15811406,1.82263291,0.74363405,0.50467253,-1.47554910,0.00000000,0.00000000
-0.39258230,-1.95142138,-0.31172305,-0.69534010,2.15500855,0.00000000,0.00000000,0.15566371,1.81627381,0.77918154,0.53974092,-1.50293338,0.00000000,0.00000000
-0.42443132,-1.97650588,-0.32083264,-0.73099583,2.14321923,0.00000000,0.00000000,0.14757775,1.80794621,0.81170374,0.56952727,-1.53060663,0.00000000,0.00000000
-0.45825377,-1.99140418,-0.33105639,-0.76921171,2.13493061,0.00000000,0.00000000,0.13408045,1.79859579,0.84136975,0.59482431,-1.55611074,0.00000000,0.00000000
-0.49262089,-1.99718738,-0.34156522,-0.81011784,2.12680793,0.00000000,0.00000000,0.11555006,1.78935707,0.86834061,0.61651033,-1.58042943,0.00000000,0.00000000
-0.52625775,-1.99517751,-0.35148478,-0.85393751,2.11954975,0.00000000,0.00000000,0.09252013,1.78137481,0.89277905,0.63537538,-1.60141647,0.00000000,0.00000000
-0.55807310,-1.98689258,-0.35991126,-0.90106463,2.11908507,0.00000000,0.00000000,0.06575206,1.77531683,0.91495317,0.65182871,-1.62036562,0.00000000,0.00000000
-0.58731955,-1.97395909,-0.36600712,-0.95213252,2.11789727,0.00000000,0.00000000,0.03626180,1.77081251,0.93536466,0.66567957,-1.63963866,0.00000000,0.00000000
-0.61303121,-1.95920181,-0.36852068,-1.00856555,2.11655307,0.00000000,0.00000000,0.00563174,1.76717055,0.95466632,0.67669368,-1.65935934,0.00000000,0.00000000
-0.63440806,-1.94469190,-0.36649913,-1.06915987,2.11911297,0.00000000,0.00000000,-0.02325749,1.76457274,0.97343409,0.68563288,-1.68099558,0.00000000,0.00000000
-0.65308166,-1.92685783,-0.36176124,-1.12517226,2.12014842,0.00000000,0.00000000,-0.04709466,1.76340497,0.99218440,0.69369191,-1.69787419,0.00000000,0.00000000
-0.66930240,-1.90694678,-0.35451999,-1.17400801,2.11659956,0.00000000,0.00000000,-0.06462725,1.76282883,1.01133251,0.70101058,-1.70758796,0.00000000,0.00000000
-0.68442398,-1.88478613,-0.34612596,-1.21549881,2.10569525,0.00000000,0.00000000,-0.07628800,1.76105964,1.03124976,0.70757139,-1.71503329,0.00000000,0.00000000
-0.69870609,-1.85915089,-0.33755106,-1.24945784,2.09129071,0.00000000,0.00000000,-0.08264548,1.75718451,1.05202615,0.71497416,-1.72214627,0.00000000,0.00000000
-0.71104228,-1.82988620,-0.32882696,-1.27651501,2.08439755,0.00000000,0.00000000,-0.08455210,1.75114202,1.07341754,0.72543228,-1.72515810,0.00000000,0.00000000
-0.72081816,-1.79633129,-0.32067490,-1.29721284,2.08114767,0.00000000,0.00000000,-0.08435191,1.74264312,1.09490466,0.73933208,-1.73148894,0.00000000,0.00000000
-0.72752053,-1.75816953,-0.31384382,-1.31211746,2.08079791,0.00000000,0.00000000,-0.08424035,1.73164022,1.11592019,0.75604028,-1.74078000,0.00000000,0.00000000
-0.73051393,-1.71621573,-0.30862969,-1.32179821,2.07809114,0.00000000,0.00000000,-0.08410566,1.71888554,1.13616109,0.77498496,-1.74961615,0.00000000,0.00000000
-0.72936922,-1.67226267,-0.30494952,-1.32686317,2.07878280,0.00000000,0.00000000,-0.08229072,1.70179808,1.15700257,0.79304498,-1.75887215,0.00000000,0.00000000
-0.72397602,-1.62770796,-0.30266413,-1.32755089,2.07817245,0.00000000,0.00000000,-0.08027837,1.68147957,1.17763734,0.80771208,-1.76851130,0.00000000,0.00000000
-0.71474200,-1.58366835,-0.30183581,-1.32412660,2.08329582,0.00000000,0.00000000,-0.07840767,1.65896976,1.19757354,0.81846887,-1.77933025,0.00000000,0.00000000
-0.70221049,-1.54108822,-0.30252656,-1.31693470,2.09002972,0.00000000,0.00000000,-0.07680248,1.63470721,1.21661973,0.82485247,-1.79361618,0.00000000,0.00000000
-0.68701369,-1.50069773,-0.30482346,-1.30639529,2.09894061,0.00000000,0.00000000,-0.07560394,1.60921872,1.23455501,0.82672572,-1.80004525,0.00000000,0.00000000
-0.66960937,-1.46326685,-0.30862501,-1.29310560,2.10416102,0.00000000,0.00000000,-0.07481004,1.58342874,1.25103199,0.82455885,-1.80987322,0.00000000,0.00000000
-0.65029562,-1.42925858,-0.31372795,-1.27752185,2.11246991,0.00000000,0.00000000,-0.07488046,1.55804718,1.26572156,0.81836492,-1.81387329,0.00000000,0.00000000
-0.62918580,-1.39897406,-0.31983480,-1.26001358,2.12507510,0.00000000,0.00000000,-0.07621834,1.53372896,1.27835500,0.80830520,-1.82154214,0.00000000,0.00000000
-0.60632050,-1.37264323,-0.32660240,-1.24094677,2.13488603,0.00000000,0.00000000,-0.07877161,1.51091337,1.28888440,0.79494882,-1.82815027,0.00000000,0.00000000
-0.58176804,-1.35024464,-0.33371696,-1.22058499,2.14713120,0.00000000,0.00000000,-0.08273461,1.48974800,1.29735518,0.77851748,-1.83273423,0.00000000,0.00000000
-0.55567855,-1.33163679,-0.34092340,-1.19918036,2.15303540,0.00000000,0.00000000,-0.08800630,1.47117913,1.30352890,0.76004672,-1.82909322,0.00000000,0.00000000
-0.52815402,-1.31655920,-0.34793526,-1.17695141,2.15825844,0.00000000,0.00000000,-0.09515498,1.45606744,1.30710042,0.73974961,-1.82111025,0.00000000,0.00000000
-0.49917188,-1.30442226,-0.35436562,-1.15393949,2.16182566,0.00000000,0.00000000,-0.10396001,1.44425488,1.30833185,0.71793216,-1.81588268,0.00000000,0.00000000
-0.46871653,-1.29459023,-0.35979500,-1.13023984,2.16618919,0.00000000,0.00000000,-0.11349142,1.43373311,1.30827379,0.69498634,-1.81101918,0.00000000,0.00000000
-0.43693072,-1.28625596,-0.36390972,-1.10599983,2.17528248,0.00000000,0.00000000,-0.12275164,1.42465508,1.30704474,0.67270690,-1.80643797,0.00000000,0.00000000
-0.40435919,-1.27841282,-0.36658102,-1.08140361,2.18348694,0.00000000,0.00000000,-0.13171157,1.41862106,1.30404294,0.65209192,-1.79777265,0.00000000,0.00000000
-0.37160024,-1.27037048,-0.36762750,-1.05666530,2.19570088,0.00000000,0.00000000,-0.14008318,1.41476917,1.29962468,0.63275284,-1.79035676,0.00000000,0.00000000
-0.33918047,-1.26233935,-0.36687094,-1.03196549,2.20886946,0.00000000,0.00000000,-0.14668487,1.41248822,1.29418337,0.61506385,-1.78706777,0.00000000,0.00000000
-0.30772945,-1.25525916,-0.36445907,-1.00742388,2.22445011,0.00000000,0.00000000,-0.15070447,1.41252005,1.28760135,0.59962040,-1.78105903,0.00000000,0.00000000
-0.27758461,-1.24993062,-0.36056465,-0.98290205,2.23637176,0.00000000,0.00000000,-0.15182365,1.41455996,1.28004968,0.58602297,-1.77560222,0.00000000,0.00000000
-0.24891745,-1.24680734,-0.35535973,-0.95819545,2.24566293,0.00000000,0.00000000,-0.14969897,1.41748297,1.27196765,0.57364601,-1.77215612,0.00000000,0.00000000
-0.22186249,-1.24607766,-0.34902513,-0.93305421,2.25196719,0.00000000,0.00000000,-0.14423841,1.42110550,1.26345515,0.56232613,-1.76757395,0.00000000,0.00000000
-0.19651248,-1.24778140,-0.34171548,-0.90720212,2.25963235,0.00000000,0.00000000,-0.13557409,1.42543483,1.25452566,0.55196095,-1.76337945,0.00000000,0.00000000
-0.17297901,-1.25201499,-0.33360034,-0.88056546,2.27355957,0.00000000,0.00000000,-0.12403768,1.43068147,1.24510992,0.54240626,-1.75570238,0.00000000,0.00000000
-0.15145706,-1.25889957,-0.32488984,-0.85323018,2.28562546,0.00000000,0.00000000,-0.10998099,1.43714321,1.23511434,0.53352374,-1.74929357,0.00000000,0.00000000
-0.13229629,-1.26845884,-0.31585598,-0.82525939,2.30180287,0.00000000,0.00000000,-0.09352887,1.44482088,1.22456443,0.52518338,-1.74764526,0.00000000,0.00000000
-0.11560751,-1.28062952,-0.30659997,-0.79664612,2.32348204,0.00000000,0.00000000,-0.07474824,1.45348573,1.21355438,0.51715761,-1.74700379,0.00000000,0.00000000
-0.10113104,-1.29522586,-0.29700384,-0.76726675,2.35000610,0.00000000,0.00000000,-0.05388115,1.46288741,1.20214796,0.50907606,-1.74106276,0.00000000,0.00000000
-0.08835897,-1.31191492,-0.28681850,-0.73684227,2.37192369,0.00000000,0.00000000,-0.03131807,1.47273600,1.19037294,0.50043714,-1.73627639,0.00000000,0.00000000
-0.07681739,-1.33011937,-0.27584821,-0.70496631,2.39404273,0.00000000,0.00000000,-0.00755068,1.48308635,1.17812848,0.49080780,-1.73278522,0.00000000,0.00000000
-0.06611446,-1.34915936,-0.26397988,-0.67150056,2.41746426,0.00000000,0.00000000,0.01672121,1.49436700,1.16519642,0.47979796,-1.72366583,0.00000000,0.00000000
-0.05637300,-1.36896145,-0.25133196,-0.63781571,2.43727589,0.00000000,0.00000000,0.04080740,1.50646436,1.15149975,0.46693510,-1.71278667,0.00000000,0.00000000
-0.04793090,-1.38934898,-0.23813653,-0.60634804,2.45757699,0.00000000,0.00000000,0.06416577,1.51866555,1.13712776,0.45173979,-1.69862521,0.00000000,0.00000000
-0.04047508,-1.40956736,-0.22439815,-0.57905096,2.47541380,0.00000000,0.00000000,0.08637592,1.53076255,1.12208092,0.43409091,-1.68422878,0.00000000,0.00000000
-0.03355216,-1.42815423,-0.21012729,-0.55598933,2.49275446,0.00000000,0.00000000,0.10708420,1.54273176,1.10635090,0.41403347,-1.67116201,0.00000000,0.00000000
-0.02694028,-1.44491649,-0.19536577,-0.53702974,2.50913930,0.00000000,0.00000000,0.12592500,1.55479419,1.08990419,0.39175749,-1.65144098,0.00000000,0.00000000
-0.02022876,-1.46017778,-0.18005800,-0.52214676,2.52538037,0.00000000,0.00000000,0.14244013,1.56721914,1.07271159,0.36745182,-1.63503957,0.00000000,0.00000000
-0.01285966,-1.47426045,-0.16410211,-0.51132268,2.54610944,0.00000000,0.00000000,0.15600801,1.58027625,1.05475748,0.34121269,-1.61688495,0.00000000,0.00000000
-0.00439610,-1.48748922,-0.14744608,-0.50460714,2.56338787,0.00000000,0.00000000,0.16589068,1.59392095,1.03609419,0.31300318,-1.59930956,0.00000000,0.00000000
0.00555582,-1.50006545,-0.13005623,-0.50203997,2.57536602,0.00000000,0.00000000,0.17254679,1.60958719,1.01673985,0.28474396,-1.58261919,0.00000000,0.00000000
0.01746826,-1.51139843,-0.11188842,-0.50325066,2.58635306,0.00000000,0.00000000,0.17776564,1.63175416,0.99646062,0.26138785,-1.56471026,0.00000000,0.00000000
0.03180907,-1.51995170,-0.09292681,-0.50738436,2.59395242,0.00000000,0.00000000,0.18061776,1.65827656,0.97564304,0.24279658,-1.54569840,0.00000000,0.00000000
0.04877612,-1.52494597,-0.07321917,-0.51410544,2.60882354,0.00000000,0.00000000,0.18161504,1.68725777,0.95476031,0.22884308,-1.53706086,0.00000000,0.00000000
0.06829830,-1.52607656,-0.05288601,-0.52343887,2.62149453,0.00000000,0.00000000,0.18147509,1.71815896,0.93407571,0.21981806,-1.53554380,0.00000000,0.00000000
0.09007138,-1.52346253,-0.03213655,-0.53575599,2.63853836,0.00000000,0.00000000,0.18043216,1.75080228,0.91373402,0.21581402,-1.53117514,0.00000000,0.00000000
0.11311392,-1.51788557,-0.01147885,-0.55185550,2.65708089,0.00000000,0.00000000,0.17868273,1.78572774,0.89378065,0.21715178,-1.52291644,0.00000000,0.00000000
0.13504592,-1.51150990,0.00792909,-0.57234609,2.67219305,0.00000000,0.00000000,0.17655391,1.82436717,0.87415630,0.22460556,-1.51119208,0.00000000,0.00000000
0.15243064,-1.50622201,0.02432196,-0.59564763,2.69311476,0.00000000,0.00000000,0.17447840,1.86867332,0.85472411,0.23932587,-1.50393569,0.00000000,0.00000000
0.16207585,-1.49986732,0.03596380,-0.61872500,2.71279335,0.00000000,0.00000000,0.17298242,1.91935146,0.83544284,0.26213351,-1.49342930,0.00000000,0.00000000
0.16269799,-1.49199080,0.04194175,-0.64148682,2.73067737,0.00000000,0.00000000,0.17295179,1.97413266,0.81661350,0.29281592,-1.47556055,0.00000000,0.00000000
0.15460281,-1.48194957,0.04204957,-0.66412622,2.75249076,0.00000000,0.00000000,0.17525741,2.02853227,0.79884189,0.33012879,-1.45880437,0.00000000,0.00000000
0.13878378,-1.46901453,0.03647932,-0.68661731,2.77923274,0.00000000,0.00000000,0.18032908,2.07778287,0.78280294,0.37245050,-1.44419527,0.00000000,0.00000000
0.11669120,-1.45323920,0.02581878,-0.70928866,2.80276585,0.00000000,0.00000000,0.18805461,2.11815882,0.76906174,0.41839299,-1.42328691,0.00000000,0.00000000
0.09020587,-1.43535686,0.01107033,-0.73276317,2.83250523,0.00000000,0.00000000,0.19789280,2.14727497,0.75800717,0.46699098,-1.40587795,0.00000000,0.00000000
0.06146458,-1.41613948,-0.00649108,-0.75755149,2.85633731,0.00000000,0.00000000,0.20904329,2.16379642,0.74984688,0.51760268,-1.38695407,0.00000000,0.00000000
0.03235851,-1.39614809,-0.02573285,-0.78391105,2.87710857,0.00000000,0.00000000,0.22047685,2.16918659,0.74469274,0.56955379,-1.37267172,0.00000000,0.00000000
0.00421880,-1.37563312,-0.04591364,-0.81185502,2.87979317,0.00000000,0.00000000,0.23104101,2.16996384,0.74265647,0.62193775,-1.35393393,0.00000000,0.00000000
-0.02222221,-1.35459363,-0.06668813,-0.84120911,2.87979317,0.00000000,0.00000000,0.23966818,2.17000008,0.74388248,0.67382354,-1.33230221,0.00000000,0.00000000
-0.04667039,-1.33285797,-0.08794320,-0.87163633,2.87979317,0.00000000,0.00000000,0.24552527,2.17000008,0.74852049,0.72450501,-1.31043470,0.00000000,0.00000000
-0.06897028,-1.31009090,-0.10951535,-0.90268862,2.87979317,0.00000000,0.00000000,0.24808146,2.16986609,0.75664735,0.77372533,-1.28969979,0.00000000,0.00000000
-0.08889762,-1.28562951,-0.13100232,-0.93371183,2.87979317,0.00000000,0.00000000,0.24711701,2.16765475,0.76824796,0.82174355,-1.26968157,0.00000000,0.00000000
-0.10633841,-1.25870228,-0.15192574,-0.96393687,2.87979317,0.00000000,0.00000000,0.24269699,2.15848970,0.78313613,0.86937529,-1.24560261,0.00000000,0.00000000
-0.12124107,-1.22876918,-0.17175950,-0.99262959,2.87979317,0.00000000,0.00000000,0.23501654,2.14071107,0.80084050,0.91793817,-1.22631323,0.00000000,0.00000000
-0.13354369,-1.19566786,-0.18995538,-1.01914215,2.87979317,0.00000000,0.00000000,0.22461304,2.11712670,0.82051748,0.96947604,-1.21121514,0.00000000,0.00000000
-0.14333904,-1.15999293,-0.20604864,-1.04303098,2.87979317,0.00000000,0.00000000,0.21181495,2.09158325,0.84098607,1.02563381,-1.20225060,0.00000000,0.00000000
-0.15152133,-1.12381268,-0.22010261,-1.06437337,2.87979317,0.00000000,0.00000000,0.19555132,2.06511283,0.86163098,1.08334708,-1.19043958,0.00000000,0.00000000
-0.15941581,-1.08976817,-0.23274048,-1.08367443,2.87979317,0.00000000,0.00000000,0.17680210,2.03827381,0.88294494,1.13723063,-1.17435443,0.00000000,0.00000000
-0.16761486,-1.05935431,-0.24442697,-1.10137844,2.87979317,0.00000000,0.00000000,0.15703924,2.01239896,0.90505511,1.18547130,-1.16356969,0.00000000,0.00000000
-0.17643704,-1.03308535,-0.25560471,-1.11786139,2.87979317,0.00000000,0.00000000,0.13648063,1.98832512,0.92751336,1.22819793,-1.15141726,0.00000000,0.00000000
-0.18608409,-1.01104963,-0.26666602,-1.13346791,2.87979317,0.00000000,0.00000000,0.11487252,1.96647811,0.94976193,1.26587451,-1.13670039,0.00000000,0.00000000
-0.19644128,-0.99316615,-0.27774543,-1.14846587,2.87979317,0.00000000,0.00000000,0.09203057,1.94690907,0.97151440,1.29898894,-1.12158906,0.00000000,0.00000000
-0.20726691,-0.97921163,-0.28884080,-1.16290891,2.87979317,0.00000000,0.00000000,0.06776948,1.92967010,0.99253500,1.32788467,-1.09902596,0.00000000,0.00000000
-0.21837874,-0.96869969,-0.29996654,-1.17656589,2.87979317,0.00000000,0.00000000,0.04196079,1.91463315,1.01279759,1.35251868,-1.07457662,0.00000000,0.00000000
-0.22973961,-0.96103013,-0.31121919,-1.18902898,2.87979317,0.00000000,0.00000000,0.01486774,1.90172863,1.03247881,1.37276089,-1.05388939,0.00000000,0.00000000
-0.24143837,-0.95563078,-0.32276475,-1.19984412,2.87979317,0.00000000,0.00000000,-0.01320357,1.89092672,1.05175889,1.38850045,-1.03469706,0.00000000,0.00000000
-0.25370577,-0.95199990,-0.33486679,-1.20865846,2.87979317,0.00000000,0.00000000,-0.04180972,1.88207388,1.07097316,1.39976728,-1.00874329,0.00000000,0.00000000
-0.26693845,-0.94959873,-0.34792107,-1.21518314,2.87979317,0.00000000,0.00000000,-0.07034893,1.87484396,1.09065449,1.40664959,-0.98537499,0.00000000,0.00000000
-0.28158566,-0.94816363,-0.36234406,-1.21937907,2.87979317,0.00000000,0.00000000,-0.09862392,1.86892140,1.11108160,1.40905499,-0.96590698,0.00000000,0.00000000
-0.29799685,-0.94780260,-0.37843567,-1.22149622,2.87979317,0.00000000,0.00000000,-0.12655127,1.86425173,1.13217211,1.40704370,-0.94365084,0.00000000,0.00000000
-0.31605288,-0.94871145,-0.39607841,-1.22178650,2.87979317,0.00000000,0.00000000,-0.15404451,1.86108792,1.15346575,1.40092564,-0.91725099,0.00000000,0.00000000
-0.33503991,-0.95091200,-0.41464272,-1.22024727,2.87979317,0.00000000,0.00000000,-0.18087262,1.85978758,1.17436039,1.39124882,-0.89489901,0.00000000,0.00000000
-0.35396844,-0.95438260,-0.43325353,-1.21678412,2.87979317,0.00000000,0.00000000,-0.20649315,1.86053932,1.19449806,1.37873614,-0.87929571,0.00000000,0.00000000
-0.37198377,-0.95918745,-0.45113602,-1.21140194,2.87979317,0.00000000,0.00000000,-0.23048361,1.86334157,1.21365261,1.36396968,-0.86216342,0.00000000,0.00000000
-0.38852116,-0.96538925,-0.46775523,-1.20418370,2.87979317,0.00000000,0.00000000,-0.25266075,1.86778247,1.23190415,1.34717512,-0.84339625,0.00000000,0.00000000
-0.40343532,-0.97305089,-0.48292348,-1.19532943,2.87979317,0.00000000,0.00000000,-0.27275589,1.87317264,1.24962425,1.32862794,-0.83284223,0.00000000,0.00000000
-0.41686642,-0.98189622,-0.49671715,-1.18483317,2.87979317,0.00000000,0.00000000,-0.29061162,1.87856781,1.26738024,1.30883694,-0.82214320,0.00000000,0.00000000
-0.42889863,-0.99136364,-0.50918978,-1.17240620,2.87979317,0.00000000,0.00000000,-0.30626756,1.88319135,1.28555095,1.28897965,-0.81294537,0.00000000,0.00000000
-0.43972152,-1.00096929,-0.52048004,-1.15783477,2.87979317,0.00000000,0.00000000,-0.31979138,1.88705003,1.30383730,1.27088308,-0.80058777,0.00000000,0.00000000
-0.44961631,-1.01025772,-0.53079700,-1.14120376,2.87979317,0.00000000,0.00000000,-0.33161962,1.88998592,1.32202065,1.25579858,-0.79224032,0.00000000,0.00000000
-0.45897979,-1.01867104,-0.54044348,-1.12363672,2.87979317,0.00000000,0.00000000,-0.34255075,1.89158440,1.34006691,1.24391878,-0.78107077,0.00000000,0.00000000
-0.46868691,-1.02555490,-0.55008912,-1.10692358,2.87979317,0.00000000,0.00000000,-0.35332474,1.89152145,1.35796821,1.23532903,-0.76737708,0.00000000,0.00000000
-0.47868404,-1.03229582,-0.55946296,-1.09320116,2.87979317,0.00000000,0.00000000,-0.36491418,1.88936973,1.37582624,1.23002887,-0.75682253,0.00000000,0.00000000
-0.48765710,-1.03959000,-0.56741911,-1.08285439,2.87979317,0.00000000,0.00000000,-0.37726274,1.88558972,1.39320409,1.22808659,-0.74515092,0.00000000,0.00000000
-0.49616233,-1.04728889,-0.57430792,-1.07444668,2.87979317,0.00000000,0.00000000,-0.39007086,1.88058293,1.40971565,1.22853863,-0.73227495,0.00000000,0.00000000
-0.50436795,-1.05585003,-0.58010262,-1.06727576,2.87979317,0.00000000,0.00000000,-0.40273592,1.87500322,1.42472327,1.23009944,-0.71765995,0.00000000,0.00000000
-0.51225376,-1.06613362,-0.58457607,-1.06110919,2.87979317,0.00000000,0.00000000,-0.41430464,1.87018085,1.43704641,1.23227978,-0.70435315,0.00000000,0.00000000
-0.52052116,-1.07796979,-0.58813560,-1.05534947,2.87979317,0.00000000,0.00000000,-0.42430812,1.86674523,1.44610119,1.23478627,-0.69117063,0.00000000,0.00000000
-0.53052694,-1.09022224,-0.59176183,-1.04941940,2.87979317,0.00000000,0.00000000,-0.43255040,1.86423099,1.45228934,1.23717916,-0.67813939,0.00000000,0.00000000
-0.54313952,-1.10225689,-0.59601027,-1.04341257,2.87979317,0.00000000,0.00000000,-0.43909147,1.86206675,1.45614922,1.23884952,-0.66820651,0.00000000,0.00000000
-0.55844063,-1.11408091,-0.60079384,-1.03790259,2.87979317,0.00000000,0.00000000,-0.44393903,1.86006272,1.45792639,1.23942316,-0.65644145,0.00000000,0.00000000
-0.57644653,-1.12526798,-0.60605282,-1.03329957,2.87979317,0.00000000,0.00000000,-0.44746828,1.85773063,1.45806122,1.23811829,-0.64655375,0.00000000,0.00000000
-0.59684980,-1.13571656,-0.61146683,-1.02971494,2.87979317,0.00000000,0.00000000,-0.45017934,1.85475266,1.45679152,1.23412120,-0.64033300,0.00000000,0.00000000
-0.61904836,-1.14615309,-0.61639875,-1.02645814,2.87979317,0.00000000,0.00000000,-0.45201528,1.85137427,1.45392537,1.22731924,-0.63424855,0.00000000,0.00000000
-0.64211702,-1.15716064,-0.62003207,-1.02280772,2.87979317,0.00000000,0.00000000,-0.45279956,1.84808958,1.44908392,1.21787882,-0.63467568,0.00000000,0.00000000
-0.66519678,-1.16893768,-0.62166578,-1.01837432,2.87979317,0.00000000,0.00000000,-0.45254910,1.84529841,1.44196939,1.20588028,-0.63467091,0.00000000,0.00000000
-0.68796962,-1.18162549,-0.62098533,-1.01316309,2.87979317,0.00000000,0.00000000,-0.45135158,1.84330428,1.43236458,1.19139552,-0.63262814,0.00000000,0.00000000
-0.71082616,-1.19516432,-0.61818862,-1.00736928,2.87979317,0.00000000,0.00000000,-0.44905379,1.84210742,1.42033553,1.17460215,-0.62542015,0.00000000,0.00000000
-0.73441899,-1.20913947,-0.61371195,-1.00103807,2.87979317,0.00000000,0.00000000,-0.44540519,1.84135878,1.40627253,1.15578723,-0.61991495,0.00000000,0.00000000
-0.75925189,-1.22291386,-0.60795307,-0.99404860,2.87979317,0.00000000,0.00000000,-0.44035116,1.84071887,1.39059031,1.13564885,-0.61196774,0.00000000,0.00000000
-0.78508556,-1.23640764,-0.60077906,-0.98649788,2.87979317,0.00000000,0.00000000,-0.43400866,1.84011698,1.37353337,1.11517954,-0.60261661,0.00000000,0.00000000
-0.81099397,-1.25009406,-0.59154993,-0.97867310,2.87979317,0.00000000,0.00000000,-0.42649537,1.83945632,1.35538208,1.09500241,-0.60105699,0.00000000,0.00000000
-0.83635676,-1.26415467,-0.57988578,-0.97074127,2.87979317,0.00000000,0.00000000,-0.41787377,1.83897924,1.33616495,1.07569218,-0.60228449,0.00000000,0.00000000
-0.85964561,-1.27901483,-0.56488645,-0.96276188,2.87979317,0.00000000,0.00000000,-0.40855440,1.83797264,1.31650388,1.05718446,-0.60270321,0.00000000,0.00000000
-0.88037074,-1.29470253,-0.54638612,-0.95484835,2.87979317,0.00000000,0.00000000,-0.39868900,1.83701885,1.29619920,1.03990364,-0.59827125,0.00000000,0.00000000
-0.89821225,-1.31089735,-0.52444118,-0.94689637,2.87979317,0.00000000,0.00000000,-0.38840038,1.83577824,1.27565813,1.02370501,-0.59721386,0.00000000,0.00000000
-0.91322833,-1.32717669,-0.49938735,-0.93883628,2.87979317,0.00000000,0.00000000,-0.37799793,1.83432150,1.25498903,1.00831532,-0.59176958,0.00000000,0.00000000
-0.92556894,-1.34309518,-0.47164428,-0.93059230,2.87979317,0.00000000,0.00000000,-0.36749104,1.83285320,1.23424757,0.99403548,-0.58486831,0.00000000,0.00000000
-0.93539351,-1.35828924,-0.44164208,-0.92214280,2.87979317,0.00000000,0.00000000,-0.35694128,1.83122504,1.21362090,0.98096985,-0.57712495,0.00000000,0.00000000
-0.94250584,-1.37221813,-0.40959084,-0.91324490,2.87979317,0.00000000,0.00000000,-0.34644076,1.82925332,1.19322777,0.96887696,-0.56797737,0.00000000,0.00000000
-0.94668353,-1.38465512,-0.37557182,-0.90387696,2.87979317,0.00000000,0.00000000,-0.33603957,1.82672489,1.17317271,0.95765966,-0.56123793,0.00000000,0.00000000
-0.94786036,-1.39528465,-0.33975193,-0.89399678,2.87979317,0.00000000,0.00000000,-0.32567430,1.82326043,1.15360999,0.94746155,-0.55534792,0.00000000,0.00000000
-0.94634765,-1.40385830,-0.30253837,-0.88365835,2.87979317,0.00000000,0.00000000,-0.31523827,1.81831372,1.13475668,0.93847865,-0.55407095,0.00000000,0.00000000
-0.94284767,-1.41025090,-0.26463148,-0.87299287,2.87979317,0.00000000,0.00000000,-0.30469835,1.81127179,1.11682379,0.93071270,-0.55269504,0.00000000,0.00000000
-0.93842727,-1.41436148,-0.22701913,-0.86208296,2.87979317,0.00000000,0.00000000,-0.29402897,1.80167544,1.09994924,0.92397189,-0.55335730,0.00000000,0.00000000
-0.93427956,-1.41614163,-0.19077532,-0.85092360,2.87979317,0.00000000,0.00000000,-0.28316969,1.78918397,1.08423281,0.91792583,-0.55586213,0.00000000,0.00000000
-0.93126470,-1.41578746,-0.15673018,-0.83952242,2.87979317,0.00000000,0.00000000,-0.27205262,1.77372169,1.06962931,0.91206783,-0.56040430,0.00000000,0.00000000
-0.92975307,-1.41362596,-0.12534358,-0.82788587,2.87979317,0.00000000,0.00000000,-0.26050752,1.75559735,1.05594075,0.90602857,-0.56180394,0.00000000,0.00000000
-0.92962724,-1.41004276,-0.09673174,-0.81601429,2.87979317,0.00000000,0.00000000,-0.24826816,1.73522687,1.04296362,0.89952648,-0.56019109,0.00000000,0.00000000
-0.93044955,-1.40554726,-0.07074868,-0.80404770,2.87979317,0.00000000,0.00000000,-0.23497435,1.71301377,1.03054512,0.89233357,-0.55570889,0.00000000,0.00000000
-0.93174797,-1.40061510,-0.04714848,-0.79222423,2.87979317,0.00000000,0.00000000,-0.22019473,1.68937206,1.01854908,0.88430762,-0.55423230,0.00000000,0.00000000
-0.93309647,-1.39559853,-0.02566057,-0.78077275,2.87979317,0.00000000,0.00000000,-0.20345631,1.66468978,1.00686002,0.87546760,-0.54970980,0.00000000,0.00000000
-0.93411034,-1.39075732,-0.00606159,-0.76979846,2.87979317,0.00000000,0.00000000,-0.18438330,1.63936806,0.99532682,0.86591798,-0.54090154,0.00000000,0.00000000
-0.93449277,-1.38622022,0.01181845,-0.75930566,2.87979317,0.00000000,0.00000000,-0.16277802,1.61379552,0.98375106,0.85579908,-0.52981251,0.00000000,0.00000000
-0.93399954,-1.38216281,0.02812337,-0.74933368,2.87979317,0.00000000,0.00000000,-0.13865481,1.58825767,0.97191757,0.84517425,-0.51991737,0.00000000,0.00000000
-0.93239671,-1.37877548,0.04297539,-0.73994380,2.87979317,0.00000000,0.00000000,-0.11196455,1.56333542,0.95954710,0.83453840,-0.50828087,0.00000000,0.00000000
-0.92957586,-1.37626338,0.05643072,-0.73128623,2.87979317,0.00000000,0.00000000,-0.08262260,1.53963459,0.94640231,0.82445574,-0.49372312,0.00000000,0.00000000
-0.92560083,-1.37484312,0.06846191,-0.72362614,2.87979317,0.00000000,0.00000000,-0.05091292,1.51767635,0.93216467,0.81481659,-0.48648903,0.00000000,0.00000000
-0.92074639,-1.37472701,0.07893059,-0.71732497,2.87979317,0.00000000,0.00000000,-0.01755889,1.49714208,0.91662359,0.80430645,-0.47612843,0.00000000,0.00000000
-0.91540754,-1.37605417,0.08763427,-0.71276134,2.87979317,0.00000000,0.00000000,0.01639855,1.47777975,0.89940155,0.79130614,-0.46788636,0.00000000,0.00000000
-0.91007280,-1.37888837,0.09434359,-0.71030933,2.87979317,0.00000000,0.00000000,0.04994255,1.45975149,0.87997282,0.77471012,-0.46201402,0.00000000,0.00000000
-0.90518957,-1.38324308,0.09886868,-0.71025139,2.87979317,0.00000000,0.00000000,0.08173653,1.44336224,0.85763788,0.75362670,-0.45383188,0.00000000,0.00000000
-0.90098614,-1.38920009,0.10112900,-0.71267188,2.87979317,0.00000000,0.00000000,0.11015718,1.42860794,0.83166957,0.72706795,-0.44749668,0.00000000,0.00000000
-0.89744723,-1.39686739,0.10117106,-0.71747530,2.87979317,0.00000000,0.00000000,0.13382196,1.41555417,0.80142504,0.69436938,-0.43608463,0.00000000,0.00000000
-0.89447564,-1.40606666,0.09914583,-0.72442740,2.87979317,0.00000000,0.00000000,0.15144069,1.40439069,0.76629239,0.65509415,-0.41750225,0.00000000,0.00000000
-0.89186901,-1.41641939,0.09521749,-0.73314267,2.87979317,0.00000000,0.00000000,0.16159765,1.39524186,0.72569364,0.60879076,-0.40150183,0.00000000,0.00000000
-0.88933027,-1.42741811,0.08957183,-0.74316025,2.87979317,0.00000000,0.00000000,0.16301036,1.38805902,0.67923164,0.55506974,-0.39215142,0.00000000,0.00000000
-0.88631320,-1.43842852,0.08250270,-0.75400084,2.87979317,0.00000000,0.00000000,0.15469688,1.38240397,0.62680179,0.49356738,-0.37695563,0.00000000,0.00000000
-0.88237625,-1.44868720,0.07422938,-0.76510954,2.87979317,0.00000000,0.00000000,0.13605499,1.37760091,0.56858486,0.42407668,-0.36479697,0.00000000,0.00000000
-0.87713784,-1.45727289,0.06492369,-0.77581203,2.87979317,0.00000000,0.00000000,0.10679916,1.37293065,0.50500196,0.34661460,-0.34923345,0.00000000,0.00000000
-0.87066877,-1.46312237,0.05450516,-0.78530324,2.87979317,0.00000000,0.00000000,0.06702159,1.36771595,0.43671635,0.26147199,-0.33301476,0.00000000,0.00000000
-0.86307412,-1.46565402,0.04286953,-0.79320401,2.87979317,0.00000000,0.00000000,0.01712172,1.36127412,0.36461115,0.16918159,-0.32100675,0.00000000,0.00000000
-0.85485017,-1.46496308,0.02971700,-0.80006903,2.87979317,0.00000000,0.00000000,-0.04222498,1.35288703,0.28977549,0.07049526,-0.31144339,0.00000000,0.00000000
-0.84676933,-1.46108556,0.01462039,-0.80702621,2.87979317,0.00000000,0.00000000,-0.11015609,1.34198642,0.21347173,-0.03353583,-0.29855058,0.00000000,0.00000000
-0.83904886,-1.45367217,-0.00255142,-0.81490117,2.87979317,0.00000000,0.00000000,-0.18562061,1.32811368,0.13710774,-0.14161754,-0.29069948,0.00000000,0.00000000
-0.83149922,-1.44208920,-0.02172391,-0.82403421,2.87979317,0.00000000,0.00000000,-0.26740062,1.31086230,0.06218993,-0.25231913,-0.28592828,0.00000000,0.00000000
-0.82451016,-1.42660379,-0.04312311,-0.83518940,2.87979317,0.00000000,0.00000000,-0.35420009,1.28990662,-0.00973641,-0.36411953,-0.27699804,0.00000000,0.00000000
-0.81748796,-1.40794158,-0.06645552,-0.84941590,2.87979317,0.00000000,0.00000000,-0.44475356,1.26501811,-0.07714172,-0.47547883,-0.26443219,0.00000000,0.00000000
-0.81009221,-1.38509119,-0.09160940,-0.86693609,2.87979317,0.00000000,0.00000000,-0.53780508,1.23617363,-0.13856231,-0.58488947,-0.25043881,0.00000000,0.00000000
-0.80186391,-1.35822225,-0.11835928,-0.88859439,2.87979317,0.00000000,0.00000000,-0.63201249,1.20358872,-0.19264452,-0.69094795,-0.24059708,0.00000000,0.00000000
-0.78993422,-1.32935452,-0.14495927,-0.91539907,2.87979317,0.00000000,0.00000000,-0.72592539,1.16777945,-0.23817110,-0.79238266,-0.23108898,0.00000000,0.00000000
-0.77315849,-1.29882073,-0.17063238,-0.94634795,2.87979317,0.00000000,0.00000000,-0.81793839,1.12968636,-0.27409267,-0.88801897,-0.22051640,0.00000000,0.00000000
-0.75401747,-1.26522267,-0.19683954,-0.98021507,2.87979317,0.00000000,0.00000000,-0.90626937,1.09025919,-0.29955229,-0.97688454,-0.20893861,0.00000000,0.00000000
-0.73240691,-1.22776437,-0.22347371,-1.01560247,2.87979317,0.00000000,0.00000000,-0.98909396,1.05059063,-0.31391361,-1.05814743,-0.19601649,0.00000000,0.00000000
-0.70821208,-1.18748868,-0.25034428,-1.05128455,2.87979317,0.00000000,0.00000000,-1.06469285,1.01177275,-0.31674972,-1.13116050,-0.18835481,0.00000000,0.00000000
-0.68112600,-1.14494812,-0.27707490,-1.08591127,2.87979317,0.00000000,0.00000000,-1.13156438,0.97471273,-0.30791891,-1.19546723,-0.18372984,0.00000000,0.00000000
-0.65157080,-1.10074282,-0.30376640,-1.11846542,2.87979317,0.00000000,0.00000000,-1.18860078,0.94011319,-0.28763574,-1.25080097,-0.17356838,0.00000000,0.00000000
-0.62013274,-1.05577898,-0.33062816,-1.14893436,2.87979317,0.00000000,0.00000000,-1.23534846,0.90832239,-0.25667620,-1.29713190,-0.16735049,0.00000000,0.00000000
-0.58703524,-1.01147079,-0.35758182,-1.17813063,2.87979317,0.00000000,0.00000000,-1.27229190,0.87908465,-0.21662675,-1.33482134,-0.16141391,0.00000000,0.00000000
-0.55269629,-0.96910626,-0.38471651,-1.20687914,2.87979317,0.00000000,0.00000000,-1.30089271,0.85152560,-0.16985667,-1.36476314,-0.15519403,0.00000000,0.00000000
-0.51766527,-0.92971718,-0.41226348,-1.23586571,2.87979317,0.00000000,0.00000000,-1.32316470,0.82428926,-0.11904211,-1.38833213,-0.15408869,0.00000000,0.00000000
-0.48231968,-0.89402562,-0.44035429,-1.26556480,2.87979317,0.00000000,0.00000000,-1.34088254,0.79593796,-0.06638715,-1.40704691,-0.14931986,0.00000000,0.00000000
-0.44682625,-0.86224997,-0.46898195,-1.29609883,2.87979317,0.00000000,0.00000000,-1.35519135,0.76538944,-0.01331935,-1.42214394,-0.14771253,0.00000000,0.00000000
-0.41123712,-0.83428454,-0.49807546,-1.32735074,2.87979317,0.00000000,0.00000000,-1.36683667,0.73201650,0.03918829,-1.43441427,-0.14869931,0.00000000,0.00000000
-0.37540779,-0.80995798,-0.52741539,-1.35907888,2.87979317,0.00000000,0.00000000,-1.37650585,0.69574553,0.09023436,-1.44409418,-0.14965741,0.00000000,0.00000000
-0.33929858,-0.78892481,-0.55691200,-1.39082932,2.87979317,0.00000000,0.00000000,-1.38493359,0.65676558,0.13887501,-1.45118177,-0.15254028,0.00000000,0.00000000
-0.30275238,-0.77070212,-0.58636987,-1.42187178,2.87979317,0.00000000,0.00000000,-1.39272487,0.61567700,0.18430330,-1.45534039,-0.15955521,0.00000000,0.00000000
-0.26567748,-0.75446969,-0.61565238,-1.45111144,2.87979317,0.00000000,0.00000000,-1.40040112,0.57338077,0.22581463,-1.45598590,-0.16523063,0.00000000,0.00000000
-0.22815329,-0.73908967,-0.64477789,-1.47721708,2.87979317,0.00000000,0.00000000,-1.40807080,0.53068703,0.26309904,-1.45264292,-0.16788159,0.00000000,0.00000000
-0.19039820,-0.72323751,-0.67387539,-1.49867964,2.87979317,0.00000000,0.00000000,-1.41568673,0.48820925,0.29601809,-1.44512355,-0.17297360,0.00000000,0.00000000
-0.15253690,-0.70541990,-0.70292228,-1.51372957,2.87979317,0.00000000,0.00000000,-1.42298615,0.44658431,0.32467228,-1.43344533,-0.17818180,0.00000000,0.00000000
-0.11469856,-0.68368143,-0.73181188,-1.52026224,2.87979317,0.00000000,0.00000000,-1.42929482,0.40636018,0.34953833,-1.41771817,-0.18855366,0.00000000,0.00000000
-0.07671876,-0.65602601,-0.75999284,-1.51606333,2.87979317,0.00000000,0.00000000,-1.43324423,0.36820984,0.37171182,-1.39806879,-0.20070975,0.00000000,0.00000000
-0.03796151,-0.62098384,-0.78623259,-1.49923849,2.87979317,0.00000000,0.00000000,-1.43287277,0.33306414,0.39282477,-1.37482870,-0.21207252,0.00000000,0.00000000
0.00250283,-0.57816041,-0.80877715,-1.46869230,2.87979317,0.00000000,0.00000000,-1.42710423,0.30107763,0.41375718,-1.34997892,-0.22153760,0.00000000,0.00000000
0.04535272,-0.52823859,-0.82594663,-1.42420805,2.87979317,0.00000000,0.00000000,-1.41627073,0.27087688,0.43412271,-1.32772696,-0.22985685,0.00000000,0.00000000
0.09083939,-0.47256798,-0.83642834,-1.36622357,2.87979317,0.00000000,0.00000000,-1.40042865,0.24128059,0.45374611,-1.31117272,-0.23308730,0.00000000,0.00000000
0.13893402,-0.41278049,-0.83927524,-1.29561090,2.87979317,0.00000000,0.00000000,-1.37970495,0.21179824,0.47249034,-1.30077791,-0.23712578,0.00000000,0.00000000
0.18950608,-0.35043487,-0.83388227,-1.21352160,2.87979317,0.00000000,0.00000000,-1.35442126,0.18296504,0.49026531,-1.29403162,-0.23989059,0.00000000,0.00000000
0.24229044,-0.28711614,-0.81998003,-1.12127233,2.87979317,0.00000000,0.00000000,-1.32504141,0.15524392,0.50690854,-1.28834343,-0.24027134,0.00000000,0.00000000
0.29678857,-0.22456130,-0.79759037,-1.02029479,2.87979317,0.00000000,0.00000000,-1.29192233,0.12900104,0.52237815,-1.28194129,-0.24270390,0.00000000,0.00000000
0.35235345,-0.16471530,-0.76700491,-0.91209954,2.87979317,0.00000000,0.00000000,-1.25607336,0.10481153,0.53635269,-1.27386868,-0.24722061,0.00000000,0.00000000
0.40850425,-0.10937532,-0.72879761,-0.79818642,2.87979317,0.00000000,0.00000000,-1.21924484,0.08286235,0.54809141,-1.26421010,-0.24867782,0.00000000,0.00000000
0.46500665,-0.06002306,-0.68378210,-0.67999291,2.87979317,0.00000000,0.00000000,-1.18265867,0.06325328,0.55736774,-1.25342178,-0.25450647,0.00000000,0.00000000
0.52181184,-0.01742843,-0.63295686,-0.55888641,2.87979317,0.00000000,0.00000000,-1.14762509,0.04592032,0.56400281,-1.24225378,-0.26465234,0.00000000,0.00000000
0.57875824,0.01865194,-0.57745898,-0.43615749,2.87979317,0.00000000,0.00000000,-1.11552334,0.03048239,0.56770581,-1.23165154,-0.27804229,0.00000000,0.00000000
0.63520646,0.04940699,-0.51851612,-0.31301484,2.87979317,0.00000000,0.00000000,-1.08750904,0.01656800,0.56820697,-1.22226429,-0.28662157,0.00000000,0.00000000
0.68990159,0.07649156,-0.45739794,-0.19060209,2.87979317,0.00000000,0.00000000,-1.06444836,0.00414681,0.56527340,-1.21409261,-0.29532301,0.00000000,0.00000000
0.74117047,0.10156149,-0.39537168,-0.06999370,2.87979317,0.00000000,0.00000000,-1.04656732,-0.00681047,0.55880880,-1.20658600,-0.30569947,0.00000000,0.00000000
0.78736383,0.12598832,-0.33366299,0.04779335,2.87979317,0.00000000,0.00000000,-1.03398073,-0.01644558,0.54860026,-1.19893849,-0.31905261,0.00000000,0.00000000
0.82712525,0.15080650,-0.27342984,0.16176750,2.87979317,0.00000000,0.00000000,-1.02688229,-0.02505829,0.53434491,-1.19051373,-0.33322680,0.00000000,0.00000000
0.85940385,0.17672947,-0.21574493,0.27090779,2.87979317,0.00000000,0.00000000,-1.02483344,-0.03318319,0.51616025,-1.18130040,-0.34548885,0.00000000,0.00000000
0.88344705,0.20411867,-0.16158003,0.37412667,2.87979317,0.00000000,0.00000000,-1.02748585,-0.04106239,0.49426979,-1.17149103,-0.35533491,0.00000000,0.00000000
0.89885116,0.23297502,-0.11177798,0.47028321,2.87979317,0.00000000,0.00000000,-1.03562105,-0.04844274,0.46832511,-1.16098773,-0.36697662,0.00000000,0.00000000
0.90550977,0.26306736,-0.06702907,0.55826640,2.87979317,0.00000000,0.00000000,-1.05236948,-0.05439324,0.43655840,-1.14925063,-0.37359497,0.00000000,0.00000000
0.90350181,0.29398289,-0.02786057,0.63702822,2.87979317,0.00000000,0.00000000,-1.08263969,-0.05778052,0.39596874,-1.13593960,-0.38000917,0.00000000,0.00000000
0.89305186,0.32506332,0.00538953,0.70555645,2.87979317,0.00000000,0.00000000,-1.13085473,-0.05828811,0.34371704,-1.12204790,-0.38509282,0.00000000,0.00000000
0.87460089,0.35528854,0.03259005,0.76289964,2.87979317,0.00000000,0.00000000,-1.19679022,-0.05666820,0.28009763,-1.11141455,-0.38908818,0.00000000,0.00000000
0.84886110,0.38336807,0.05382381,0.80825883,2.87979317,0.00000000,0.00000000,-1.27186978,-0.05710743,0.21072546,-1.11176038,-0.39507741,0.00000000,0.00000000
0.81703854,0.40808371,0.06942213,0.84112000,2.87979317,0.00000000,0.00000000,-1.34192991,-0.06241903,0.14494653,-1.12644374,-0.39787033,0.00000000,0.00000000
0.78063649,0.42878020,0.07997639,0.86139262,2.87979317,0.00000000,0.00000000,-1.39786351,-0.06691404,0.08931613,-1.14799201,-0.39905635,0.00000000,0.00000000
0.74139172,0.44524521,0.08631634,0.86949843,2.87979317,0.00000000,0.00000000,-1.43991256,-0.07098524,0.04340147,-1.17458391,-0.39906824,0.00000000,0.00000000
0.70115179,0.45790753,0.08942068,0.86657488,2.87979317,0.00000000,0.00000000,-1.47106862,-0.07429487,0.00487163,-1.20446801,-0.39524987,0.00000000,0.00000000
0.66117764,0.46780124,0.09019793,0.85447967,2.87979317,0.00000000,0.00000000,-1.49106431,-0.07730444,-0.02615182,-1.23643279,-0.38958022,0.00000000,0.00000000
0.62234306,0.47569838,0.08969785,0.83522409,2.87979317,0.00000000,0.00000000,-1.50123298,-0.08099036,-0.05018652,-1.26997840,-0.38398474,0.00000000,0.00000000
0.58645976,0.48143306,0.08972252,0.81047910,2.87979317,0.00000000,0.00000000,-1.50338554,-0.08531949,-0.06766904,-1.30407929,-0.37694338,0.00000000,0.00000000
0.55607444,0.48525995,0.09238026,0.78303659,2.87979317,0.00000000,0.00000000,-1.49879789,-0.08938022,-0.07851937,-1.33685660,-0.36703911,0.00000000,0.00000000
0.53081632,0.48911843,0.09805901,0.75820464,2.87979317,0.00000000,0.00000000,-1.48841906,-0.09168697,-0.08271891,-1.36606252,-0.36419833,0.00000000,0.00000000
0.51171130,0.49302134,0.10760561,0.73986399,2.87979317,0.00000000,0.00000000,-1.47340298,-0.09097382,-0.08077366,-1.39001322,-0.35849556,0.00000000,0.00000000
0.49976832,0.49622101,0.12173436,0.72933412,2.87979317,0.00000000,0.00000000,-1.45513284,-0.08687675,-0.07360256,-1.40799761,-0.35120177,0.00000000,0.00000000
0.49418825,0.49785361,0.14026919,0.72654730,2.87979317,0.00000000,0.00000000,-1.43483114,-0.07947757,-0.06220965,-1.41983283,-0.34433579,0.00000000,0.00000000
