isaac-sim2real/sage/motion_files/wr75s/amass/0-CMU_55_55_03_poses_idx17.txt
l_joint1,l_joint2,l_joint3,l_joint4,l_joint5,l_joint6,l_joint7,r_joint1,r_joint2,r_joint3,r_joint4,r_joint5,r_joint6,r_joint7
-1.63887262,0.04764269,-0.14202167,-0.57441026,-0.07705441,0.00000000,0.00000000,0.14731121,0.90393746,0.02434215,-0.27290288,0.19980125,0.00000000,0.00000000
-1.64459181,0.03489602,-0.13464817,-0.57656342,-0.08982009,0.00000000,0.00000000,0.14799170,0.91568381,0.02225103,-0.26078451,0.20705672,0.00000000,0.00000000
-1.65525472,0.01325046,-0.12027392,-0.57913750,-0.10587136,0.00000000,0.00000000,0.14966996,0.94054890,0.01880402,-0.23636395,0.21352603,0.00000000,0.00000000
-1.66981649,-0.01082560,-0.09922626,-0.57877630,-0.12277067,0.00000000,0.00000000,0.15270320,0.97743750,0.01512474,-0.20094666,0.22061074,0.00000000,0.00000000
-1.68595099,-0.02724113,-0.07317303,-0.57033157,-0.14124276,0.00000000,0.00000000,0.15669888,1.01679540,0.01244274,-0.16124077,0.22416387,0.00000000,0.00000000
-1.69901574,-0.02646697,-0.04596756,-0.54947227,-0.15909238,0.00000000,0.00000000,0.16036171,1.04734099,0.01141273,-0.12457660,0.22542416,0.00000000,0.00000000
-1.70311368,-0.00555767,-0.02213485,-0.51632673,-0.17805226,0.00000000,0.00000000,0.16277507,1.06233287,0.01192368,-0.09466458,0.22719681,0.00000000,0.00000000
-1.69484437,0.03317954,-0.00350680,-0.47367480,-0.19948265,0.00000000,0.00000000,0.16417831,1.05814970,0.01356623,-0.07324564,0.22813107,0.00000000,0.00000000
-1.67323196,0.08640687,0.01018765,-0.42421374,-0.21974927,0.00000000,0.00000000,0.16552742,1.03342676,0.01598120,-0.06137136,0.22909197,0.00000000,0.00000000
-1.63929653,0.14996570,0.02016646,-0.37077352,-0.23787946,0.00000000,0.00000000,0.16812389,0.98989457,0.01888494,-0.05925126,0.23159665,0.00000000,0.00000000
-1.59623539,0.21794230,0.02807945,-0.31690082,-0.25663561,0.00000000,0.00000000,0.17310867,0.93238771,0.02197720,-0.06581471,0.23565982,0.00000000,0.00000000
-1.54808080,0.28362396,0.03530034,-0.26624304,-0.27679130,0.00000000,0.00000000,0.18066497,0.86644727,0.02491405,-0.07908499,0.23576626,0.00000000,0.00000000
-1.49810708,0.34180492,0.04259508,-0.22134855,-0.29724348,0.00000000,0.00000000,0.18968567,0.79648787,0.02734974,-0.09700106,0.23446126,0.00000000,0.00000000
-1.44882417,0.38902432,0.05033171,-0.18372914,-0.32182959,0.00000000,0.00000000,0.19820492,0.72647172,0.02892462,-0.11760140,0.23232831,0.00000000,0.00000000
-1.40252781,0.42353660,0.05871999,-0.15403110,-0.34882331,0.00000000,0.00000000,0.20397255,0.66084468,0.02928185,-0.13877957,0.23000447,0.00000000,0.00000000
-1.36167169,0.44472882,0.06791119,-0.13237961,-0.37696210,0.00000000,0.00000000,0.20490214,0.60450733,0.02808195,-0.15818410,0.23098287,0.00000000,0.00000000
-1.32887387,0.45277083,0.07803268,-0.11857131,-0.40238672,0.00000000,0.00000000,0.19943660,0.56236762,0.02506988,-0.17337292,0.22981623,0.00000000,0.00000000
-1.30650222,0.44804963,0.08919091,-0.11235765,-0.42729187,0.00000000,0.00000000,0.18666746,0.53839296,0.02011318,-0.18226235,0.22427723,0.00000000,0.00000000
-1.29639745,0.43078074,0.10148963,-0.11361528,-0.44988310,0.00000000,0.00000000,0.16624914,0.53511643,0.01317098,-0.18345700,0.21603145,0.00000000,0.00000000
-1.29989743,0.40109915,0.11505863,-0.12232289,-0.47240078,0.00000000,0.00000000,0.13834098,0.55378562,0.00427249,-0.17621991,0.20700215,0.00000000,0.00000000
-1.31804705,0.35951862,0.13008884,-0.13834094,-0.49451068,0.00000000,0.00000000,0.10360253,0.59469736,-0.00647742,-0.16029340,0.19386420,0.00000000,0.00000000
-1.35129106,0.30723411,0.14684048,-0.16128168,-0.51441789,0.00000000,0.00000000,0.06315064,0.65666658,-0.01890840,-0.13609077,0.18020119,0.00000000,0.00000000
-1.39871836,0.24668866,0.16557983,-0.19022647,-0.53441191,0.00000000,0.00000000,0.01857296,0.73600686,-0.03277943,-0.10490324,0.16583703,0.00000000,0.00000000
-1.45589209,0.18216866,0.18618557,-0.22313033,-0.55480134,0.00000000,0.00000000,-0.02812430,0.82559806,-0.04772831,-0.06886937,0.15589696,0.00000000,0.00000000
-1.51213145,0.11963640,0.20732979,-0.25620207,-0.57211977,0.00000000,0.00000000,-0.07501221,0.91493934,-0.06328460,-0.03143370,0.14295633,0.00000000,0.00000000
-1.55501854,0.06436431,0.22678061,-0.28504124,-0.58868152,0.00000000,0.00000000,-0.12108327,0.99197799,-0.07898973,0.00235511,0.13002591,0.00000000,0.00000000
-1.57911301,0.01878100,0.24317881,-0.30730298,-0.60522878,0.00000000,0.00000000,-0.16663453,1.04658186,-0.09461033,0.02737030,0.11916745,0.00000000,0.00000000
-1.58392143,-0.01555348,0.25610304,-0.32181832,-0.62392324,0.00000000,0.00000000,-0.21289901,1.07363570,-0.11016914,0.04095442,0.10336952,0.00000000,0.00000000
-1.57013929,-0.03714494,0.26551542,-0.32766891,-0.64278364,0.00000000,0.00000000,-0.26118696,1.07277560,-0.12579657,0.04314669,0.08506656,0.00000000,0.00000000
-1.53883433,-0.04427890,0.27167353,-0.32388440,-0.66290247,0.00000000,0.00000000,-0.31214058,1.04791296,-0.14157435,0.03628422,0.06946855,0.00000000,0.00000000
-1.49252307,-0.03516695,0.27551115,-0.30985487,-0.67885381,0.00000000,0.00000000,-0.36507657,1.00952387,-0.15744178,0.02607971,0.05014405,0.00000000,0.00000000
-1.43906951,-0.01118607,0.27953911,-0.28814188,-0.69465786,0.00000000,0.00000000,-0.41789061,0.97331095,-0.17322846,0.02041639,0.03527923,0.00000000,0.00000000
-1.39088333,0.01795035,0.28681996,-0.26674774,-0.71310765,0.00000000,0.00000000,-0.46813208,0.94861037,-0.18879326,0.02250897,0.02713872,0.00000000,0.00000000
-1.35423195,0.04311260,0.29818985,-0.25117630,-0.73746216,0.00000000,0.00000000,-0.51459384,0.93703717,-0.20404848,0.03149762,0.01695050,0.00000000,0.00000000
-1.33092022,0.05948478,0.31339365,-0.24350315,-0.75462478,0.00000000,0.00000000,-0.55677712,0.93782848,-0.21886571,0.04585899,0.00850797,0.00000000,0.00000000
-1.32156467,0.06450312,0.33219302,-0.24470131,-0.77116275,0.00000000,0.00000000,-0.59413666,0.94963408,-0.23303948,0.06423085,0.00399590,0.00000000,0.00000000
-1.32585692,0.05710470,0.35449880,-0.25529969,-0.78397822,0.00000000,0.00000000,-0.62593806,0.97079647,-0.24629872,0.08539438,-0.00196719,0.00000000,0.00000000
-1.34243822,0.03752355,0.38033494,-0.27554047,-0.79279298,0.00000000,0.00000000,-0.65132982,0.99954534,-0.25832871,0.10827475,-0.00970199,0.00000000,0.00000000
-1.36823428,0.00632751,0.40948147,-0.30504459,-0.80162770,0.00000000,0.00000000,-0.66946822,1.03371716,-0.26880360,0.13190816,-0.00989959,0.00000000,0.00000000
-1.39510798,-0.03459193,0.44019139,-0.34013659,-0.80884993,0.00000000,0.00000000,-0.68010831,1.07015383,-0.27752787,0.15536050,-0.00723423,0.00000000,0.00000000
-1.41050923,-0.07949650,0.46904436,-0.37268984,-0.81652266,0.00000000,0.00000000,-0.68551385,1.10294259,-0.28498864,0.17729454,-0.00559129,0.00000000,0.00000000
-1.40881026,-0.12084661,0.49445432,-0.39674357,-0.82140589,0.00000000,0.00000000,-0.69179916,1.12309229,-0.29280838,0.19570979,-0.00164740,0.00000000,0.00000000
-1.39000571,-0.15325437,0.51650995,-0.40951994,-0.82678276,0.00000000,0.00000000,-0.70476842,1.12362969,-0.30265871,0.20903128,0.00513651,0.00000000,0.00000000
-1.35509241,-0.17338419,0.53570783,-0.40958613,-0.83024508,0.00000000,0.00000000,-0.72711676,1.10285413,-0.31540161,0.21737570,0.01547230,0.00000000,0.00000000
-1.30517983,-0.17918120,0.55283326,-0.39617774,-0.83388251,0.00000000,0.00000000,-0.75938606,1.06163156,-0.33136979,0.22176549,0.03071155,0.00000000,0.00000000
-1.24414754,-0.17184938,0.56974483,-0.37204629,-0.83494896,0.00000000,0.00000000,-0.79979420,1.00405979,-0.35012484,0.22431654,0.04497936,0.00000000,0.00000000
-1.18075264,-0.16129683,0.58891630,-0.34798604,-0.83780307,0.00000000,0.00000000,-0.84215713,0.93921572,-0.36936030,0.22742806,0.05748276,0.00000000,0.00000000
-1.12070978,-0.16065888,0.61058980,-0.33416340,-0.84267032,0.00000000,0.00000000,-0.88009828,0.87354910,-0.38625893,0.22988963,0.06799509,0.00000000,0.00000000
-1.06516910,-0.17597575,0.63410902,-0.33389962,-0.84588408,0.00000000,0.00000000,-0.91293871,0.80805558,-0.40004507,0.22969919,0.08302397,0.00000000,0.00000000
-1.01390362,-0.20806448,0.65910578,-0.34751949,-0.85285312,0.00000000,0.00000000,-0.94264168,0.74293834,-0.41082025,0.22569419,0.09787415,0.00000000,0.00000000
-0.96647060,-0.25532383,0.68550128,-0.37476838,-0.85432899,0.00000000,0.00000000,-0.97152853,0.67880768,-0.41873831,0.21721110,0.11315347,0.00000000,0.00000000
-0.92225355,-0.31528470,0.71325248,-0.41515899,-0.85723281,0.00000000,0.00000000,-1.00196147,0.61661094,-0.42397860,0.20402543,0.13271989,0.00000000,0.00000000
-0.88055193,-0.38627174,0.74205959,-0.46796697,-0.85669529,0.00000000,0.00000000,-1.03619468,0.55827206,-0.42673606,0.18643153,0.15060234,0.00000000,0.00000000
-0.84063441,-0.46768144,0.77120411,-0.53188908,-0.85929292,0.00000000,0.00000000,-1.07628357,0.50618219,-0.42722827,0.16503663,0.17329313,0.00000000,0.00000000
-0.80186880,-0.55790728,0.79984081,-0.60426414,-0.86056942,0.00000000,0.00000000,-1.12405217,0.46200639,-0.42571884,0.14026988,0.20078529,0.00000000,0.00000000
-0.76373845,-0.65286130,0.82687712,-0.67956525,-0.86461842,0.00000000,0.00000000,-1.18107426,0.42568019,-0.42253336,0.11198009,0.23129354,0.00000000,0.00000000
-0.72634089,-0.74480224,0.85106647,-0.74910414,-0.86644769,0.00000000,0.00000000,-1.24853659,0.39432994,-0.41807988,0.07902164,0.26565424,0.00000000,0.00000000
-0.69134468,-0.82688373,0.87124294,-0.80615181,-0.86786699,0.00000000,0.00000000,-1.32664263,0.36161542,-0.41287708,0.03882301,0.30080846,0.00000000,0.00000000
-0.66148502,-0.89786601,0.88650024,-0.84919721,-0.87231046,0.00000000,0.00000000,-1.41222870,0.31847817,-0.40746585,-0.01198283,0.33396029,0.00000000,0.00000000
-0.63908029,-0.95841467,0.89649475,-0.87840390,-0.87716049,0.00000000,0.00000000,-1.49608767,0.25660110,-0.40195331,-0.07417034,0.36373815,0.00000000,0.00000000
-0.62555331,-1.00813663,0.90146047,-0.89369148,-0.87654054,0.00000000,0.00000000,-1.56812501,0.17548177,-0.39559901,-0.14380288,0.39121825,0.00000000,0.00000000
-0.62226814,-1.04702151,0.90139830,-0.89517170,-0.87725675,0.00000000,0.00000000,-1.62200546,0.07827567,-0.38731557,-0.21729732,0.41807127,0.00000000,0.00000000
-0.63059336,-1.07555437,0.89602244,-0.88333064,-0.88029057,0.00000000,0.00000000,-1.65362501,-0.03168507,-0.37601584,-0.29237387,0.44685441,0.00000000,0.00000000
-0.65133601,-1.09387887,0.88521999,-0.85910022,-0.88494867,0.00000000,0.00000000,-1.65964222,-0.15089822,-0.36067227,-0.36701944,0.47122970,0.00000000,0.00000000
-0.68396217,-1.10162044,0.86953336,-0.82434809,-0.88842422,0.00000000,0.00000000,-1.63714504,-0.27530417,-0.34031957,-0.43916446,0.49660602,0.00000000,0.00000000
-0.72589380,-1.09892011,0.85038656,-0.78282541,-0.89256859,0.00000000,0.00000000,-1.58378446,-0.40000516,-0.31410533,-0.50662410,0.52053523,0.00000000,0.00000000
-0.77256107,-1.08730257,0.82995737,-0.74003065,-0.89902616,0.00000000,0.00000000,-1.49841011,-0.51933128,-0.28143466,-0.56719553,0.54271376,0.00000000,0.00000000
-0.81848615,-1.06884408,0.81080729,-0.70144546,-0.90765017,0.00000000,0.00000000,-1.38175452,-0.62710398,-0.24212453,-0.61883378,0.56849533,0.00000000,0.00000000
-0.85850263,-1.04516113,0.79548234,-0.67108804,-0.91771382,0.00000000,0.00000000,-1.23695493,-0.71690625,-0.19655031,-0.65977693,0.59198779,0.00000000,0.00000000
-0.88897115,-1.01675665,0.78599936,-0.65056813,-0.92087644,0.00000000,0.00000000,-1.06963897,-0.78304702,-0.14573829,-0.68890679,0.61178088,0.00000000,0.00000000
-0.90854317,-0.98344588,0.78332949,-0.63944358,-0.91729718,0.00000000,0.00000000,-0.88775408,-0.82197011,-0.09152746,-0.70627999,0.63293260,0.00000000,0.00000000
-0.91770339,-0.94649106,0.78729135,-0.63718545,-0.91696048,0.00000000,0.00000000,-0.70077914,-0.83317941,-0.03651432,-0.71330893,0.65224433,0.00000000,0.00000000
-0.91819543,-0.90922165,0.79669476,-0.64362097,-0.91641825,0.00000000,0.00000000,-0.51689994,-0.81886488,0.01699350,-0.71210927,0.67118567,0.00000000,0.00000000
-0.91283417,-0.87523276,0.80944926,-0.65763497,-0.91545063,0.00000000,0.00000000,-0.34164456,-0.78171378,0.06763255,-0.70427763,0.69649136,0.00000000,0.00000000
-0.90539020,-0.84592015,0.82262176,-0.67666125,-0.91542584,0.00000000,0.00000000,-0.17851952,-0.72374809,0.11483611,-0.69055134,0.72222114,0.00000000,0.00000000
-0.89933467,-0.81881273,0.83331871,-0.69781017,-0.91533321,0.00000000,0.00000000,-0.02993027,-0.64609104,0.15856990,-0.67087781,0.74084705,0.00000000,0.00000000
-0.89732701,-0.79288054,0.83879191,-0.71700740,-0.91085428,0.00000000,0.00000000,0.10235335,-0.54859698,0.19908990,-0.64426470,0.75394738,0.00000000,0.00000000
-0.90120870,-0.77013445,0.83661884,-0.73154712,-0.90516233,0.00000000,0.00000000,0.21692032,-0.43096027,0.23666015,-0.60955781,0.76953632,0.00000000,0.00000000
-0.91185397,-0.75345057,0.82523406,-0.74072605,-0.89896470,0.00000000,0.00000000,0.31429726,-0.29456052,0.27186108,-0.56716514,0.78802747,0.00000000,0.00000000
-0.92912376,-0.74343359,0.80422819,-0.74441868,-0.89275908,0.00000000,0.00000000,0.39923823,-0.14345691,0.30620378,-0.52030039,0.80661333,0.00000000,0.00000000
-0.95212144,-0.73764932,0.77416277,-0.74237502,-0.88717657,0.00000000,0.00000000,0.47505665,0.01309209,0.33999524,-0.47497916,0.81907123,0.00000000,0.00000000
-0.97939742,-0.73176730,0.73633468,-0.73417228,-0.87890619,0.00000000,0.00000000,0.53944182,0.16093248,0.37116009,-0.43780181,0.83181256,0.00000000,0.00000000
-1.00933278,-0.72152990,0.69230348,-0.71961349,-0.87249273,0.00000000,0.00000000,0.59251451,0.29302749,0.39894366,-0.41056347,0.84872597,0.00000000,0.00000000
-1.04037929,-0.70363796,0.64354807,-0.69881529,-0.86345506,0.00000000,0.00000000,0.63595134,0.40732625,0.42352071,-0.39318189,0.86499387,0.00000000,0.00000000
-1.07088232,-0.67498642,0.59158111,-0.67169607,-0.85259676,0.00000000,0.00000000,0.67069018,0.50209743,0.44482586,-0.38533512,0.87939316,0.00000000,0.00000000
-1.09922326,-0.63303471,0.53784800,-0.63806689,-0.84370685,0.00000000,0.00000000,0.69747871,0.57543802,0.46264756,-0.38659489,0.89462876,0.00000000,0.00000000
-1.12373054,-0.57643962,0.48430994,-0.59853834,-0.82993799,0.00000000,0.00000000,0.71717238,0.62566960,0.47680470,-0.39677891,0.91306037,0.00000000,0.00000000
-1.14302349,-0.50691450,0.43414250,-0.55550480,-0.81808877,0.00000000,0.00000000,0.73045295,0.65196615,0.48711285,-0.41594818,0.93146646,0.00000000,0.00000000
-1.15772200,-0.43170282,0.38974285,-0.51297182,-0.80293137,0.00000000,0.00000000,0.73700535,0.65581363,0.49300662,-0.44336891,0.94625753,0.00000000,0.00000000
-1.16946328,-0.35592991,0.35104436,-0.47307092,-0.78865546,0.00000000,0.00000000,0.73589450,0.64034647,0.49377146,-0.47730026,0.95902443,0.00000000,0.00000000
-1.17983198,-0.28397658,0.31731707,-0.43752792,-0.77497905,0.00000000,0.00000000,0.72704297,0.61145860,0.48958924,-0.51447982,0.96886557,0.00000000,0.00000000
-1.19011986,-0.22059101,0.28790095,-0.40816820,-0.76200175,0.00000000,0.00000000,0.71165967,0.57943839,0.48195192,-0.54983932,0.97794753,0.00000000,0.00000000
-1.20128703,-0.16952270,0.26230732,-0.38629988,-0.74964672,0.00000000,0.00000000,0.69132507,0.55501610,0.47272587,-0.58012760,0.98556966,0.00000000,0.00000000
-1.21386838,-0.13346156,0.24015188,-0.37277889,-0.74200219,0.00000000,0.00000000,0.67050481,0.54444033,0.46517721,-0.60579896,0.99047118,0.00000000,0.00000000
-1.22793400,-0.11402835,0.22112754,-0.36804128,-0.73331439,0.00000000,0.00000000,0.64959407,0.55073601,0.45982245,-0.62565494,0.99476928,0.00000000,0.00000000
-1.24305594,-0.11184386,0.20496276,-0.37213063,-0.72513217,0.00000000,0.00000000,0.62668276,0.57362020,0.45542195,-0.63869333,0.99338859,0.00000000,0.00000000
-1.25833035,-0.12667833,0.19134973,-0.38462156,-0.71158183,0.00000000,0.00000000,0.60029483,0.60981852,0.45062312,-0.64526111,0.99288076,0.00000000,0.00000000
-1.27223563,-0.15678029,0.17978692,-0.40418887,-0.70298332,0.00000000,0.00000000,0.57054681,0.65628278,0.44491780,-0.64586800,0.99557555,0.00000000,0.00000000
-1.28250754,-0.19816931,0.16928016,-0.42799282,-0.69336516,0.00000000,0.00000000,0.53625029,0.71104348,0.43677893,-0.63937181,1.00073767,0.00000000,0.00000000
-1.28647208,-0.24409193,0.15819193,-0.45139098,-0.67889065,0.00000000,0.00000000,0.49857885,0.76713687,0.42612007,-0.62933505,1.00200200,0.00000000,0.00000000
-1.28233111,-0.28608885,0.14491153,-0.46919286,-0.66672593,0.00000000,0.00000000,0.45830953,0.81593019,0.41275764,-0.62152302,1.00732028,0.00000000,0.00000000
-1.26999187,-0.31635538,0.12889515,-0.47732764,-0.65406811,0.00000000,0.00000000,0.41600195,0.84964502,0.39681333,-0.62197119,1.01124465,0.00000000,0.00000000
-1.25055659,-0.32962587,0.11095360,-0.47352186,-0.64283550,0.00000000,0.00000000,0.37333310,0.86472511,0.37996578,-0.63416356,1.01864803,0.00000000,0.00000000
-1.22544503,-0.32337856,0.09269837,-0.45706481,-0.63275635,0.00000000,0.00000000,0.33277062,0.86389565,0.36497796,-0.65647924,1.02934599,0.00000000,0.00000000
-1.19627118,-0.29763538,0.07601243,-0.42877653,-0.61987072,0.00000000,0.00000000,0.29704794,0.85431379,0.35486141,-0.68396449,1.04273999,0.00000000,0.00000000
-1.16496778,-0.25449738,0.06247552,-0.39078099,-0.61101258,0.00000000,0.00000000,0.26793700,0.84220862,0.35142305,-0.71246845,1.05450308,0.00000000,0.00000000
-1.13381743,-0.19679667,0.05297349,-0.34572741,-0.60470676,0.00000000,0.00000000,0.24622847,0.83061320,0.35534671,-0.74054301,1.06468940,0.00000000,0.00000000
-1.10524940,-0.12775050,0.04769652,-0.29630351,-0.59897196,0.00000000,0.00000000,0.23185523,0.82050115,0.36639830,-0.76768327,1.07204235,0.00000000,0.00000000
-1.08144021,-0.05189664,0.04635427,-0.24522756,-0.58952373,0.00000000,0.00000000,0.22378886,0.81380486,0.38333169,-0.79127347,1.08340704,0.00000000,0.00000000
-1.06432581,0.02514395,0.04841410,-0.19509609,-0.57971358,0.00000000,0.00000000,0.22036369,0.81373560,0.40427291,-0.80731660,1.09514189,0.00000000,0.00000000
-1.05563045,0.09758524,0.05324904,-0.14830716,-0.57240397,0.00000000,0.00000000,0.21949098,0.82253534,0.42692208,-0.81285065,1.10712159,0.00000000,0.00000000
-1.05654943,0.15997674,0.06021796,-0.10719837,-0.56882322,0.00000000,0.00000000,0.21863589,0.83937973,0.44844174,-0.80856836,1.12088299,0.00000000,0.00000000
-1.06754935,0.20751554,0.06873394,-0.07401774,-0.56760520,0.00000000,0.00000000,0.21454227,0.85786635,0.46511918,-0.80122817,1.13552487,0.00000000,0.00000000
-1.08860731,0.23717080,0.07833992,-0.05037406,-0.57159406,0.00000000,0.00000000,0.20566560,0.87645811,0.47481689,-0.79247350,1.15232456,0.00000000,0.00000000
-1.11972558,0.24781288,0.08873560,-0.03708109,-0.57662290,0.00000000,0.00000000,0.19124044,0.89439893,0.47614747,-0.78170490,1.16524029,0.00000000,0.00000000
-1.16124177,0.23955676,0.09976575,-0.03424973,-0.58447641,0.00000000,0.00000000,0.17113298,0.91186428,0.46841648,-0.76758444,1.17460167,0.00000000,0.00000000
-1.21370590,0.21328315,0.11140058,-0.04140052,-0.59467286,0.00000000,0.00000000,0.14617310,0.93064076,0.45198494,-0.74850184,1.18283343,0.00000000,0.00000000
-1.27861345,0.17324756,0.12376519,-0.05598849,-0.60772562,0.00000000,0.00000000,0.11826005,0.95313239,0.42872500,-0.72463095,1.19432390,0.00000000,0.00000000
-1.35573626,0.12919338,0.13702342,-0.07196333,-0.62035733,0.00000000,0.00000000,0.09014701,0.98148131,0.40215048,-0.69788039,1.19885373,0.00000000,0.00000000
-1.43633127,0.09398550,0.15088958,-0.08046986,-0.63597506,0.00000000,0.00000000,0.06422797,1.01614332,0.37590623,-0.67091310,1.19809175,0.00000000,0.00000000
-1.50533390,0.07235684,0.16452685,-0.07684241,-0.65454113,0.00000000,0.00000000,0.04124616,1.05636394,0.35117412,-0.64525127,1.20121300,0.00000000,0.00000000
-1.55440474,0.06105045,0.17747737,-0.06266041,-0.67081010,0.00000000,0.00000000,0.02094150,1.10062218,0.32716587,-0.62124455,1.20689058,0.00000000,0.00000000
-1.58062351,0.05826045,0.18976814,-0.03991174,-0.68349123,0.00000000,0.00000000,0.00297595,1.14492428,0.30349511,-0.59959042,1.20922720,0.00000000,0.00000000
-1.58305812,0.06493328,0.20166463,-0.00912408,-0.70272166,0.00000000,0.00000000,-0.01271109,1.18638980,0.28057194,-0.57929856,1.20976377,0.00000000,0.00000000
-1.56171441,0.08240966,0.21355619,0.02980378,-0.72200984,0.00000000,0.00000000,-0.02628097,1.22329557,0.25896931,-0.56024688,1.21299469,0.00000000,0.00000000
-1.51689589,0.11156286,0.22590470,0.07704525,-0.74363834,0.00000000,0.00000000,-0.03838718,1.25293827,0.23955528,-0.54427361,1.21755719,0.00000000,0.00000000
-1.44918382,0.15295963,0.23920220,0.13265488,-0.76503426,0.00000000,0.00000000,-0.04977429,1.27343071,0.22288735,-0.53271294,1.22146583,0.00000000,0.00000000
-1.35966802,0.20667383,0.25391486,0.19628534,-0.78645152,0.00000000,0.00000000,-0.06088043,1.28426731,0.20880368,-0.52581644,1.22400248,0.00000000,0.00000000
-1.25029767,0.27193147,0.27040240,0.26693627,-0.80757821,0.00000000,0.00000000,-0.07183260,1.28592265,0.19686744,-0.52330321,1.22870183,0.00000000,0.00000000
-1.12421000,0.34687677,0.28882244,0.34281394,-0.83055604,0.00000000,0.00000000,-0.08249525,1.27988827,0.18655024,-0.52447748,1.23451269,0.00000000,0.00000000
-0.98581374,0.42833754,0.30906311,0.42122063,-0.85118473,0.00000000,0.00000000,-0.09257484,1.26764107,0.17718741,-0.52867758,1.24065363,0.00000000,0.00000000
-0.84071064,0.51212490,0.33069652,0.49882680,-0.87133676,0.00000000,0.00000000,-0.10169280,1.25100482,0.16808492,-0.53497529,1.24820447,0.00000000,0.00000000
-0.69524467,0.59340012,0.35302636,0.57206756,-0.88859522,0.00000000,0.00000000,-0.10960513,1.23161685,0.15857369,-0.54257065,1.26178324,0.00000000,0.00000000
-0.55580157,0.66721159,0.37521267,0.63760078,-0.91209859,0.00000000,0.00000000,-0.11630668,1.21054721,0.14851397,-0.55101943,1.27675116,0.00000000,0.00000000
-0.42808795,0.72914577,0.39643052,0.69271809,-0.93544626,0.00000000,0.00000000,-0.12194730,1.18871105,0.13843718,-0.55991292,1.28600037,0.00000000,0.00000000
-0.31678486,0.77580690,0.41597044,0.73555130,-0.96189356,0.00000000,0.00000000,-0.12652695,1.16716838,0.12912107,-0.56853789,1.29747403,0.00000000,0.00000000
-0.22529534,0.80482125,0.43339422,0.76498497,-0.99376386,0.00000000,0.00000000,-0.12984395,1.14651620,0.12122165,-0.57604349,1.30994487,0.00000000,0.00000000
-0.15578835,0.81455153,0.44861081,0.78040308,-1.02302921,0.00000000,0.00000000,-0.13171162,1.12685919,0.11510658,-0.58148563,1.31639135,0.00000000,0.00000000
-0.10935876,0.80378872,0.46186957,0.78145576,-1.05506027,0.00000000,0.00000000,-0.13199438,1.10863876,0.11083934,-0.58380824,1.32124603,0.00000000,0.00000000
-0.08624770,0.77158475,0.47364023,0.76793677,-1.08526790,0.00000000,0.00000000,-0.13070421,1.09280455,0.10806279,-0.58170986,1.32726467,0.00000000,0.00000000
-0.08597434,0.71726263,0.48438269,0.73974103,-1.11154437,0.00000000,0.00000000,-0.12802833,1.08018744,0.10606594,-0.57412302,1.33225167,0.00000000,0.00000000
-0.10720656,0.64068455,0.49420071,0.69686890,-1.14046371,0.00000000,0.00000000,-0.12435354,1.07078636,0.10382862,-0.56064093,1.33121634,0.00000000,0.00000000
-0.14745347,0.54321510,0.50250137,0.63970703,-1.16714931,0.00000000,0.00000000,-0.12028795,1.06246078,0.10003230,-0.54255491,1.33081532,0.00000000,0.00000000
-0.20373140,0.42936030,0.50803339,0.56984520,-1.19358432,0.00000000,0.00000000,-0.11631950,1.05301356,0.09362300,-0.52212757,1.33498526,0.00000000,0.00000000
-0.27405325,0.30667588,0.50960821,0.49059790,-1.21952128,0.00000000,0.00000000,-0.11255611,1.04175782,0.08470017,-0.50161248,1.33877826,0.00000000,0.00000000
-0.35675731,0.18356106,0.50680435,0.40609199,-1.24906015,0.00000000,0.00000000,-0.10877308,1.03034222,0.07424274,-0.48170066,1.34183812,0.00000000,0.00000000
-0.44970158,0.06786956,0.50003070,0.32010853,-1.27771378,0.00000000,0.00000000,-0.10452688,1.02111459,0.06400086,-0.46197838,1.34662664,0.00000000,0.00000000
-0.55010635,-0.03282982,0.49021474,0.23617475,-1.30748212,0.00000000,0.00000000,-0.09937201,1.01411533,0.05604757,-0.44267634,1.34688342,0.00000000,0.00000000
-0.65470451,-0.11227924,0.47850770,0.15783925,-1.33494115,0.00000000,0.00000000,-0.09302277,1.00801086,0.05196704,-0.42438155,1.34374118,0.00000000,0.00000000
-0.75959700,-0.16653900,0.46604642,0.08853895,-1.36245012,0.00000000,0.00000000,-0.08537805,1.00106072,0.05258389,-0.40779880,1.34289432,0.00000000,0.00000000
-0.86071581,-0.19396721,0.45370916,0.03108977,-1.38590002,0.00000000,0.00000000,-0.07641899,0.99089706,0.05812101,-0.39410663,1.33970964,0.00000000,0.00000000
-0.95431602,-0.19498207,0.44198138,-0.01267196,-1.40799010,0.00000000,0.00000000,-0.06610685,0.97438228,0.06835652,-0.38522789,1.33543372,0.00000000,0.00000000
-1.03712332,-0.17170785,0.43098387,-0.04193117,-1.42460036,0.00000000,0.00000000,-0.05429083,0.94865102,0.08283687,-0.38336512,1.33604205,0.00000000,0.00000000
-1.10611987,-0.12752192,0.42060825,-0.05668197,-1.43755639,0.00000000,0.00000000,-0.04073087,0.91211790,0.10093620,-0.39032108,1.33851981,0.00000000,0.00000000
-1.15842247,-0.06671264,0.41066962,-0.05750507,-1.44927549,0.00000000,0.00000000,-0.02546451,0.86560518,0.12151489,-0.40591371,1.33968353,0.00000000,0.00000000
-1.19133270,0.00577290,0.40103021,-0.04551255,-1.46170080,0.00000000,0.00000000,-0.00905509,0.81243396,0.14308122,-0.42709234,1.34832382,0.00000000,0.00000000
-1.20382321,0.08312198,0.39169583,-0.02373250,-1.47171712,0.00000000,0.00000000,0.00759664,0.75600040,0.16446558,-0.45071504,1.35889864,0.00000000,0.00000000
-1.20095646,0.15499157,0.38285702,0.00067708,-1.47902977,0.00000000,0.00000000,0.02230987,0.70208991,0.18371230,-0.47286761,1.36668396,0.00000000,0.00000000
-1.19232404,0.21318977,0.37468117,0.02055873,-1.48372126,0.00000000,0.00000000,0.03359924,0.65842462,0.19983187,-0.48936567,1.37119567,0.00000000,0.00000000
-1.18487334,0.25608632,0.36716700,0.03342831,-1.48799360,0.00000000,0.00000000,0.04137611,0.62756497,0.21307853,-0.49949989,1.38166285,0.00000000,0.00000000
-1.18203461,0.28400415,0.36023828,0.03888267,-1.48939347,0.00000000,0.00000000,0.04522702,0.60974389,0.22345246,-0.50437897,1.38970697,0.00000000,0.00000000
-1.18543792,0.29713351,0.35383591,0.03683274,-1.48960030,0.00000000,0.00000000,0.04663843,0.60638386,0.23214667,-0.50479978,1.39317393,0.00000000,0.00000000
-1.19607413,0.29606119,0.34793538,0.02748589,-1.48661733,0.00000000,0.00000000,0.04635520,0.61664653,0.23973688,-0.50177228,1.39586043,0.00000000,0.00000000
-1.21473110,0.28215367,0.34255296,0.01141825,-1.48257899,0.00000000,0.00000000,0.04437833,0.64147502,0.24623497,-0.49366531,1.40027964,0.00000000,0.00000000
-1.24200058,0.25796804,0.33776012,-0.01018751,-1.47663760,0.00000000,0.00000000,0.04013235,0.67741948,0.25109363,-0.48050448,1.40816021,0.00000000,0.00000000
-1.27777243,0.22639918,0.33369616,-0.03589539,-1.47094560,0.00000000,0.00000000,0.03552170,0.72214353,0.25549358,-0.46292675,1.41469717,0.00000000,0.00000000
-1.32113969,0.19051318,0.33054820,-0.06400318,-1.46325898,0.00000000,0.00000000,0.03099293,0.77237844,0.25972846,-0.44270131,1.41862369,0.00000000,0.00000000
-1.37006187,0.15479524,0.32849571,-0.09176788,-1.45480406,0.00000000,0.00000000,0.02704154,0.82519376,0.26436964,-0.42187497,1.41896749,0.00000000,0.00000000
-1.42197776,0.12196156,0.32762823,-0.11730447,-1.44804859,0.00000000,0.00000000,0.02399832,0.87881619,0.26995739,-0.40201002,1.41949081,0.00000000,0.00000000
-1.47445261,0.09196816,0.32788104,-0.14008783,-1.44748461,0.00000000,0.00000000,0.02155140,0.93246627,0.27634811,-0.38375333,1.41456819,0.00000000,0.00000000
-1.52428782,0.06332585,0.32894942,-0.15974215,-1.44587386,0.00000000,0.00000000,0.01935413,0.98571879,0.28335822,-0.36718246,1.40592170,0.00000000,0.00000000
-1.56914794,0.03127268,0.33036703,-0.17785741,-1.44125187,0.00000000,0.00000000,0.01720255,1.03677690,0.29108363,-0.35284892,1.39761746,0.00000000,0.00000000
-1.60525739,-0.01003644,0.33125862,-0.19678873,-1.43425262,0.00000000,0.00000000,0.01496145,1.08228672,0.29854628,-0.34138438,1.39102721,0.00000000,0.00000000
-1.62971795,-0.06468199,0.33072394,-0.21876970,-1.42653704,0.00000000,0.00000000,0.01264603,1.11800814,0.30460584,-0.33443016,1.38675427,0.00000000,0.00000000
-1.64099002,-0.13156754,0.32802621,-0.24376503,-1.41887844,0.00000000,0.00000000,0.00988525,1.14000726,0.30921897,-0.33483049,1.38732040,0.00000000,0.00000000
-1.63876390,-0.20648687,0.32250696,-0.27017027,-1.40901530,0.00000000,0.00000000,0.00578637,1.14654076,0.31280765,-0.34459877,1.39308214,0.00000000,0.00000000
-1.62363017,-0.28375793,0.31353924,-0.29534391,-1.40063226,0.00000000,0.00000000,-0.00075307,1.13748562,0.31577268,-0.36469796,1.39306617,0.00000000,0.00000000
-1.59707892,-0.35702193,0.30073750,-0.31626189,-1.39406228,0.00000000,0.00000000,-0.01065992,1.11440074,0.31865647,-0.39513725,1.38943851,0.00000000,0.00000000
-1.56155097,-0.42120504,0.28427592,-0.33105767,-1.38552415,0.00000000,0.00000000,-0.02404861,1.08054984,0.32229382,-0.43496948,1.38510036,0.00000000,0.00000000
-1.51994419,-0.47304109,0.26525688,-0.33952537,-1.37305236,0.00000000,0.00000000,-0.04009448,1.04002726,0.32763836,-0.48255929,1.38187158,0.00000000,0.00000000
-1.47502959,-0.51016557,0.24608473,-0.34264341,-1.36551011,0.00000000,0.00000000,-0.05745206,0.99684918,0.33558387,-0.53603619,1.37541568,0.00000000,0.00000000
-1.42862391,-0.53148586,0.22948299,-0.34162569,-1.35941076,0.00000000,0.00000000,-0.07479084,0.95490670,0.34676826,-0.59318149,1.37009525,0.00000000,0.00000000
-1.38158369,-0.53944212,0.21702550,-0.33855650,-1.35464454,0.00000000,0.00000000,-0.09132558,0.91720527,0.36087599,-0.65147734,1.36663961,0.00000000,0.00000000
-1.33428299,-0.53550214,0.20936906,-0.33414525,-1.35394430,0.00000000,0.00000000,-0.10652874,0.88580662,0.37774435,-0.70919335,1.36197591,0.00000000,0.00000000
-1.28717160,-0.52214015,0.20671870,-0.32961056,-1.35494018,0.00000000,0.00000000,-0.12053027,0.86286491,0.39673629,-0.76434422,1.36004841,0.00000000,0.00000000
-1.24084234,-0.50330245,0.20904069,-0.32705113,-1.35676897,0.00000000,0.00000000,-0.13364033,0.85204273,0.41723073,-0.81401980,1.35892594,0.00000000,0.00000000
-1.19590378,-0.48396003,0.21609972,-0.32920316,-1.35155272,0.00000000,0.00000000,-0.14641485,0.85763991,0.43843761,-0.85502225,1.35516000,0.00000000,0.00000000
-1.15275741,-0.46957198,0.22738722,-0.33915919,-1.34587109,0.00000000,0.00000000,-0.15983476,0.88250738,0.45896745,-0.88512117,1.35590744,0.00000000,0.00000000
-1.11134923,-0.46526021,0.24200340,-0.35982990,-1.33936894,0.00000000,0.00000000,-0.17506231,0.92651254,0.47683331,-0.90385050,1.35792220,0.00000000,0.00000000
-1.07114601,-0.47457898,0.25859448,-0.39315838,-1.33478403,0.00000000,0.00000000,-0.19280533,0.98686552,0.48996189,-0.91221660,1.36117899,0.00000000,0.00000000
-1.03147471,-0.49883187,0.27530316,-0.43959540,-1.33155107,0.00000000,0.00000000,-0.21284592,1.05955136,0.49670392,-0.91185457,1.35802376,0.00000000,0.00000000
-0.99210972,-0.53717929,0.28983572,-0.49798119,-1.32519531,0.00000000,0.00000000,-0.23406141,1.14035654,0.49596438,-0.90446001,1.35460627,0.00000000,0.00000000
-0.95379364,-0.58750415,0.29983139,-0.56606948,-1.31914008,0.00000000,0.00000000,-0.25472847,1.22520506,0.48707891,-0.89168793,1.34678841,0.00000000,0.00000000
-0.91831458,-0.64729112,0.30326039,-0.64137644,-1.31625497,0.00000000,0.00000000,-0.27290002,1.31001961,0.46968231,-0.87532645,1.34092379,0.00000000,0.00000000
-0.88821965,-0.71373576,0.29850644,-0.72154009,-1.31436980,0.00000000,0.00000000,-0.28683612,1.39021850,0.44372997,-0.85765421,1.33320129,0.00000000,0.00000000
-0.86641616,-0.78319156,0.28429532,-0.80407041,-1.31878889,0.00000000,0.00000000,-0.29553777,1.46017373,0.40982541,-0.84190613,1.32784212,0.00000000,0.00000000
-0.85563481,-0.85043776,0.25982633,-0.88598138,-1.32065153,0.00000000,0.00000000,-0.29921710,1.51380205,0.36986366,-0.83222455,1.32062817,0.00000000,0.00000000
-0.85769266,-0.90871245,0.22509150,-0.96360284,-1.31810796,0.00000000,0.00000000,-0.29916823,1.54674268,0.32728821,-0.83232504,1.31533861,0.00000000,0.00000000
-0.87292641,-0.95142156,0.18102625,-1.03304517,-1.31783545,0.00000000,0.00000000,-0.29683378,1.55830705,0.28614318,-0.84360999,1.31308949,0.00000000,0.00000000
-0.90029150,-0.97448397,0.12920828,-1.09118068,-1.31904352,0.00000000,0.00000000,-0.29288572,1.55070317,0.24955826,-0.86485964,1.30899298,0.00000000,0.00000000
-0.93783134,-0.97718048,0.07147213,-1.13631916,-1.32368958,0.00000000,0.00000000,-0.28713462,1.52678823,0.21901034,-0.89340550,1.30557358,0.00000000,0.00000000
-0.98306328,-0.96111310,0.00974083,-1.16815782,-1.32804394,0.00000000,0.00000000,-0.27923158,1.48853254,0.19456497,-0.92626846,1.30146348,0.00000000,0.00000000
-1.03354061,-0.92850763,-0.05426874,-1.18723571,-1.33608961,0.00000000,0.00000000,-0.26932389,1.43705678,0.17569731,-0.96073854,1.29583371,0.00000000,0.00000000
-1.08727336,-0.88096523,-0.11927383,-1.19409752,-1.34516096,0.00000000,0.00000000,-0.25747600,1.37399960,0.16231579,-0.99460393,1.29173136,0.00000000,0.00000000
-1.14267123,-0.81888753,-0.18433701,-1.18875432,-1.36025655,0.00000000,0.00000000,-0.24274412,1.30227315,0.15534672,-1.02617109,1.29060233,0.00000000,0.00000000
-1.19809735,-0.74225730,-0.24836312,-1.17107987,-1.37306058,0.00000000,0.00000000,-0.22327662,1.22644532,0.15651520,-1.05436242,1.28811252,0.00000000,0.00000000
-1.25114369,-0.65132427,-0.30905831,-1.14145732,-1.38043749,0.00000000,0.00000000,-0.19709843,1.15247583,0.16789433,-1.07913089,1.29323781,0.00000000,0.00000000
-1.29963791,-0.54719597,-0.36384764,-1.10338068,-1.38553429,0.00000000,0.00000000,-0.16293249,1.08366334,0.19124182,-1.10192800,1.29889834,0.00000000,0.00000000
-1.34388483,-0.43348882,-0.41313690,-1.06319463,-1.39921105,0.00000000,0.00000000,-0.12057695,1.01741672,0.22653781,-1.12536848,1.30610824,0.00000000,0.00000000
-1.38419724,-0.31601727,-0.45836452,-1.01982188,-1.41450143,0.00000000,0.00000000,-0.07281248,0.95156223,0.26944056,-1.14880490,1.30759025,0.00000000,0.00000000
-1.41868556,-0.20599459,-0.49918863,-0.97717530,-1.42612112,0.00000000,0.00000000,-0.02561343,0.89259517,0.31194094,-1.16525471,1.30739796,0.00000000,0.00000000
-1.44587791,-0.11181814,-0.53462279,-0.93968409,-1.43738127,0.00000000,0.00000000,0.01593462,0.84675992,0.34852079,-1.17076933,1.30490673,0.00000000,0.00000000
-1.46553731,-0.03749976,-0.56391430,-0.90942562,-1.45192027,0.00000000,0.00000000,0.04864795,0.81501234,0.37667212,-1.16612136,1.29495120,0.00000000,0.00000000
-1.47802222,0.01537979,-0.58656782,-0.88740611,-1.46814644,0.00000000,0.00000000,0.07125481,0.79701233,0.39588863,-1.15244555,1.28820682,0.00000000,0.00000000
-1.48392832,0.04625973,-0.60220617,-0.87394428,-1.48508751,0.00000000,0.00000000,0.08368824,0.79300141,0.40657979,-1.13026035,1.28284276,0.00000000,0.00000000
-1.48408628,0.05521184,-0.61045682,-0.86858302,-1.50711763,0.00000000,0.00000000,0.08647289,0.80303812,0.40938082,-1.10037911,1.28018141,0.00000000,0.00000000
-1.47941399,0.04313176,-0.61095762,-0.87042487,-1.52918780,0.00000000,0.00000000,0.08056107,0.82592398,0.40501547,-1.06478822,1.27600098,0.00000000,0.00000000
-1.47052062,0.01252391,-0.60401344,-0.87806833,-1.54720461,0.00000000,0.00000000,0.06729439,0.85828602,0.39438683,-1.02716649,1.27034163,0.00000000,0.00000000
-1.45761418,-0.02932125,-0.59310615,-0.88885093,-1.56889212,0.00000000,0.00000000,0.04928409,0.89345318,0.37991443,-0.99351484,1.26479971,0.00000000,0.00000000
-1.44062567,-0.06837621,-0.58687335,-0.89971197,-1.58909452,0.00000000,0.00000000,0.03072005,0.92118299,0.36638108,-0.97123057,1.25963998,0.00000000,0.00000000
-1.42034662,-0.09350767,-0.59143543,-0.90951055,-1.60619867,0.00000000,0.00000000,0.01457943,0.93513072,0.35751319,-0.96253949,1.25863421,0.00000000,0.00000000
-1.39748168,-0.10129923,-0.60798335,-0.91750866,-1.61744916,0.00000000,0.00000000,0.00181339,0.93425190,0.35449988,-0.96572173,1.25538290,0.00000000,0.00000000
-1.37272143,-0.09192534,-0.63511658,-0.92206931,-1.62827253,0.00000000,0.00000000,-0.00742817,0.91930950,0.35740823,-0.97881639,1.25458264,0.00000000,0.00000000
-1.34738088,-0.06829415,-0.66784823,-0.92005455,-1.64238214,0.00000000,0.00000000,-0.01333081,0.89202768,0.36582482,-0.99984175,1.25218379,0.00000000,0.00000000
-1.32318461,-0.03659198,-0.69822127,-0.90980560,-1.66350365,0.00000000,0.00000000,-0.01690085,0.85617238,0.37835547,-1.02538478,1.24859178,0.00000000,0.00000000
-1.30114353,-0.00493239,-0.71936691,-0.89377970,-1.68570256,0.00000000,0.00000000,-0.02034831,0.81729549,0.39246398,-1.05221379,1.24595284,0.00000000,0.00000000
-1.28124738,0.02071160,-0.72887444,-0.87582183,-1.70988595,0.00000000,0.00000000,-0.02530825,0.78271329,0.40660051,-1.07929385,1.24126470,0.00000000,0.00000000
-1.26345229,0.03708678,-0.72658998,-0.85828441,-1.73154533,0.00000000,0.00000000,-0.03121868,0.76286757,0.42167312,-1.10217047,1.24111891,0.00000000,0.00000000
-1.24785507,0.04241414,-0.71270376,-0.84217542,-1.75670350,0.00000000,0.00000000,-0.03843046,0.76164013,0.43761167,-1.11830020,1.24437284,0.00000000,0.00000000
-1.23429227,0.03548135,-0.68744451,-0.82827580,-1.78219533,0.00000000,0.00000000,-0.04805505,0.77860111,0.45333049,-1.12788796,1.24757504,0.00000000,0.00000000
-1.22196102,0.01505760,-0.65114659,-0.81787854,-1.80353296,0.00000000,0.00000000,-0.06132771,0.81224859,0.46728113,-1.13197100,1.25116003,0.00000000,0.00000000
-1.20933390,-0.01991272,-0.60451382,-0.81316572,-1.82629859,0.00000000,0.00000000,-0.07930257,0.86084741,0.47770405,-1.13144696,1.25883472,0.00000000,0.00000000
-1.19377148,-0.06960078,-0.54942107,-0.81747925,-1.84784603,0.00000000,0.00000000,-0.10265501,0.92241699,0.48277697,-1.12702942,1.26916468,0.00000000,0.00000000
-1.17235005,-0.13274649,-0.48993400,-0.83441657,-1.87360990,0.00000000,0.00000000,-0.13168402,0.99446845,0.48058504,-1.11944902,1.27794814,0.00000000,0.00000000
-1.14331937,-0.20696764,-0.43132263,-0.86582255,-1.90191865,0.00000000,0.00000000,-0.16617137,1.07390201,0.46936759,-1.10994565,1.28691947,0.00000000,0.00000000
-1.10721600,-0.29019117,-0.37733430,-0.91137636,-1.92682886,0.00000000,0.00000000,-0.20520987,1.15759265,0.44792077,-1.10029888,1.29558885,0.00000000,0.00000000
-1.06629360,-0.38102213,-0.32997128,-0.97009176,-1.95382988,0.00000000,0.00000000,-0.24741429,1.24275362,0.41554058,-1.09247029,1.30747831,0.00000000,0.00000000
-1.02361274,-0.47842929,-0.29052711,-1.04108489,-1.98136151,0.00000000,0.00000000,-0.29116955,1.32691574,0.37185523,-1.08840311,1.31821764,0.00000000,0.00000000
-0.98244780,-0.58186287,-0.25983441,-1.12380373,-2.00965953,0.00000000,0.00000000,-0.33473897,1.40805542,0.31676781,-1.08988798,1.33061075,0.00000000,0.00000000
-0.94560093,-0.69133794,-0.23795447,-1.21713960,-2.03041005,0.00000000,0.00000000,-0.37633508,1.48436511,0.25037295,-1.09856951,1.34268749,0.00000000,0.00000000
-0.91383916,-0.80667102,-0.22296493,-1.31746328,-2.04686117,0.00000000,0.00000000,-0.41433668,1.55380189,0.17339554,-1.11633742,1.36000514,0.00000000,0.00000000
-0.88439542,-0.92459011,-0.21014668,-1.41868138,-2.06130719,0.00000000,0.00000000,-0.44790027,1.61361229,0.08971680,-1.14443839,1.37677455,0.00000000,0.00000000
-0.85349888,-1.03531945,-0.19505052,-1.51233256,-2.07008195,0.00000000,0.00000000,-0.47713217,1.66295028,0.00695971,-1.17899370,1.39405477,0.00000000,0.00000000
-0.81878036,-1.13002717,-0.17527378,-1.59334862,-2.08176732,0.00000000,0.00000000,-0.50248945,1.70603192,-0.06915665,-1.21425080,1.40620089,0.00000000,0.00000000
-0.78158289,-1.20520341,-0.15173270,-1.66305661,-2.09105182,0.00000000,0.00000000,-0.52480334,1.74539745,-0.13632105,-1.24734843,1.42022848,0.00000000,0.00000000
-0.74589211,-1.26162255,-0.12752843,-1.72746038,-2.09416485,0.00000000,0.00000000,-0.54502958,1.78087616,-0.19405647,-1.27736926,1.43379569,0.00000000,0.00000000
-0.71621323,-1.29791021,-0.10647734,-1.78530347,-2.09955978,0.00000000,0.00000000,-0.56403846,1.81124222,-0.24251117,-1.30408609,1.44979954,0.00000000,0.00000000
-0.69498158,-1.31274879,-0.09071085,-1.83171880,-2.10782361,0.00000000,0.00000000,-0.58212203,1.83468616,-0.28229421,-1.32762408,1.46759367,0.00000000,0.00000000
-0.68333650,-1.30811119,-0.08106622,-1.86460590,-2.11634898,0.00000000,0.00000000,-0.59907877,1.84939110,-0.31433126,-1.34824622,1.48802793,0.00000000,0.00000000
-0.68234932,-1.28700292,-0.07825131,-1.88426018,-2.12329316,0.00000000,0.00000000,-0.61468279,1.85383511,-0.33966434,-1.36626685,1.51380277,0.00000000,0.00000000
-0.69265074,-1.25153661,-0.08264451,-1.89128542,-2.12905836,0.00000000,0.00000000,-0.62896448,1.84705341,-0.35909975,-1.38181245,1.53430474,0.00000000,0.00000000
-0.71431243,-1.20282710,-0.09427699,-1.88596570,-2.13334990,0.00000000,0.00000000,-0.64211178,1.82886899,-0.37277728,-1.39451182,1.55347526,0.00000000,0.00000000
-0.74698198,-1.14164722,-0.11295325,-1.86845577,-2.13332009,0.00000000,0.00000000,-0.65409273,1.80004525,-0.38052958,-1.40370965,1.57551885,0.00000000,0.00000000
-0.78977799,-1.06889582,-0.13812312,-1.83894789,-2.13657999,0.00000000,0.00000000,-0.66453010,1.76213372,-0.38217577,-1.40862691,1.59921932,0.00000000,0.00000000
-0.84106523,-0.98598516,-0.16865899,-1.79788816,-2.13995457,0.00000000,0.00000000,-0.67273819,1.71722734,-0.37765428,-1.40840936,1.62572980,0.00000000,0.00000000
-0.89834344,-0.89507300,-0.20274588,-1.74630094,-2.14037037,0.00000000,0.00000000,-0.67788869,1.66772556,-0.36710683,-1.40219736,1.65326369,0.00000000,0.00000000
-0.95840347,-0.79901892,-0.23800416,-1.68598819,-2.14086199,0.00000000,0.00000000,-0.67920727,1.61610174,-0.35103318,-1.38910997,1.68124926,0.00000000,0.00000000
-1.01802039,-0.70078540,-0.27207601,-1.61934209,-2.14109254,0.00000000,0.00000000,-0.67623395,1.56477225,-0.33034649,-1.36827219,1.70512784,0.00000000,0.00000000
-1.07435834,-0.60361874,-0.30291995,-1.54981947,-2.14305472,0.00000000,0.00000000,-0.66892856,1.51616490,-0.30648476,-1.33891225,1.73137689,0.00000000,0.00000000
-1.12580383,-0.51143879,-0.32975096,-1.48361492,-2.14271259,0.00000000,0.00000000,-0.65763623,1.47263277,-0.28144398,-1.30076587,1.75352967,0.00000000,0.00000000
-1.17332792,-0.42721772,-0.35482621,-1.42889988,-2.14153528,0.00000000,0.00000000,-0.64271832,1.43452990,-0.25656769,-1.25807869,1.77689767,0.00000000,0.00000000
-1.21856105,-0.35059878,-0.38158685,-1.38860118,-2.13565874,0.00000000,0.00000000,-0.62407470,1.39797568,-0.23106045,-1.22218156,1.80368292,0.00000000,0.00000000
-1.26029384,-0.28197357,-0.41052240,-1.36045110,-2.12679338,0.00000000,0.00000000,-0.60261214,1.36024046,-0.20590553,-1.19468582,1.83271658,0.00000000,0.00000000
-1.29549813,-0.22184402,-0.43856880,-1.33807695,-2.11297417,0.00000000,0.00000000,-0.58074552,1.32294369,-0.18425928,-1.16612673,1.85986209,0.00000000,0.00000000
-1.32258260,-0.16974933,-0.46292150,-1.31604135,-2.10294485,0.00000000,0.00000000,-0.56084937,1.28931797,-0.16860822,-1.13033020,1.88978422,0.00000000,0.00000000
-1.34110117,-0.12662385,-0.48227385,-1.29281282,-2.09327269,0.00000000,0.00000000,-0.54405385,1.25917220,-0.16027154,-1.08681309,1.91784883,0.00000000,0.00000000
-1.35117996,-0.09405559,-0.49631354,-1.26916742,-2.08285451,0.00000000,0.00000000,-0.53085256,1.23252332,-0.16043492,-1.03625667,1.94617939,0.00000000,0.00000000
-1.35421789,-0.07245527,-0.50629133,-1.24770594,-2.07799649,0.00000000,0.00000000,-0.52158517,1.21161699,-0.17009380,-0.98054665,1.97403777,0.00000000,0.00000000
-1.35331893,-0.05866663,-0.51672834,-1.23257732,-2.07493734,0.00000000,0.00000000,-0.51523048,1.19628179,-0.18648277,-0.92561287,1.99931765,0.00000000,0.00000000
-1.35062349,-0.04630631,-0.53407055,-1.22571027,-2.07227349,0.00000000,0.00000000,-0.50886661,1.17942274,-0.20176534,-0.87771034,2.02289867,0.00000000,0.00000000
-1.34561729,-0.03013365,-0.56154341,-1.22530138,-2.07023692,0.00000000,0.00000000,-0.50115150,1.15658927,-0.21145687,-0.83821458,2.04521441,0.00000000,0.00000000
-1.33692420,-0.00662062,-0.59932071,-1.22706795,-2.06531906,0.00000000,0.00000000,-0.49171218,1.12597144,-0.21381710,-0.80595404,2.06350207,0.00000000,0.00000000
-1.32446933,0.02664377,-0.64564109,-1.22648954,-2.06233191,0.00000000,0.00000000,-0.48002785,1.08756304,-0.20775791,-0.77882540,2.08503485,0.00000000,0.00000000
-1.30962002,0.07083578,-0.69755185,-1.22053969,-2.05391622,0.00000000,0.00000000,-0.46589026,1.04549158,-0.19354056,-0.75347733,2.10315394,0.00000000,0.00000000
-1.29430771,0.12364338,-0.75096220,-1.20897353,-2.04381680,0.00000000,0.00000000,-0.45012248,1.00716627,-0.17386876,-0.72699869,2.12081075,0.00000000,0.00000000
-1.28024685,0.17925811,-0.80160403,-1.19399595,-2.03150845,0.00000000,0.00000000,-0.43303889,0.97265518,-0.15088189,-0.70162350,2.13632059,0.00000000,0.00000000
-1.26877129,0.23272914,-0.84605521,-1.17744255,-2.02325749,0.00000000,0.00000000,-0.41443202,0.93881184,-0.12546428,-0.68056983,2.15644574,0.00000000,0.00000000
-1.26144361,0.28311825,-0.88208681,-1.15892744,-2.01791835,0.00000000,0.00000000,-0.39420187,0.90543753,-0.09804047,-0.66390312,2.17217946,0.00000000,0.00000000
-1.25965953,0.33180654,-0.90857130,-1.13686550,-2.01010418,0.00000000,0.00000000,-0.37287730,0.87694412,-0.06959819,-0.64802986,2.18852282,0.00000000,0.00000000
-1.26429534,0.37771487,-0.92490929,-1.11094582,-2.01164651,0.00000000,0.00000000,-0.35180619,0.85883844,-0.04212094,-0.62885261,2.20587325,0.00000000,0.00000000
-1.27584839,0.41725805,-0.93095100,-1.08260036,-2.01299691,0.00000000,0.00000000,-0.33163163,0.84992093,-0.01662716,-0.60735619,2.22638154,0.00000000,0.00000000
-1.29120994,0.44889900,-0.92915928,-1.05490267,-2.01616240,0.00000000,0.00000000,-0.31206816,0.84432971,0.00709882,-0.58761871,2.24598908,0.00000000,0.00000000
-1.30455661,0.47523001,-0.92433268,-1.03042281,-2.02394652,0.00000000,0.00000000,-0.29277366,0.83745730,0.02943617,-0.57220381,2.26999760,0.00000000,0.00000000
-1.31574476,0.49801320,-0.91607738,-1.00666022,-2.02685547,0.00000000,0.00000000,-0.27378902,0.82997066,0.05038537,-0.55978709,2.29457521,0.00000000,0.00000000
-1.32593358,0.51722974,-0.90335602,-0.98125595,-2.02555871,0.00000000,0.00000000,-0.25572434,0.82526141,0.06928813,-0.54740006,2.31814480,0.00000000,0.00000000
-1.33544242,0.53344190,-0.88741738,-0.95312274,-2.02322745,0.00000000,0.00000000,-0.23865220,0.82323343,0.08608074,-0.53498369,2.34065628,0.00000000,0.00000000
-1.34410012,0.54831564,-0.87017024,-0.92156893,-2.01884937,0.00000000,0.00000000,-0.22203332,0.82135957,0.10138642,-0.52444148,2.36560559,0.00000000,0.00000000
-1.35212147,0.56196743,-0.85181808,-0.88634241,-2.01123023,0.00000000,0.00000000,-0.20575023,0.81851512,0.11536176,-0.51654196,2.39189124,0.00000000,0.00000000
-1.36011946,0.57198006,-0.83080888,-0.84835827,-2.00508213,0.00000000,0.00000000,-0.19026616,0.81550008,0.12752250,-0.51044005,2.41898632,0.00000000,0.00000000
-1.36722648,0.57652032,-0.80674803,-0.81127781,-1.99831951,0.00000000,0.00000000,-0.17613284,0.81326711,0.13728955,-0.50507152,2.44316745,0.00000000,0.00000000
-1.37444842,0.57941818,-0.78131735,-0.77780539,-1.98940516,0.00000000,0.00000000,-0.16349749,0.81184828,0.14453022,-0.50018793,2.46705699,0.00000000,0.00000000
-1.38291037,0.58208406,-0.75509351,-0.74830925,-1.98090041,0.00000000,0.00000000,-0.15224397,0.81133884,0.14939904,-0.49572450,2.48638415,0.00000000,0.00000000
-1.39302242,0.58364701,-0.72772259,-0.72275639,-1.97245014,0.00000000,0.00000000,-0.14232190,0.81235915,0.15197591,-0.49128178,2.50515127,0.00000000,0.00000000
-1.40542805,0.58283210,-0.69854224,-0.70126039,-1.96193159,0.00000000,0.00000000,-0.13381965,0.81592482,0.15217900,-0.48613676,2.52271509,0.00000000,0.00000000
-1.42123246,0.57828182,-0.66666615,-0.68379349,-1.95471752,0.00000000,0.00000000,-0.12680435,0.82355601,0.14991994,-0.47929940,2.53895879,0.00000000,0.00000000
-1.44231451,0.56894130,-0.63118315,-0.66987079,-1.95113981,0.00000000,0.00000000,-0.12116367,0.83690155,0.14525698,-0.46989188,2.55329776,0.00000000,0.00000000
-1.47081757,0.55413806,-0.59130365,-0.65885401,-1.94841957,0.00000000,0.00000000,-0.11656061,0.85736591,0.13843116,-0.45740685,2.57115006,0.00000000,0.00000000
-1.50873184,0.53362644,-0.54642004,-0.65014553,-1.94397759,0.00000000,0.00000000,-0.11247890,0.88620466,0.12982722,-0.44159412,2.59017539,0.00000000,0.00000000
-1.55796003,0.50830150,-0.49616119,-0.64279437,-1.94288111,0.00000000,0.00000000,-0.10822880,0.92475462,0.12004180,-0.42221820,2.61025190,0.00000000,0.00000000
-1.62007844,0.48023087,-0.44042087,-0.63552994,-1.94497144,0.00000000,0.00000000,-0.10312577,0.97434384,0.10979088,-0.39896071,2.63057661,0.00000000,0.00000000
-1.69592428,0.45240757,-0.37948707,-0.62699962,-1.95099521,0.00000000,0.00000000,-0.09669168,1.03627992,0.09983407,-0.37135109,2.65317798,0.00000000,0.00000000
-1.78513849,0.42919108,-0.31429067,-0.61549610,-1.95357895,0.00000000,0.00000000,-0.08893479,1.11163199,0.09103689,-0.33890688,2.67282748,0.00000000,0.00000000
-1.88557982,0.41651461,-0.24654758,-0.59871483,-1.95604396,0.00000000,0.00000000,-0.08084497,1.20020568,0.08434504,-0.30174884,2.69045472,0.00000000,0.00000000
-1.99191105,0.41936737,-0.17897850,-0.57509321,-1.95465088,0.00000000,0.00000000,-0.07466822,1.30023968,0.08045036,-0.26067597,2.70664477,0.00000000,0.00000000
-2.09594774,0.43919834,-0.11482504,-0.54473001,-1.94933033,0.00000000,0.00000000,-0.07363673,1.40807736,0.07958844,-0.21735543,2.71909404,0.00000000,0.00000000
-2.18927503,0.47308943,-0.05663917,-0.50930774,-1.93796158,0.00000000,0.00000000,-0.08106662,1.51843047,0.08151992,-0.17427453,2.73073959,0.00000000,0.00000000
-2.26578164,0.51566643,-0.00548453,-0.47112206,-1.92716277,0.00000000,0.00000000,-0.09943032,1.62505448,0.08568981,-0.13444866,2.74196959,0.00000000,0.00000000
-2.32167506,0.56048030,0.03860836,-0.43260375,-1.91360044,0.00000000,0.00000000,-0.12967269,1.72093046,0.09142721,-0.10127176,2.75283957,0.00000000,0.00000000
-2.35508204,0.60096937,0.07608748,-0.39611566,-1.89935231,0.00000000,0.00000000,-0.17100717,1.79910266,0.09812402,-0.07802927,2.76688647,0.00000000,0.00000000
-2.36579633,0.63140398,0.10759787,-0.36376321,-1.88509560,0.00000000,0.00000000,-0.22128762,1.85423648,0.10534041,-0.06715540,2.77820444,0.00000000,0.00000000
-2.35478926,0.64746213,0.13382982,-0.33726063,-1.87602043,0.00000000,0.00000000,-0.27766621,1.88384151,0.11280977,-0.06979515,2.78818583,0.00000000,0.00000000
-2.32386136,0.64635217,0.15545449,-0.31793541,-1.86574864,0.00000000,0.00000000,-0.33703360,1.88864374,0.12036758,-0.08572140,2.79445219,0.00000000,0.00000000
-2.27549005,0.62690061,0.17311081,-0.30670831,-1.85648227,0.00000000,0.00000000,-0.39623928,1.87220442,0.12786865,-0.11337072,2.79842997,0.00000000,0.00000000
-2.21277714,0.58963639,0.18742703,-0.30399582,-1.85277557,0.00000000,0.00000000,-0.45215267,1.83989608,0.13511424,-0.15010305,2.79560351,0.00000000,0.00000000
-2.13930941,0.53648812,0.19905746,-0.30965877,-1.85034275,0.00000000,0.00000000,-0.50193262,1.79735661,0.14180401,-0.19289939,2.79153037,0.00000000,0.00000000
-2.05877614,0.47012523,0.20868984,-0.32306862,-1.85120654,0.00000000,0.00000000,-0.54338419,1.74949670,0.14752994,-0.23898631,2.78857946,0.00000000,0.00000000
-1.97453618,0.39330822,0.21704611,-0.34332189,-1.84585381,0.00000000,0.00000000,-0.57506192,1.70033062,0.15179487,-0.28603455,2.78887320,0.00000000,0.00000000
-1.88944340,0.30822033,0.22491650,-0.36967233,-1.84015429,0.00000000,0.00000000,-0.59606493,1.65315557,0.15402719,-0.33207679,2.78751397,0.00000000,0.00000000
-1.80582607,0.21605015,0.23322499,-0.40189701,-1.83479941,0.00000000,0.00000000,-0.60587668,1.61062264,0.15360785,-0.37548584,2.78669405,0.00000000,0.00000000
-1.72570431,0.11709242,0.24324599,-0.44036564,-1.82533801,0.00000000,0.00000000,-0.60435313,1.57507300,0.14993307,-0.41481644,2.78503680,0.00000000,0.00000000
-1.65103328,0.01064437,0.25686300,-0.48601159,-1.81935883,0.00000000,0.00000000,-0.59161556,1.54901016,0.14251365,-0.44854870,2.78474212,0.00000000,0.00000000
-1.58221018,-0.10437018,0.27589041,-0.53924960,-1.81979096,0.00000000,0.00000000,-0.56824535,1.53556991,0.13120569,-0.47482172,2.78534603,0.00000000,0.00000000
-1.51646578,-0.22724985,0.30082968,-0.59865987,-1.82203579,0.00000000,0.00000000,-0.53564471,1.53857279,0.11656420,-0.49132559,2.77966070,0.00000000,0.00000000
-1.45043337,-0.35452646,0.33192825,-0.66194814,-1.82223344,0.00000000,0.00000000,-0.49601316,1.56202066,0.10004546,-0.49534437,2.77335215,0.00000000,0.00000000
-1.38143611,-0.48131770,0.36961338,-0.72653556,-1.81975722,0.00000000,0.00000000,-0.45280969,1.60780978,0.08404475,-0.48511565,2.76393461,0.00000000,0.00000000
-1.30749786,-0.60146171,0.41382173,-0.78960586,-1.81587005,0.00000000,0.00000000,-0.41089836,1.67317450,0.07120494,-0.46168473,2.75642109,0.00000000,0.00000000
-1.22843838,-0.70758170,0.46281335,-0.84879023,-1.81381035,0.00000000,0.00000000,-0.37551638,1.75160670,0.06328455,-0.42834005,2.75162196,0.00000000,0.00000000
-1.14761913,-0.79866564,0.51260865,-0.90388191,-1.80987871,0.00000000,0.00000000,-0.35139573,1.83551919,0.06095418,-0.38876787,2.74925113,0.00000000,0.00000000
-1.06778550,-0.87257582,0.56141549,-0.95277786,-1.80497217,0.00000000,0.00000000,-0.34224096,1.91886318,0.06414144,-0.34589607,2.74867797,0.00000000,0.00000000
-0.99057209,-0.92726761,0.60895354,-0.99350488,-1.80024111,0.00000000,0.00000000,-0.35111791,1.99674284,0.07245088,-0.30230260,2.74717903,0.00000000,0.00000000
-0.91734815,-0.96252555,0.65501070,-1.02543604,-1.79539394,0.00000000,0.00000000,-0.38021457,2.06485939,0.08533455,-0.26049578,2.74645042,0.00000000,0.00000000
-0.84944266,-0.97908199,0.69912338,-1.04846525,-1.79005623,0.00000000,0.00000000,-0.43058395,2.11881423,0.10213064,-0.22322093,2.74503899,0.00000000,0.00000000
-0.78839886,-0.97849053,0.74031621,-1.06268775,-1.78016150,0.00000000,0.00000000,-0.50155753,2.15343046,0.12204216,-0.19377728,2.74142814,0.00000000,0.00000000
-0.73597914,-0.96317285,0.77708310,-1.06832230,-1.76865208,0.00000000,0.00000000,-0.58984023,2.16724610,0.14412272,-0.17560923,2.74019384,0.00000000,0.00000000
-0.69372433,-0.93598431,0.80776656,-1.06564462,-1.75861394,0.00000000,0.00000000,-0.68969685,2.16985726,0.16739529,-0.17085148,2.73894429,0.00000000,0.00000000
-0.66260850,-0.89977837,0.83089405,-1.05495441,-1.74199343,0.00000000,0.00000000,-0.79433811,2.17000008,0.19099805,-0.17950836,2.73580599,0.00000000,0.00000000
-0.64301330,-0.85735428,0.84525388,-1.03677499,-1.72292662,0.00000000,0.00000000,-0.89755327,2.16998672,0.21421678,-0.20018873,2.73277450,0.00000000,0.00000000
-0.63485557,-0.81154245,0.84986079,-1.01207805,-1.70342004,0.00000000,0.00000000,-0.99506056,2.16943192,0.23647118,-0.23130715,2.72688031,0.00000000,0.00000000
-0.63775575,-0.76533604,0.84391713,-0.98241216,-1.68714666,0.00000000,0.00000000,-1.08405983,2.16304040,0.25719282,-0.27152631,2.72197056,0.00000000,0.00000000
-0.65110487,-0.72172415,0.82690406,-0.94986260,-1.66757309,0.00000000,0.00000000,-1.16309595,2.13950419,0.27582344,-0.31982645,2.72162580,0.00000000,0.00000000
-0.67405313,-0.68332899,0.79875863,-0.91695011,-1.65178013,0.00000000,0.00000000,-1.23321247,2.09627509,0.29210648,-0.37590662,2.72726369,0.00000000,0.00000000
-0.70559627,-0.65233302,0.75992715,-0.88651657,-1.63738585,0.00000000,0.00000000,-1.29585767,2.03572631,0.30583847,-0.43916056,2.73541999,0.00000000,0.00000000
-0.74459934,-0.63040441,0.71143597,-0.86161143,-1.62573695,0.00000000,0.00000000,-1.35115087,1.96078229,0.31638804,-0.50792462,2.74040627,0.00000000,0.00000000
-0.78973389,-0.61860943,0.65498531,-0.84534419,-1.61406803,0.00000000,0.00000000,-1.39960611,1.87488329,0.32298836,-0.58039224,2.74736857,0.00000000,0.00000000
-0.83941662,-0.61734033,0.59292150,-0.84052867,-1.60679567,0.00000000,0.00000000,-1.44245195,1.78135359,0.32480901,-0.65522784,2.75352859,0.00000000,0.00000000
-0.89176375,-0.62624991,0.52806729,-0.84922683,-1.60058296,0.00000000,0.00000000,-1.48129129,1.68316948,0.32086489,-0.73139280,2.76323819,0.00000000,0.00000000
-0.94460446,-0.64434665,0.46345216,-0.87248820,-1.59599376,0.00000000,0.00000000,-1.51808751,1.58291888,0.31026155,-0.80770957,2.77105737,0.00000000,0.00000000
-0.99578112,-0.67064881,0.40175697,-0.91043532,-1.58696389,0.00000000,0.00000000,-1.55517292,1.48208272,0.29247320,-0.88325572,2.78315353,0.00000000,0.00000000
-1.04326761,-0.70437020,0.34517446,-0.96257538,-1.57548571,0.00000000,0.00000000,-1.59477901,1.38146162,0.26725891,-0.95733821,2.79905081,0.00000000,0.00000000
-1.08514392,-0.74506199,0.29552802,-1.02808130,-1.56467152,0.00000000,0.00000000,-1.63862908,1.28153551,0.23466171,-1.02943528,2.81545162,0.00000000,0.00000000
-1.11958265,-0.79237384,0.25439984,-1.10590208,-1.54999304,0.00000000,0.00000000,-1.68774295,1.18227887,0.19596486,-1.09960926,2.83662796,0.00000000,0.00000000
-1.14497304,-0.84597266,0.22311124,-1.19499540,-1.53227925,0.00000000,0.00000000,-1.74211311,1.08239269,0.15286161,-1.16976202,2.86228800,0.00000000,0.00000000
-1.15965772,-0.90474409,0.20306610,-1.29422534,-1.50825453,0.00000000,0.00000000,-1.80061758,0.98268574,0.10705030,-1.24051118,2.87979317,0.00000000,0.00000000
-1.16219246,-0.96620876,0.19561334,-1.40230370,-1.48613417,0.00000000,0.00000000,-1.86192679,0.88498688,0.05956751,-1.31174278,2.87979317,0.00000000,0.00000000
-1.15335989,-1.02527499,0.20040953,-1.51719964,-1.46654522,0.00000000,0.00000000,-1.92368102,0.79230827,0.01220870,-1.38419914,2.87979317,0.00000000,0.00000000
-1.13651609,-1.07344306,0.21524714,-1.63376570,-1.44897819,0.00000000,0.00000000,-1.98339558,0.71094584,-0.03328829,-1.45720482,2.87979317,0.00000000,0.00000000
-1.11541331,-1.10571241,0.23761594,-1.74693346,-1.42995203,0.00000000,0.00000000,-2.04028058,0.64311624,-0.07691890,-1.53055012,2.87979317,0.00000000,0.00000000
-1.09456837,-1.11969841,0.26418605,-1.85087109,-1.40907454,0.00000000,0.00000000,-2.09247112,0.58826679,-0.11766551,-1.60264516,2.87979317,0.00000000,0.00000000
-1.07771993,-1.11633420,0.29190060,-1.94166481,-1.38388109,0.00000000,0.00000000,-2.13752890,0.54565960,-0.15391646,-1.66802514,2.87979317,0.00000000,0.00000000
-1.06755984,-1.09863985,0.31820387,-2.01788521,-1.35874331,0.00000000,0.00000000,-2.17549396,0.51505625,-0.18619509,-1.72130001,2.87979317,0.00000000,0.00000000
-1.06565106,-1.06957066,0.34132907,-2.07943964,-1.33877432,0.00000000,0.00000000,-2.20540786,0.49416655,-0.21392918,-1.76184690,2.87979317,0.00000000,0.00000000
-1.07282484,-1.03134298,0.36007664,-2.12672782,-1.31938827,0.00000000,0.00000000,-2.22612715,0.48098907,-0.23627323,-1.79038250,2.87979317,0.00000000,0.00000000
-1.08938313,-0.98539138,0.37370154,-2.16017938,-1.29752457,0.00000000,0.00000000,-2.23674536,0.47488314,-0.25256693,-1.80704761,2.87979317,0.00000000,0.00000000
-1.11526859,-0.93254995,0.38175839,-2.18014193,-1.27467191,0.00000000,0.00000000,-2.23650169,0.47603709,-0.26225707,-1.81159544,2.87979317,0.00000000,0.00000000
-1.15017009,-0.87327850,0.38397786,-2.18685651,-1.25389969,0.00000000,0.00000000,-2.22499943,0.48487693,-0.26506060,-1.80370486,2.87979317,0.00000000,0.00000000
-1.19357085,-0.80792719,0.38019633,-2.18046761,-1.23167992,0.00000000,0.00000000,-2.20213938,0.50169009,-0.26086587,-1.78319037,2.87979317,0.00000000,0.00000000
-1.24473870,-0.73683310,0.37035093,-2.16103387,-1.20603383,0.00000000,0.00000000,-2.16805696,0.52659172,-0.24966264,-1.74999845,2.87979317,0.00000000,0.00000000
-1.30265987,-0.66041648,0.35454616,-2.12858272,-1.18199086,0.00000000,0.00000000,-2.12310028,0.55955279,-0.23151861,-1.70419669,2.87979317,0.00000000,0.00000000
-1.36589551,-0.57980967,0.33326453,-2.08355999,-1.15589452,0.00000000,0.00000000,-2.06769991,0.59985048,-0.20643333,-1.64633524,2.87979317,0.00000000,0.00000000
-1.43223476,-0.49877411,0.30803412,-2.02898312,-1.13399684,0.00000000,0.00000000,-2.00239348,0.64369988,-0.17431681,-1.57945848,2.87979317,0.00000000,0.00000000
-1.49862337,-0.42393038,0.28180781,-1.97164083,-1.11441326,0.00000000,0.00000000,-1.92959034,0.68209338,-0.13670443,-1.51245546,2.87979317,0.00000000,0.00000000
-1.56244671,-0.35895595,0.25716251,-1.91608846,-1.09917378,0.00000000,0.00000000,-1.85475039,0.70713156,-0.09819767,-1.45527124,2.87979317,0.00000000,0.00000000
-1.62241733,-0.30444828,0.23512229,-1.86320162,-1.08814466,0.00000000,0.00000000,-1.78172445,0.71819973,-0.06222569,-1.40775275,2.87979317,0.00000000,0.00000000
-1.67785227,-0.25952789,0.21609700,-1.81217706,-1.08046198,0.00000000,0.00000000,-1.71184170,0.71921682,-0.02999320,-1.36389506,2.87979317,0.00000000,0.00000000
-1.72810435,-0.22251470,0.20071165,-1.76181376,-1.07465172,0.00000000,0.00000000,-1.64650130,0.71441686,-0.00276644,-1.31909895,2.87979317,0.00000000,0.00000000
-1.77267432,-0.19145545,0.18975231,-1.71102452,-1.06627584,0.00000000,0.00000000,-1.58758461,0.70722306,0.01778868,-1.27110064,2.87979317,0.00000000,0.00000000
-1.81132531,-0.16389827,0.18385373,-1.65843117,-1.06125104,0.00000000,0.00000000,-1.53710604,0.70080382,0.02993553,-1.21900403,2.87979317,0.00000000,0.00000000
-1.84428978,-0.13720815,0.18276455,-1.60215807,-1.05659747,0.00000000,0.00000000,-1.49696612,0.69799566,0.03207302,-1.16329026,2.87979317,0.00000000,0.00000000
-1.87220216,-0.10930870,0.18521740,-1.54055536,-1.05261362,0.00000000,0.00000000,-1.46785116,0.70010680,0.02368652,-1.10709047,2.87979317,0.00000000,0.00000000
-1.89595389,-0.07892556,0.18866327,-1.47247756,-1.05147719,0.00000000,0.00000000,-1.44584107,0.70619470,0.00840524,-1.05725098,2.87979317,0.00000000,0.00000000
-1.91642010,-0.04595968,0.18952040,-1.39778829,-1.04849160,0.00000000,0.00000000,-1.42410982,0.71661150,-0.00754830,-1.01603198,2.87979317,0.00000000,0.00000000
-1.93427169,-0.01281219,0.18426850,-1.31890845,-1.04165590,0.00000000,0.00000000,-1.39820051,0.73059165,-0.02010869,-0.98361057,2.87979317,0.00000000,0.00000000
-1.94975448,0.01496603,0.17080761,-1.24235606,-1.03573561,0.00000000,0.00000000,-1.36699688,0.74483013,-0.02817821,-0.96111333,2.87979317,0.00000000,0.00000000
-1.96216846,0.03569562,0.14765623,-1.17299080,-1.02393746,0.00000000,0.00000000,-1.32733333,0.75963336,-0.02867337,-0.94532984,2.87979317,0.00000000,0.00000000
-1.97118366,0.04816211,0.11670999,-1.11354518,-1.01438594,0.00000000,0.00000000,-1.27996349,0.77531725,-0.02215782,-0.93086165,2.87979317,0.00000000,0.00000000
-1.97723508,0.05260058,0.08207122,-1.06320548,-1.00998735,0.00000000,0.00000000,-1.23000598,0.79066509,-0.01340642,-0.91568732,2.87979317,0.00000000,0.00000000
-1.98120236,0.04985842,0.04747377,-1.01804852,-1.00928462,0.00000000,0.00000000,-1.18185735,0.80548930,-0.00663088,-0.89955908,2.87979317,0.00000000,0.00000000
-1.98474503,0.04019104,0.01733067,-0.97497350,-1.00728166,0.00000000,0.00000000,-1.13833094,0.82021463,-0.00462847,-0.88283074,2.87979317,0.00000000,0.00000000
-1.99011624,0.02723907,-0.00356067,-0.93146765,-1.00806594,0.00000000,0.00000000,-1.10079384,0.83573633,-0.00883913,-0.86585081,2.87979317,0.00000000,0.00000000
-1.99868834,0.01396799,-0.01365583,-0.88782239,-1.00709856,0.00000000,0.00000000,-1.06910765,0.85306871,-0.01919994,-0.84877062,2.87979317,0.00000000,0.00000000
-2.01037002,0.00249921,-0.01509429,-0.84587562,-1.00920403,0.00000000,0.00000000,-1.04161370,0.87359273,-0.03400632,-0.83103925,2.87979317,0.00000000,0.00000000
-2.02450919,-0.00588854,-0.01077917,-0.80642086,-1.00997865,0.00000000,0.00000000,-1.01629817,0.89873129,-0.05108087,-0.81174755,2.87979317,0.00000000,0.00000000
-2.04055285,-0.01067992,-0.00268868,-0.76961643,-1.00701129,0.00000000,0.00000000,-0.99206769,0.92973953,-0.06920829,-0.78999317,2.87979317,0.00000000,0.00000000
-2.05786157,-0.01247735,0.00771641,-0.73603415,-1.00684500,0.00000000,0.00000000,-0.96851969,0.96673548,-0.08788019,-0.76537281,2.87979317,0.00000000,0.00000000
-2.07554793,-0.01274122,0.01904221,-0.70662272,-1.00653541,0.00000000,0.00000000,-0.94551957,1.00893140,-0.10680228,-0.73780304,2.87979317,0.00000000,0.00000000
-2.09243608,-0.01303767,0.02985248,-0.68220395,-1.00868869,0.00000000,0.00000000,-0.92292780,1.05515540,-0.12549336,-0.70739311,2.87979317,0.00000000,0.00000000
-2.10689044,-0.01481368,0.03851490,-0.66329783,-1.01290023,0.00000000,0.00000000,-0.90081805,1.10391963,-0.14333376,-0.67484206,2.87979317,0.00000000,0.00000000
-2.11680746,-0.01929647,0.04315136,-0.65001881,-1.01853240,0.00000000,0.00000000,-0.87962347,1.15384591,-0.15959744,-0.64146686,2.87979317,0.00000000,0.00000000
-2.12009048,-0.02777695,0.04199620,-0.64229095,-1.02897179,0.00000000,0.00000000,-0.85995471,1.20387042,-0.17335410,-0.60847712,2.87979317,0.00000000,0.00000000
-2.11507440,-0.04162482,0.03369628,-0.64004517,-1.03956425,0.00000000,0.00000000,-0.84235620,1.25239086,-0.18324885,-0.57649434,2.87979317,0.00000000,0.00000000
-2.10062623,-0.06114575,0.01730099,-0.64280993,-1.05366552,0.00000000,0.00000000,-0.82762814,1.29769039,-0.18787405,-0.54621273,2.87979317,0.00000000,0.00000000
-2.07615972,-0.08539372,-0.00785225,-0.64972812,-1.06712365,0.00000000,0.00000000,-0.81709987,1.33828115,-0.18617356,-0.51843846,2.87979317,0.00000000,0.00000000
-2.04169059,-0.11280917,-0.04218266,-0.66003460,-1.08314037,0.00000000,0.00000000,-0.81230509,1.37290943,-0.17749079,-0.49392837,2.87979317,0.00000000,0.00000000
-1.99783039,-0.14126955,-0.08595368,-0.67317241,-1.09748971,0.00000000,0.00000000,-0.81466806,1.40110028,-0.16165517,-0.47302118,2.87979317,0.00000000,0.00000000
-1.94570124,-0.16783148,-0.13934666,-0.68864214,-1.11016214,0.00000000,0.00000000,-0.82529545,1.42380238,-0.13887924,-0.45518619,2.87979317,0.00000000,0.00000000
-1.88702130,-0.18883669,-0.20233555,-0.70604980,-1.12331522,0.00000000,0.00000000,-0.84487915,1.44233334,-0.10958617,-0.43940160,2.87979317,0.00000000,0.00000000
-1.82436919,-0.19995964,-0.27391624,-0.72493875,-1.13353252,0.00000000,0.00000000,-0.87348503,1.45733535,-0.07445308,-0.42478916,2.87979317,0.00000000,0.00000000
-1.76118064,-0.19881220,-0.35042134,-0.74500006,-1.14201391,0.00000000,0.00000000,-0.90871406,1.46944857,-0.03548303,-0.41094527,2.87979317,0.00000000,0.00000000
-1.70071936,-0.18749690,-0.42584249,-0.76601797,-1.14425004,0.00000000,0.00000000,-0.94618559,1.47804952,0.00433429,-0.39848191,2.87979317,0.00000000,0.00000000
-1.64502525,-0.17023532,-0.49558789,-0.78764319,-1.14479601,0.00000000,0.00000000,-0.98237580,1.48447430,0.04283350,-0.38727590,2.87979317,0.00000000,0.00000000
-1.59522450,-0.15076999,-0.55731440,-0.80951160,-1.14475119,0.00000000,0.00000000,-1.01529002,1.48845351,0.07900828,-0.37781110,2.87979317,0.00000000,0.00000000
-1.55216837,-0.13109235,-0.60991955,-0.83097035,-1.14762259,0.00000000,0.00000000,-1.04394829,1.48939085,0.11253625,-0.37047112,2.87979317,0.00000000,0.00000000
-1.51634967,-0.11249939,-0.65282798,-0.85164082,-1.15266728,0.00000000,0.00000000,-1.06771815,1.48772955,0.14330533,-0.36486650,2.87979317,0.00000000,0.00000000
-1.48794603,-0.09661555,-0.68550265,-0.87151361,-1.15529525,0.00000000,0.00000000,-1.08587110,1.48388255,0.17113627,-0.36054209,2.87979317,0.00000000,0.00000000
-1.46662545,-0.08528078,-0.70776039,-0.89021194,-1.15814948,0.00000000,0.00000000,-1.09793150,1.47793150,0.19590481,-0.35736632,2.87979317,0.00000000,0.00000000
-1.45143688,-0.07983296,-0.72112012,-0.90652829,-1.15930879,0.00000000,0.00000000,-1.10429502,1.46950316,0.21773827,-0.35571575,2.87979317,0.00000000,0.00000000
-1.44170022,-0.08037303,-0.72763902,-0.92020482,-1.15904438,0.00000000,0.00000000,-1.10568762,1.45861888,0.23683050,-0.35580212,2.87979317,0.00000000,0.00000000
-1.43752980,-0.08608201,-0.72838551,-0.93083000,-1.15677202,0.00000000,0.00000000,-1.10257566,1.44637430,0.25331709,-0.35712400,2.87979317,0.00000000,0.00000000
-1.43940568,-0.09587456,-0.72356099,-0.93751198,-1.15189993,0.00000000,0.00000000,-1.09525371,1.43418908,0.26730496,-0.35886475,2.87979317,0.00000000,0.00000000
-1.44776309,-0.10860040,-0.71291250,-0.93932700,-1.14936662,0.00000000,0.00000000,-1.08396578,1.42337883,0.27889383,-0.36022353,2.87979317,0.00000000,0.00000000
-1.46287680,-0.12300438,-0.69599986,-0.93544507,-1.14932013,0.00000000,0.00000000,-1.06896842,1.41502512,0.28821754,-0.36058128,2.87979317,0.00000000,0.00000000
-1.48476636,-0.13788766,-0.67245680,-0.92525029,-1.14612532,0.00000000,0.00000000,-1.05058861,1.40954614,0.29544693,-0.35977677,2.87979317,0.00000000,0.00000000
-1.51324141,-0.15218949,-0.64197236,-0.90830296,-1.14286900,0.00000000,0.00000000,-1.02919614,1.40645385,0.30072263,-0.35821590,2.87979317,0.00000000,0.00000000
-1.54813850,-0.16433048,-0.60441524,-0.88388830,-1.13781607,0.00000000,0.00000000,-1.00529981,1.40461922,0.30416483,-0.35675785,2.87979317,0.00000000,0.00000000
-1.58866894,-0.17335559,-0.56033093,-0.85292232,-1.13057876,0.00000000,0.00000000,-0.97966528,1.40245187,0.30594304,-0.35659146,2.87979317,0.00000000,0.00000000
-1.63304758,-0.17991157,-0.51175380,-0.82019877,-1.12484884,0.00000000,0.00000000,-0.95348561,1.39759529,0.30634758,-0.35942999,2.87979317,0.00000000,0.00000000
-1.68019593,-0.18211143,-0.46186498,-0.78920513,-1.11998820,0.00000000,0.00000000,-0.92843652,1.38717306,0.30579862,-0.36733812,2.87979317,0.00000000,0.00000000
-1.72872579,-0.17765376,-0.41450894,-0.76143807,-1.11496663,0.00000000,0.00000000,-0.90621293,1.36933959,0.30483884,-0.38089293,2.87979317,0.00000000,0.00000000
-1.77738011,-0.16213694,-0.37342450,-0.73558170,-1.10643661,0.00000000,0.00000000,-0.88782662,1.34320140,0.30394104,-0.39830926,2.87979317,0.00000000,0.00000000
-1.82464468,-0.13540377,-0.33948329,-0.71169382,-1.10146117,0.00000000,0.00000000,-0.87263668,1.31050241,0.30276856,-0.41722018,2.87979317,0.00000000,0.00000000
-1.86882949,-0.10064305,-0.31242681,-0.69126111,-1.09555793,0.00000000,0.00000000,-0.85958403,1.27208161,0.30039850,-0.43677273,2.87979317,0.00000000,0.00000000
-1.90847623,-0.06155767,-0.29178146,-0.67602623,-1.08945632,0.00000000,0.00000000,-0.84778243,1.22851765,0.29585236,-0.45654157,2.87979317,0.00000000,0.00000000
-1.94259024,-0.02082023,-0.27697155,-0.66711611,-1.08203328,0.00000000,0.00000000,-0.83680993,1.18145120,0.28841868,-0.47584832,2.87979317,0.00000000,0.00000000
-1.97050595,0.01798341,-0.26720291,-0.66611558,-1.07071614,0.00000000,0.00000000,-0.82659799,1.13212895,0.27728695,-0.49437135,2.87979317,0.00000000,0.00000000
-1.99205375,0.05026387,-0.26147485,-0.67508334,-1.05908954,0.00000000,0.00000000,-0.81732607,1.08158708,0.26135829,-0.51196438,2.87979317,0.00000000,0.00000000
-2.00738740,0.07318276,-0.25900659,-0.69531602,-1.04717469,0.00000000,0.00000000,-0.80939651,1.03283274,0.23992488,-0.52731770,2.87979317,0.00000000,0.00000000
-2.01666760,0.08624321,-0.25964200,-0.72706550,-1.03584552,0.00000000,0.00000000,-0.80325645,0.98894763,0.21323261,-0.53931600,2.87979317,0.00000000,0.00000000
-2.01952219,0.09354208,-0.26481545,-0.76817900,-1.02246201,0.00000000,0.00000000,-0.79819870,0.94914794,0.18414888,-0.55069226,2.87979317,0.00000000,0.00000000
-2.01456022,0.10331424,-0.27807525,-0.81336343,-1.00843799,0.00000000,0.00000000,-0.79110253,0.91218889,0.15894717,-0.56596410,2.87979317,0.00000000,0.00000000
-2.00195980,0.11941101,-0.30080438,-0.85799891,-0.99364883,0.00000000,0.00000000,-0.77923554,0.87929922,0.14134537,-0.58471966,2.87979317,0.00000000,0.00000000
-1.98370826,0.14379908,-0.33181828,-0.89817685,-0.98282075,0.00000000,0.00000000,-0.76117718,0.84936583,0.13214974,-0.60571301,2.87979317,0.00000000,0.00000000
-1.96134937,0.17659949,-0.36958194,-0.93243742,-0.97350848,0.00000000,0.00000000,-0.73617333,0.82162136,0.13120700,-0.62695229,2.87979317,0.00000000,0.00000000
-1.93632197,0.21575314,-0.41169623,-0.96077073,-0.96796274,0.00000000,0.00000000,-0.70464003,0.79646546,0.13720860,-0.64541250,2.87979317,0.00000000,0.00000000
-1.91073859,0.25826356,-0.45471022,-0.98338664,-0.96574110,0.00000000,0.00000000,-0.66834569,0.77455467,0.14773479,-0.65862250,2.87979317,0.00000000,0.00000000
-1.88690603,0.30095953,-0.49499077,-1.00082088,-0.96522474,0.00000000,0.00000000,-0.62979442,0.75719887,0.16000117,-0.66458827,2.87979317,0.00000000,0.00000000
-1.86674082,0.34033287,-0.52935135,-1.01431191,-0.96926761,0.00000000,0.00000000,-0.59180576,0.74550533,0.17121343,-0.66206765,2.87979317,0.00000000,0.00000000
-1.85141432,0.37445179,-0.55608499,-1.02462196,-0.97500324,0.00000000,0.00000000,-0.55627722,0.74139297,0.17959632,-0.65089023,2.87979317,0.00000000,0.00000000
-1.84119761,0.40241259,-0.57468718,-1.03228283,-0.98335868,0.00000000,0.00000000,-0.52408659,0.74700129,0.18434480,-0.63284320,2.87979317,0.00000000,0.00000000
-1.83524060,0.42429265,-0.58613044,-1.03742456,-0.98962104,0.00000000,0.00000000,-0.49493027,0.75970960,0.18566290,-0.61137760,2.87979317,0.00000000,0.00000000
-1.83275962,0.44120380,-0.59195471,-1.03948617,-0.99808770,0.00000000,0.00000000,-0.46769595,0.77824861,0.18448456,-0.58775997,2.87979317,0.00000000,0.00000000
-1.83270121,0.45428798,-0.59401208,-1.03801680,-1.00169003,0.00000000,0.00000000,-0.44124496,0.80143994,0.18180650,-0.56294310,2.87979317,0.00000000,0.00000000
-1.83375132,0.46407586,-0.59386414,-1.03308201,-1.00544703,0.00000000,0.00000000,-0.41487542,0.82758540,0.17826684,-0.53798896,2.87979317,0.00000000,0.00000000
-1.83490491,0.47035715,-0.59225559,-1.02509677,-1.00755048,0.00000000,0.00000000,-0.38834292,0.85498881,0.17409132,-0.51376688,2.87979317,0.00000000,0.00000000
-1.83505750,0.47239628,-0.58969927,-1.01497960,-1.01308310,0.00000000,0.00000000,-0.36161163,0.88215649,0.16930637,-0.49093458,2.87979317,0.00000000,0.00000000
-1.83294690,0.46942645,-0.58693516,-1.00395298,-1.02132821,0.00000000,0.00000000,-0.33462358,0.90799469,0.16395061,-0.46993998,2.87979317,0.00000000,0.00000000
-1.82749081,0.46006015,-0.58432686,-0.99353272,-1.03561866,0.00000000,0.00000000,-0.30742455,0.93162578,0.15787713,-0.45109501,2.87979317,0.00000000,0.00000000
-1.81793010,0.44321841,-0.58206201,-0.98485899,-1.05114877,0.00000000,0.00000000,-0.27995980,0.95290822,0.15104032,-0.43433112,2.87979317,0.00000000,0.00000000
-1.80419230,0.41785881,-0.57946742,-0.97850734,-1.06941462,0.00000000,0.00000000,-0.25216401,0.97213149,0.14336197,-0.41938233,2.87979317,0.00000000,0.00000000
-1.78662312,0.38390344,-0.57613415,-0.97411072,-1.08964717,0.00000000,0.00000000,-0.22389431,0.98977709,0.13498284,-0.40600371,2.87979317,0.00000000,0.00000000
-1.76607847,0.34216517,-0.57183760,-0.97044283,-1.10997570,0.00000000,0.00000000,-0.19498403,1.00673258,0.12622349,-0.39382392,2.87979317,0.00000000,0.00000000
-1.74363780,0.29362300,-0.56646609,-0.96604520,-1.13110161,0.00000000,0.00000000,-0.16533054,1.02394247,0.11739305,-0.38248807,2.87979317,0.00000000,0.00000000
-1.72054732,0.23921677,-0.55986369,-0.95941460,-1.15442264,0.00000000,0.00000000,-0.13488995,1.04246402,0.10875914,-0.37159839,2.87979317,0.00000000,0.00000000
-1.69771171,0.18010864,-0.55174243,-0.94920576,-1.17418861,0.00000000,0.00000000,-0.10369071,1.06345904,0.10062525,-0.36072385,2.87979317,0.00000000,0.00000000
-1.67576468,0.11778590,-0.54191965,-0.93410468,-1.19580197,0.00000000,0.00000000,-0.07186987,1.08817339,0.09334959,-0.34939158,2.87979317,0.00000000,0.00000000
-1.65514088,0.05298981,-0.53034014,-0.91324461,-1.21596980,0.00000000,0.00000000,-0.03981246,1.11766231,0.08739596,-0.33723530,2.87979317,0.00000000,0.00000000
-1.63597095,-0.01492905,-0.51665133,-0.88686889,-1.24171317,0.00000000,0.00000000,-0.00838869,1.15255558,0.08347077,-0.32417825,2.87979317,0.00000000,0.00000000
-1.61786973,-0.08439422,-0.50077927,-0.85511696,-1.26628375,0.00000000,0.00000000,0.02128911,1.19287419,0.08206108,-0.31041282,2.87979317,0.00000000,0.00000000
-1.60050440,-0.15365006,-0.48287517,-0.81800610,-1.29380786,0.00000000,0.00000000,0.04810348,1.23833537,0.08332645,-0.29616579,2.87979317,0.00000000,0.00000000
-1.58358479,-0.22178675,-0.46320033,-0.77568787,-1.32246602,0.00000000,0.00000000,0.07094361,1.28839648,0.08725993,-0.28174791,2.87979317,0.00000000,0.00000000
-1.56674349,-0.28832287,-0.44206730,-0.72848952,-1.34996641,0.00000000,0.00000000,0.08871446,1.34215021,0.09378317,-0.26764584,2.87979317,0.00000000,0.00000000
-1.54963970,-0.35293713,-0.41987243,-0.67692035,-1.37916923,0.00000000,0.00000000,0.10038848,1.39807224,0.10274993,-0.25467688,2.87979317,0.00000000,0.00000000
-1.53208208,-0.41538039,-0.39704794,-0.62161952,-1.40943670,0.00000000,0.00000000,0.10513678,1.45440912,0.11392700,-0.24387644,2.87979317,0.00000000,0.00000000
-1.51402354,-0.47532260,-0.37412992,-0.56344110,-1.43393195,0.00000000,0.00000000,0.10243443,1.50891721,0.12701154,-0.23655498,2.87979317,0.00000000,0.00000000
-1.49551952,-0.53242433,-0.35176829,-0.50344008,-1.45939565,0.00000000,0.00000000,0.09227499,1.55913508,0.14163457,-0.23408890,2.87979317,0.00000000,0.00000000
-1.47674131,-0.58619225,-0.33063963,-0.44271374,-1.48676133,0.00000000,0.00000000,0.07519659,1.60303509,0.15739083,-0.23758493,2.87979317,0.00000000,0.00000000
-1.45796406,-0.63605851,-0.31135038,-0.38241991,-1.51282132,0.00000000,0.00000000,0.05222854,1.63891244,0.17383836,-0.24787067,2.87979317,0.00000000,0.00000000
-1.43954051,-0.68209654,-0.29430896,-0.32409498,-1.53870845,0.00000000,0.00000000,0.02508600,1.66546786,0.19041434,-0.26542434,2.87979317,0.00000000,0.00000000
-1.42191565,-0.72485030,-0.27969328,-0.26931816,-1.56278157,0.00000000,0.00000000,-0.00414541,1.68190730,0.20643583,-0.29036659,2.87979317,0.00000000,0.00000000
-1.40560126,-0.76526970,-0.26745903,-0.21954823,-1.58354783,0.00000000,0.00000000,-0.03298873,1.68902802,0.22098786,-0.32171521,2.87979317,0.00000000,0.00000000
-1.39118207,-0.80465978,-0.25743812,-0.17612842,-1.60173571,0.00000000,0.00000000,-0.05900938,1.68717849,0.23282963,-0.35797355,2.87979317,0.00000000,0.00000000
-1.37933195,-0.84397203,-0.24941033,-0.13995346,-1.62012672,0.00000000,0.00000000,-0.08085845,1.67476106,0.24073474,-0.39764369,2.87979317,0.00000000,0.00000000
-1.37079620,-0.88242918,-0.24315663,-0.11085367,-1.63735771,0.00000000,0.00000000,-0.09757106,1.65756714,0.24411866,-0.43548021,2.87979317,0.00000000,0.00000000
-1.36628771,-0.91873217,-0.23845620,-0.08825518,-1.65387261,0.00000000,0.00000000,-0.10982537,1.63880825,0.24289146,-0.46908572,2.87979317,0.00000000,0.00000000
-1.36637223,-0.95198816,-0.23508917,-0.07169288,-1.66554487,0.00000000,0.00000000,-0.11867037,1.61963630,0.23709904,-0.49770886,2.87979317,0.00000000,0.00000000
-1.37137187,-0.98155743,-0.23285735,-0.06070675,-1.66960680,0.00000000,0.00000000,-0.12512632,1.60110593,0.22700992,-0.52082616,2.87979317,0.00000000,0.00000000
-1.38121033,-1.00709486,-0.23158215,-0.05481003,-1.67476439,0.00000000,0.00000000,-0.13029082,1.58389413,0.21326208,-0.53842139,2.87979317,0.00000000,0.00000000
-1.39537358,-1.02810895,-0.23111276,-0.05326712,-1.68119299,0.00000000,0.00000000,-0.13551649,1.56815708,0.19704409,-0.55116123,2.87979317,0.00000000,0.00000000
-1.41310418,-1.04292691,-0.23134464,-0.05461703,-1.68980777,0.00000000,0.00000000,-0.14276430,1.55327439,0.18022501,-0.56048572,2.87979317,0.00000000,0.00000000
-1.43362141,-1.04911304,-0.23221415,-0.05703022,-1.69542420,0.00000000,0.00000000,-0.15416244,1.53791356,0.16500428,-0.56860274,2.87979317,0.00000000,0.00000000
-1.45603526,-1.04470873,-0.23365803,-0.05897962,-1.70163965,0.00000000,0.00000000,-0.17127471,1.52084839,0.15324798,-0.57772291,2.87979317,0.00000000,0.00000000
-1.47945285,-1.02956724,-0.23559721,-0.06001782,-1.70465136,0.00000000,0.00000000,-0.19444999,1.50134194,0.14594105,-0.58929890,2.87979317,0.00000000,0.00000000
-1.50293255,-1.00484073,-0.23792376,-0.06039665,-1.70859706,0.00000000,0.00000000,-0.22309691,1.47973704,0.14332582,-0.60352618,2.87979317,0.00000000,0.00000000
-1.52572644,-0.97285992,-0.24052568,-0.06106147,-1.71180546,0.00000000,0.00000000,-0.25582755,1.45720279,0.14465250,-0.61938393,2.87979317,0.00000000,0.00000000
-1.54751694,-0.93606400,-0.24332543,-0.06311972,-1.70915473,0.00000000,0.00000000,-0.29074791,1.43596256,0.14851139,-0.63532841,2.87979317,0.00000000,0.00000000
-1.56823134,-0.89601272,-0.24626231,-0.06719448,-1.70791888,0.00000000,0.00000000,-0.32612020,1.41825020,0.15337023,-0.65019268,2.87979317,0.00000000,0.00000000
-1.58797741,-0.85344505,-0.24928689,-0.07343878,-1.70512497,0.00000000,0.00000000,-0.36055905,1.40565670,0.15785231,-0.66341680,2.87979317,0.00000000,0.00000000
-1.60698140,-0.80910832,-0.25235808,-0.08196770,-1.70032096,0.00000000,0.00000000,-0.39295423,1.39829290,0.16086304,-0.67511648,2.87979317,0.00000000,0.00000000
-1.62545145,-0.76404375,-0.25543052,-0.09297047,-1.69447303,0.00000000,0.00000000,-0.42233998,1.39543045,0.16165063,-0.68546665,2.87979317,0.00000000,0.00000000
-1.64349604,-0.71934623,-0.25842708,-0.10660774,-1.68779373,0.00000000,0.00000000,-0.44775516,1.39638007,0.15986446,-0.69409591,2.87979317,0.00000000,0.00000000
-1.66116703,-0.67613280,-0.26121596,-0.12292087,-1.68003595,0.00000000,0.00000000,-0.46826193,1.40027380,0.15538977,-0.70033646,2.87979317,0.00000000,0.00000000
-1.67855036,-0.63512534,-0.26360554,-0.14160939,-1.67358053,0.00000000,0.00000000,-0.48306334,1.40622103,0.14833754,-0.70337623,2.87979317,0.00000000,0.00000000
-1.69579148,-0.59679282,-0.26537463,-0.16213995,-1.66463828,0.00000000,0.00000000,-0.49146968,1.41365850,0.13885072,-0.70236748,2.87979317,0.00000000,0.00000000
-1.71307194,-0.56129748,-0.26629904,-0.18404984,-1.65130687,0.00000000,0.00000000,-0.49295020,1.42254353,0.12713210,-0.69652098,2.87979317,0.00000000,0.00000000
-1.73047292,-0.52800411,-0.26618662,-0.20706928,-1.64182508,0.00000000,0.00000000,-0.48783445,1.43328440,0.11356448,-0.68518662,2.87979317,0.00000000,0.00000000
-1.74786174,-0.49577227,-0.26494408,-0.23082000,-1.62940276,0.00000000,0.00000000,-0.47787696,1.44597077,0.09834842,-0.66811287,2.87979317,0.00000000,0.00000000
-1.76539612,-0.46271551,-0.26262355,-0.25451690,-1.61671078,0.00000000,0.00000000,-0.46504393,1.45947778,0.08125892,-0.64584064,2.87979317,0.00000000,0.00000000
-1.78347397,-0.42812255,-0.25935176,-0.27742386,-1.60429513,0.00000000,0.00000000,-0.45048001,1.47246063,0.06191314,-0.61940932,2.87979317,0.00000000,0.00000000
-1.80227852,-0.39263126,-0.25523883,-0.29922166,-1.59006310,0.00000000,0.00000000,-0.43468288,1.48275614,0.04001026,-0.59055388,2.87979317,0.00000000,0.00000000
-1.82185328,-0.35788375,-0.25032797,-0.31995901,-1.56922305,0.00000000,0.00000000,-0.41771537,1.48769927,0.01529465,-0.56260794,2.87979317,0.00000000,0.00000000
-1.84211409,-0.32531661,-0.24462222,-0.33977115,-1.55213118,0.00000000,0.00000000,-0.39979041,1.48580575,-0.01200807,-0.54020810,2.87979317,0.00000000,0.00000000
-1.86293995,-0.29528186,-0.23813504,-0.35855791,-1.53743434,0.00000000,0.00000000,-0.38131598,1.47749591,-0.04129829,-0.52458912,2.87979317,0.00000000,0.00000000
-1.88392675,-0.26802671,-0.23095389,-0.37626666,-1.52043808,0.00000000,0.00000000,-0.36316282,1.46216655,-0.07159834,-0.51623720,2.87979317,0.00000000,0.00000000
-1.90448892,-0.24430829,-0.22321159,-0.39287087,-1.50703859,0.00000000,0.00000000,-0.34627846,1.43976140,-0.10194286,-0.51526928,2.87979317,0.00000000,0.00000000
-1.92410886,-0.22515628,-0.21497528,-0.40815574,-1.49347579,0.00000000,0.00000000,-0.33138621,1.41079366,-0.13150652,-0.52143389,2.87979317,0.00000000,0.00000000
-1.94217396,-0.21055445,-0.20630902,-0.42127815,-1.48141253,0.00000000,0.00000000,-0.31907398,1.37541521,-0.15942177,-0.53451747,2.87979317,0.00000000,0.00000000
-1.95795393,-0.19950348,-0.19731410,-0.43082428,-1.46792817,0.00000000,0.00000000,-0.30949995,1.33355820,-0.18485022,-0.55433041,2.87979317,0.00000000,0.00000000
-1.97107136,-0.18975782,-0.18813813,-0.43510965,-1.45048785,0.00000000,0.00000000,-0.30235437,1.28441644,-0.20662345,-0.58084613,2.87979317,0.00000000,0.00000000
-1.98130453,-0.17792529,-0.17923915,-0.43282875,-1.43387830,0.00000000,0.00000000,-0.29704300,1.22694039,-0.22286108,-0.61285132,2.87979317,0.00000000,0.00000000
-1.98819590,-0.16195604,-0.17119680,-0.42372561,-1.42040002,0.00000000,0.00000000,-0.29257676,1.16193974,-0.23207507,-0.64650029,2.87979317,0.00000000,0.00000000
-1.99113691,-0.14194383,-0.16444159,-0.40857434,-1.40741444,0.00000000,0.00000000,-0.28766730,1.09195697,-0.23415203,-0.67884892,2.87979317,0.00000000,0.00000000
-1.98861623,-0.11871336,-0.15977870,-0.38935012,-1.39989090,0.00000000,0.00000000,-0.28084126,1.01948893,-0.22913119,-0.70912409,2.87979317,0.00000000,0.00000000
-1.97807264,-0.09428266,-0.15837683,-0.37025198,-1.39625752,0.00000000,0.00000000,-0.27052969,0.94717026,-0.21685237,-0.73781669,2.87979317,0.00000000,0.00000000
-1.95900893,-0.06650720,-0.16026354,-0.35149702,-1.39251924,0.00000000,0.00000000,-0.25545147,0.87720269,-0.19750392,-0.76557314,2.87979317,0.00000000,0.00000000
-1.93092668,-0.03707159,-0.16520552,-0.33430612,-1.38312042,0.00000000,0.00000000,-0.23486258,0.81019801,-0.17150596,-0.79267848,2.87979317,0.00000000,0.00000000
-1.89349639,-0.00788402,-0.17295122,-0.31970865,-1.38079321,0.00000000,0.00000000,-0.20850539,0.74627924,-0.13933395,-0.81906223,2.87979317,0.00000000,0.00000000
-1.84738338,0.02088173,-0.18303220,-0.30765262,-1.38171113,0.00000000,0.00000000,-0.17667425,0.68621671,-0.10165919,-0.84405631,2.87979317,0.00000000,0.00000000
-1.79443610,0.05026257,-0.19476919,-0.29731953,-1.38312376,0.00000000,0.00000000,-0.14027210,0.63199031,-0.05940900,-0.86610156,2.87979317,0.00000000,0.00000000
-1.73783648,0.08135141,-0.20723811,-0.28765729,-1.38500345,0.00000000,0.00000000,-0.10089316,0.58586460,-0.01383236,-0.88342470,2.87979317,0.00000000,0.00000000
-1.68181992,0.11469964,-0.21938612,-0.27762464,-1.38468051,0.00000000,0.00000000,-0.06078224,0.54894996,0.03352460,-0.89496005,2.87979317,0.00000000,0.00000000
-1.63059187,0.15060182,-0.23033181,-0.26621544,-1.38074851,0.00000000,0.00000000,-0.02243540,0.52183527,0.08105132,-0.89998758,2.87979317,0.00000000,0.00000000
-1.58704734,0.18889843,-0.23961981,-0.25287998,-1.38296175,0.00000000,0.00000000,0.01227168,0.50514650,0.12764525,-0.89778823,2.87979317,0.00000000,0.00000000
-1.55275071,0.22834991,-0.24711111,-0.23792832,-1.37955248,0.00000000,0.00000000,0.04201821,0.49943134,0.17260790,-0.88765460,2.87979317,0.00000000,0.00000000
-1.52819097,0.26726079,-0.25288573,-0.22213785,-1.37022436,0.00000000,0.00000000,0.06609812,0.50530964,0.21564963,-0.86880928,2.87979317,0.00000000,0.00000000
-1.51311159,0.30409887,-0.25716633,-0.20630643,-1.35966027,0.00000000,0.00000000,0.08439940,0.52368754,0.25685540,-0.84027201,2.87979317,0.00000000,0.00000000
-1.50642884,0.33704135,-0.26025960,-0.19149595,-1.34937263,0.00000000,0.00000000,0.09622798,0.55341488,0.29573232,-0.80213034,2.87979317,0.00000000,0.00000000
-1.50597024,0.36431092,-0.26255700,-0.17894512,-1.34248722,0.00000000,0.00000000,0.10055676,0.59134680,0.33132124,-0.75570571,2.87979317,0.00000000,0.00000000
-1.50880599,0.38426808,-0.26448396,-0.16996187,-1.33357084,0.00000000,0.00000000,0.09656417,0.63277280,0.36257222,-0.70408124,2.87979317,0.00000000,0.00000000
-1.51193619,0.39597449,-0.26642478,-0.16546951,-1.32418013,0.00000000,0.00000000,0.08420945,0.67222446,0.38884482,-0.65236908,2.87979317,0.00000000,0.00000000
-1.51245856,0.39948106,-0.26872432,-0.16583569,-1.31510687,0.00000000,0.00000000,0.06377119,0.70661992,0.40979356,-0.60396910,2.87979317,0.00000000,0.00000000
-1.50853360,0.39482582,-0.27158982,-0.17131442,-1.31177473,0.00000000,0.00000000,0.03551801,0.73248565,0.42508703,-0.56097013,2.87979317,0.00000000,0.00000000
-1.49894691,0.38306540,-0.27517825,-0.18156980,-1.30233073,0.00000000,0.00000000,0.00021857,0.74753916,0.43497753,-0.52472115,2.87979317,0.00000000,0.00000000
-1.48329484,0.36595625,-0.27957571,-0.19579723,-1.29123044,0.00000000,0.00000000,-0.04103926,0.75128508,0.44021982,-0.49593005,2.87979317,0.00000000,0.00000000
-1.46249473,0.34605917,-0.28472584,-0.21255171,-1.27470684,0.00000000,0.00000000,-0.08691664,0.74438274,0.44196895,-0.47486761,2.87979317,0.00000000,0.00000000
-1.43875599,0.32686883,-0.29041442,-0.22962113,-1.25914752,0.00000000,0.00000000,-0.13563718,0.72930098,0.44186342,-0.46096489,2.87979317,0.00000000,0.00000000
-1.41515362,0.31205893,-0.29626963,-0.24445306,-1.24809790,0.00000000,0.00000000,-0.18513869,0.71028560,0.44178253,-0.45253110,2.87979317,0.00000000,0.00000000
-1.39480674,0.30451313,-0.30183798,-0.25479665,-1.23508835,0.00000000,0.00000000,-0.23356056,0.69198453,0.44335583,-0.44721222,2.87979317,0.00000000,0.00000000
-1.38015115,0.30521026,-0.30667815,-0.25950277,-1.22470295,0.00000000,0.00000000,-0.27997231,0.67805403,0.44738337,-0.44268399,2.87979317,0.00000000,0.00000000
-1.37219322,0.31318849,-0.31053612,-0.25876409,-1.21829391,0.00000000,0.00000000,-0.32478058,0.66987199,0.45357487,-0.43744907,2.87979317,0.00000000,0.00000000
-1.37082052,0.32629970,-0.31334642,-0.25365850,-1.21278667,0.00000000,0.00000000,-0.36923555,0.66780519,0.46102458,-0.43030858,2.87979317,0.00000000,0.00000000
-1.37471068,0.34219894,-0.31529176,-0.24565084,-1.20366216,0.00000000,0.00000000,-0.41486230,0.67089897,0.46860951,-0.42074704,2.87979317,0.00000000,0.00000000
-1.38175964,0.35872647,-0.31671047,-0.23630247,-1.19386637,0.00000000,0.00000000,-0.46310961,0.67753810,0.47523409,-0.40865350,2.87979317,0.00000000,0.00000000
-1.38956034,0.37384573,-0.31798115,-0.22717139,-1.18230116,0.00000000,0.00000000,-0.51515603,0.68588245,0.47997263,-0.39414278,2.87979317,0.00000000,0.00000000
-1.39571226,0.38612908,-0.31946683,-0.21944951,-1.17381918,0.00000000,0.00000000,-0.57170045,0.69394761,0.48221788,-0.37772250,2.87979317,0.00000000,0.00000000
-1.39840388,0.39489430,-0.32143536,-0.21375766,-1.16736543,0.00000000,0.00000000,-0.63301736,0.70034510,0.48167771,-0.35989445,2.87979317,0.00000000,0.00000000
-1.39633286,0.39958182,-0.32406154,-0.21052770,-1.15869367,0.00000000,0.00000000,-0.69923639,0.70394528,0.47819221,-0.34107798,2.87979317,0.00000000,0.00000000
-1.38884366,0.39992139,-0.32742178,-0.20993872,-1.14431787,0.00000000,0.00000000,-0.77035028,0.70424080,0.47175378,-0.32138783,2.87979317,0.00000000,0.00000000
-1.37611926,0.39544734,-0.33147901,-0.21213427,-1.12877095,0.00000000,0.00000000,-0.84638423,0.70084947,0.46238020,-0.30080071,2.87979317,0.00000000,0.00000000
-1.35897315,0.38612908,-0.33612102,-0.21687275,-1.11555171,0.00000000,0.00000000,-0.92741156,0.69415259,0.45011902,-0.27871904,2.87979317,0.00000000,0.00000000
-1.33874083,0.37176400,-0.34114051,-0.22389853,-1.10208297,0.00000000,0.00000000,-1.01354718,0.68423760,0.43502873,-0.25465003,2.87979317,0.00000000,0.00000000
-1.31670129,0.35217327,-0.34630501,-0.23292738,-1.08615434,0.00000000,0.00000000,-1.10476160,0.67072082,0.41730210,-0.22861937,2.87979317,0.00000000,0.00000000
-1.29452789,0.32654485,-0.35124537,-0.24393882,-1.07225418,0.00000000,0.00000000,-1.20098341,0.65265042,0.39718500,-0.20100674,2.87979317,0.00000000,0.00000000
-1.27453923,0.29222962,-0.35532355,-0.25768259,-1.05393267,0.00000000,0.00000000,-1.30188656,0.62725002,0.37503022,-0.17356855,2.87979317,0.00000000,0.00000000
-1.25856054,0.24413991,-0.35777169,-0.27573442,-1.03458560,0.00000000,0.00000000,-1.40630937,0.59041154,0.35144633,-0.14964177,2.87979317,0.00000000,0.00000000
-1.24411821,0.17950699,-0.35870090,-0.29853028,-1.01793432,0.00000000,0.00000000,-1.51130271,0.54087168,0.32748318,-0.13227840,2.87979317,0.00000000,0.00000000
-1.22875154,0.10122351,-0.35858947,-0.32401139,-1.00295055,0.00000000,0.00000000,-1.61281621,0.48076528,0.30419704,-0.12271978,2.87979317,0.00000000,0.00000000
-1.21203423,0.01336513,-0.35758916,-0.34931746,-0.98790109,0.00000000,0.00000000,-1.70751059,0.41385621,0.28216809,-0.12023500,2.87979317,0.00000000,0.00000000
-1.19414318,-0.08031540,-0.35566720,-0.37166405,-0.97499198,0.00000000,0.00000000,-1.79311764,0.34430218,0.26162767,-0.12300138,2.87979317,0.00000000,0.00000000
-1.17530560,-0.17582354,-0.35281083,-0.38840514,-0.95561117,0.00000000,0.00000000,-1.86833751,0.27663237,0.24265468,-0.12857525,2.87979317,0.00000000,0.00000000
-1.15611768,-0.26890478,-0.34907377,-0.39758435,-0.94125462,0.00000000,0.00000000,-1.93320370,0.21593899,0.22519691,-0.13389120,2.87979317,0.00000000,0.00000000
-1.13783526,-0.35515127,-0.34456146,-0.39807054,-0.93322754,0.00000000,0.00000000,-1.98911273,0.16749966,0.20907186,-0.13559970,2.87979317,0.00000000,0.00000000
-1.12125146,-0.43104509,-0.33937222,-0.38930023,-0.92730695,0.00000000,0.00000000,-2.03776765,0.13499071,0.19406301,-0.13136305,2.87979317,0.00000000,0.00000000
-1.10641146,-0.49504298,-0.33356130,-0.37129664,-0.92260128,0.00000000,0.00000000,-2.08036256,0.11960452,0.17999178,-0.12040568,2.87979317,0.00000000,0.00000000
-1.09296536,-0.54751170,-0.32718250,-0.34478071,-0.91386753,0.00000000,0.00000000,-2.11726809,0.12056060,0.16674823,-0.10316786,2.87979317,0.00000000,0.00000000
-1.08041942,-0.59041703,-0.32030204,-0.31128317,-0.90932214,0.00000000,0.00000000,-2.14798355,0.13568369,0.15428017,-0.08103909,2.87979317,0.00000000,0.00000000
-1.06825972,-0.62705576,-0.31300619,-0.27313137,-0.89867014,0.00000000,0.00000000,-2.17134261,0.16199225,0.14254917,-0.05593009,2.87979317,0.00000000,0.00000000
-1.05597413,-0.66146773,-0.30540365,-0.23332922,-0.89021403,0.00000000,0.00000000,-2.18611073,0.19595717,0.13146545,-0.03008058,2.87979317,0.00000000,0.00000000
-1.04316187,-0.69682151,-0.29763418,-0.19511174,-0.87871796,0.00000000,0.00000000,-2.19128036,0.23488776,0.12087308,-0.00533506,2.87979317,0.00000000,0.00000000
-1.02967620,-0.73495901,-0.28988057,-0.16133723,-0.86688834,0.00000000,0.00000000,-2.18599844,0.27736992,0.11055762,0.01705656,2.87979317,0.00000000,0.00000000
-1.01576269,-0.77788806,-0.28238529,-0.13407871,-0.85624617,0.00000000,0.00000000,-2.16963792,0.32210162,0.10024974,0.03577905,2.87979317,0.00000000,0.00000000
-1.00188434,-0.82741332,-0.27539337,-0.11475569,-0.85123652,0.00000000,0.00000000,-2.14223504,0.36779809,0.08968531,0.04948557,2.87979317,0.00000000,0.00000000
-0.98857361,-0.88338304,-0.26906776,-0.10359209,-0.84770286,0.00000000,0.00000000,-2.10565591,0.41339162,0.07877053,0.05728023,2.87979317,0.00000000,0.00000000
-0.97646409,-0.94267726,-0.26354754,-0.09914012,-0.84151971,0.00000000,0.00000000,-2.06285644,0.45854077,0.06763437,0.05902194,2.87979317,0.00000000,0.00000000
-0.96612650,-0.99974304,-0.25894845,-0.09855486,-0.83518142,0.00000000,0.00000000,-2.01640654,0.50531417,0.05648254,0.05596431,2.87979317,0.00000000,0.00000000
-0.95758551,-1.05036676,-0.25524625,-0.09902193,-0.82908094,0.00000000,0.00000000,-1.96809936,0.55556643,0.04548905,0.04931405,2.87979317,0.00000000,0.00000000
-0.95056021,-1.09288752,-0.25235739,-0.09898526,-0.81732923,0.00000000,0.00000000,-1.91904545,0.60965621,0.03475310,0.03972908,2.87979317,0.00000000,0.00000000
-0.94477910,-1.12674022,-0.25021735,-0.09764194,-0.80741721,0.00000000,0.00000000,-1.86983466,0.66728330,0.02429881,0.02780692,2.87979317,0.00000000,0.00000000
-0.93999904,-1.15174353,-0.24877921,-0.09449419,-0.79716563,0.00000000,0.00000000,-1.82068825,0.72799164,0.01409893,0.01411381,2.87979317,0.00000000,0.00000000
-0.93588388,-1.16856813,-0.24798650,-0.08961869,-0.78670865,0.00000000,0.00000000,-1.77159989,0.79098678,0.00409930,-0.00109760,2.87979317,0.00000000,0.00000000
-0.93212801,-1.17832720,-0.24778888,-0.08340151,-0.77617514,0.00000000,0.00000000,-1.72251177,0.85527390,-0.00576140,-0.01776436,2.87979317,0.00000000,0.00000000
-0.92845595,-1.18195069,-0.24815173,-0.07613127,-0.76678795,0.00000000,0.00000000,-1.67342699,0.92006207,-0.01554151,-0.03575302,2.87979317,0.00000000,0.00000000
-0.92434406,-1.18019557,-0.24902387,-0.06789441,-0.75811327,0.00000000,0.00000000,-1.62447286,0.98507625,-0.02529131,-0.05466225,2.87979317,0.00000000,0.00000000
-0.91926390,-1.17432797,-0.25035849,-0.05904064,-0.75092256,0.00000000,0.00000000,-1.57586920,1.05003238,-0.03505777,-0.07383233,2.87979317,0.00000000,0.00000000
-0.91249144,-1.16588867,-0.25210515,-0.04992288,-0.74697477,0.00000000,0.00000000,-1.52785647,1.11489952,-0.04489135,-0.09231520,2.87979317,0.00000000,0.00000000
-0.90320003,-1.15631759,-0.25422618,-0.04067955,-0.74060893,0.00000000,0.00000000,-1.48073590,1.17995334,-0.05483655,-0.10894935,2.87979317,0.00000000,0.00000000
-0.89077306,-1.14681602,-0.25671944,-0.03129248,-0.73212385,0.00000000,0.00000000,-1.43497825,1.24542391,-0.06491093,-0.12270314,2.87979317,0.00000000,0.00000000
-0.87496465,-1.13815188,-0.25962174,-0.02166860,-0.72085744,0.00000000,0.00000000,-1.39128518,1.31130826,-0.07508997,-0.13290636,2.87979317,0.00000000,0.00000000
-0.85593814,-1.13098431,-0.26299101,-0.01186957,-0.70829248,0.00000000,0.00000000,-1.35054839,1.37699914,-0.08531238,-0.13937157,2.87979317,0.00000000,0.00000000
-0.83428621,-1.12593222,-0.26688775,-0.00221040,-0.70190603,0.00000000,0.00000000,-1.31365466,1.44109440,-0.09550907,-0.14244449,2.87979317,0.00000000,0.00000000
-0.81091887,-1.12363970,-0.27135700,0.00673385,-0.69381207,0.00000000,0.00000000,-1.28122103,1.50149560,-0.10563694,-0.14299496,2.87979317,0.00000000,0.00000000
-0.78692782,-1.12607765,-0.27641189,0.01340689,-0.68651748,0.00000000,0.00000000,-1.25303161,1.55514514,-0.11573520,-0.14255282,2.87979317,0.00000000,0.00000000
-0.76395237,-1.13412857,-0.28201905,0.01639322,-0.67801565,0.00000000,0.00000000,-1.22802937,1.59852576,-0.12592667,-0.14313996,2.87979317,0.00000000,0.00000000
-0.74405324,-1.14614010,-0.28810939,0.01537670,-0.66829473,0.00000000,0.00000000,-1.20440245,1.62789941,-0.13641936,-0.14721191,2.87979317,0.00000000,0.00000000
-0.72874242,-1.16246784,-0.29466009,0.00915783,-0.66086411,0.00000000,0.00000000,-1.17971063,1.64056098,-0.14753203,-0.15692188,2.87979317,0.00000000,0.00000000
-0.71900976,-1.18433416,-0.30171901,-0.00362231,-0.65574050,0.00000000,0.00000000,-1.15149057,1.63598609,-0.15968490,-0.17347832,2.87979317,0.00000000,0.00000000
-0.71555030,-1.21142340,-0.30939052,-0.02336630,-0.65215337,0.00000000,0.00000000,-1.11814690,1.61534989,-0.17333043,-0.19757578,2.87979317,0.00000000,0.00000000
-0.71842200,-1.24364984,-0.31781110,-0.05026675,-0.64638215,0.00000000,0.00000000,-1.07838416,1.58126616,-0.18903297,-0.22965461,2.87979317,0.00000000,0.00000000
-0.72691399,-1.28214848,-0.32707420,-0.08489931,-0.64068854,0.00000000,0.00000000,-1.03101265,1.53730273,-0.20752442,-0.26990920,2.87979317,0.00000000,0.00000000
-0.73948860,-1.32919884,-0.33712962,-0.12847343,-0.63161981,0.00000000,0.00000000,-0.97580749,1.48759878,-0.22955821,-0.31808871,2.87979317,0.00000000,0.00000000
-0.75427437,-1.38546002,-0.34778890,-0.18140827,-0.61932439,0.00000000,0.00000000,-0.91532987,1.43584645,-0.25498903,-0.37333140,2.87979317,0.00000000,0.00000000
-0.76955849,-1.44576943,-0.35892874,-0.24067935,-0.61006361,0.00000000,0.00000000,-0.85571241,1.38339567,-0.28132942,-0.43403143,2.87979317,0.00000000,0.00000000
-0.78348345,-1.49902225,-0.37064549,-0.29961139,-0.59772825,0.00000000,0.00000000,-0.80277061,1.33080363,-0.30462301,-0.49702621,2.87979317,0.00000000,0.00000000
-0.79392791,-1.53692579,-0.38291964,-0.35397786,-0.59090954,0.00000000,0.00000000,-0.75833929,1.27864492,-0.32190695,-0.55893511,2.87979317,0.00000000,0.00000000
-0.80137825,-1.56294346,-0.39566997,-0.40765768,-0.58625126,0.00000000,0.00000000,-0.72121412,1.22692645,-0.33174199,-0.61763030,2.87979317,0.00000000,0.00000000
-0.80653137,-1.57844043,-0.40901789,-0.46147183,-0.58312589,0.00000000,0.00000000,-0.68923837,1.17540133,-0.33359542,-0.67184657,2.87979317,0.00000000,0.00000000
-0.80861139,-1.58140087,-0.42287868,-0.51163858,-0.58260971,0.00000000,0.00000000,-0.66024953,1.12390268,-0.32754070,-0.72075433,2.87979317,0.00000000,0.00000000
-0.80365986,-1.57183766,-0.43586224,-0.55557978,-0.58696359,0.00000000,0.00000000,-0.63250518,1.07269549,-0.31415546,-0.76369953,2.87979317,0.00000000,0.00000000
-0.79065132,-1.55195510,-0.44696066,-0.59357727,-0.59006298,0.00000000,0.00000000,-0.60479712,1.02240491,-0.29438183,-0.80010980,2.87979317,0.00000000,0.00000000
-0.77071339,-1.52315044,-0.45554355,-0.62538290,-0.59241492,0.00000000,0.00000000,-0.57632786,0.97337377,-0.26933518,-0.82954264,2.87979317,0.00000000,0.00000000
-0.74532890,-1.48684311,-0.46114358,-0.64943910,-0.59338903,0.00000000,0.00000000,-0.54655266,0.92571908,-0.24014121,-0.85160142,2.87979317,0.00000000,0.00000000
-0.71538067,-1.44643509,-0.46352342,-0.66480023,-0.60156858,0.00000000,0.00000000,-0.51504636,0.87972629,-0.20774993,-0.86576295,2.87979317,0.00000000,0.00000000
-0.68136966,-1.40598202,-0.46261436,-0.67210281,-0.60834050,0.00000000,0.00000000,-0.48145545,0.83643132,-0.17277858,-0.87121755,2.87979317,0.00000000,0.00000000
-0.64392251,-1.36822951,-0.45842099,-0.67270988,-0.61428154,0.00000000,0.00000000,-0.44543895,0.79771239,-0.13543855,-0.86694521,2.87979317,0.00000000,0.00000000
-0.60347033,-1.33411896,-0.45093465,-0.66761613,-0.61719072,0.00000000,0.00000000,-0.40658697,0.76653224,-0.09554821,-0.85185760,2.87979317,0.00000000,0.00000000
