isaac-sim2real/sage/motion_files/wr75s/amass/0-Eyes_Japan_Dataset_hamada_gesture_etc-05-touch nose-hamada_poses_idx25.txt
l_joint1,l_joint2,l_joint3,l_joint4,l_joint5,l_joint6,l_joint7,r_joint1,r_joint2,r_joint3,r_joint4,r_joint5,r_joint6,r_joint7
-1.78295600,-0.77117008,-0.81208998,-0.32865781,0.05173467,0.00000000,0.00000000,-1.31594586,0.85380065,0.05156415,-0.43563890,0.01730382,0.00000000,0.00000000
-1.78278577,-0.77099788,-0.81251651,-0.32905409,0.06486049,0.00000000,0.00000000,-1.31504500,0.85456073,0.05163153,-0.43566236,0.01599441,0.00000000,0.00000000
-1.78234947,-0.77088225,-0.81322771,-0.32960352,0.07936255,0.00000000,0.00000000,-1.31343997,0.85580778,0.05158102,-0.43581462,0.01183013,0.00000000,0.00000000
-1.78152692,-0.77100170,-0.81409538,-0.33001214,0.09356937,0.00000000,0.00000000,-1.31128788,0.85734618,0.05120828,-0.43617868,0.01302968,0.00000000,0.00000000
-1.78021896,-0.77147377,-0.81501466,-0.33001471,0.10638502,0.00000000,0.00000000,-1.30870831,0.85905159,0.05035766,-0.43680245,0.01405170,0.00000000,0.00000000
-1.77835739,-0.77239674,-0.81591654,-0.32941630,0.12298878,0.00000000,0.00000000,-1.30576253,0.86083716,0.04894519,-0.43772283,0.01993486,0.00000000,0.00000000
-1.77591348,-0.77381176,-0.81677496,-0.32810634,0.13540360,0.00000000,0.00000000,-1.30244887,0.86267453,0.04696412,-0.43895006,0.02633487,0.00000000,0.00000000
-1.77290499,-0.77563399,-0.81761557,-0.32609224,0.14957808,0.00000000,0.00000000,-1.29869711,0.86464703,0.04449455,-0.44044128,0.03848232,0.00000000,0.00000000
-1.76940143,-0.77765542,-0.81852055,-0.32354754,0.16269056,0.00000000,0.00000000,-1.29435492,0.86692810,0.04172936,-0.44211137,0.05060570,0.00000000,0.00000000
-1.76550162,-0.77975798,-0.81960285,-0.32074678,0.17201288,0.00000000,0.00000000,-1.28923249,0.86956173,0.03891749,-0.44393677,0.06330742,0.00000000,0.00000000
-1.76131535,-0.78194028,-0.82098585,-0.31795472,0.18087582,0.00000000,0.00000000,-1.28316009,0.87245566,0.03628980,-0.44594964,0.07842274,0.00000000,0.00000000
-1.75694060,-0.78418362,-0.82277775,-0.31536007,0.19362128,0.00000000,0.00000000,-1.27603269,0.87557423,0.03398927,-0.44814643,0.09387100,0.00000000,0.00000000
-1.75244105,-0.78642333,-0.82504976,-0.31308731,0.20835243,0.00000000,0.00000000,-1.26781774,0.87898779,0.03205744,-0.45047688,0.10720419,0.00000000,0.00000000
-1.74784446,-0.78865761,-0.82783467,-0.31122676,0.22178406,0.00000000,0.00000000,-1.25853431,0.88271880,0.03046463,-0.45292193,0.11771756,0.00000000,0.00000000
-1.74314725,-0.79099935,-0.83113402,-0.30981991,0.23591283,0.00000000,0.00000000,-1.24824679,0.88667071,0.02911794,-0.45551828,0.13109441,0.00000000,0.00000000
-1.73831308,-0.79358888,-0.83491665,-0.30882397,0.25324377,0.00000000,0.00000000,-1.23706758,0.89075291,0.02785127,-0.45829344,0.13941751,0.00000000,0.00000000
-1.73327124,-0.79652590,-0.83911657,-0.30812016,0.26895615,0.00000000,0.00000000,-1.22513282,0.89496845,0.02645485,-0.46123606,0.14729768,0.00000000,0.00000000
-1.72792196,-0.79988581,-0.84363979,-0.30754164,0.28356493,0.00000000,0.00000000,-1.21257734,0.89938021,0.02471209,-0.46432695,0.15342799,0.00000000,0.00000000
-1.72216666,-0.80371863,-0.84839350,-0.30691704,0.30030206,0.00000000,0.00000000,-1.19951594,0.90408343,0.02243069,-0.46754950,0.15782575,0.00000000,0.00000000
-1.71595347,-0.80804127,-0.85332751,-0.30614313,0.31937468,0.00000000,0.00000000,-1.18601179,0.90914100,0.01950322,-0.47089297,0.16249950,0.00000000,0.00000000
-1.70926940,-0.81282771,-0.85842508,-0.30516881,0.33690664,0.00000000,0.00000000,-1.17207444,0.91456330,0.01591834,-0.47434986,0.16607670,0.00000000,0.00000000
-1.70212364,-0.81801426,-0.86368608,-0.30395746,0.35758165,0.00000000,0.00000000,-1.15767181,0.92030060,0.01174745,-0.47792995,0.17097427,0.00000000,0.00000000
-1.69455266,-0.82350224,-0.86913109,-0.30250362,0.37757936,0.00000000,0.00000000,-1.14274645,0.92627567,0.00711906,-0.48164815,0.17607623,0.00000000,0.00000000
-1.68663156,-0.82914972,-0.87480968,-0.30087596,0.39853936,0.00000000,0.00000000,-1.12723172,0.93243134,0.00219585,-0.48549733,0.18171975,0.00000000,0.00000000
-1.67846990,-0.83479577,-0.88079387,-0.29921970,0.42091283,0.00000000,0.00000000,-1.11106205,0.93871617,-0.00284125,-0.48945665,0.19090137,0.00000000,0.00000000
-1.67017365,-0.84031194,-0.88714987,-0.29768923,0.44105527,0.00000000,0.00000000,-1.09418905,0.94503605,-0.00782085,-0.49351555,0.19646786,0.00000000,0.00000000
-1.66180980,-0.84561813,-0.89391112,-0.29637671,0.46234453,0.00000000,0.00000000,-1.07659853,0.95128059,-0.01261917,-0.49765891,0.20075737,0.00000000,0.00000000
-1.65339434,-0.85065824,-0.90107524,-0.29529986,0.48266089,0.00000000,0.00000000,-1.05831134,0.95738328,-0.01717162,-0.50184655,0.20658310,0.00000000,0.00000000
-1.64491618,-0.85537142,-0.90862274,-0.29443160,0.49672541,0.00000000,0.00000000,-1.03936863,0.96333486,-0.02145371,-0.50602406,0.21357448,0.00000000,0.00000000
-1.63636374,-0.85968029,-0.91653973,-0.29372248,0.51187128,0.00000000,0.00000000,-1.01982582,0.96916986,-0.02546866,-0.51012737,0.22388421,0.00000000,0.00000000
-1.62773788,-0.86350942,-0.92482495,-0.29312438,0.53172034,0.00000000,0.00000000,-0.99975604,0.97495848,-0.02925308,-0.51405865,0.22668329,0.00000000,0.00000000
-1.61904728,-0.86682850,-0.93348122,-0.29263440,0.55119127,0.00000000,0.00000000,-0.97925061,0.98077077,-0.03287387,-0.51769823,0.23045696,0.00000000,0.00000000
-1.61029911,-0.86968410,-0.94250774,-0.29232749,0.57042098,0.00000000,0.00000000,-0.95840442,0.98661065,-0.03640724,-0.52098078,0.22820562,0.00000000,0.00000000
-1.60149693,-0.87218016,-0.95190024,-0.29233500,0.59063786,0.00000000,0.00000000,-0.93730342,0.99237841,-0.03992155,-0.52395767,0.22600856,0.00000000,0.00000000
-1.59263861,-0.87443060,-0.96165317,-0.29278111,0.60578912,0.00000000,0.00000000,-0.91602522,0.99790269,-0.04347930,-0.52676344,0.21688066,0.00000000,0.00000000
-1.58370328,-0.87652475,-0.97175258,-0.29373488,0.62439644,0.00000000,0.00000000,-0.89464575,1.00300777,-0.04713956,-0.52953053,0.20729151,0.00000000,0.00000000
-1.57464206,-0.87849146,-0.98217142,-0.29520008,0.64395440,0.00000000,0.00000000,-0.87323499,1.00759900,-0.05094849,-0.53232855,0.19014239,0.00000000,0.00000000
-1.56537950,-0.88027865,-0.99287146,-0.29713026,0.65924513,0.00000000,0.00000000,-0.85184652,1.01171255,-0.05492770,-0.53515953,0.17617370,0.00000000,0.00000000
-1.55582118,-0.88178384,-1.00380981,-0.29943857,0.67925131,0.00000000,0.00000000,-0.83051658,1.01545548,-0.05907348,-0.53798795,0.16647871,0.00000000,0.00000000
-1.54585886,-0.88291258,-1.01493979,-0.30199686,0.69808662,0.00000000,0.00000000,-0.80927551,1.01891863,-0.06337141,-0.54075730,0.15654929,0.00000000,0.00000000
-1.53537738,-0.88360208,-1.02621138,-0.30465621,0.71305996,0.00000000,0.00000000,-0.78815794,1.02217150,-0.06781350,-0.54338586,0.14804606,0.00000000,0.00000000
-1.52427483,-0.88380194,-1.03758144,-0.30730572,0.72420216,0.00000000,0.00000000,-0.76719892,1.02528727,-0.07239359,-0.54578394,0.13478430,0.00000000,0.00000000
-1.51247370,-0.88345766,-1.04902112,-0.30991507,0.73842525,0.00000000,0.00000000,-0.74641860,1.02830064,-0.07708417,-0.54790795,0.12456108,0.00000000,0.00000000
-1.49990988,-0.88252044,-1.06050873,-0.31251389,0.75292230,0.00000000,0.00000000,-0.72581410,1.03117537,-0.08183020,-0.54978931,0.11028999,0.00000000,0.00000000
-1.48651481,-0.88094330,-1.07202291,-0.31515741,0.76323736,0.00000000,0.00000000,-0.70536470,1.03388238,-0.08657280,-0.55148685,0.10493663,0.00000000,0.00000000
-1.47222185,-0.87867039,-1.08354449,-0.31793249,0.77411240,0.00000000,0.00000000,-0.68504602,1.03645241,-0.09127089,-0.55304569,0.10019631,0.00000000,0.00000000
-1.45696306,-0.87567312,-1.09505403,-0.32095644,0.78629780,0.00000000,0.00000000,-0.66483635,1.03887784,-0.09589905,-0.55453748,0.09850543,0.00000000,0.00000000
-1.44063342,-0.87201571,-1.10650766,-0.32431737,0.80045843,0.00000000,0.00000000,-0.64471024,1.04103863,-0.10043823,-0.55609727,0.09437375,0.00000000,0.00000000
-1.42305946,-0.86786842,-1.11781800,-0.32801738,0.81290871,0.00000000,0.00000000,-0.62461960,1.04283810,-0.10487028,-0.55786276,0.08410532,0.00000000,0.00000000
-1.40402353,-0.86344129,-1.12887204,-0.33199301,0.82154536,0.00000000,0.00000000,-0.60447627,1.04436648,-0.10916176,-0.55989987,0.07937840,0.00000000,0.00000000
-1.38330388,-0.85892159,-1.13955688,-0.33616120,0.83133608,0.00000000,0.00000000,-0.58415586,1.04584646,-0.11324281,-0.56223381,0.07475498,0.00000000,0.00000000
-1.36067283,-0.85449219,-1.14975429,-0.34042177,0.83619905,0.00000000,0.00000000,-0.56352109,1.04747248,-0.11701111,-0.56492168,0.07116672,0.00000000,0.00000000
-1.33586359,-0.85040218,-1.15931165,-0.34465620,0.84428239,0.00000000,0.00000000,-0.54243600,1.04940569,-0.12035342,-0.56804585,0.06636409,0.00000000,0.00000000
-1.30856955,-0.84700841,-1.16803598,-0.34876487,0.85450792,0.00000000,0.00000000,-0.52074939,1.05187762,-0.12314188,-0.57165265,0.06090043,0.00000000,0.00000000
-1.27846491,-0.84478939,-1.17570782,-0.35268524,0.86491084,0.00000000,0.00000000,-0.49826959,1.05524409,-0.12521301,-0.57572931,0.05750057,0.00000000,0.00000000
-1.24519145,-0.84444660,-1.18206835,-0.35636616,0.86471617,0.00000000,0.00000000,-0.47477239,1.06000853,-0.12639748,-0.58019555,0.05140029,0.00000000,0.00000000
-1.20831537,-0.84702879,-1.18679094,-0.35974064,0.85933453,0.00000000,0.00000000,-0.45003614,1.06692421,-0.12658176,-0.58483917,0.04926382,0.00000000,0.00000000
-1.16735148,-0.85382283,-1.18950486,-0.36271188,0.86588013,0.00000000,0.00000000,-0.42383099,1.07706821,-0.12566079,-0.58921391,0.05164031,0.00000000,0.00000000
-1.12174010,-0.86661053,-1.18977690,-0.36518413,0.87084210,0.00000000,0.00000000,-0.39584476,1.09215009,-0.12348180,-0.59238058,0.05382235,0.00000000,0.00000000
-1.07088864,-0.88768357,-1.18714178,-0.36693171,0.86740708,0.00000000,0.00000000,-0.36559996,1.11467087,-0.11970329,-0.59264374,0.06152913,0.00000000,0.00000000
-1.01458573,-0.91843772,-1.18137515,-0.36766300,0.85848075,0.00000000,0.00000000,-0.33245236,1.14607227,-0.11355940,-0.58827204,0.06833374,0.00000000,0.00000000
-0.95300019,-0.95924157,-1.17248988,-0.36696610,0.85109097,0.00000000,0.00000000,-0.29592130,1.18705392,-0.10411331,-0.57757038,0.07555891,0.00000000,0.00000000
-0.88658190,-1.00980794,-1.16065574,-0.36457109,0.84564590,0.00000000,0.00000000,-0.25600648,1.23802114,-0.09050235,-0.55916238,0.08399354,0.00000000,0.00000000
-0.81612104,-1.06944978,-1.14616978,-0.36072904,0.84110832,0.00000000,0.00000000,-0.21324164,1.29866576,-0.07208209,-0.53251266,0.09248077,0.00000000,0.00000000
-0.74285054,-1.13716269,-1.12945056,-0.35622802,0.83737588,0.00000000,0.00000000,-0.16861139,1.36787069,-0.04853145,-0.49798381,0.10191943,0.00000000,0.00000000
-0.66848910,-1.21156526,-1.11103559,-0.35211262,0.82491946,0.00000000,0.00000000,-0.12344889,1.44397795,-0.01986044,-0.45657587,0.11220642,0.00000000,0.00000000
-0.59516305,-1.29088843,-1.09155142,-0.34938505,0.81705999,0.00000000,0.00000000,-0.07932960,1.52497029,0.01363434,-0.40969476,0.12121180,0.00000000,0.00000000
-0.52518028,-1.37314451,-1.07164073,-0.34882823,0.81002092,0.00000000,0.00000000,-0.03795410,1.60857654,0.05142734,-0.35901493,0.12394609,0.00000000,0.00000000
-0.46073934,-1.45643222,-1.05187559,-0.35095990,0.80494869,0.00000000,0.00000000,-0.00102037,1.69242465,0.09282735,-0.30635718,0.12017362,0.00000000,0.00000000
-0.40365529,-1.53916061,-1.03270280,-0.35602063,0.80260789,0.00000000,0.00000000,0.02994248,1.77418971,0.13703389,-0.25353691,0.11451057,0.00000000,0.00000000
-0.35504690,-1.62008762,-1.01442194,-0.36388189,0.80145550,0.00000000,0.00000000,0.05381644,1.85163462,0.18318413,-0.20223735,0.11574279,0.00000000,0.00000000
-0.31501773,-1.69818842,-0.99718493,-0.37388358,0.79717010,0.00000000,0.00000000,0.07019435,1.92257667,0.23040469,-0.15393789,0.11458556,0.00000000,0.00000000
-0.28256103,-1.77223682,-0.98106772,-0.38468513,0.78878212,0.00000000,0.00000000,0.07955296,1.98499990,0.27788937,-0.10979258,0.11724733,0.00000000,0.00000000
-0.25712818,-1.84098899,-0.96625155,-0.39547935,0.77974737,0.00000000,0.00000000,0.08300579,2.03734016,0.32499227,-0.07048295,0.12031990,0.00000000,0.00000000
-0.24041416,-1.90437388,-0.95303595,-0.40802830,0.76775301,0.00000000,0.00000000,0.08177602,2.07855153,0.37127486,-0.03628788,0.11984956,0.00000000,0.00000000
-0.23235203,-1.96218860,-0.94145697,-0.42363888,0.75871485,0.00000000,0.00000000,0.07715210,2.10800409,0.41647753,-0.00722213,0.11931550,0.00000000,0.00000000
-0.23268054,-2.01427126,-0.93148106,-0.44304413,0.75191295,0.00000000,0.00000000,0.07081589,2.12565398,0.46047279,0.01706482,0.12035421,0.00000000,0.00000000
-0.24064046,-2.05971885,-0.92311859,-0.46576804,0.74328119,0.00000000,0.00000000,0.06457587,2.13241434,0.50322413,0.03741183,0.12503085,0.00000000,0.00000000
-0.25475302,-2.09733629,-0.91631323,-0.49050117,0.73576623,0.00000000,0.00000000,0.05964310,2.13025236,0.54472965,0.05500592,0.12363824,0.00000000,0.00000000
-0.27351210,-2.12635183,-0.91094071,-0.51612025,0.72300255,0.00000000,0.00000000,0.05658098,2.12190461,0.58497310,0.07118928,0.11692526,0.00000000,0.00000000
-0.29601839,-2.14791155,-0.90653926,-0.54245222,0.71447128,0.00000000,0.00000000,0.05574723,2.11037493,0.62390953,0.08731435,0.10926174,0.00000000,0.00000000
-0.31985140,-2.16383505,-0.90219003,-0.56780678,0.70356041,0.00000000,0.00000000,0.05746910,2.09828067,0.66147286,0.10449509,0.10346465,0.00000000,0.00000000
-0.34101638,-2.16937685,-0.89896667,-0.58534616,0.68958127,0.00000000,0.00000000,0.06179080,2.08745313,0.69757324,0.12335736,0.09735766,0.00000000,0.00000000
-0.35945949,-2.16998029,-0.89741385,-0.59301788,0.67213202,0.00000000,0.00000000,0.06775733,2.07868910,0.73207450,0.14367396,0.09699425,0.00000000,0.00000000
-0.37456614,-2.16999006,-0.89759690,-0.58976448,0.65755284,0.00000000,0.00000000,0.07412401,2.07232881,0.76481372,0.16483928,0.09972826,0.00000000,0.00000000
-0.38536072,-2.16968274,-0.89921516,-0.57533604,0.64995170,0.00000000,0.00000000,0.08021308,2.06861091,0.79564905,0.18633178,0.09937835,0.00000000,0.00000000
-0.38907695,-2.16689372,-0.90098667,-0.55043322,0.63376749,0.00000000,0.00000000,0.08573472,2.06760216,0.82446992,0.20767535,0.09405100,0.00000000,0.00000000
-0.38196120,-2.15979052,-0.90075874,-0.51778036,0.61386067,0.00000000,0.00000000,0.09038289,2.06900048,0.85119915,0.22828405,0.08935510,0.00000000,0.00000000
-0.36459601,-2.15409040,-0.89677334,-0.48402086,0.59880376,0.00000000,0.00000000,0.09349128,2.07208157,0.87578177,0.24734968,0.08620080,0.00000000,0.00000000
-0.33972120,-2.15210056,-0.88924992,-0.45364398,0.58955228,0.00000000,0.00000000,0.09459735,2.07625818,0.89819086,0.26430553,0.08838155,0.00000000,0.00000000
-0.30912280,-2.15375853,-0.87879592,-0.42843890,0.58196938,0.00000000,0.00000000,0.09392276,2.08113766,0.91847360,0.27900290,0.08846197,0.00000000,0.00000000
-0.27512196,-2.15856743,-0.86610281,-0.40945247,0.58024597,0.00000000,0.00000000,0.09222199,2.08606744,0.93679845,0.29140007,0.08665220,0.00000000,0.00000000
-0.24160928,-2.16465449,-0.85229307,-0.39687949,0.58052367,0.00000000,0.00000000,0.09066988,2.09021187,0.95344359,0.30150425,0.08333339,0.00000000,0.00000000
-0.21134816,-2.16880465,-0.83869594,-0.38808462,0.57727283,0.00000000,0.00000000,0.09073321,2.09301901,0.96872401,0.30949664,0.07480701,0.00000000,0.00000000
-0.18269204,-2.16992974,-0.82602322,-0.37782997,0.57909024,0.00000000,0.00000000,0.09351026,2.09421158,0.98291987,0.31547865,0.06636448,0.00000000,0.00000000
-0.15371746,-2.17000008,-0.81438100,-0.36306542,0.58256257,0.00000000,0.00000000,0.09928033,2.09393191,0.99619353,0.31943569,0.05405496,0.00000000,0.00000000
-0.12400766,-2.17000008,-0.80357158,-0.34364179,0.58654588,0.00000000,0.00000000,0.10722221,2.09343982,1.00842953,0.32147968,0.04251637,0.00000000,0.00000000
-0.09394614,-2.16999030,-0.79337436,-0.32053682,0.59256107,0.00000000,0.00000000,0.11586881,2.09490538,1.01929224,0.32206318,0.03467586,0.00000000,0.00000000
-0.06554553,-2.16979957,-0.78377730,-0.29564199,0.59974527,0.00000000,0.00000000,0.12476395,2.09980321,1.02864563,0.32234949,0.02909834,0.00000000,0.00000000
-0.04150248,-2.16863585,-0.77485543,-0.27125522,0.60672945,0.00000000,0.00000000,0.13496649,2.10668159,1.03696048,0.32373780,0.02236003,0.00000000,0.00000000
-0.02264625,-2.16563082,-0.76649892,-0.24884519,0.61186910,0.00000000,0.00000000,0.14540909,2.11286855,1.04464793,0.32597119,0.01855746,0.00000000,0.00000000
-0.00830468,-2.16153646,-0.75854051,-0.22894551,0.62079930,0.00000000,0.00000000,0.15342289,2.11840820,1.05147815,0.32845023,0.01221174,0.00000000,0.00000000
0.00233889,-2.15725589,-0.75090599,-0.21171345,0.63563281,0.00000000,0.00000000,0.15804507,2.12390637,1.05729878,0.33139995,-0.00005572,0.00000000,0.00000000
0.00984020,-2.15321732,-0.74360538,-0.19721170,0.64834607,0.00000000,0.00000000,0.15940815,2.12947726,1.06214595,0.33536619,-0.00842820,0.00000000,0.00000000
0.01447237,-2.14966536,-0.73668599,-0.18549033,0.66073126,0.00000000,0.00000000,0.15763110,2.13515806,1.06603634,0.34078276,-0.01972010,0.00000000,0.00000000
0.01627592,-2.14681911,-0.73020017,-0.17659216,0.67266774,0.00000000,0.00000000,0.15290418,2.14085007,1.06896007,0.34797087,-0.03467260,0.00000000,0.00000000
0.01519077,-2.14501786,-0.72418231,-0.17058557,0.68344748,0.00000000,0.00000000,0.14609587,2.14635539,1.07093596,0.35741359,-0.04867817,0.00000000,0.00000000
0.01111700,-2.14492536,-0.71863461,-0.16770424,0.69283020,0.00000000,0.00000000,0.13859132,2.15197539,1.07190979,0.36973172,-0.05885188,0.00000000,0.00000000
0.00360968,-2.14696074,-0.71358955,-0.16825694,0.70263124,0.00000000,0.00000000,0.13057704,2.15853834,1.07156360,0.38477948,-0.07006658,0.00000000,0.00000000
-0.00869481,-2.15072632,-0.70918804,-0.17265424,0.71455318,0.00000000,0.00000000,0.12167677,2.16517687,1.06982982,0.40130144,-0.08526959,0.00000000,0.00000000
-0.02655021,-2.15594792,-0.70548993,-0.18114607,0.72163820,0.00000000,0.00000000,0.11125117,2.16901302,1.06724393,0.41670635,-0.09880764,0.00000000,0.00000000
-0.04855430,-2.16188192,-0.70238447,-0.19252770,0.73401916,0.00000000,0.00000000,0.10019875,2.16994405,1.06442094,0.42963782,-0.11451443,0.00000000,0.00000000
-0.07402708,-2.16653156,-0.69991797,-0.20488627,0.74798357,0.00000000,0.00000000,0.09168050,2.17000008,1.06163156,0.44131172,-0.13462654,0.00000000,0.00000000
-0.10324659,-2.16743541,-0.69834918,-0.21609546,0.76881504,0.00000000,0.00000000,0.08659678,2.17000008,1.05900371,0.45196736,-0.15144871,0.00000000,0.00000000
-0.13576728,-2.16325974,-0.69781750,-0.22443806,0.78192157,0.00000000,0.00000000,0.08373504,2.16999769,1.05668509,0.46070474,-0.17315908,0.00000000,0.00000000
-0.17014520,-2.15669084,-0.69788134,-0.23093632,0.80026805,0.00000000,0.00000000,0.08168980,2.16996694,1.05437219,0.46756563,-0.19266896,0.00000000,0.00000000
-0.20635267,-2.15065742,-0.69818103,-0.23787849,0.81856132,0.00000000,0.00000000,0.07950988,2.16991949,1.05119264,0.47390389,-0.21455236,0.00000000,0.00000000
-0.24347520,-2.14591050,-0.69848531,-0.24569033,0.83685148,0.00000000,0.00000000,0.07504714,2.16996717,1.04629242,0.47958434,-0.23569101,0.00000000,0.00000000
-0.28031069,-2.14315724,-0.69853967,-0.25430870,0.85526162,0.00000000,0.00000000,0.06631888,2.16999769,1.03956926,0.48275056,-0.25658888,0.00000000,0.00000000
-0.31583825,-2.14262033,-0.69814748,-0.26324463,0.86982572,0.00000000,0.00000000,0.05499075,2.17000008,1.03156924,0.48308644,-0.27667695,0.00000000,0.00000000
-0.34827018,-2.14443374,-0.69702995,-0.27156663,0.87579399,0.00000000,0.00000000,0.04493178,2.17000008,1.02279854,0.48228797,-0.30171725,0.00000000,0.00000000
-0.37441334,-2.14862275,-0.69476610,-0.27800748,0.87660569,0.00000000,0.00000000,0.03856661,2.17000008,1.01304352,0.48256621,-0.32348779,0.00000000,0.00000000
-0.39096573,-2.15172791,-0.69130337,-0.27984735,0.87992400,0.00000000,0.00000000,0.03544362,2.17000008,1.00229967,0.48381454,-0.34165937,0.00000000,0.00000000
-0.39826447,-2.15248322,-0.68684602,-0.27693862,0.88809633,0.00000000,0.00000000,0.03428023,2.17000008,0.99041271,0.48525950,-0.36109489,0.00000000,0.00000000
-0.39738199,-2.15274596,-0.68136698,-0.27090162,0.89977026,0.00000000,0.00000000,0.03404461,2.17000008,0.97707868,0.48612836,-0.37909865,0.00000000,0.00000000
-0.38892007,-2.15321612,-0.67489237,-0.26264057,0.90849411,0.00000000,0.00000000,0.03419197,2.17000008,0.96221137,0.48549896,-0.39620742,0.00000000,0.00000000
-0.37348580,-2.15315056,-0.66759861,-0.25237650,0.91501921,0.00000000,0.00000000,0.03464960,2.16998386,0.94600946,0.48244447,-0.40761271,0.00000000,0.00000000
-0.35165912,-2.15214777,-0.65963906,-0.24044351,0.91553813,0.00000000,0.00000000,0.03579814,2.16966605,0.92866427,0.47651947,-0.42421058,0.00000000,0.00000000
-0.32410845,-2.15078092,-0.65109777,-0.22765243,0.91896081,0.00000000,0.00000000,0.03834775,2.16771626,0.91014254,0.46799195,-0.43929824,0.00000000,0.00000000
-0.29185161,-2.14986825,-0.64207828,-0.21509077,0.92484874,0.00000000,0.00000000,0.04301269,2.16236877,0.89028329,0.45743608,-0.45356852,0.00000000,0.00000000
-0.25636530,-2.14981532,-0.63275492,-0.20388369,0.92631900,0.00000000,0.00000000,0.05013927,2.15395546,0.86891925,0.44518900,-0.46725091,0.00000000,0.00000000
-0.21953642,-2.15070701,-0.62334448,-0.19522338,0.91749913,0.00000000,0.00000000,0.05944539,2.14334774,0.84585708,0.43106547,-0.48176324,0.00000000,0.00000000
-0.18351261,-2.15253329,-0.61406517,-0.19040719,0.91215205,0.00000000,0.00000000,0.06977141,2.13085198,0.82083964,0.41419825,-0.49905509,0.00000000,0.00000000
-0.15057735,-2.15534306,-0.60511607,-0.19080848,0.90588397,0.00000000,0.00000000,0.07871021,2.11627460,0.79348630,0.39305028,-0.51130271,0.00000000,0.00000000
-0.12294655,-2.15923452,-0.59667170,-0.19772334,0.89633697,0.00000000,0.00000000,0.08215137,2.09891200,0.76326030,0.36542299,-0.51723915,0.00000000,0.00000000
-0.10210823,-2.16390681,-0.58886445,-0.21192217,0.88928604,0.00000000,0.00000000,0.07455942,2.07704568,0.72964245,0.32850727,-0.52382320,0.00000000,0.00000000
-0.08791003,-2.16789579,-0.58176464,-0.23299004,0.88526547,0.00000000,0.00000000,0.05043233,2.04713321,0.69249254,0.27922702,-0.53402078,0.00000000,0.00000000
-0.07913181,-2.16965151,-0.57548398,-0.25931916,0.88191766,0.00000000,0.00000000,0.00605468,2.00388885,0.65225983,0.21501391,-0.54228526,0.00000000,0.00000000
-0.07476339,-2.16998243,-0.57031447,-0.28863940,0.87727743,0.00000000,0.00000000,-0.06055634,1.94167542,0.60975593,0.13434383,-0.54772729,0.00000000,0.00000000
-0.07406470,-2.17000008,-0.56666452,-0.31852359,0.87712950,0.00000000,0.00000000,-0.15080068,1.85596216,0.56586289,0.03667324,-0.55391622,0.00000000,0.00000000
-0.07640561,-2.17000008,-0.56492954,-0.34683350,0.87209237,0.00000000,0.00000000,-0.26552594,1.74433255,0.52147985,-0.07769201,-0.55748188,0.00000000,0.00000000
-0.08135361,-2.17000008,-0.56538779,-0.37215146,0.86740983,0.00000000,0.00000000,-0.40405920,1.60689914,0.47762284,-0.20753296,-0.56277132,0.00000000,0.00000000
-0.08850874,-2.17000008,-0.56812882,-0.39382884,0.85906363,0.00000000,0.00000000,-0.56350327,1.44612920,0.43554282,-0.35057786,-0.56848019,0.00000000,0.00000000
-0.09727512,-2.17000008,-0.57305831,-0.41172874,0.85210913,0.00000000,0.00000000,-0.73872131,1.26647174,0.39679328,-0.50346726,-0.56659377,0.00000000,0.00000000
-0.10693729,-2.17000008,-0.57998115,-0.42602590,0.83874774,0.00000000,0.00000000,-0.92281288,1.07393742,0.36321205,-0.66196108,-0.56869370,0.00000000,0.00000000
-0.11694765,-2.17000008,-0.58870327,-0.43714261,0.82571393,0.00000000,0.00000000,-1.10792470,0.87549645,0.33681393,-0.82141834,-0.56539762,0.00000000,0.00000000
-0.12701537,-2.17000008,-0.59905738,-0.44568455,0.80946797,0.00000000,0.00000000,-1.28627634,0.67825967,0.31961486,-0.97744012,-0.56893337,0.00000000,0.00000000
-0.13682604,-2.17000008,-0.61084962,-0.45221943,0.78815794,0.00000000,0.00000000,-1.45116222,0.48860168,0.31344265,-1.12645936,-0.57496643,0.00000000,0.00000000
-0.14595449,-2.17000008,-0.62391019,-0.45692185,0.76948613,0.00000000,0.00000000,-1.59765780,0.31151298,0.31978965,-1.26603973,-0.57254887,0.00000000,0.00000000
-0.15386920,-2.17000008,-0.63814396,-0.45940128,0.74686807,0.00000000,0.00000000,-1.72292089,0.15036234,0.33970332,-1.39477909,-0.56088734,0.00000000,0.00000000
-0.15888557,-2.16997170,-0.65312737,-0.45900604,0.72522628,0.00000000,0.00000000,-1.82620585,0.00694366,0.37362319,-1.51190770,-0.54734015,0.00000000,0.00000000
-0.15999652,-2.16953516,-0.66841352,-0.45571202,0.69823503,0.00000000,0.00000000,-1.90894473,-0.11854959,0.42084691,-1.61677074,-0.53477669,0.00000000,0.00000000
-0.15994416,-2.16808820,-0.68410057,-0.45121321,0.66508025,0.00000000,0.00000000,-1.97483623,-0.22768620,0.47859055,-1.70867789,-0.51794547,0.00000000,0.00000000
-0.15974262,-2.16650987,-0.69963604,-0.44695625,0.63016099,0.00000000,0.00000000,-2.02874708,-0.32336199,0.54200047,-1.78759027,-0.50197625,0.00000000,0.00000000
-0.15784770,-2.16583848,-0.71422768,-0.44261244,0.59313393,0.00000000,0.00000000,-2.07477236,-0.40858880,0.60569459,-1.85459673,-0.48504785,0.00000000,0.00000000
-0.15448326,-2.16561508,-0.72789514,-0.43802768,0.54973471,0.00000000,0.00000000,-2.11529112,-0.48545712,0.66532934,-1.91143084,-0.47173840,0.00000000,0.00000000
-0.15023474,-2.16556883,-0.74085391,-0.43325967,0.50935411,0.00000000,0.00000000,-2.15141940,-0.55493307,0.71796614,-1.95971668,-0.45640737,0.00000000,0.00000000
-0.14446883,-2.16569901,-0.75316495,-0.42770126,0.45865121,0.00000000,0.00000000,-2.18371940,-0.61709726,0.76194787,-2.00049949,-0.44223955,0.00000000,0.00000000
-0.13622937,-2.16555762,-0.76493824,-0.42034730,0.40372917,0.00000000,0.00000000,-2.21248841,-0.67167056,0.79674298,-2.03431344,-0.43344563,0.00000000,0.00000000
-0.12527643,-2.16503239,-0.77629131,-0.41096878,0.35117203,0.00000000,0.00000000,-2.23779368,-0.71851629,0.82276791,-2.06152892,-0.42682549,0.00000000,0.00000000
-0.11218105,-2.16492343,-0.78722298,-0.40055782,0.30656758,0.00000000,0.00000000,-2.25955415,-0.75784755,0.84115785,-2.08262658,-0.41668698,0.00000000,0.00000000
-0.09800176,-2.16555357,-0.79782897,-0.39029068,0.25969872,0.00000000,0.00000000,-2.27764034,-0.79022694,0.85352123,-2.09836555,-0.40284213,0.00000000,0.00000000
-0.08369938,-2.16638470,-0.80831534,-0.38080609,0.21660338,0.00000000,0.00000000,-2.29190683,-0.81644690,0.86167812,-2.10979867,-0.38942578,0.00000000,0.00000000
-0.06969178,-2.16701269,-0.81876135,-0.37246019,0.17387661,0.00000000,0.00000000,-2.30230951,-0.83734518,0.86722016,-2.11803031,-0.37658292,0.00000000,0.00000000
-0.05608385,-2.16745567,-0.82909817,-0.36562359,0.12633146,0.00000000,0.00000000,-2.30910015,-0.85373408,0.87102294,-2.12392592,-0.36760268,0.00000000,0.00000000
-0.04311820,-2.16774440,-0.83927268,-0.36060390,0.07732096,0.00000000,0.00000000,-2.31287432,-0.86648321,0.87321419,-2.12806487,-0.36182749,0.00000000,0.00000000
-0.03129439,-2.16778588,-0.84931844,-0.35754305,0.03273492,0.00000000,0.00000000,-2.31447291,-0.87656021,0.87357819,-2.13079309,-0.35657427,0.00000000,0.00000000
-0.02110261,-2.16763210,-0.85926133,-0.35649279,-0.01303714,0.00000000,0.00000000,-2.31487155,-0.88491678,0.87190282,-2.13214493,-0.34980467,0.00000000,0.00000000
-0.01282252,-2.16755414,-0.86905605,-0.35746515,-0.06423027,0.00000000,0.00000000,-2.31505203,-0.89230210,0.86806166,-2.13185453,-0.34554243,0.00000000,0.00000000
-0.00677411,-2.16769457,-0.87869382,-0.36038640,-0.11720375,0.00000000,0.00000000,-2.31579423,-0.89913875,0.86204869,-2.12967563,-0.34299105,0.00000000,0.00000000
-0.00348822,-2.16784263,-0.88828039,-0.36509445,-0.16660520,0.00000000,0.00000000,-2.31746554,-0.90562326,0.85417002,-2.12582731,-0.34145901,0.00000000,0.00000000
-0.00321985,-2.16772318,-0.89789075,-0.37141526,-0.21306266,0.00000000,0.00000000,-2.31995988,-0.91201520,0.84525388,-2.12121773,-0.34158024,0.00000000,0.00000000
-0.00551066,-2.16736722,-0.90740305,-0.37927663,-0.25682095,0.00000000,0.00000000,-2.32290673,-0.91871029,0.83650118,-2.11712027,-0.34203470,0.00000000,0.00000000
-0.00946234,-2.16704249,-0.91654867,-0.38872063,-0.29341811,0.00000000,0.00000000,-2.32596588,-0.92592531,0.82893646,-2.11442327,-0.33750215,0.00000000,0.00000000
-0.01426425,-2.16693592,-0.92509043,-0.39973512,-0.32746387,0.00000000,0.00000000,-2.32892156,-0.93342388,0.82295871,-2.11318398,-0.33926392,0.00000000,0.00000000
-0.01941837,-2.16704440,-0.93293422,-0.41209567,-0.35550204,0.00000000,0.00000000,-2.33163381,-0.94067377,0.81836557,-2.11290836,-0.33719146,0.00000000,0.00000000
-0.02462686,-2.16728568,-0.94012225,-0.42537913,-0.38160115,0.00000000,0.00000000,-2.33398223,-0.94725937,0.81478673,-2.11317134,-0.33629084,0.00000000,0.00000000
-0.02960334,-2.16761279,-0.94676095,-0.43907121,-0.40985048,0.00000000,0.00000000,-2.33586717,-0.95308226,0.81214154,-2.11391377,-0.33818731,0.00000000,0.00000000
-0.03390974,-2.16807055,-0.95292902,-0.45259300,-0.43700230,0.00000000,0.00000000,-2.33726645,-0.95821124,0.81064546,-2.11523890,-0.34238854,0.00000000,0.00000000
-0.03688512,-2.16868854,-0.95864701,-0.46524519,-0.45945904,0.00000000,0.00000000,-2.33825755,-0.96270263,0.81047177,-2.11714125,-0.35026419,0.00000000,0.00000000
-0.03789888,-2.16931677,-0.96396345,-0.47630858,-0.47702464,0.00000000,0.00000000,-2.33895802,-0.96657473,0.81153738,-2.11947894,-0.35521448,0.00000000,0.00000000
-0.03688959,-2.16972017,-0.96904832,-0.48542327,-0.49151355,0.00000000,0.00000000,-2.33945131,-0.96979743,0.81361222,-2.12204528,-0.36415219,0.00000000,0.00000000
-0.03431642,-2.16988850,-0.97409773,-0.49273595,-0.50959510,0.00000000,0.00000000,-2.33976436,-0.97227216,0.81646132,-2.12460780,-0.37741891,0.00000000,0.00000000
-0.03052195,-2.16997266,-0.97920585,-0.49851120,-0.52221185,0.00000000,0.00000000,-2.33988810,-0.97388810,0.81980127,-2.12694693,-0.38778922,0.00000000,0.00000000
-0.02546066,-2.16999865,-0.98443091,-0.50269789,-0.52942073,0.00000000,0.00000000,-2.33979344,-0.97463030,0.82329673,-2.12893033,-0.39749727,0.00000000,0.00000000
-0.01905236,-2.17000008,-0.98992997,-0.50498205,-0.53694385,0.00000000,0.00000000,-2.33943796,-0.97458959,0.82671529,-2.13052893,-0.41073391,0.00000000,0.00000000
-0.01142287,-2.17000008,-0.99588794,-0.50513405,-0.53916502,0.00000000,0.00000000,-2.33879304,-0.97389650,0.83002973,-2.13175344,-0.42209849,0.00000000,0.00000000
-0.00291939,-2.17000008,-1.00237811,-0.50328094,-0.53970349,0.00000000,0.00000000,-2.33790255,-0.97265744,0.83329570,-2.13256359,-0.42379457,0.00000000,0.00000000
0.00591015,-2.17000008,-1.00939631,-0.49986336,-0.54085541,0.00000000,0.00000000,-2.33690190,-0.97092736,0.83651829,-2.13283658,-0.41952297,0.00000000,0.00000000
0.01438768,-2.16999817,-1.01696384,-0.49542224,-0.54312193,0.00000000,0.00000000,-2.33595920,-0.96870571,0.83970356,-2.13243914,-0.41653037,0.00000000,0.00000000
0.02195831,-2.16996050,-1.02506208,-0.49048936,-0.54605758,0.00000000,0.00000000,-2.33517981,-0.96600109,0.84298289,-2.13138366,-0.41755977,0.00000000,0.00000000
0.02838876,-2.16973782,-1.03350377,-0.48560768,-0.55266744,0.00000000,0.00000000,-2.33454990,-0.96295106,0.84663272,-2.12996697,-0.42621821,0.00000000,0.00000000
0.03368619,-2.16921759,-1.04195142,-0.48133302,-0.55953509,0.00000000,0.00000000,-2.33395791,-0.95981717,0.85097057,-2.12870812,-0.43419710,0.00000000,0.00000000
0.03791959,-2.16861105,-1.05006862,-0.47808486,-0.56383520,0.00000000,0.00000000,-2.33323598,-0.95683390,0.85617936,-2.12813473,-0.43627760,0.00000000,0.00000000
0.04114419,-2.16791511,-1.05762982,-0.47598565,-0.56798077,0.00000000,0.00000000,-2.33226204,-0.95411682,0.86211669,-2.12855577,-0.43429124,0.00000000,0.00000000
0.04345840,-2.16701269,-1.06446922,-0.47493187,-0.57201535,0.00000000,0.00000000,-2.33109426,-0.95174474,0.86825502,-2.12992215,-0.43167567,0.00000000,0.00000000
0.04481316,-2.16593456,-1.07050180,-0.47481421,-0.57205218,0.00000000,0.00000000,-2.33001065,-0.94982201,0.87390250,-2.13184667,-0.42883998,0.00000000,0.00000000
0.04502049,-2.16487551,-1.07571709,-0.47558150,-0.56828594,0.00000000,0.00000000,-2.32934761,-0.94840336,0.87855566,-2.13380575,-0.42592102,0.00000000,0.00000000
0.04400371,-2.16399336,-1.08012354,-0.47713888,-0.56141782,0.00000000,0.00000000,-2.32925272,-0.94736010,0.88207841,-2.13536930,-0.42263979,0.00000000,0.00000000
0.04191848,-2.16335678,-1.08370614,-0.47931543,-0.55755961,0.00000000,0.00000000,-2.32961059,-0.94642037,0.88464820,-2.13631129,-0.41786936,0.00000000,0.00000000
0.03909500,-2.16308689,-1.08639812,-0.48198140,-0.55894196,0.00000000,0.00000000,-2.33014464,-0.94536024,0.88659066,-2.13660264,-0.41297919,0.00000000,0.00000000
0.03584389,-2.16333318,-1.08810949,-0.48515242,-0.56027681,0.00000000,0.00000000,-2.33055949,-0.94406551,0.88821685,-2.13633919,-0.41378856,0.00000000,0.00000000
0.03237779,-2.16411042,-1.08877778,-0.48890704,-0.57223338,0.00000000,0.00000000,-2.33063698,-0.94247288,0.88970518,-2.13567710,-0.41468000,0.00000000,0.00000000
0.02893703,-2.16527486,-1.08835649,-0.49322587,-0.58484769,0.00000000,0.00000000,-2.33033800,-0.94059181,0.89111662,-2.13478374,-0.41578770,0.00000000,0.00000000
0.02586958,-2.16661882,-1.08678389,-0.49796993,-0.59927773,0.00000000,0.00000000,-2.32984209,-0.93854767,0.89254802,-2.13377929,-0.42025349,0.00000000,0.00000000
0.02345848,-2.16791415,-1.08404243,-0.50295794,-0.60718423,0.00000000,0.00000000,-2.32942319,-0.93652880,0.89424068,-2.13276172,-0.42503488,0.00000000,0.00000000
0.02176081,-2.16897893,-1.08027208,-0.50792545,-0.61049068,0.00000000,0.00000000,-2.32925463,-0.93473154,0.89646983,-2.13192391,-0.43080163,0.00000000,0.00000000
0.02073983,-2.16968489,-1.07575738,-0.51244956,-0.60745394,0.00000000,0.00000000,-2.32933450,-0.93333709,0.89931518,-2.13156581,-0.43874556,0.00000000,0.00000000
0.02043047,-2.16995287,-1.07078087,-0.51609033,-0.61247814,0.00000000,0.00000000,-2.32958078,-0.93242139,0.90258116,-2.13186359,-0.44509387,0.00000000,0.00000000
0.02084681,-2.16999769,-1.06554437,-0.51866430,-0.61631334,0.00000000,0.00000000,-2.32995796,-0.93183917,0.90593922,-2.13261700,-0.45143476,0.00000000,0.00000000
0.02186688,-2.17000008,-1.06023622,-0.52023894,-0.62553364,0.00000000,0.00000000,-2.33047557,-0.93127292,0.90908903,-2.13334179,-0.45535797,0.00000000,0.00000000
0.02318411,-2.17000008,-1.05511343,-0.52093387,-0.63843894,0.00000000,0.00000000,-2.33111358,-0.93047506,0.91177857,-2.13365531,-0.44927472,0.00000000,0.00000000
0.02440587,-2.17000008,-1.05047297,-0.52074754,-0.65807021,0.00000000,0.00000000,-2.33179569,-0.92938185,0.91379011,-2.13351750,-0.44853935,0.00000000,0.00000000
0.02528008,-2.17000008,-1.04654217,-0.51951319,-0.67954838,0.00000000,0.00000000,-2.33243680,-0.92795002,0.91501802,-2.13309503,-0.45350751,0.00000000,0.00000000
0.02577137,-2.17000008,-1.04344630,-0.51698220,-0.69988871,0.00000000,0.00000000,-2.33299184,-0.92604667,0.91556484,-2.13253212,-0.45188147,0.00000000,0.00000000
0.02587119,-2.17000008,-1.04123759,-0.51304275,-0.71812761,0.00000000,0.00000000,-2.33343172,-0.92360413,0.91572171,-2.13199592,-0.45414087,0.00000000,0.00000000
0.02547850,-2.16999769,-1.03986180,-0.50789237,-0.73265308,0.00000000,0.00000000,-2.33370590,-0.92075229,0.91581732,-2.13179278,-0.46578160,0.00000000,0.00000000
0.02455030,-2.16996098,-1.03907299,-0.50198662,-0.74385113,0.00000000,0.00000000,-2.33381462,-0.91761297,0.91600287,-2.13211155,-0.48687768,0.00000000,0.00000000
0.02318539,-2.16979432,-1.03848016,-0.49583423,-0.75664747,0.00000000,0.00000000,-2.33392525,-0.91398805,0.91607457,-2.13260961,-0.50151491,0.00000000,0.00000000
0.02144345,-2.16945457,-1.03773284,-0.48984641,-0.76766670,0.00000000,0.00000000,-2.33432651,-0.90939051,0.91549504,-2.13250494,-0.51213676,0.00000000,0.00000000
0.01927107,-2.16901445,-1.03660285,-0.48431909,-0.77883512,0.00000000,0.00000000,-2.33520341,-0.90336472,0.91369778,-2.13117909,-0.51511842,0.00000000,0.00000000
0.01670851,-2.16854954,-1.03488648,-0.47947043,-0.79047531,0.00000000,0.00000000,-2.33651018,-0.89562184,0.91044021,-2.12848067,-0.52081764,0.00000000,0.00000000
0.01399943,-2.16820621,-1.03234589,-0.47541869,-0.80765748,0.00000000,0.00000000,-2.33811522,-0.88581806,0.90579981,-2.12433267,-0.53008527,0.00000000,0.00000000
0.01142588,-2.16806293,-1.02879894,-0.47209951,-0.82338142,0.00000000,0.00000000,-2.33995938,-0.87332940,0.89972866,-2.11825657,-0.53807753,0.00000000,0.00000000
0.00912686,-2.16803384,-1.02417719,-0.46930221,-0.84110844,0.00000000,0.00000000,-2.34199882,-0.85729253,0.89156318,-2.10941124,-0.54621160,0.00000000,0.00000000
0.00699922,-2.16802716,-1.01847577,-0.46690458,-0.85925990,0.00000000,0.00000000,-2.34411407,-0.83676642,0.87997782,-2.09690285,-0.54979759,0.00000000,0.00000000
0.00475672,-2.16811085,-1.01169837,-0.46498063,-0.87498689,0.00000000,0.00000000,-2.34610152,-0.81089514,0.86335599,-2.08000684,-0.55429667,0.00000000,0.00000000
0.00216234,-2.16834235,-1.00389433,-0.46353331,-0.88905448,0.00000000,0.00000000,-2.34754014,-0.77906120,0.84024870,-2.05832219,-0.55770504,0.00000000,0.00000000
-0.00068415,-2.16860294,-0.99517041,-0.46221107,-0.90178382,0.00000000,0.00000000,-2.34759998,-0.74102277,0.80956680,-2.03187418,-0.55899101,0.00000000,0.00000000
-0.00343808,-2.16872478,-0.98562860,-0.46050081,-0.91215158,0.00000000,0.00000000,-2.34520316,-0.69690692,0.77045292,-2.00096536,-0.56543338,0.00000000,0.00000000
-0.00603815,-2.16869354,-0.97533572,-0.45821631,-0.92435777,0.00000000,0.00000000,-2.33936882,-0.64712650,0.72219890,-1.96592176,-0.57284468,0.00000000,0.00000000
-0.00881769,-2.16859078,-0.96434116,-0.45553675,-0.93612182,0.00000000,0.00000000,-2.32921910,-0.59245372,0.66444373,-1.92710912,-0.58368868,0.00000000,0.00000000
-0.01195729,-2.16838765,-0.95267910,-0.45257074,-0.95077956,0.00000000,0.00000000,-2.31381989,-0.53415757,0.59737998,-1.88513398,-0.59125310,0.00000000,0.00000000
-0.01540872,-2.16805696,-0.94033164,-0.44941381,-0.97070211,0.00000000,0.00000000,-2.29233360,-0.47390699,0.52164513,-1.84086382,-0.59522641,0.00000000,0.00000000
-0.01959584,-2.16800237,-0.92716545,-0.44686165,-0.99819809,0.00000000,0.00000000,-2.26435471,-0.41347325,0.43799028,-1.79528582,-0.59280521,0.00000000,0.00000000
-0.02554191,-2.16870427,-0.91309714,-0.44624794,-1.02596521,0.00000000,0.00000000,-2.23119092,-0.35326308,0.34622064,-1.74854398,-0.59464055,0.00000000,0.00000000
-0.03388973,-2.16965199,-0.89863783,-0.44794920,-1.06142557,0.00000000,0.00000000,-2.19447255,-0.28894842,0.24722737,-1.70104229,-0.59319901,0.00000000,0.00000000
-0.04353383,-2.16997862,-0.88499045,-0.45039016,-1.09721303,0.00000000,0.00000000,-2.14819551,-0.21218009,0.14984874,-1.65628242,-0.59299147,0.00000000,0.00000000
-0.05197952,-2.17000008,-0.87317914,-0.45103592,-1.12977290,0.00000000,0.00000000,-2.08522558,-0.11562803,0.06189816,-1.60972273,-0.59581602,0.00000000,0.00000000
-0.05934221,-2.17000008,-0.86339158,-0.45018360,-1.15546811,0.00000000,0.00000000,-2.00198531,0.00391385,-0.01404072,-1.55607831,-0.59938246,0.00000000,0.00000000
-0.06587497,-2.17000008,-0.85521722,-0.44916493,-1.18340170,0.00000000,0.00000000,-1.89703012,0.14674826,-0.07767427,-1.49254596,-0.60557497,0.00000000,0.00000000
-0.07099424,-2.17000008,-0.84818262,-0.44868857,-1.20665169,0.00000000,0.00000000,-1.77007020,0.31175625,-0.12909594,-1.41739094,-0.60830396,0.00000000,0.00000000
-0.07466222,-2.17000008,-0.84227324,-0.44883353,-1.22581244,0.00000000,0.00000000,-1.62208486,0.49650407,-0.16841945,-1.32974482,-0.60959178,0.00000000,0.00000000
-0.07712860,-2.17000008,-0.83770859,-0.44932070,-1.24965930,0.00000000,0.00000000,-1.45557499,0.69694048,-0.19574222,-1.22983932,-0.61145604,0.00000000,0.00000000
-0.07857920,-2.17000008,-0.83458811,-0.44996637,-1.26904845,0.00000000,0.00000000,-1.27476311,0.90729839,-0.21124844,-1.11920571,-0.61086649,0.00000000,0.00000000
-0.07980293,-2.17000008,-0.83316654,-0.45068872,-1.28919065,0.00000000,0.00000000,-1.08555150,1.12037849,-0.21539596,-1.00066209,-0.61017334,0.00000000,0.00000000
-0.08064523,-2.17000008,-0.83383685,-0.45050085,-1.30818927,0.00000000,0.00000000,-0.89502633,1.32819831,-0.20902497,-0.87802374,-0.60941786,0.00000000,0.00000000
-0.08134135,-2.17000008,-0.83709359,-0.44842821,-1.32157838,0.00000000,0.00000000,-0.71063286,1.52289987,-0.19336396,-0.75557053,-0.61248302,0.00000000,0.00000000
-0.08159362,-2.17000008,-0.84311122,-0.44371930,-1.33643699,0.00000000,0.00000000,-0.53927511,1.69757032,-0.16992144,-0.63747656,-0.61790234,0.00000000,0.00000000
-0.08078046,-2.16998267,-0.85176754,-0.43607432,-1.35243607,0.00000000,0.00000000,-0.38653183,1.84679580,-0.14033687,-0.52732688,-0.62138098,0.00000000,0.00000000
-0.07853653,-2.16964984,-0.86269945,-0.42596203,-1.36463141,0.00000000,0.00000000,-0.25593963,1.96697342,-0.10622564,-0.42780423,-0.62132126,0.00000000,0.00000000
-0.07509462,-2.16776204,-0.87515694,-0.41506928,-1.36517453,0.00000000,0.00000000,-0.14824855,2.05674982,-0.06904516,-0.34055865,-0.62319553,0.00000000,0.00000000
-0.07114625,-2.16334248,-0.88803679,-0.40585333,-1.36955440,0.00000000,0.00000000,-0.06147897,2.11750031,-0.03002737,-0.26625070,-0.62680876,0.00000000,0.00000000
-0.06673894,-2.15800691,-0.90041792,-0.39954060,-1.37674236,0.00000000,0.00000000,0.00703148,2.15251112,0.00980456,-0.20477431,-0.62450439,0.00000000,0.00000000
-0.06150634,-2.15260029,-0.91197312,-0.39585009,-1.38688433,0.00000000,0.00000000,0.05884483,2.16685438,0.04957557,-0.15550584,-0.62417114,0.00000000,0.00000000
-0.05554970,-2.14751863,-0.92265522,-0.39434630,-1.40121746,0.00000000,0.00000000,0.09544796,2.16982937,0.08848206,-0.11711128,-0.62327653,0.00000000,0.00000000
-0.04949537,-2.14388204,-0.93235719,-0.39493316,-1.41851330,0.00000000,0.00000000,0.12037520,2.17000008,0.12575136,-0.08686619,-0.61702412,0.00000000,0.00000000
-0.04409253,-2.14261150,-0.94100016,-0.39749786,-1.43450153,0.00000000,0.00000000,0.13857909,2.17000008,0.16076617,-0.06136271,-0.61369509,0.00000000,0.00000000
-0.04005788,-2.14337397,-0.94872808,-0.40172103,-1.45519412,0.00000000,0.00000000,0.15362257,2.17000008,0.19316545,-0.03863114,-0.60695499,0.00000000,0.00000000
-0.03776868,-2.14545059,-0.95571083,-0.40732682,-1.47455704,0.00000000,0.00000000,0.16710581,2.17000008,0.22275999,-0.01831863,-0.59488457,0.00000000,0.00000000
-0.03712289,-2.14847612,-0.96198326,-0.41417402,-1.48425281,0.00000000,0.00000000,0.17952266,2.17000008,0.24943216,-0.00082142,-0.58024126,0.00000000,0.00000000
-0.03776186,-2.15214038,-0.96753013,-0.42208719,-1.48766768,0.00000000,0.00000000,0.19088589,2.17000008,0.27309501,0.01340450,-0.57063657,0.00000000,0.00000000
-0.03931869,-2.15596271,-0.97236115,-0.43077996,-1.49268913,0.00000000,0.00000000,0.20093630,2.17000008,0.29367712,0.02432819,-0.56076825,0.00000000,0.00000000
-0.04140092,-2.15957403,-0.97644985,-0.43993410,-1.49648488,0.00000000,0.00000000,0.20925599,2.16997671,0.31111389,0.03243746,-0.55711377,0.00000000,0.00000000
-0.04346931,-2.16283703,-0.97968662,-0.44922602,-1.50650811,0.00000000,0.00000000,0.21559073,2.16960406,0.32535067,0.03833701,-0.55192202,0.00000000,0.00000000
-0.04494676,-2.16564655,-0.98194939,-0.45831433,-1.51224732,0.00000000,0.00000000,0.22007075,2.16817784,0.33635202,0.04238907,-0.55107945,0.00000000,0.00000000
-0.04568897,-2.16789341,-0.98330420,-0.46686083,-1.50933433,0.00000000,0.00000000,0.22307006,2.16575193,0.34410298,0.04472847,-0.55206954,0.00000000,0.00000000
-0.04610479,-2.16940641,-0.98414326,-0.47437763,-1.51024187,0.00000000,0.00000000,0.22496152,2.16287732,0.34860107,0.04548205,-0.55405354,0.00000000,0.00000000
-0.04652159,-2.16992903,-0.98498559,-0.48008060,-1.51130092,0.00000000,0.00000000,0.22607212,2.16005659,0.34985405,0.04481234,-0.56191361,0.00000000,0.00000000
-0.04685949,-2.16999722,-0.98616195,-0.48316580,-1.50695574,0.00000000,0.00000000,0.22672011,2.15759921,0.34788004,0.04286663,-0.56803745,0.00000000,0.00000000
-0.04698888,-2.16998529,-0.98775107,-0.48321396,-1.50308251,0.00000000,0.00000000,0.22711158,2.15581465,0.34270161,0.03985222,-0.57640839,0.00000000,0.00000000
-0.04691334,-2.16974258,-0.98962218,-0.48031461,-1.50204468,0.00000000,0.00000000,0.22730981,2.15511131,0.33434224,0.03607636,-0.58357459,0.00000000,0.00000000
-0.04657900,-2.16874647,-0.99143994,-0.47493336,-1.49500990,0.00000000,0.00000000,0.22742520,2.15575290,0.32283011,0.03183210,-0.58675057,0.00000000,0.00000000
-0.04579338,-2.16684580,-0.99270791,-0.46777430,-1.49946225,0.00000000,0.00000000,0.22765870,2.15771413,0.30819723,0.02731172,-0.58907598,0.00000000,0.00000000
-0.04443991,-2.16440010,-0.99298477,-0.45959559,-1.49767292,0.00000000,0.00000000,0.22797875,2.16086864,0.29046965,0.02263981,-0.59304237,0.00000000,0.00000000
-0.04268602,-2.16212916,-0.99204576,-0.45109943,-1.49842501,0.00000000,0.00000000,0.22787209,2.16489220,0.26966390,0.01776643,-0.59022290,0.00000000,0.00000000
-0.04082178,-2.16090894,-0.98977828,-0.44298127,-1.49866962,0.00000000,0.00000000,0.22644518,2.16842079,0.24579419,0.01198711,-0.58602434,0.00000000,0.00000000
-0.03905807,-2.16127086,-0.98614419,-0.43582368,-1.49335206,0.00000000,0.00000000,0.22258888,2.16979218,0.21888249,0.00335381,-0.57902306,0.00000000,0.00000000
-0.03750847,-2.16303325,-0.98124170,-0.42999306,-1.48543346,0.00000000,0.00000000,0.21481137,2.16999102,0.18897372,-0.01143921,-0.57695901,0.00000000,0.00000000
-0.03613561,-2.16526937,-0.97531766,-0.42560604,-1.47688735,0.00000000,0.00000000,0.20096055,2.17000008,0.15617330,-0.03635578,-0.57512832,0.00000000,0.00000000
-0.03479326,-2.16696358,-0.96869963,-0.42258167,-1.46684492,0.00000000,0.00000000,0.17870763,2.17000008,0.12071453,-0.07478235,-0.56778258,0.00000000,0.00000000
-0.03354858,-2.16787028,-0.96169889,-0.42085993,-1.45675850,0.00000000,0.00000000,0.14635518,2.17000008,0.08302604,-0.12849198,-0.55568737,0.00000000,0.00000000
-0.03263210,-2.16831708,-0.95450234,-0.42050564,-1.44173956,0.00000000,0.00000000,0.10276676,2.16970325,0.04378502,-0.19778647,-0.54864830,0.00000000,0.00000000
-0.03216274,-2.16872501,-0.94715005,-0.42166808,-1.42233467,0.00000000,0.00000000,0.04694577,2.16472006,0.00394970,-0.28213143,-0.54738563,0.00000000,0.00000000
-0.03221198,-2.16931868,-0.93971038,-0.42442361,-1.40142667,0.00000000,0.00000000,-0.02212002,2.14292002,-0.03527062,-0.38059664,-0.54879826,0.00000000,0.00000000
-0.03302301,-2.16983318,-0.93252319,-0.42854548,-1.38387370,0.00000000,0.00000000,-0.10562232,2.09559464,-0.07250799,-0.49203131,-0.55260932,0.00000000,0.00000000
-0.03485300,-2.16999006,-0.92617375,-0.43350390,-1.37106287,0.00000000,0.00000000,-0.20505290,2.02010965,-0.10631964,-0.61496973,-0.55563873,0.00000000,0.00000000
-0.03756360,-2.17000008,-0.92116410,-0.43879357,-1.35477519,0.00000000,0.00000000,-0.32153022,1.91644931,-0.13523896,-0.74742317,-0.55404836,0.00000000,0.00000000
-0.04059798,-2.17000008,-0.91770691,-0.44415611,-1.33736193,0.00000000,0.00000000,-0.45464244,1.78664267,-0.15783279,-0.88673484,-0.55192864,0.00000000,0.00000000
-0.04340764,-2.17000008,-0.91581792,-0.44953600,-1.32375181,0.00000000,0.00000000,-0.60203087,1.63464224,-0.17279100,-1.02959287,-0.55336690,0.00000000,0.00000000
-0.04574198,-2.17000008,-0.91545713,-0.45498809,-1.31122684,0.00000000,0.00000000,-0.75978202,1.46574783,-0.17902733,-1.17223394,-0.55269474,0.00000000,0.00000000
-0.04751948,-2.17000008,-0.91656852,-0.46057850,-1.29515898,0.00000000,0.00000000,-0.92307264,1.28601658,-0.17575069,-1.31080341,-0.55617309,0.00000000,0.00000000
-0.04855238,-2.17000008,-0.91905922,-0.46627316,-1.27085006,0.00000000,0.00000000,-1.08679569,1.10172033,-0.16248178,-1.44175839,-0.55507821,0.00000000,0.00000000
-0.04856384,-2.17000008,-0.92280525,-0.47192785,-1.24562192,0.00000000,0.00000000,-1.24609888,0.91885448,-0.13900720,-1.56220710,-0.55347520,0.00000000,0.00000000
-0.04741199,-2.17000008,-0.92769516,-0.47737330,-1.22521317,0.00000000,0.00000000,-1.39678204,0.74273443,-0.10527331,-1.67012346,-0.54856461,0.00000000,0.00000000
-0.04510611,-2.16998720,-0.93368524,-0.48241225,-1.21281993,0.00000000,0.00000000,-1.53550708,0.57771838,-0.06124541,-1.76441181,-0.53894395,0.00000000,0.00000000
-0.04210471,-2.16981769,-0.94101059,-0.48684579,-1.20093668,0.00000000,0.00000000,-1.65983570,0.42707342,-0.00677738,-1.84481502,-0.53119892,0.00000000,0.00000000
-0.03966406,-2.16954303,-0.94992572,-0.49093100,-1.19056749,0.00000000,0.00000000,-1.76816261,0.29296046,0.05846850,-1.91166401,-0.51507187,0.00000000,0.00000000
-0.03607381,-2.16960287,-0.95965731,-0.49364617,-1.17914283,0.00000000,0.00000000,-1.85961020,0.17639928,0.13501172,-1.96540737,-0.50423920,0.00000000,0.00000000
-0.02736396,-2.16917205,-0.96973145,-0.49168530,-1.16741562,0.00000000,0.00000000,-1.93434179,0.07655304,0.22285528,-2.00606108,-0.49882230,0.00000000,0.00000000
-0.01754715,-2.16872764,-0.97942948,-0.48840711,-1.15313447,0.00000000,0.00000000,-1.99526501,-0.01122324,0.31852585,-2.03458571,-0.49029225,0.00000000,0.00000000
-0.01018724,-2.16885543,-0.98835754,-0.48639613,-1.14072812,0.00000000,0.00000000,-2.04796290,-0.09443189,0.41391024,-2.05579972,-0.48540056,0.00000000,0.00000000
-0.00472938,-2.16929197,-0.99638891,-0.48502728,-1.12253106,0.00000000,0.00000000,-2.09555125,-0.17694388,0.50300270,-2.07475829,-0.48583910,0.00000000,0.00000000
-0.00021929,-2.16956568,-1.00370514,-0.48337877,-1.11051750,0.00000000,0.00000000,-2.13851404,-0.25868729,0.58330309,-2.09343433,-0.47676221,0.00000000,0.00000000
0.00374622,-2.16926789,-1.01056564,-0.48104402,-1.09527421,0.00000000,0.00000000,-2.17661881,-0.33826974,0.65376240,-2.11188102,-0.47471976,0.00000000,0.00000000
0.00752965,-2.16824961,-1.01692617,-0.47805217,-1.08377433,0.00000000,0.00000000,-2.20968938,-0.41408247,0.71385515,-2.12952590,-0.47349027,0.00000000,0.00000000
0.01128146,-2.16713786,-1.02233469,-0.47501978,-1.07292652,0.00000000,0.00000000,-2.23790932,-0.48456803,0.76332879,-2.14561415,-0.47335485,0.00000000,0.00000000
0.01461064,-2.16673779,-1.02642918,-0.47269160,-1.05978572,0.00000000,0.00000000,-2.26187539,-0.54841077,0.80218077,-2.15941429,-0.47280836,0.00000000,0.00000000
0.01698992,-2.16699862,-1.02926505,-0.47129065,-1.04581761,0.00000000,0.00000000,-2.28231192,-0.60480732,0.83081645,-2.17041612,-0.47730225,0.00000000,0.00000000
0.01843097,-2.16744637,-1.03098226,-0.47060370,-1.03990555,0.00000000,0.00000000,-2.29970527,-0.65365756,0.85025495,-2.17853546,-0.48181906,0.00000000,0.00000000
0.01932423,-2.16775060,-1.03162467,-0.47037360,-1.03540003,0.00000000,0.00000000,-2.31426573,-0.69547713,0.86217451,-2.18410969,-0.49291760,0.00000000,0.00000000
0.01995442,-2.16781950,-1.03120911,-0.47055474,-1.03255415,0.00000000,0.00000000,-2.32622790,-0.73108017,0.86864203,-2.18760681,-0.50732881,0.00000000,0.00000000
0.02048867,-2.16780090,-1.02972436,-0.47135559,-1.03331208,0.00000000,0.00000000,-2.33604336,-0.76130915,0.87159270,-2.18937564,-0.52204949,0.00000000,0.00000000
0.02111016,-2.16801143,-1.02711070,-0.47316602,-1.03855097,0.00000000,0.00000000,-2.34423351,-0.78692186,0.87239689,-2.18965602,-0.53464979,0.00000000,0.00000000
0.02186714,-2.16862774,-1.02341628,-0.47631198,-1.04043567,0.00000000,0.00000000,-2.35117269,-0.80851716,0.87182629,-2.18865919,-0.55039787,0.00000000,0.00000000
0.02253303,-2.16940641,-1.01897097,-0.48074773,-1.03252482,0.00000000,0.00000000,-2.35703993,-0.82651216,0.87039369,-2.18660808,-0.56747502,0.00000000,0.00000000
0.02284724,-2.16987753,-1.01432478,-0.48598450,-1.02239466,0.00000000,0.00000000,-2.36188412,-0.84126568,0.86870325,-2.18382454,-0.59029388,0.00000000,0.00000000
0.02285397,-2.16999340,-1.01001012,-0.49133211,-1.00936162,0.00000000,0.00000000,-2.36572170,-0.85324901,0.86743933,-2.18079543,-0.61268407,0.00000000,0.00000000
0.02283955,-2.17000008,-1.00640988,-0.49619532,-0.99749607,0.00000000,0.00000000,-2.36864376,-0.86304826,0.86705905,-2.17800927,-0.63407528,0.00000000,0.00000000
0.02304070,-2.17000008,-1.00381708,-0.50015134,-0.98965913,0.00000000,0.00000000,-2.37087727,-0.87119401,0.86761129,-2.17566347,-0.65455782,0.00000000,0.00000000
0.02348428,-2.17000008,-1.00252473,-0.50292873,-0.98036909,0.00000000,0.00000000,-2.37273407,-0.87802637,0.86885613,-2.17359591,-0.67591333,0.00000000,0.00000000
0.02406335,-2.17000008,-1.00273967,-0.50454837,-0.98085648,0.00000000,0.00000000,-2.37444663,-0.88376486,0.87050378,-2.17160487,-0.70174867,0.00000000,0.00000000
0.02470258,-2.17000008,-1.00447798,-0.50533712,-0.97888136,0.00000000,0.00000000,-2.37605238,-0.88865596,0.87239391,-2.16977310,-0.72640121,0.00000000,0.00000000
0.02545177,-2.17000008,-1.00762928,-0.50562394,-0.97174853,0.00000000,0.00000000,-2.37748241,-0.89298081,0.87450737,-2.16838217,-0.74945462,0.00000000,0.00000000
0.02635947,-2.17000008,-1.01209974,-0.50553650,-0.95795369,0.00000000,0.00000000,-2.37872577,-0.89693642,0.87685907,-2.16757154,-0.77311158,0.00000000,0.00000000
0.02738652,-2.17000008,-1.01783442,-0.50504827,-0.94509667,0.00000000,0.00000000,-2.37985539,-0.90055799,0.87941086,-2.16720963,-0.78356010,0.00000000,0.00000000
0.02849206,-2.17000008,-1.02466393,-0.50419217,-0.92635924,0.00000000,0.00000000,-2.38091302,-0.90376240,0.88209385,-2.16708612,-0.79741603,0.00000000,0.00000000
0.02973820,-2.17000008,-1.03225732,-0.50307602,-0.90503269,0.00000000,0.00000000,-2.38183904,-0.90644819,0.88484216,-2.16710138,-0.80865973,0.00000000,0.00000000
0.03123035,-2.16999650,-1.04024446,-0.50178397,-0.88022423,0.00000000,0.00000000,-2.38253403,-0.90857363,0.88757676,-2.16725850,-0.81352049,0.00000000,0.00000000
0.03291624,-2.16994095,-1.04832697,-0.50041318,-0.85967410,0.00000000,0.00000000,-2.38295197,-0.91015518,0.89018732,-2.16754985,-0.81828511,0.00000000,0.00000000
0.03454498,-2.16972899,-1.05625415,-0.49918470,-0.83958554,0.00000000,0.00000000,-2.38312554,-0.91121650,0.89255691,-2.16792011,-0.82351136,0.00000000,0.00000000
0.03589125,-2.16940069,-1.06375039,-0.49840727,-0.81710762,0.00000000,0.00000000,-2.38313437,-0.91177005,0.89460945,-2.16832113,-0.82632256,0.00000000,0.00000000
0.03690919,-2.16909933,-1.07054222,-0.49832389,-0.79382974,0.00000000,0.00000000,-2.38307166,-0.91185224,0.89635366,-2.16878843,-0.83463401,0.00000000,0.00000000
0.03764655,-2.16884398,-1.07642567,-0.49905097,-0.78208756,0.00000000,0.00000000,-2.38303328,-0.91155589,0.89790010,-2.16943812,-0.83607036,0.00000000,0.00000000
0.03818973,-2.16859984,-1.08123541,-0.50064576,-0.77400321,0.00000000,0.00000000,-2.38313508,-0.91101968,0.89941412,-2.17036748,-0.84194404,0.00000000,0.00000000
0.03873695,-2.16846657,-1.08478296,-0.50313801,-0.77021450,0.00000000,0.00000000,-2.38348293,-0.91038364,0.90101558,-2.17157412,-0.84532011,0.00000000,0.00000000
0.03960237,-2.16859818,-1.08692229,-0.50641394,-0.77105856,0.00000000,0.00000000,-2.38409519,-0.90974414,0.90269661,-2.17299128,-0.84856462,0.00000000,0.00000000
0.04100922,-2.16897798,-1.08768463,-0.51019263,-0.77436388,0.00000000,0.00000000,-2.38486409,-0.90912133,0.90434897,-2.17457271,-0.84910935,0.00000000,0.00000000
0.04288373,-2.16943026,-1.08728337,-0.51424903,-0.77610153,0.00000000,0.00000000,-2.38562155,-0.90844047,0.90590757,-2.17628741,-0.84869492,0.00000000,0.00000000
0.04490191,-2.16979599,-1.08599663,-0.51858264,-0.77843994,0.00000000,0.00000000,-2.38624048,-0.90755129,0.90744138,-2.17806816,-0.84565401,0.00000000,0.00000000
0.04674701,-2.16996384,-1.08411443,-0.52319813,-0.77711958,0.00000000,0.00000000,-2.38667250,-0.90629441,0.90908074,-2.17982221,-0.83278513,0.00000000,0.00000000
0.04832231,-2.16999817,-1.08195090,-0.52779043,-0.77337450,0.00000000,0.00000000,-2.38692856,-0.90460306,0.91088867,-2.18150496,-0.81862456,0.00000000,0.00000000
0.04964602,-2.17000008,-1.07983601,-0.53187042,-0.76301676,0.00000000,0.00000000,-2.38707590,-0.90256000,0.91284287,-2.18312001,-0.80142707,0.00000000,0.00000000
0.05066977,-2.17000008,-1.07803380,-0.53515619,-0.75490671,0.00000000,0.00000000,-2.38722706,-0.90034068,0.91489995,-2.18464041,-0.78543663,0.00000000,0.00000000
0.05131735,-2.17000008,-1.07670999,-0.53761947,-0.75144321,0.00000000,0.00000000,-2.38748050,-0.89810562,0.91698492,-2.18598676,-0.76569188,0.00000000,0.00000000
0.05162297,-2.17000008,-1.07598853,-0.53920460,-0.74736226,0.00000000,0.00000000,-2.38784695,-0.89595306,0.91892135,-2.18711615,-0.74513257,0.00000000,0.00000000
0.05178054,-2.17000008,-1.07590652,-0.53977102,-0.74730891,0.00000000,0.00000000,-2.38823915,-0.89397585,0.92040962,-2.18810439,-0.72932750,0.00000000,0.00000000
0.05201766,-2.17000008,-1.07635295,-0.53930718,-0.75010008,0.00000000,0.00000000,-2.38851237,-0.89230233,0.92108572,-2.18911672,-0.71699661,0.00000000,0.00000000
0.05234651,-2.17000008,-1.07715416,-0.53807569,-0.75404787,0.00000000,0.00000000,-2.38854766,-0.89096636,0.92074847,-2.19022083,-0.70029789,0.00000000,0.00000000
0.05262425,-2.17000008,-1.07824504,-0.53631759,-0.75917512,0.00000000,0.00000000,-2.38830423,-0.88984853,0.91943789,-2.19126511,-0.68151218,0.00000000,0.00000000
0.05276657,-2.17000008,-1.07962966,-0.53413022,-0.75740033,0.00000000,0.00000000,-2.38783407,-0.88878822,0.91737866,-2.19193912,-0.66405123,0.00000000,0.00000000
0.05282836,-2.17000008,-1.08120036,-0.53170907,-0.75564450,0.00000000,0.00000000,-2.38723636,-0.88775021,0.91483569,-2.19197917,-0.64880371,0.00000000,0.00000000
0.05295479,-2.17000008,-1.08271194,-0.52943039,-0.75355893,0.00000000,0.00000000,-2.38658047,-0.88684231,0.91196483,-2.19134760,-0.63545680,0.00000000,0.00000000
0.05325931,-2.17000008,-1.08393478,-0.52766132,-0.75523776,0.00000000,0.00000000,-2.38588047,-0.88617539,0.90879583,-2.19019890,-0.61896080,0.00000000,0.00000000
0.05383328,-2.17000008,-1.08470118,-0.52663833,-0.75767809,0.00000000,0.00000000,-2.38517547,-0.88578355,0.90533900,-2.18871403,-0.61283624,0.00000000,0.00000000
0.05472311,-2.17000008,-1.08491158,-0.52649462,-0.77192110,0.00000000,0.00000000,-2.38453865,-0.88564932,0.90173119,-2.18704939,-0.60163462,0.00000000,0.00000000
0.05580920,-2.17000008,-1.08462262,-0.52722180,-0.78728127,0.00000000,0.00000000,-2.38400364,-0.88573003,0.89829367,-2.18537855,-0.59273672,0.00000000,0.00000000
0.05679196,-2.17000008,-1.08410072,-0.52854794,-0.80767101,0.00000000,0.00000000,-2.38353682,-0.88595283,0.89545053,-2.18387032,-0.58987880,0.00000000,0.00000000
0.05744372,-2.17000008,-1.08367133,-0.52998596,-0.81993210,0.00000000,0.00000000,-2.38309193,-0.88623559,0.89355642,-2.18259263,-0.59004867,0.00000000,0.00000000
0.05775258,-2.17000008,-1.08350766,-0.53116673,-0.83413327,0.00000000,0.00000000,-2.38264799,-0.88654864,0.89274579,-2.18150711,-0.59072602,0.00000000,0.00000000
0.05772799,-2.17000008,-1.08361578,-0.53209376,-0.84690285,0.00000000,0.00000000,-2.38219881,-0.88692713,0.89292514,-2.18054867,-0.59245437,0.00000000,0.00000000
0.05732498,-2.17000008,-1.08395481,-0.53294456,-0.86171722,0.00000000,0.00000000,-2.38174796,-0.88739687,0.89392382,-2.17964315,-0.59084338,0.00000000,0.00000000
0.05658216,-2.17000008,-1.08448112,-0.53377151,-0.87020451,0.00000000,0.00000000,-2.38134170,-0.88789803,0.89563274,-2.17864633,-0.58966541,0.00000000,0.00000000
0.05567457,-2.17000008,-1.08512318,-0.53449970,-0.87494808,0.00000000,0.00000000,-2.38105679,-0.88829833,0.89796960,-2.17737627,-0.59063405,0.00000000,0.00000000
0.05468639,-2.17000008,-1.08582509,-0.53514248,-0.87793589,0.00000000,0.00000000,-2.38092422,-0.88849884,0.90077907,-2.17575979,-0.59987181,0.00000000,0.00000000
0.05360587,-2.17000008,-1.08657241,-0.53577155,-0.87886447,0.00000000,0.00000000,-2.38089180,-0.88851374,0.90380460,-2.17389560,-0.60508388,0.00000000,0.00000000
0.05255426,-2.17000008,-1.08733904,-0.53633696,-0.88135296,0.00000000,0.00000000,-2.38087177,-0.88845313,0.90676570,-2.17194748,-0.60821509,0.00000000,0.00000000
0.05180974,-2.17000008,-1.08805299,-0.53667980,-0.88197595,0.00000000,0.00000000,-2.38078785,-0.88844538,0.90943271,-2.17003441,-0.61672598,0.00000000,0.00000000
0.05151179,-2.17000008,-1.08864975,-0.53673857,-0.87712300,0.00000000,0.00000000,-2.38055754,-0.88857996,0.91164613,-2.16826868,-0.62695682,0.00000000,0.00000000
0.05152204,-2.17000008,-1.08913112,-0.53658980,-0.87727743,0.00000000,0.00000000,-2.38007617,-0.88890129,0.91334856,-2.16681266,-0.63909203,0.00000000,0.00000000
0.05167575,-2.17000008,-1.08954358,-0.53622866,-0.88407409,0.00000000,0.00000000,-2.37927294,-0.88941395,0.91464758,-2.16579938,-0.65088564,0.00000000,0.00000000
0.05191127,-2.17000008,-1.08995140,-0.53550416,-0.89530182,0.00000000,0.00000000,-2.37819910,-0.89006972,0.91581285,-2.16519308,-0.66574585,0.00000000,0.00000000
0.05206323,-2.17000008,-1.09042656,-0.53437465,-0.90500706,0.00000000,0.00000000,-2.37704539,-0.89078021,0.91715991,-2.16479349,-0.68172300,0.00000000,0.00000000
0.05190022,-2.17000008,-1.09096110,-0.53303558,-0.91688192,0.00000000,0.00000000,-2.37606239,-0.89148587,0.91887724,-2.16438079,-0.70009202,0.00000000,0.00000000
0.05139863,-2.17000008,-1.09141266,-0.53174651,-0.92817461,0.00000000,0.00000000,-2.37546253,-0.89219105,0.92094332,-2.16381907,-0.71592921,0.00000000,0.00000000
0.05076807,-2.17000008,-1.09159219,-0.53063995,-0.93997437,0.00000000,0.00000000,-2.37537217,-0.89291137,0.92317140,-2.16303301,-0.72811121,0.00000000,0.00000000
0.05021773,-2.17000008,-1.09137714,-0.52974093,-0.94766122,0.00000000,0.00000000,-2.37583780,-0.89362717,0.92531306,-2.16196799,-0.73535478,0.00000000,0.00000000
0.04984274,-2.17000008,-1.09070909,-0.52907056,-0.95288730,0.00000000,0.00000000,-2.37682700,-0.89430767,0.92714083,-2.16061807,-0.74639934,0.00000000,0.00000000
0.04970372,-2.17000008,-1.08952987,-0.52866298,-0.95699465,0.00000000,0.00000000,-2.37822104,-0.89495057,0.92848969,-2.15905333,-0.75699604,0.00000000,0.00000000
0.04982349,-2.17000008,-1.08782840,-0.52850288,-0.96732557,0.00000000,0.00000000,-2.37983131,-0.89554524,0.92927158,-2.15737510,-0.77292562,0.00000000,0.00000000
0.05005036,-2.17000008,-1.08574224,-0.52852678,-0.98182452,0.00000000,0.00000000,-2.38141918,-0.89602637,0.92951685,-2.15568900,-0.78739554,0.00000000,0.00000000
0.05014738,-2.17000008,-1.08351350,-0.52862334,-0.99377388,0.00000000,0.00000000,-2.38271737,-0.89631772,0.92940170,-2.15414143,-0.80293339,0.00000000,0.00000000
0.05005718,-2.17000008,-1.08130229,-0.52863425,-1.00287616,0.00000000,0.00000000,-2.38349366,-0.89642477,0.92920291,-2.15293002,-0.82114279,0.00000000,0.00000000
0.04993770,-2.17000008,-1.07909369,-0.52841300,-1.00899756,0.00000000,0.00000000,-2.38363767,-0.89644450,0.92921138,-2.15220618,-0.83854634,0.00000000,0.00000000
0.04993126,-2.17000008,-1.07679212,-0.52790916,-1.01139820,0.00000000,0.00000000,-2.38322806,-0.89648604,0.92965335,-2.15195704,-0.85990703,0.00000000,0.00000000
0.04999221,-2.17000008,-1.07437074,-0.52716720,-1.01442599,0.00000000,0.00000000,-2.38248467,-0.89662474,0.93064094,-2.15204668,-0.87854695,0.00000000,0.00000000
0.04999911,-2.17000008,-1.07188368,-0.52624726,-1.01704872,0.00000000,0.00000000,-2.38164186,-0.89692819,0.93213689,-2.15235925,-0.89508617,0.00000000,0.00000000
0.04988194,-2.17000008,-1.06937301,-0.52523851,-1.02268851,0.00000000,0.00000000,-2.38088655,-0.89745522,0.93396741,-2.15281582,-0.91215742,0.00000000,0.00000000
0.04962405,-2.17000008,-1.06680584,-0.52432013,-1.02842832,0.00000000,0.00000000,-2.38040709,-0.89818883,0.93590945,-2.15323067,-0.93153667,0.00000000,0.00000000
0.04925360,-2.17000008,-1.06411982,-0.52368075,-1.03847253,0.00000000,0.00000000,-2.38041711,-0.89902407,0.93777025,-2.15328360,-0.94369787,0.00000000,0.00000000
0.04882608,-2.17000008,-1.06131208,-0.52337086,-1.04424679,0.00000000,0.00000000,-2.38104534,-0.89988667,0.93940121,-2.15275693,-0.96123606,0.00000000,0.00000000
0.04840786,-2.17000008,-1.05844593,-0.52326614,-1.04192209,0.00000000,0.00000000,-2.38222551,-0.90081167,0.94069850,-2.15172768,-0.97895533,0.00000000,0.00000000
0.04805121,-2.17000008,-1.05558407,-0.52318716,-1.03869998,0.00000000,0.00000000,-2.38374281,-0.90185726,0.94164407,-2.15042996,-0.99443954,0.00000000,0.00000000
0.04773213,-2.17000008,-1.05276036,-0.52302545,-1.03300154,0.00000000,0.00000000,-2.38538933,-0.90299594,0.94228417,-2.14898753,-1.00383973,0.00000000,0.00000000
0.04732341,-2.17000008,-1.05001628,-0.52274048,-1.02535081,0.00000000,0.00000000,-2.38704586,-0.90415871,0.94257754,-2.14737630,-1.02009690,0.00000000,0.00000000
0.04668899,-2.17000008,-1.04739380,-0.52230966,-1.01828253,0.00000000,0.00000000,-2.38864183,-0.90534657,0.94227725,-2.14559555,-1.03842151,0.00000000,0.00000000
0.04582737,-2.17000008,-1.04487193,-0.52173996,-1.01889741,0.00000000,0.00000000,-2.39008594,-0.90664399,0.94102681,-2.14375520,-1.05187607,0.00000000,0.00000000
0.04488318,-2.17000008,-1.04236877,-0.52107459,-1.02056050,0.00000000,0.00000000,-2.39126229,-0.90814763,0.93856341,-2.14201236,-1.06056988,0.00000000,0.00000000
0.04397479,-2.17000008,-1.03982270,-0.52035850,-1.01864266,0.00000000,0.00000000,-2.39207864,-0.90993142,0.93480873,-2.14050555,-1.07480121,0.00000000,0.00000000
0.04308734,-2.17000008,-1.03721118,-0.51962078,-1.01234174,0.00000000,0.00000000,-2.39251113,-0.91204005,0.92986941,-2.13933659,-1.08292353,0.00000000,0.00000000
0.04219740,-2.17000008,-1.03447878,-0.51888216,-1.00580633,0.00000000,0.00000000,-2.39264703,-0.91442108,0.92408508,-2.13848114,-1.09671235,0.00000000,0.00000000
0.04138592,-2.17000008,-1.03154302,-0.51812887,-0.99939418,0.00000000,0.00000000,-2.39270830,-0.91686535,0.91807222,-2.13768840,-1.10278738,0.00000000,0.00000000
0.04069217,-2.17000008,-1.02838695,-0.51733816,-0.99162126,0.00000000,0.00000000,-2.39299417,-0.91908419,0.91255325,-2.13657808,-1.10324740,0.00000000,0.00000000
0.04000105,-2.17000008,-1.02505493,-0.51650649,-0.98479503,0.00000000,0.00000000,-2.39372230,-0.92087823,0.90805370,-2.13491464,-1.10067737,0.00000000,0.00000000
0.03923458,-2.17000008,-1.02154016,-0.51559639,-0.98138392,0.00000000,0.00000000,-2.39489365,-0.92218506,0.90472889,-2.13273859,-1.09563076,0.00000000,0.00000000
0.03853399,-2.17000008,-1.01776028,-0.51447546,-0.98145241,0.00000000,0.00000000,-2.39629126,-0.92298269,0.90238869,-2.13024378,-1.09022033,0.00000000,0.00000000
0.03806130,-2.17000008,-1.01366568,-0.51300776,-0.97870296,0.00000000,0.00000000,-2.39758468,-0.92323136,0.90060478,-2.12760711,-1.08014667,0.00000000,0.00000000
0.03765934,-2.17000008,-1.00931549,-0.51122361,-0.97885394,0.00000000,0.00000000,-2.39844894,-0.92291719,0.89884555,-2.12496066,-1.06406939,0.00000000,0.00000000
0.03700289,-2.17000008,-1.00478351,-0.50927514,-0.97393745,0.00000000,0.00000000,-2.39862514,-0.92205411,0.89663345,-2.12242770,-1.04088092,0.00000000,0.00000000
0.03597416,-2.17000008,-1.00007319,-0.50723130,-0.96508837,0.00000000,0.00000000,-2.39790225,-0.92060226,0.89366370,-2.12010360,-1.02079713,0.00000000,0.00000000
0.03465952,-2.16999888,-0.99516845,-0.50503772,-0.95855534,0.00000000,0.00000000,-2.39610410,-0.91839480,0.88982069,-2.11796236,-1.00197279,0.00000000,0.00000000
0.03311848,-2.16998196,-0.99006963,-0.50266039,-0.95366108,0.00000000,0.00000000,-2.39318180,-0.91508597,0.88514435,-2.11566067,-0.98161256,0.00000000,0.00000000
0.03137205,-2.16992807,-0.98473299,-0.50014144,-0.95273387,0.00000000,0.00000000,-2.38933825,-0.91006988,0.87979472,-2.11234260,-0.96361548,0.00000000,0.00000000
0.02953897,-2.16987014,-0.97905761,-0.49747458,-0.95462108,0.00000000,0.00000000,-2.38497329,-0.90244848,0.87389863,-2.10668087,-0.94929612,0.00000000,0.00000000
0.02767823,-2.16980958,-0.97298145,-0.49460983,-0.95670974,0.00000000,0.00000000,-2.38044524,-0.89112473,0.86717439,-2.09716368,-0.93569922,0.00000000,0.00000000
0.02560711,-2.16965199,-0.96651030,-0.49159610,-0.95842707,0.00000000,0.00000000,-2.37593365,-0.87491661,0.85863739,-2.08230853,-0.91505975,0.00000000,0.00000000
0.02314383,-2.16937661,-0.95961815,-0.48855117,-0.96306717,0.00000000,0.00000000,-2.37150025,-0.85260105,0.84679723,-2.06068897,-0.88992715,0.00000000,0.00000000
0.02045291,-2.16914082,-0.95218313,-0.48549026,-0.96522641,0.00000000,0.00000000,-2.36703587,-0.82303578,0.83015466,-2.03105664,-0.86379486,0.00000000,0.00000000
0.01787662,-2.16914845,-0.94408894,-0.48231888,-0.96468782,0.00000000,0.00000000,-2.36204815,-0.78544599,0.80746478,-1.99260080,-0.83968604,0.00000000,0.00000000
0.01547176,-2.16943336,-0.93539494,-0.47894609,-0.96731031,0.00000000,0.00000000,-2.35570860,-0.73966974,0.77765143,-1.94508719,-0.81352395,0.00000000,0.00000000
0.01303008,-2.16969204,-0.92636263,-0.47517687,-0.97590542,0.00000000,0.00000000,-2.34723425,-0.68618882,0.73970616,-1.88880074,-0.78822333,0.00000000,0.00000000
0.01039684,-2.16949677,-0.91722757,-0.47074130,-0.98841745,0.00000000,0.00000000,-2.33616090,-0.62607628,0.69272113,-1.82452714,-0.76053733,0.00000000,0.00000000
0.00727921,-2.16896009,-0.90790981,-0.46589497,-1.00205612,0.00000000,0.00000000,-2.32231474,-0.56105816,0.63594258,-1.75369799,-0.73874927,0.00000000,0.00000000
0.00267695,-2.16864133,-0.89810371,-0.46175572,-1.02248454,0.00000000,0.00000000,-2.30573153,-0.49360278,0.56878638,-1.67855155,-0.71304512,0.00000000,0.00000000
-0.00514411,-2.16872120,-0.88765806,-0.45981094,-1.04466927,0.00000000,0.00000000,-2.28767657,-0.42661741,0.49012166,-1.60170269,-0.68600094,0.00000000,0.00000000
-0.01699177,-2.16900539,-0.87670040,-0.46078619,-1.06008959,0.00000000,0.00000000,-2.26721668,-0.35985717,0.40262264,-1.52515864,-0.66007811,0.00000000,0.00000000
-0.03005411,-2.16968918,-0.86539495,-0.46345854,-1.07948029,0.00000000,0.00000000,-2.23240352,-0.28519216,0.32102859,-1.44950545,-0.63725060,0.00000000,0.00000000
-0.04045050,-2.16997981,-0.85441446,-0.46546447,-1.10457158,0.00000000,0.00000000,-2.17453241,-0.19422998,0.25471136,-1.37182033,-0.60790998,0.00000000,0.00000000
-0.04777614,-2.17000008,-0.84426880,-0.46640536,-1.13356268,0.00000000,0.00000000,-2.09121847,-0.08136867,0.20559026,-1.28732872,-0.58695465,0.00000000,0.00000000
-0.05272041,-2.17000008,-0.83498675,-0.46716708,-1.15435290,0.00000000,0.00000000,-1.98233759,0.05508751,0.17282821,-1.19304347,-0.56214899,0.00000000,0.00000000
-0.05528292,-2.17000008,-0.82647771,-0.46819782,-1.17812276,0.00000000,0.00000000,-1.84844530,0.21441849,0.15528877,-1.08761442,-0.54110932,0.00000000,0.00000000
-0.05521855,-2.17000008,-0.81872219,-0.46945047,-1.20558500,0.00000000,0.00000000,-1.69121492,0.39424136,0.15187286,-0.97084117,-0.52514511,0.00000000,0.00000000
-0.05398164,-2.17000008,-0.81216121,-0.47110745,-1.23530471,0.00000000,0.00000000,-1.51410043,0.59032464,0.16127321,-0.84381539,-0.50936747,0.00000000,0.00000000
-0.05525856,-2.17000008,-0.80794299,-0.47355834,-1.25981617,0.00000000,0.00000000,-1.32261109,0.79659420,0.18187301,-0.70901251,-0.49706548,0.00000000,0.00000000
-0.05608419,-2.17000008,-0.80560893,-0.47543707,-1.28453636,0.00000000,0.00000000,-1.12401164,1.00551856,0.21179754,-0.57017118,-0.48476276,0.00000000,0.00000000
-0.05512413,-2.17000008,-0.80517817,-0.47563577,-1.31221390,0.00000000,0.00000000,-0.92656827,1.20894516,0.24903183,-0.43179768,-0.47974062,0.00000000,0.00000000
-0.05273859,-2.17000008,-0.80718589,-0.47316042,-1.33460343,0.00000000,0.00000000,-0.73851085,1.39902782,0.29158798,-0.29853371,-0.47774351,0.00000000,0.00000000
-0.04885826,-2.17000008,-0.81185424,-0.46732745,-1.36279380,0.00000000,0.00000000,-0.56701976,1.56898570,0.33766830,-0.17458941,-0.47657675,0.00000000,0.00000000
-0.04352762,-2.17000008,-0.81913322,-0.45823970,-1.39107728,0.00000000,0.00000000,-0.41746807,1.71360707,0.38576525,-0.06332885,-0.47646111,0.00000000,0.00000000
-0.03728078,-2.17000008,-0.82882613,-0.44684497,-1.41573632,0.00000000,0.00000000,-0.29299715,1.82953131,0.43468595,0.03290809,-0.47346431,0.00000000,0.00000000
-0.03096423,-2.16996789,-0.84053117,-0.43481240,-1.43680060,0.00000000,0.00000000,-0.19447587,1.91548645,0.48350862,0.11276419,-0.47250122,0.00000000,0.00000000
-0.02528227,-2.16943431,-0.85360146,-0.42406636,-1.45687604,0.00000000,0.00000000,-0.12104897,1.97251594,0.53149378,0.17570642,-0.46920440,0.00000000,0.00000000
-0.02039126,-2.16722751,-0.86733937,-0.41588208,-1.47055197,0.00000000,0.00000000,-0.07165742,2.00447750,0.57788628,0.22212212,-0.46150917,0.00000000,0.00000000
-0.01594701,-2.16329408,-0.88109088,-0.41054207,-1.48238683,0.00000000,0.00000000,-0.04557943,2.01664281,0.62197250,0.25305250,-0.45138404,0.00000000,0.00000000
-0.01196472,-2.15939307,-0.89412588,-0.40810364,-1.48954928,0.00000000,0.00000000,-0.03629313,2.01611376,0.66376710,0.27318016,-0.44496655,0.00000000,0.00000000
-0.00957923,-2.15693188,-0.90617293,-0.40843713,-1.49698603,0.00000000,0.00000000,-0.03016790,2.01773000,0.70360589,0.29490301,-0.44420874,0.00000000,0.00000000
-0.00944995,-2.15558887,-0.91737854,-0.41086420,-1.50402761,0.00000000,0.00000000,-0.02206014,2.02261424,0.74197596,0.32058409,-0.44862160,0.00000000,0.00000000
-0.01109666,-2.15492988,-0.92776334,-0.41467389,-1.51083994,0.00000000,0.00000000,-0.01086393,2.02940059,0.77901936,0.34948528,-0.45245889,0.00000000,0.00000000
-0.01395657,-2.15488935,-0.93725777,-0.41956130,-1.52016616,0.00000000,0.00000000,0.00271482,2.03851652,0.81439382,0.38072908,-0.45620042,0.00000000,0.00000000
-0.01781986,-2.15551662,-0.94581670,-0.42556322,-1.53107166,0.00000000,0.00000000,0.01637896,2.04928970,0.84762836,0.41207796,-0.46018857,0.00000000,0.00000000
-0.02261552,-2.15688372,-0.95339870,-0.43281698,-1.54016209,0.00000000,0.00000000,0.02826025,2.06114745,0.87829614,0.44162399,-0.46476069,0.00000000,0.00000000
-0.02809029,-2.15907121,-0.95991600,-0.44131389,-1.54436052,0.00000000,0.00000000,0.03736900,2.07410288,0.90604448,0.46827614,-0.46488452,0.00000000,0.00000000
-0.03376550,-2.16193461,-0.96527666,-0.45075801,-1.54649425,0.00000000,0.00000000,0.04346963,2.08764172,0.93081653,0.49108741,-0.46592408,0.00000000,0.00000000
-0.03912217,-2.16482258,-0.96948242,-0.46058217,-1.54735470,0.00000000,0.00000000,0.04677012,2.10052943,0.95288420,0.50898719,-0.46934220,0.00000000,0.00000000
-0.04376837,-2.16699171,-0.97260910,-0.47023165,-1.54612184,0.00000000,0.00000000,0.04768388,2.11149955,0.97266960,0.52106607,-0.48104393,0.00000000,0.00000000
-0.04745765,-2.16836548,-0.97474861,-0.47933403,-1.54670930,0.00000000,0.00000000,0.04672252,2.11981559,0.99055547,0.52686852,-0.49103701,0.00000000,0.00000000
-0.04999786,-2.16931725,-0.97606307,-0.48746040,-1.54426599,0.00000000,0.00000000,0.04432185,2.12539268,1.00676107,0.52642250,-0.50617689,0.00000000,0.00000000
-0.05115834,-2.16985464,-0.97684562,-0.49388960,-1.54102039,0.00000000,0.00000000,0.04057988,2.12858844,1.02131045,0.52005213,-0.51962686,0.00000000,0.00000000
-0.05070154,-2.16999173,-0.97738987,-0.49792057,-1.54308903,0.00000000,0.00000000,0.03520209,2.12988186,1.03411460,0.50824064,-0.52866375,0.00000000,0.00000000
-0.04850450,-2.17000008,-0.97776949,-0.49943912,-1.54271400,0.00000000,0.00000000,0.02830687,2.13019896,1.04504740,0.49223077,-0.54205036,0.00000000,0.00000000
-0.04482956,-2.17000008,-0.97810417,-0.49870276,-1.54274321,0.00000000,0.00000000,0.02150293,2.13132286,1.05401623,0.47479391,-0.55821741,0.00000000,0.00000000
-0.04035667,-2.17000008,-0.97879285,-0.49583244,-1.53983188,0.00000000,0.00000000,0.01658231,2.13399768,1.06122661,0.45858938,-0.57942313,0.00000000,0.00000000
-0.03553437,-2.17000008,-0.98022205,-0.49061900,-1.54068851,0.00000000,0.00000000,0.01369132,2.13749361,1.06700110,0.44441003,-0.60152930,0.00000000,0.00000000
-0.03035156,-2.16998887,-0.98244137,-0.48294958,-1.53402817,0.00000000,0.00000000,0.01256362,2.14111114,1.07158852,0.43219346,-0.62111771,0.00000000,0.00000000
-0.02491304,-2.16981554,-0.98518574,-0.47340959,-1.52278697,0.00000000,0.00000000,0.01332004,2.14436913,1.07522857,0.42172086,-0.63752717,0.00000000,0.00000000
-0.01970379,-2.16923904,-0.98811179,-0.46311200,-1.51536012,0.00000000,0.00000000,0.01629055,2.14679837,1.07816195,0.41268051,-0.65268934,0.00000000,0.00000000
-0.01509224,-2.16850901,-0.99086618,-0.45302641,-1.49975097,0.00000000,0.00000000,0.02159590,2.14828825,1.08048260,0.40460736,-0.66339719,0.00000000,0.00000000
-0.01105030,-2.16791272,-0.99308491,-0.44373074,-1.48272371,0.00000000,0.00000000,0.02804057,2.14868116,1.08210123,0.39616996,-0.67440009,0.00000000,0.00000000
-0.00752526,-2.16755843,-0.99451780,-0.43562904,-1.46859467,0.00000000,0.00000000,0.03349894,2.14714289,1.08295155,0.38558507,-0.68718940,0.00000000,0.00000000
-0.00476286,-2.16741252,-0.99510956,-0.42906672,-1.45900166,0.00000000,0.00000000,0.03780455,2.14410043,1.08293426,0.37320679,-0.70486462,0.00000000,0.00000000
-0.00311163,-2.16736174,-0.99493235,-0.42419139,-1.44373167,0.00000000,0.00000000,0.04274411,2.14083147,1.08200848,0.36133018,-0.72407401,0.00000000,0.00000000
-0.00259573,-2.16737580,-0.99402881,-0.42090434,-1.43155563,0.00000000,0.00000000,0.04880799,2.13747525,1.08023298,0.35106924,-0.74708909,0.00000000,0.00000000
-0.00303417,-2.16750264,-0.99240595,-0.41907585,-1.41955328,0.00000000,0.00000000,0.05571081,2.13432002,1.07756257,0.34281564,-0.77238679,0.00000000,0.00000000
-0.00434942,-2.16769576,-0.99012941,-0.41866785,-1.40926027,0.00000000,0.00000000,0.06303690,2.13156748,1.07395434,0.33662573,-0.79781467,0.00000000,0.00000000
-0.00652345,-2.16782832,-0.98730189,-0.41963431,-1.40111029,0.00000000,0.00000000,0.07036078,2.12912083,1.06940651,0.33223420,-0.82209718,0.00000000,0.00000000
-0.00939045,-2.16785383,-0.98396754,-0.42182443,-1.39548707,0.00000000,0.00000000,0.07753643,2.12692666,1.06391835,0.32935262,-0.83919841,0.00000000,0.00000000
-0.01264174,-2.16783214,-0.98011136,-0.42504531,-1.38912153,0.00000000,0.00000000,0.08453477,2.12511516,1.05745173,0.32779613,-0.85964203,0.00000000,0.00000000
-0.01603768,-2.16783595,-0.97573745,-0.42920277,-1.38179898,0.00000000,0.00000000,0.09121655,2.12404823,1.04990292,0.32757583,-0.87892240,0.00000000,0.00000000
-0.01950197,-2.16793489,-0.97089517,-0.43430996,-1.37198484,0.00000000,0.00000000,0.09743435,2.12430048,1.04112208,0.32892644,-0.89405674,0.00000000,0.00000000
-0.02300755,-2.16820908,-0.96565890,-0.44030505,-1.35980260,0.00000000,0.00000000,0.10325854,2.12626791,1.03100777,0.33205429,-0.90792686,0.00000000,0.00000000
-0.02637754,-2.16875339,-0.96009290,-0.44687426,-1.35123122,0.00000000,0.00000000,0.10894150,2.12991285,1.01955020,0.33682328,-0.92364568,0.00000000,0.00000000
-0.02927197,-2.16942215,-0.95427227,-0.45341593,-1.34022021,0.00000000,0.00000000,0.11435568,2.13507724,1.00671005,0.34255064,-0.93696028,0.00000000,0.00000000
-0.03142208,-2.16987181,-0.94832838,-0.45924723,-1.33253646,0.00000000,0.00000000,0.11878364,2.14123774,0.99243093,0.34797758,-0.95374101,0.00000000,0.00000000
-0.03279268,-2.16999245,-0.94249874,-0.46371421,-1.32482052,0.00000000,0.00000000,0.12195898,2.14708447,0.97682971,0.35204273,-0.96030831,0.00000000,0.00000000
-0.03338622,-2.17000008,-0.93696189,-0.46634358,-1.31656349,0.00000000,0.00000000,0.12424593,2.15223622,0.95992738,0.35485139,-0.97118229,0.00000000,0.00000000
-0.03337163,-2.17000008,-0.93185872,-0.46699378,-1.30899918,0.00000000,0.00000000,0.12637585,2.15687680,0.94168872,0.35723090,-0.98077381,0.00000000,0.00000000
-0.03285825,-2.17000008,-0.92710048,-0.46598658,-1.29677594,0.00000000,0.00000000,0.12814029,2.16122365,0.92194867,0.35955191,-0.98315275,0.00000000,0.00000000
-0.03185676,-2.17000008,-0.92262214,-0.46358573,-1.28112912,0.00000000,0.00000000,0.12923020,2.16515493,0.90061301,0.36180338,-0.98727208,0.00000000,0.00000000
-0.03082240,-2.17000008,-0.91852248,-0.46018341,-1.26751363,0.00000000,0.00000000,0.13049538,2.16800833,0.87800825,0.36383876,-0.98712707,0.00000000,0.00000000
-0.03033506,-2.16997433,-0.91517925,-0.45575264,-1.25282788,0.00000000,0.00000000,0.13356702,2.16956854,0.85474700,0.36525327,-0.98347783,0.00000000,0.00000000
-0.03047880,-2.16958141,-0.91271377,-0.45009813,-1.23778284,0.00000000,0.00000000,0.14067464,2.16997480,0.83152181,0.36538783,-0.97813845,0.00000000,0.00000000
-0.03133396,-2.16833091,-0.91093820,-0.44339269,-1.22237694,0.00000000,0.00000000,0.15059517,2.17000008,0.80831528,0.36218458,-0.97202784,0.00000000,0.00000000
-0.03226152,-2.16693735,-0.90903133,-0.43634135,-1.21007228,0.00000000,0.00000000,0.15847920,2.16999507,0.78418225,0.35344082,-0.96795809,0.00000000,0.00000000
-0.03277409,-2.16580558,-0.90634280,-0.42951751,-1.20441031,0.00000000,0.00000000,0.16571896,2.16992259,0.75878334,0.34073305,-0.96346194,0.00000000,0.00000000
-0.03336484,-2.16446877,-0.90268254,-0.42343310,-1.20036280,0.00000000,0.00000000,0.17371266,2.16970611,0.73196095,0.32530633,-0.95953548,0.00000000,0.00000000
-0.03447311,-2.16300988,-0.89796031,-0.41837525,-1.19716740,0.00000000,0.00000000,0.18240365,2.16956091,0.70349723,0.30753610,-0.95798409,0.00000000,0.00000000
-0.03632090,-2.16203594,-0.89208788,-0.41453713,-1.19612980,0.00000000,0.00000000,0.19134367,2.16968346,0.67321891,0.28750429,-0.95325696,0.00000000,0.00000000
-0.03906647,-2.16212082,-0.88499409,-0.41216415,-1.19867527,0.00000000,0.00000000,0.19991517,2.16991282,0.64105850,0.26490027,-0.95422840,0.00000000,0.00000000
-0.04254641,-2.16342974,-0.87663150,-0.41142473,-1.19997954,0.00000000,0.00000000,0.20678961,2.16999483,0.60708362,0.23816912,-0.94735736,0.00000000,0.00000000
-0.04615013,-2.16552448,-0.86704504,-0.41228086,-1.20520890,0.00000000,0.00000000,0.20913687,2.17000008,0.57143086,0.20390475,-0.93999964,0.00000000,0.00000000
-0.04942079,-2.16777802,-0.85656834,-0.41456470,-1.21058953,0.00000000,0.00000000,0.20230755,2.16990280,0.53417414,0.15749393,-0.93208867,0.00000000,0.00000000
-0.05274673,-2.16935825,-0.84594363,-0.41798577,-1.21180522,0.00000000,0.00000000,0.18177052,2.16805959,0.49540675,0.09542082,-0.91998774,0.00000000,0.00000000
-0.05616440,-2.16991472,-0.83563650,-0.42215008,-1.21791255,0.00000000,0.00000000,0.14518932,2.15742326,0.45546916,0.01654817,-0.91005164,0.00000000,0.00000000
-0.05944301,-2.16999626,-0.82576269,-0.42698422,-1.21512735,0.00000000,0.00000000,0.09164715,2.12750173,0.41500369,-0.07902155,-0.90301192,0.00000000,0.00000000
-0.06243290,-2.17000008,-0.81651771,-0.43232691,-1.21147394,0.00000000,0.00000000,0.02040405,2.07345009,0.37488770,-0.19076614,-0.89370978,0.00000000,0.00000000
-0.06490588,-2.17000008,-0.80828434,-0.43752083,-1.20640910,0.00000000,0.00000000,-0.06953461,1.99310017,0.33617228,-0.31771719,-0.88265431,0.00000000,0.00000000
-0.06646491,-2.17000008,-0.80145794,-0.44161192,-1.19881558,0.00000000,0.00000000,-0.17884026,1.88532281,0.30004495,-0.45825064,-0.86930114,0.00000000,0.00000000
-0.06693859,-2.17000008,-0.79626697,-0.44406366,-1.19072688,0.00000000,0.00000000,-0.30678171,1.75108850,0.26780280,-0.60987228,-0.86478555,0.00000000,0.00000000
-0.06661503,-2.17000008,-0.79276532,-0.44502780,-1.18510985,0.00000000,0.00000000,-0.45070255,1.59368646,0.24081194,-0.76911354,-0.86529225,0.00000000,0.00000000
-0.06586163,-2.17000008,-0.79086185,-0.44496945,-1.18053460,0.00000000,0.00000000,-0.60624349,1.41830170,0.22042885,-0.93168533,-0.86277914,0.00000000,0.00000000
-0.06475519,-2.17000008,-0.79033726,-0.44428939,-1.17586708,0.00000000,0.00000000,-0.76794994,1.23133934,0.20788646,-1.09291267,-0.86174053,0.00000000,0.00000000
-0.06323125,-2.17000008,-0.79091841,-0.44328913,-1.16344500,0.00000000,0.00000000,-0.93005252,1.03962564,0.20418702,-1.24832273,-0.86091942,0.00000000,0.00000000
-0.06143201,-2.16999269,-0.79237473,-0.44226921,-1.15557170,0.00000000,0.00000000,-1.08723962,0.84961939,0.21005650,-1.39417708,-0.86412907,0.00000000,0.00000000
-0.05964405,-2.16987085,-0.79450291,-0.44154516,-1.14513052,0.00000000,0.00000000,-1.23520863,0.66682458,0.22597663,-1.52776229,-0.86933082,0.00000000,0.00000000
-0.05805532,-2.16935825,-0.79706192,-0.44143078,-1.13375509,0.00000000,0.00000000,-1.37091577,0.49551183,0.25224525,-1.64738464,-0.87626749,0.00000000,0.00000000
-0.05676777,-2.16850781,-0.79977787,-0.44224563,-1.12364876,0.00000000,0.00000000,-1.49261498,0.33865985,0.28899139,-1.75215101,-0.89075536,0.00000000,0.00000000
-0.05574319,-2.16796064,-0.80236244,-0.44411600,-1.11329031,0.00000000,0.00000000,-1.59980571,0.19794054,0.33607531,-1.84165406,-0.90995854,0.00000000,0.00000000
-0.05450226,-2.16798353,-0.80455375,-0.44648275,-1.09942400,0.00000000,0.00000000,-1.69318998,0.07357424,0.39275691,-1.91573036,-0.93043488,0.00000000,0.00000000
-0.05264050,-2.16807270,-0.80621719,-0.44851404,-1.08466947,0.00000000,0.00000000,-1.77465022,-0.03598068,0.45700926,-1.97466540,-0.95178211,0.00000000,0.00000000
-0.05061560,-2.16800117,-0.80727762,-0.45021287,-1.06962407,0.00000000,0.00000000,-1.84692264,-0.13392060,0.52494383,-2.01998425,-0.97731835,0.00000000,0.00000000
-0.04915809,-2.16794348,-0.80764866,-0.45213822,-1.04642808,0.00000000,0.00000000,-1.91258502,-0.22368461,0.59163100,-2.05467224,-1.00006521,0.00000000,0.00000000
-0.04844027,-2.16809487,-0.80726480,-0.45458323,-1.02136850,0.00000000,0.00000000,-1.97308600,-0.30728990,0.65303224,-2.08186626,-1.02200687,0.00000000,0.00000000
-0.04815982,-2.16853237,-0.80617547,-0.45735094,-0.99413067,0.00000000,0.00000000,-2.02875566,-0.38519144,0.70690966,-2.10366535,-1.04569888,0.00000000,0.00000000
-0.04787450,-2.16918373,-0.80454403,-0.45994952,-0.96106029,0.00000000,0.00000000,-2.07932949,-0.45710364,0.75247443,-2.12119102,-1.07424009,0.00000000,0.00000000
-0.04737374,-2.16979122,-0.80268627,-0.46180674,-0.92745417,0.00000000,0.00000000,-2.12434793,-0.52267164,0.78981006,-2.13519025,-1.10315835,0.00000000,0.00000000
-0.04675477,-2.16998720,-0.80119199,-0.46203813,-0.88991791,0.00000000,0.00000000,-2.16341949,-0.58171284,0.81949443,-2.14635777,-1.12865293,0.00000000,0.00000000
-0.04561160,-2.17000008,-0.80029720,-0.46008456,-0.84997165,0.00000000,0.00000000,-2.19648266,-0.63415903,0.84242278,-2.15518785,-1.14539599,0.00000000,0.00000000
-0.04433100,-2.17000008,-0.79988903,-0.45709288,-0.81292957,0.00000000,0.00000000,-2.22401214,-0.67999250,0.85972148,-2.16177487,-1.16447568,0.00000000,0.00000000
-0.04274115,-2.17000008,-0.79978269,-0.45377892,-0.77206320,0.00000000,0.00000000,-2.24694681,-0.71936321,0.87250453,-2.16602755,-1.18133390,0.00000000,0.00000000
-0.04085591,-2.17000008,-0.80007631,-0.45016614,-0.73064852,0.00000000,0.00000000,-2.26614976,-0.75279838,0.88167095,-2.16824746,-1.19805884,0.00000000,0.00000000
-0.03917652,-2.16999555,-0.80093765,-0.44634309,-0.69280678,0.00000000,0.00000000,-2.28215265,-0.78107727,0.88793021,-2.16912937,-1.22016585,0.00000000,0.00000000
-0.03816039,-2.16991973,-0.80234379,-0.44265944,-0.65201569,0.00000000,0.00000000,-2.29537582,-0.80493027,0.89206052,-2.16924262,-1.24420989,0.00000000,0.00000000
-0.03801931,-2.16958404,-0.80415559,-0.43945733,-0.61856043,0.00000000,0.00000000,-2.30628395,-0.82493895,0.89505315,-2.16881800,-1.26831222,0.00000000,0.00000000
-0.03867643,-2.16897392,-0.80617124,-0.43698412,-0.57786751,0.00000000,0.00000000,-2.31527948,-0.84163004,0.89780027,-2.16798997,-1.29643142,0.00000000,0.00000000
-0.03983531,-2.16845894,-0.80816013,-0.43539593,-0.54424083,0.00000000,0.00000000,-2.32262063,-0.85554475,0.90067983,-2.16696644,-1.32451081,0.00000000,0.00000000
-0.04123333,-2.16824651,-0.80996180,-0.43470311,-0.51383477,0.00000000,0.00000000,-2.32855225,-0.86719877,0.90357667,-2.16590214,-1.35803497,0.00000000,0.00000000
-0.04284555,-2.16819525,-0.81153679,-0.43481508,-0.48682690,0.00000000,0.00000000,-2.33341312,-0.87703031,0.90625006,-2.16479778,-1.39037073,0.00000000,0.00000000
-0.04470262,-2.16819882,-0.81286216,-0.43569252,-0.45713538,0.00000000,0.00000000,-2.33751321,-0.88537478,0.90859944,-2.16361475,-1.42066550,0.00000000,0.00000000
-0.04674917,-2.16822672,-0.81391466,-0.43730658,-0.42695674,0.00000000,0.00000000,-2.34099126,-0.89248079,0.91073728,-2.16241407,-1.45623505,0.00000000,0.00000000
-0.04889144,-2.16818929,-0.81471640,-0.43957829,-0.39626318,0.00000000,0.00000000,-2.34387589,-0.89855438,0.91281933,-2.16129565,-1.48776352,0.00000000,0.00000000
-0.05091211,-2.16816139,-0.81525373,-0.44248027,-0.37327605,0.00000000,0.00000000,-2.34616280,-0.90377283,0.91488671,-2.16031790,-1.51628411,0.00000000,0.00000000
-0.05268213,-2.16850591,-0.81547618,-0.44618642,-0.34752086,0.00000000,0.00000000,-2.34782767,-0.90828568,0.91687566,-2.15951180,-1.54557836,0.00000000,0.00000000
-0.05450828,-2.16928864,-0.81549424,-0.45073396,-0.32136482,0.00000000,0.00000000,-2.34884143,-0.91219771,0.91872215,-2.15890765,-1.56782901,0.00000000,0.00000000
-0.05669734,-2.16984844,-0.81567299,-0.45522487,-0.30157045,0.00000000,0.00000000,-2.34923315,-0.91556609,0.92045218,-2.15851784,-1.59130859,0.00000000,0.00000000
-0.05865467,-2.16999149,-0.81630349,-0.45795771,-0.28298396,0.00000000,0.00000000,-2.34916735,-0.91844726,0.92213827,-2.15828395,-1.61287200,0.00000000,0.00000000
-0.06001632,-2.16998816,-0.81736523,-0.45839053,-0.26724324,0.00000000,0.00000000,-2.34895754,-0.92095906,0.92377406,-2.15804076,-1.62674105,0.00000000,0.00000000
-0.06122753,-2.16980982,-0.81870109,-0.45737472,-0.25214040,0.00000000,0.00000000,-2.34894085,-0.92327267,0.92524433,-2.15759587,-1.63839042,0.00000000,0.00000000
-0.06252689,-2.16926193,-0.82015955,-0.45582658,-0.23263000,0.00000000,0.00000000,-2.34931874,-0.92551601,0.92645854,-2.15683222,-1.64639544,0.00000000,0.00000000
-0.06371427,-2.16888165,-0.82152647,-0.45464587,-0.21542592,0.00000000,0.00000000,-2.35009933,-0.92767024,0.92751402,-2.15570927,-1.65608919,0.00000000,0.00000000
-0.06423987,-2.16922951,-0.82257521,-0.45466247,-0.20526043,0.00000000,0.00000000,-2.35109973,-0.92954451,0.92867500,-2.15423894,-1.67531908,0.00000000,0.00000000
-0.06363750,-2.16979599,-0.82342225,-0.45584077,-0.19671260,0.00000000,0.00000000,-2.35199666,-0.93087977,0.93016100,-2.15252662,-1.69780028,0.00000000,0.00000000
-0.06262009,-2.16998005,-0.82465976,-0.45748046,-0.18442258,0.00000000,0.00000000,-2.35246754,-0.93154007,0.93198991,-2.15081000,-1.71520054,0.00000000,0.00000000
-0.06138846,-2.16989112,-0.82659018,-0.45823109,-0.17216013,0.00000000,0.00000000,-2.35239434,-0.93162435,0.93403089,-2.14934421,-1.73441422,0.00000000,0.00000000
-0.05861562,-2.16973448,-0.82867157,-0.45734981,-0.16189526,0.00000000,0.00000000,-2.35192204,-0.93136364,0.93614113,-2.14819455,-1.75535548,0.00000000,0.00000000
-0.05531049,-2.16989088,-0.83081901,-0.45568341,-0.15720859,0.00000000,0.00000000,-2.35130000,-0.93088490,0.93815321,-2.14714384,-1.78168488,0.00000000,0.00000000
-0.05287533,-2.16996837,-0.83369446,-0.45288548,-0.15358935,0.00000000,0.00000000,-2.35064101,-0.93012899,0.93988061,-2.14594007,-1.80755651,0.00000000,0.00000000
-0.05157432,-2.16962099,-0.83762521,-0.44825998,-0.14308615,0.00000000,0.00000000,-2.34986806,-0.92901897,0.94127721,-2.14459419,-1.83822465,0.00000000,0.00000000
-0.05122023,-2.16865373,-0.84210771,-0.44260526,-0.13554712,0.00000000,0.00000000,-2.34891319,-0.92762941,0.94248569,-2.14331150,-1.87389576,0.00000000,0.00000000
-0.05144374,-2.16807818,-0.84634244,-0.43740484,-0.13149281,0.00000000,0.00000000,-2.34784055,-0.92615116,0.94363910,-2.14223099,-1.90675473,0.00000000,0.00000000
-0.05206059,-2.16820121,-0.85003471,-0.43314746,-0.12841736,0.00000000,0.00000000,-2.34678912,-0.92469245,0.94471890,-2.14126825,-1.93730390,0.00000000,0.00000000
-0.05310405,-2.16839027,-0.85334510,-0.42929813,-0.12267265,0.00000000,0.00000000,-2.34586406,-0.92320102,0.94562149,-2.14019918,-1.96336794,0.00000000,0.00000000
-0.05465080,-2.16821694,-0.85640746,-0.42539009,-0.11432769,0.00000000,0.00000000,-2.34508967,-0.92166477,0.94623071,-2.13890505,-1.98500419,0.00000000,0.00000000
-0.05671132,-2.16792154,-0.85909730,-0.42156225,-0.11434977,0.00000000,0.00000000,-2.34447336,-0.92021513,0.94657791,-2.13742542,-2.00582170,0.00000000,0.00000000
-0.05939064,-2.16763258,-0.86127716,-0.41813442,-0.11195494,0.00000000,0.00000000,-2.34406447,-0.91911471,0.94675583,-2.13587594,-2.02581596,0.00000000,0.00000000
-0.06262183,-2.16727972,-0.86283636,-0.41528237,-0.10852373,0.00000000,0.00000000,-2.34394598,-0.91864848,0.94679999,-2.13437939,-2.04231071,0.00000000,0.00000000
-0.06603853,-2.16691017,-0.86361802,-0.41313565,-0.10639959,0.00000000,0.00000000,-2.34416938,-0.91893446,0.94664127,-2.13298845,-2.05577683,0.00000000,0.00000000
-0.06937321,-2.16650510,-0.86351395,-0.41192484,-0.10786385,0.00000000,0.00000000,-2.34473515,-0.91983360,0.94615442,-2.13161635,-2.06993151,0.00000000,0.00000000
-0.07234454,-2.16606259,-0.86242616,-0.41198233,-0.11316916,0.00000000,0.00000000,-2.34557104,-0.92114079,0.94524175,-2.13019657,-2.08079267,0.00000000,0.00000000
-0.07430384,-2.16578627,-0.86017954,-0.41358387,-0.11575317,0.00000000,0.00000000,-2.34654713,-0.92268765,0.94387835,-2.12875795,-2.09606504,0.00000000,0.00000000
-0.07443606,-2.16591024,-0.85659242,-0.41685054,-0.10574255,0.00000000,0.00000000,-2.34750557,-0.92430037,0.94212884,-2.12736440,-2.11009073,0.00000000,0.00000000
-0.07250465,-2.16633940,-0.85175085,-0.42163324,-0.09630892,0.00000000,0.00000000,-2.34829259,-0.92580301,0.94016999,-2.12608814,-2.11752129,0.00000000,0.00000000
-0.06901746,-2.16694236,-0.84606421,-0.42749035,-0.08651447,0.00000000,0.00000000,-2.34884048,-0.92710841,0.93825930,-2.12497878,-2.12685490,0.00000000,0.00000000
-0.06427041,-2.16776538,-0.83990759,-0.43376574,-0.07253604,0.00000000,0.00000000,-2.34922624,-0.92824882,0.93662208,-2.12401724,-2.12983418,0.00000000,0.00000000
-0.05838913,-2.16886520,-0.83351642,-0.44008118,-0.06323060,0.00000000,0.00000000,-2.34960723,-0.92930692,0.93534887,-2.12313056,-2.12891531,0.00000000,0.00000000
-0.05248526,-2.16973114,-0.82741475,-0.44649002,-0.05459904,0.00000000,0.00000000,-2.35009956,-0.93033719,0.93440908,-2.12227917,-2.13128018,0.00000000,0.00000000
-0.04755681,-2.16998386,-0.82236767,-0.45243403,-0.04446518,0.00000000,0.00000000,-2.35072351,-0.93135577,0.93380046,-2.12151337,-2.13862538,0.00000000,0.00000000
-0.04378813,-2.17000008,-0.81895393,-0.45699891,-0.03671128,0.00000000,0.00000000,-2.35148144,-0.93233979,0.93359983,-2.12084413,-2.15412068,0.00000000,0.00000000
-0.04096507,-2.17000008,-0.81743395,-0.45960155,-0.02746474,0.00000000,0.00000000,-2.35242057,-0.93321335,0.93382138,-2.12011075,-2.16815758,0.00000000,0.00000000
-0.03884350,-2.17000008,-0.81790471,-0.45989487,-0.02005611,0.00000000,0.00000000,-2.35354686,-0.93389440,0.93428421,-2.11910892,-2.17914295,0.00000000,0.00000000
-0.03736472,-2.17000008,-0.82042670,-0.45760989,-0.01644100,0.00000000,0.00000000,-2.35473204,-0.93438816,0.93468046,-2.11782098,-2.19035077,0.00000000,0.00000000
-0.03671122,-2.17000008,-0.82490492,-0.45297021,-0.01336609,0.00000000,0.00000000,-2.35576034,-0.93478930,0.93478876,-2.11643171,-2.20249748,0.00000000,0.00000000
-0.03722249,-2.16997337,-0.83103490,-0.44678858,-0.01308955,0.00000000,0.00000000,-2.35646749,-0.93516064,0.93460822,-2.11512470,-2.21199036,0.00000000,0.00000000
-0.03913915,-2.16956997,-0.83842224,-0.43985546,-0.01303677,0.00000000,0.00000000,-2.35684824,-0.93545812,0.93427730,-2.11388731,-2.22151089,0.00000000,0.00000000
-0.04222692,-2.16832042,-0.84648061,-0.43281764,-0.01410557,0.00000000,0.00000000,-2.35702157,-0.93560088,0.93387455,-2.11255455,-2.23057818,0.00000000,0.00000000
-0.04563850,-2.16701627,-0.85435206,-0.42642853,-0.01195945,0.00000000,0.00000000,-2.35707092,-0.93556434,0.93331593,-2.11101913,-2.23864698,0.00000000,0.00000000
-0.04852946,-2.16619396,-0.86131161,-0.42128205,-0.01017300,0.00000000,0.00000000,-2.35693026,-0.93537694,0.93244851,-2.10936451,-2.24914980,0.00000000,0.00000000
-0.05061126,-2.16570187,-0.86707377,-0.41755903,-0.00745866,0.00000000,0.00000000,-2.35644293,-0.93510777,0.93120360,-2.10781384,-2.25233483,0.00000000,0.00000000
-0.05196081,-2.16515589,-0.87167251,-0.41507086,0.00295398,0.00000000,0.00000000,-2.35554338,-0.93491656,0.92963672,-2.10659814,-2.25523329,0.00000000,0.00000000
-0.05266123,-2.16449666,-0.87514925,-0.41366521,0.01444016,0.00000000,0.00000000,-2.35436630,-0.93502939,0.92787069,-2.10582161,-2.26035213,0.00000000,0.00000000
-0.05273559,-2.16423702,-0.87742144,-0.41348684,0.02522790,0.00000000,0.00000000,-2.35319018,-0.93555790,0.92608768,-2.10538816,-2.26742244,0.00000000,0.00000000
-0.05218930,-2.16476035,-0.87841541,-0.41466710,0.03757536,0.00000000,0.00000000,-2.35230899,-0.93635893,0.92454243,-2.10500574,-2.27873063,0.00000000,0.00000000
-0.05107990,-2.16573501,-0.87819600,-0.41706708,0.04747527,0.00000000,0.00000000,-2.35192180,-0.93716252,0.92345136,-2.10433292,-2.28991032,0.00000000,0.00000000
-0.04946277,-2.16657472,-0.87691796,-0.42039159,0.06130679,0.00000000,0.00000000,-2.35204244,-0.93783146,0.92284894,-2.10322976,-2.30059338,0.00000000,0.00000000
-0.04733040,-2.16713333,-0.87475187,-0.42436302,0.07963579,0.00000000,0.00000000,-2.35246897,-0.93841726,0.92257988,-2.10185432,-2.31200528,0.00000000,0.00000000
-0.04472339,-2.16762257,-0.87189555,-0.42880803,0.10298177,0.00000000,0.00000000,-2.35286522,-0.93900943,0.92238963,-2.10050726,-2.31739497,0.00000000,0.00000000
-0.04192872,-2.16813469,-0.86861742,-0.43368888,0.12710901,0.00000000,0.00000000,-2.35292029,-0.93964309,0.92198080,-2.09943604,-2.31882071,0.00000000,0.00000000
-0.03929483,-2.16863728,-0.86517620,-0.43904147,0.15254480,0.00000000,0.00000000,-2.35248327,-0.94034851,0.92107946,-2.09876084,-2.32218742,0.00000000,0.00000000
-0.03690408,-2.16921806,-0.86172748,-0.44482672,0.17312261,0.00000000,0.00000000,-2.35160136,-0.94118649,0.91954112,-2.09849668,-2.32490373,0.00000000,0.00000000
-0.03477874,-2.16979361,-0.85848260,-0.45076406,0.18651548,0.00000000,0.00000000,-2.35047460,-0.94218403,0.91741294,-2.09854627,-2.32921076,0.00000000,0.00000000
-0.03319363,-2.16998720,-0.85590762,-0.45618340,0.20334703,0.00000000,0.00000000,-2.34937358,-0.94328266,0.91490853,-2.09869909,-2.33900285,0.00000000,0.00000000
-0.03222433,-2.17000008,-0.85458660,-0.45993885,0.22521541,0.00000000,0.00000000,-2.34856153,-0.94438863,0.91234046,-2.09871435,-2.34954500,0.00000000,0.00000000
-0.03169961,-2.17000008,-0.85507792,-0.46079132,0.25338691,0.00000000,0.00000000,-2.34822130,-0.94543642,0.91003555,-2.09842372,-2.36437845,0.00000000,0.00000000
-0.03162084,-2.17000008,-0.85726863,-0.45916632,0.28761759,0.00000000,0.00000000,-2.34838104,-0.94636947,0.90820354,-2.09777546,-2.38306975,0.00000000,0.00000000
-0.03194132,-2.17000008,-0.86071533,-0.45631552,0.32088479,0.00000000,0.00000000,-2.34887004,-0.94712591,0.90686965,-2.09685922,-2.40157652,0.00000000,0.00000000
-0.03226236,-2.16998172,-0.86502886,-0.45288303,0.35448557,0.00000000,0.00000000,-2.34939885,-0.94765973,0.90591305,-2.09584928,-2.42063284,0.00000000,0.00000000
-0.03257748,-2.16969681,-0.87008786,-0.44895741,0.39016470,0.00000000,0.00000000,-2.34970665,-0.94797587,0.90514559,-2.09491134,-2.43718171,0.00000000,0.00000000
-0.03320930,-2.16874075,-0.87574345,-0.44488895,0.42041478,0.00000000,0.00000000,-2.34963536,-0.94813859,0.90436685,-2.09417701,-2.45163417,0.00000000,0.00000000
-0.03412485,-2.16761184,-0.88153887,-0.44137740,0.44691274,0.00000000,0.00000000,-2.34912252,-0.94824058,0.90342087,-2.09375715,-2.46330953,0.00000000,0.00000000
-0.03467041,-2.16702867,-0.88692951,-0.43867916,0.47651958,0.00000000,0.00000000,-2.34815860,-0.94838190,0.90228355,-2.09377956,-2.47188020,0.00000000,0.00000000
-0.03418455,-2.16702533,-0.89160752,-0.43646494,0.50432831,0.00000000,0.00000000,-2.34685302,-0.94862759,0.90107346,-2.09427357,-2.48220062,0.00000000,0.00000000
-0.03271161,-2.16719270,-0.89554793,-0.43452963,0.53428483,0.00000000,0.00000000,-2.34548616,-0.94895494,0.89994591,-2.09504437,-2.48680162,0.00000000,0.00000000
-0.03090870,-2.16724300,-0.89879900,-0.43327525,0.56204069,0.00000000,0.00000000,-2.34440327,-0.94928086,0.89904267,-2.09577322,-2.49278569,0.00000000,0.00000000
-0.02908114,-2.16716242,-0.90127403,-0.43318310,0.59402984,0.00000000,0.00000000,-2.34386849,-0.94957024,0.89854079,-2.09623408,-2.49975967,0.00000000,0.00000000
-0.02704360,-2.16716743,-0.90281653,-0.43440092,0.62198079,0.00000000,0.00000000,-2.34400320,-0.94987833,0.89862621,-2.09637451,-2.51465225,0.00000000,0.00000000
-0.02463319,-2.16749930,-0.90340275,-0.43676975,0.64776355,0.00000000,0.00000000,-2.34478617,-0.95025229,0.89935249,-2.09623075,-2.52419162,0.00000000,0.00000000
-0.02205325,-2.16804099,-0.90327990,-0.43989286,0.67259389,0.00000000,0.00000000,-2.34602261,-0.95062786,0.90053654,-2.09584856,-2.53463125,0.00000000,0.00000000
-0.01961521,-2.16855502,-0.90278888,-0.44339171,0.69421583,0.00000000,0.00000000,-2.34738421,-0.95088512,0.90187001,-2.09530473,-2.54708457,0.00000000,0.00000000
-0.01755808,-2.16897893,-0.90218598,-0.44713703,0.70922828,0.00000000,0.00000000,-2.34855962,-0.95097756,0.90307140,-2.09470057,-2.56019068,0.00000000,0.00000000
