isaac-sim2real/sage/motion_files/wr75s/amass/0-Eyes_Japan_Dataset_hamada_turn-05-turn-hamada_poses_idx57.txt
l_joint1,l_joint2,l_joint3,l_joint4,l_joint5,l_joint6,l_joint7,r_joint1,r_joint2,r_joint3,r_joint4,r_joint5,r_joint6,r_joint7
-2.59566784,-0.43052554,0.05629531,-0.58865255,-0.04176743,0.00000000,0.00000000,-1.84965909,0.62984234,0.32532439,-0.30733544,-0.06287968,0.00000000,0.00000000
-2.59567571,-0.42962739,0.05673627,-0.58890080,-0.04587648,0.00000000,0.00000000,-1.85003841,0.62937552,0.32507935,-0.30721861,-0.06047478,0.00000000,0.00000000
-2.59552526,-0.42831653,0.05730310,-0.58919466,-0.04983491,0.00000000,0.00000000,-1.85051847,0.62886977,0.32474536,-0.30704671,-0.06289910,0.00000000,0.00000000
-2.59518313,-0.42703187,0.05796301,-0.58962566,-0.05135230,0.00000000,0.00000000,-1.85086191,0.62838620,0.32444337,-0.30691853,-0.06591266,0.00000000,0.00000000
-2.59465218,-0.42594373,0.05875636,-0.59026253,-0.05013013,0.00000000,0.00000000,-1.85092318,0.62789232,0.32424307,-0.30690938,-0.06535882,0.00000000,0.00000000
-2.59390736,-0.42495802,0.05967173,-0.59101999,-0.05304950,0.00000000,0.00000000,-1.85065281,0.62747324,0.32416648,-0.30699968,-0.06796093,0.00000000,0.00000000
-2.59292221,-0.42396438,0.06067418,-0.59180284,-0.05275083,0.00000000,0.00000000,-1.85004663,0.62725711,0.32421187,-0.30712080,-0.06985121,0.00000000,0.00000000
-2.59169006,-0.42296910,0.06172162,-0.59258056,-0.05558117,0.00000000,0.00000000,-1.84909964,0.62729651,0.32437465,-0.30724907,-0.07392354,0.00000000,0.00000000
-2.59023213,-0.42200330,0.06280402,-0.59335399,-0.05714516,0.00000000,0.00000000,-1.84782088,0.62747729,0.32463843,-0.30745077,-0.07748099,0.00000000,0.00000000
-2.58857393,-0.42101359,0.06395629,-0.59409106,-0.05612357,0.00000000,0.00000000,-1.84625328,0.62761140,0.32496607,-0.30780888,-0.07880139,0.00000000,0.00000000
-2.58672786,-0.41990238,0.06523097,-0.59473890,-0.05675540,0.00000000,0.00000000,-1.84447527,0.62754530,0.32530153,-0.30835873,-0.07877756,0.00000000,0.00000000
-2.58468747,-0.41859144,0.06666762,-0.59525281,-0.06291040,0.00000000,0.00000000,-1.84260571,0.62718993,0.32556725,-0.30908832,-0.08086079,0.00000000,0.00000000
-2.58242297,-0.41704306,0.06828026,-0.59561121,-0.06925020,0.00000000,0.00000000,-1.84078312,0.62652737,0.32567537,-0.30994624,-0.07844801,0.00000000,0.00000000
-2.57988739,-0.41529605,0.07003622,-0.59582067,-0.07343753,0.00000000,0.00000000,-1.83910072,0.62563348,0.32556301,-0.31085277,-0.07792223,0.00000000,0.00000000
-2.57703137,-0.41346529,0.07187053,-0.59591150,-0.07606019,0.00000000,0.00000000,-1.83758986,0.62459791,0.32519796,-0.31175721,-0.07741582,0.00000000,0.00000000
-2.57380080,-0.41170192,0.07370786,-0.59591419,-0.08482815,0.00000000,0.00000000,-1.83623600,0.62350893,0.32457018,-0.31264603,-0.07143582,0.00000000,0.00000000
-2.57013369,-0.41018039,0.07545609,-0.59586877,-0.09501735,0.00000000,0.00000000,-1.83496964,0.62253022,0.32369918,-0.31349561,-0.06523212,0.00000000,0.00000000
-2.56597519,-0.40908197,0.07701006,-0.59583163,-0.11014021,0.00000000,0.00000000,-1.83366454,0.62187767,0.32263440,-0.31426823,-0.05475473,0.00000000,0.00000000
-2.56128931,-0.40852755,0.07829049,-0.59584308,-0.12421225,0.00000000,0.00000000,-1.83221674,0.62169254,0.32141194,-0.31494534,-0.04440305,0.00000000,0.00000000
-2.55603957,-0.40849820,0.07928150,-0.59587508,-0.13559967,0.00000000,0.00000000,-1.83061337,0.62201494,0.32001674,-0.31550694,-0.03298598,0.00000000,0.00000000
-2.55018926,-0.40886402,0.08002327,-0.59585470,-0.14634717,0.00000000,0.00000000,-1.82894266,0.62278295,0.31837839,-0.31594360,-0.02064452,0.00000000,0.00000000
-2.54371619,-0.40943760,0.08059015,-0.59569520,-0.14616236,0.00000000,0.00000000,-1.82737923,0.62382281,0.31637785,-0.31628665,-0.00067871,0.00000000,0.00000000
-2.53660870,-0.41007254,0.08105862,-0.59534347,-0.14733250,0.00000000,0.00000000,-1.82614481,0.62491041,0.31386852,-0.31658784,0.01691619,0.00000000,0.00000000
-2.52884221,-0.41075137,0.08149343,-0.59479511,-0.14725907,0.00000000,0.00000000,-1.82545972,0.62584180,0.31070310,-0.31688738,0.04252625,0.00000000,0.00000000
-2.52037454,-0.41155243,0.08195364,-0.59407169,-0.14352283,0.00000000,0.00000000,-1.82549250,0.62648505,0.30676088,-0.31720060,0.06713474,0.00000000,0.00000000
-2.51115298,-0.41253501,0.08251467,-0.59318000,-0.13321111,0.00000000,0.00000000,-1.82633758,0.62676346,0.30195838,-0.31753513,0.09232026,0.00000000,0.00000000
-2.50113320,-0.41362885,0.08328383,-0.59208715,-0.12025025,0.00000000,0.00000000,-1.82802951,0.62659955,0.29624164,-0.31792337,0.11435463,0.00000000,0.00000000
-2.49027514,-0.41467255,0.08439849,-0.59071207,-0.11117622,0.00000000,0.00000000,-1.83054161,0.62586033,0.28958407,-0.31846374,0.13549876,0.00000000,0.00000000
-2.47853136,-0.41550508,0.08599971,-0.58893621,-0.10081832,0.00000000,0.00000000,-1.83376741,0.62442476,0.28199753,-0.31927398,0.15304020,0.00000000,0.00000000
-2.46583843,-0.41606078,0.08816852,-0.58665252,-0.08711155,0.00000000,0.00000000,-1.83749068,0.62230945,0.27354977,-0.32042134,0.16594830,0.00000000,0.00000000
-2.45211196,-0.41648099,0.09085427,-0.58384234,-0.07651861,0.00000000,0.00000000,-1.84138048,0.61977726,0.26437026,-0.32188028,0.17681159,0.00000000,0.00000000
-2.43725395,-0.41712070,0.09386169,-0.58060181,-0.07189731,0.00000000,0.00000000,-1.84503305,0.61732328,0.25462881,-0.32354519,0.18468252,0.00000000,0.00000000
-2.42116451,-0.41843626,0.09693348,-0.57708699,-0.06291828,0.00000000,0.00000000,-1.84804249,0.61548454,0.24449517,-0.32530487,0.20154738,0.00000000,0.00000000
-2.40373993,-0.42086709,0.09984200,-0.57342088,-0.05899602,0.00000000,0.00000000,-1.85005391,0.61469787,0.23410952,-0.32708901,0.21567722,0.00000000,0.00000000
-2.38487554,-0.42472288,0.10245128,-0.56962353,-0.05588945,0.00000000,0.00000000,-1.85080934,0.61524463,0.22355950,-0.32887200,0.22177777,0.00000000,0.00000000
-2.36449027,-0.43005544,0.10476196,-0.56558943,-0.04997958,0.00000000,0.00000000,-1.85019922,0.61718881,0.21285272,-0.33069018,0.23378715,0.00000000,0.00000000
-2.34252787,-0.43663755,0.10689098,-0.56109971,-0.04741741,0.00000000,0.00000000,-1.84825540,0.62042511,0.20192149,-0.33262777,0.24668574,0.00000000,0.00000000
-2.31895232,-0.44412878,0.10901124,-0.55590945,-0.04493573,0.00000000,0.00000000,-1.84509802,0.62476087,0.19065148,-0.33479294,0.26297376,0.00000000,0.00000000
-2.29374003,-0.45221677,0.11131323,-0.54981863,-0.03981052,0.00000000,0.00000000,-1.84090471,0.62994999,0.17889690,-0.33731052,0.27669767,0.00000000,0.00000000
-2.26687312,-0.46069559,0.11396544,-0.54269242,-0.03383644,0.00000000,0.00000000,-1.83586597,0.63575709,0.16650349,-0.34030169,0.29058552,0.00000000,0.00000000
-2.23833418,-0.46948770,0.11707770,-0.53445178,-0.02772606,0.00000000,0.00000000,-1.83011866,0.64203829,0.15334645,-0.34385565,0.30242711,0.00000000,0.00000000
-2.20810962,-0.47867522,0.12067909,-0.52508354,-0.01368615,0.00000000,0.00000000,-1.82367754,0.64876395,0.13937123,-0.34802139,0.31355536,0.00000000,0.00000000
-2.17619514,-0.48846042,0.12471996,-0.51460969,0.00206689,0.00000000,0.00000000,-1.81641793,0.65599829,0.12460800,-0.35281166,0.31864288,0.00000000,0.00000000
-2.14259768,-0.49910069,0.12909244,-0.50304604,0.01856461,0.00000000,0.00000000,-1.80812895,0.66383266,0.10914331,-0.35823354,0.32765117,0.00000000,0.00000000
-2.10734081,-0.51082826,0.13368061,-0.49039274,0.03712544,0.00000000,0.00000000,-1.79861856,0.67230237,0.09305960,-0.36431590,0.33305413,0.00000000,0.00000000
-2.07046413,-0.52379411,0.13839214,-0.47664449,0.06205449,0.00000000,0.00000000,-1.78774464,0.68142283,0.07641593,-0.37107763,0.32862097,0.00000000,0.00000000
-2.03202653,-0.53808635,0.14316814,-0.46180248,0.08419674,0.00000000,0.00000000,-1.77541196,0.69119698,0.05924989,-0.37852681,0.32525900,0.00000000,0.00000000
-1.99210060,-0.55372226,0.14798422,-0.44585022,0.11040989,0.00000000,0.00000000,-1.76155567,0.70161641,0.04158758,-0.38666627,0.32009965,0.00000000,0.00000000
-1.95076990,-0.57065403,0.15285550,-0.42875582,0.12902449,0.00000000,0.00000000,-1.74613106,0.71264964,0.02344960,-0.39549425,0.30986416,0.00000000,0.00000000
-1.90812671,-0.58879828,0.15784061,-0.41049948,0.14795822,0.00000000,0.00000000,-1.72911525,0.72422922,0.00485060,-0.40500954,0.30418390,0.00000000,0.00000000
-1.86427760,-0.60807097,0.16299184,-0.39106846,0.16628762,0.00000000,0.00000000,-1.71047556,0.73632568,-0.01417681,-0.41517594,0.30284235,0.00000000,0.00000000
-1.81934559,-0.62836885,0.16833667,-0.37042788,0.17708363,0.00000000,0.00000000,-1.69017279,0.74898267,-0.03358263,-0.42589909,0.29526171,0.00000000,0.00000000
-1.77347481,-0.64956516,0.17387336,-0.34850901,0.18676761,0.00000000,0.00000000,-1.66814852,0.76232404,-0.05328479,-0.43700764,0.29363668,0.00000000,0.00000000
-1.72683811,-0.67156446,0.17956555,-0.32524180,0.19123216,0.00000000,0.00000000,-1.64427006,0.77650404,-0.07311186,-0.44826689,0.28160992,0.00000000,0.00000000
-1.67965209,-0.69440210,0.18533558,-0.30063468,0.19866531,0.00000000,0.00000000,-1.61828148,0.79153508,-0.09274077,-0.45949352,0.26441315,0.00000000,0.00000000
-1.63216209,-0.71812445,0.19111209,-0.27471980,0.20708594,0.00000000,0.00000000,-1.58987355,0.80728507,-0.11174531,-0.47056362,0.24721448,0.00000000,0.00000000
-1.58461511,-0.74270469,0.19688396,-0.24751703,0.21282171,0.00000000,0.00000000,-1.55880392,0.82349592,-0.12970757,-0.48140606,0.23242274,0.00000000,0.00000000
-1.53723180,-0.76803952,0.20272686,-0.21905307,0.22063394,0.00000000,0.00000000,-1.52497673,0.83982712,-0.14631481,-0.49199209,0.22288007,0.00000000,0.00000000
-1.49019361,-0.79396349,0.20878643,-0.18937625,0.22639637,0.00000000,0.00000000,-1.48845613,0.85593790,-0.16140066,-0.50230736,0.21369033,0.00000000,0.00000000
-1.44364083,-0.82027280,0.21524410,-0.15856634,0.23784024,0.00000000,0.00000000,-1.44943655,0.87153828,-0.17494340,-0.51233965,0.20392248,0.00000000,0.00000000
-1.39767075,-0.84672308,0.22228682,-0.12672967,0.24948877,0.00000000,0.00000000,-1.40819728,0.88646489,-0.18703784,-0.52204037,0.19634129,0.00000000,0.00000000
-1.35233831,-0.87306625,0.23008226,-0.09400896,0.26307461,0.00000000,0.00000000,-1.36505651,0.90069711,-0.19785230,-0.53130484,0.18672407,0.00000000,0.00000000
-1.30765855,-0.89908940,0.23875874,-0.06059432,0.26957232,0.00000000,0.00000000,-1.32033360,0.91429985,-0.20758286,-0.53999382,0.17401065,0.00000000,0.00000000
-1.26362205,-0.92462027,0.24838865,-0.02671127,0.28075355,0.00000000,0.00000000,-1.27432585,0.92736703,-0.21641946,-0.54796582,0.16929801,0.00000000,0.00000000
-1.22022319,-0.94948947,0.25898054,0.00743393,0.28917906,0.00000000,0.00000000,-1.22727454,0.93994528,-0.22448553,-0.55510956,0.17271104,0.00000000,0.00000000
-1.17748547,-0.97351873,0.27048513,0.04168210,0.30117628,0.00000000,0.00000000,-1.17935646,0.95196503,-0.23181210,-0.56136733,0.17402041,0.00000000,0.00000000
-1.13545609,-0.99653149,0.28280783,0.07589828,0.31631389,0.00000000,0.00000000,-1.13071311,0.96330625,-0.23837955,-0.56670928,0.17446725,0.00000000,0.00000000
-1.09418881,-1.01837349,0.29581642,0.10993802,0.33384839,0.00000000,0.00000000,-1.08147967,0.97389382,-0.24416791,-0.57109731,0.16936074,0.00000000,0.00000000
-1.05373538,-1.03894091,0.30934522,0.14363410,0.34704307,0.00000000,0.00000000,-1.03179049,0.98369366,-0.24917357,-0.57449937,0.16684997,0.00000000,0.00000000
-1.01415503,-1.05816638,0.32320175,0.17682382,0.35280904,0.00000000,0.00000000,-0.98176789,0.99265367,-0.25340325,-0.57692504,0.16398662,0.00000000,0.00000000
-0.97552216,-1.07601285,0.33717728,0.20935127,0.36377737,0.00000000,0.00000000,-0.93151861,1.00068772,-0.25687483,-0.57844788,0.16409828,0.00000000,0.00000000
-0.93791133,-1.09249938,0.35104546,0.24103099,0.37317091,0.00000000,0.00000000,-0.88114119,1.00779724,-0.25965035,-0.57917202,0.16612187,0.00000000,0.00000000
-0.90138346,-1.10771358,0.36455834,0.27164939,0.38058820,0.00000000,0.00000000,-0.83071250,1.01416242,-0.26181760,-0.57918376,0.16968526,0.00000000,0.00000000
-0.86600184,-1.12179124,0.37746024,0.30102408,0.38907108,0.00000000,0.00000000,-0.78024238,1.02002645,-0.26340404,-0.57855457,0.17009328,0.00000000,0.00000000
-0.83184522,-1.13490903,0.38950962,0.32903934,0.39317337,0.00000000,0.00000000,-0.72963995,1.02555430,-0.26431742,-0.57737678,0.17168738,0.00000000,0.00000000
-0.79899347,-1.14726615,0.40047732,0.35563469,0.39841041,0.00000000,0.00000000,-0.67873096,1.03092682,-0.26436841,-0.57571763,0.17574181,0.00000000,0.00000000
-0.76749533,-1.15910435,0.41012773,0.38077492,0.40881729,0.00000000,0.00000000,-0.62726665,1.03648078,-0.26326534,-0.57354110,0.17946613,0.00000000,0.00000000
-0.73732251,-1.17083263,0.41820252,0.40436375,0.41928509,0.00000000,0.00000000,-0.57492626,1.04277027,-0.26059657,-0.57065642,0.19105017,0.00000000,0.00000000
-0.70832378,-1.18309569,0.42440170,0.42617470,0.43027526,0.00000000,0.00000000,-0.52133358,1.05061114,-0.25580874,-0.56667238,0.20001662,0.00000000,0.00000000
-0.68018645,-1.19677448,0.42836237,0.44579807,0.43935710,0.00000000,0.00000000,-0.46609914,1.06123185,-0.24820301,-0.56089097,0.20627701,0.00000000,0.00000000
-0.65241855,-1.21298802,0.42965972,0.46259081,0.45222101,0.00000000,0.00000000,-0.40889540,1.07643938,-0.23696564,-0.55219424,0.20942377,0.00000000,0.00000000
-0.62438732,-1.23301256,0.42784509,0.47570533,0.46359590,0.00000000,0.00000000,-0.34958735,1.09857535,-0.22126245,-0.53911471,0.21307585,0.00000000,0.00000000
-0.59544104,-1.25807059,0.42252046,0.48420817,0.47774577,0.00000000,0.00000000,-0.28842366,1.13004434,-0.20039916,-0.52021033,0.21214139,0.00000000,0.00000000
-0.56505430,-1.28921413,0.41343790,0.48718613,0.49952579,0.00000000,0.00000000,-0.22615603,1.17255986,-0.17394924,-0.49454343,0.21130095,0.00000000,0.00000000
-0.53295559,-1.32729554,0.40060151,0.48381951,0.51773924,0.00000000,0.00000000,-0.16401204,1.22657454,-0.14180362,-0.46192718,0.21350518,0.00000000,0.00000000
-0.49922201,-1.37277043,0.38429907,0.47351560,0.53572661,0.00000000,0.00000000,-0.10356964,1.29118109,-0.10413675,-0.42285144,0.21392728,0.00000000,0.00000000
-0.46434957,-1.42552805,0.36509326,0.45605433,0.55573308,0.00000000,0.00000000,-0.04655259,1.36429262,-0.06135609,-0.37827531,0.21736450,0.00000000,0.00000000
-0.42925683,-1.48483312,0.34374383,0.43169379,0.57364476,0.00000000,0.00000000,0.00534618,1.44300056,-0.01405815,-0.32947895,0.21785277,0.00000000,0.00000000
-0.39505640,-1.54921031,0.32099336,0.40122247,0.59261215,0.00000000,0.00000000,0.05053103,1.52433157,0.03700689,-0.27793014,0.22043477,0.00000000,0.00000000
-0.36239889,-1.61619079,0.29725185,0.36591306,0.60915220,0.00000000,0.00000000,0.08756109,1.60593736,0.09096424,-0.22510007,0.23139997,0.00000000,0.00000000
-0.33108258,-1.68294418,0.27261695,0.32711414,0.62584853,0.00000000,0.00000000,0.11524955,1.68603003,0.14685893,-0.17239012,0.23988128,0.00000000,0.00000000
-0.30094904,-1.74731743,0.24732962,0.28590640,0.64178127,0.00000000,0.00000000,0.13284001,1.76292777,0.20372133,-0.12117152,0.24874945,0.00000000,0.00000000
-0.27247298,-1.80798256,0.22184724,0.24306002,0.65636015,0.00000000,0.00000000,0.14042583,1.83489668,0.26063573,-0.07270859,0.25984013,0.00000000,0.00000000
-0.24644053,-1.86462438,0.19663286,0.19878830,0.67140681,0.00000000,0.00000000,0.13926430,1.90025973,0.31682929,-0.02796401,0.26613030,0.00000000,0.00000000
-0.22361623,-1.91739655,0.17201665,0.15305790,0.68834609,0.00000000,0.00000000,0.13160519,1.95763779,0.37175846,0.01257768,0.27044719,0.00000000,0.00000000
-0.20553800,-1.96526909,0.14824146,0.10685101,0.70246679,0.00000000,0.00000000,0.12010178,2.00584602,0.42513508,0.04876430,0.27706647,0.00000000,0.00000000
-0.19404064,-2.00986648,0.12545536,0.05969416,0.71479833,0.00000000,0.00000000,0.10738310,2.04375696,0.47688416,0.08053924,0.28015015,0.00000000,0.00000000
-0.18952686,-2.05413604,0.10358721,0.00951566,0.72663397,0.00000000,0.00000000,0.09574636,2.07082343,0.52706456,0.10805526,0.28692511,0.00000000,0.00000000
-0.19235831,-2.09632134,0.08249916,-0.04328082,0.73981243,0.00000000,0.00000000,0.08701281,2.08702612,0.57579452,0.13158558,0.29097384,0.00000000,0.00000000
-0.20218498,-2.13240480,0.06208592,-0.09696061,0.75567985,0.00000000,0.00000000,0.08245119,2.09323263,0.62317187,0.15170605,0.29348531,0.00000000,0.00000000
-0.21750692,-2.15716410,0.04235913,-0.14897028,0.76945704,0.00000000,0.00000000,0.08229887,2.09142137,0.66917568,0.16926190,0.29234299,0.00000000,0.00000000
-0.23641674,-2.16775036,0.02346858,-0.19606879,0.78199738,0.00000000,0.00000000,0.08543073,2.08430862,0.71361113,0.18503425,0.29431358,0.00000000,0.00000000
-0.25753951,-2.16988039,0.00560994,-0.23517066,0.79328501,0.00000000,0.00000000,0.08997601,2.07466936,0.75617194,0.19957046,0.29578212,0.00000000,0.00000000
-0.27993187,-2.17000008,-0.01101737,-0.26424327,0.79788888,0.00000000,0.00000000,0.09412142,2.06491089,0.79653907,0.21321952,0.29687998,0.00000000,0.00000000
-0.30271336,-2.17000008,-0.02620068,-0.28230640,0.80667180,0.00000000,0.00000000,0.09643614,2.05670094,0.83445501,0.22604719,0.30037349,0.00000000,0.00000000
-0.32481068,-2.17000008,-0.03970422,-0.28910553,0.81544727,0.00000000,0.00000000,0.09581520,2.05085993,0.86975181,0.23777288,0.30741692,0.00000000,0.00000000
-0.34520185,-2.17000008,-0.05132768,-0.28494337,0.82551593,0.00000000,0.00000000,0.09147380,2.04752254,0.90236300,0.24787785,0.31324157,0.00000000,0.00000000
-0.36294097,-2.17000008,-0.06091153,-0.27156559,0.83183116,0.00000000,0.00000000,0.08350234,2.04594660,0.93242079,0.25582549,0.31194383,0.00000000,0.00000000
-0.37729123,-2.17000008,-0.06834815,-0.25276771,0.83976686,0.00000000,0.00000000,0.07360786,2.04505849,0.96027195,0.26171559,0.31449446,0.00000000,0.00000000
-0.38707387,-2.17000008,-0.07352965,-0.23125499,0.84822273,0.00000000,0.00000000,0.06424512,2.04495573,0.98620105,0.26656729,0.31928685,0.00000000,0.00000000
-0.38927948,-2.17000008,-0.07619160,-0.20696588,0.85651535,0.00000000,0.00000000,0.05721677,2.04628778,1.01035523,0.27137291,0.32880181,0.00000000,0.00000000
-0.38292250,-2.17000008,-0.07640359,-0.18100047,0.86950320,0.00000000,0.00000000,0.05405692,2.04981875,1.03283393,0.27703819,0.34264010,0.00000000,0.00000000
-0.36971754,-2.17000008,-0.07457657,-0.15564017,0.88282627,0.00000000,0.00000000,0.05626236,2.05561900,1.05383325,0.28417444,0.36044419,0.00000000,0.00000000
-0.35154656,-2.17000008,-0.07112151,-0.13189840,0.89625895,0.00000000,0.00000000,0.06466135,2.06247878,1.07368851,0.29261124,0.38313955,0.00000000,0.00000000
-0.32926273,-2.17000008,-0.06632258,-0.10940801,0.91025656,0.00000000,0.00000000,0.07894059,2.06865859,1.09274364,0.30148959,0.40140390,0.00000000,0.00000000
-0.30273977,-2.17000008,-0.06037100,-0.08699225,0.92612380,0.00000000,0.00000000,0.09774587,2.07207966,1.11134803,0.30940089,0.42370862,0.00000000,0.00000000
-0.27136269,-2.17000008,-0.05343001,-0.06333640,0.93329239,0.00000000,0.00000000,0.11913925,2.07175398,1.12966454,0.31515008,0.43640372,0.00000000,0.00000000
-0.23520680,-2.17000008,-0.04570370,-0.03717580,0.93800569,0.00000000,0.00000000,0.14081159,2.06903148,1.14745450,0.31850296,0.44636101,0.00000000,0.00000000
-0.19694678,-2.16997743,-0.03745810,-0.00701942,0.94497395,0.00000000,0.00000000,0.16262418,2.06415415,1.16486681,0.32079855,0.45794797,0.00000000,0.00000000
-0.16114098,-2.16943860,-0.02893393,0.02814201,0.95725948,0.00000000,0.00000000,0.18737631,2.05311608,1.18303871,0.32368320,0.46530524,0.00000000,0.00000000
-0.12914018,-2.16519260,-0.02031927,0.06800117,0.97279638,0.00000000,0.00000000,0.21566254,2.03213954,1.20287037,0.32738563,0.47791681,0.00000000,0.00000000
-0.09868735,-2.15154147,-0.01190023,0.11149786,0.99101597,0.00000000,0.00000000,0.24611655,2.00040722,1.22456205,0.33152303,0.49046314,0.00000000,0.00000000
-0.06722747,-2.12779236,-0.00409618,0.15734455,1.00813317,0.00000000,0.00000000,0.27722591,1.95879412,1.24797201,0.33589622,0.49941486,0.00000000,0.00000000
-0.03338204,-2.09594250,0.00262745,0.20399761,1.01988411,0.00000000,0.00000000,0.30797938,1.90888262,1.27281117,0.34069800,0.50894582,0.00000000,0.00000000
0.00319117,-2.05811214,0.00784004,0.24989973,1.03001559,0.00000000,0.00000000,0.33765078,1.85250604,1.29868770,0.34622887,0.51599687,0.00000000,0.00000000
0.04217429,-2.01616478,0.01120011,0.29373661,1.04247987,0.00000000,0.00000000,0.36541352,1.79199731,1.32501662,0.35261571,0.52106440,0.00000000,0.00000000
0.08258577,-1.97189891,0.01257213,0.33425385,1.05082107,0.00000000,0.00000000,0.39014149,1.73115921,1.35079753,0.35911173,0.52915740,0.00000000,0.00000000
0.12247616,-1.92677414,0.01219543,0.37034124,1.06165051,0.00000000,0.00000000,0.40914977,1.67303610,1.37503839,0.36226919,0.53634226,0.00000000,0.00000000
0.15916190,-1.88111758,0.01073894,0.40157077,1.06848979,0.00000000,0.00000000,0.42231974,1.61730576,1.39765584,0.36091870,0.54170609,0.00000000,0.00000000
0.18934335,-1.83493006,0.00930019,0.42786676,1.07604718,0.00000000,0.00000000,0.43343922,1.56650054,1.41825294,0.35867554,0.55087763,0.00000000,0.00000000
0.21145697,-1.78895879,0.00866760,0.44897839,1.08230889,0.00000000,0.00000000,0.44367149,1.52383304,1.43618882,0.35777068,0.56001717,0.00000000,0.00000000
0.22541183,-1.74520421,0.00927626,0.46414360,1.09478652,0.00000000,0.00000000,0.45204225,1.49104202,1.45102608,0.35839698,0.56823081,0.00000000,0.00000000
0.23162664,-1.70663619,0.01141851,0.47209918,1.10935509,0.00000000,0.00000000,0.45749483,1.46860564,1.46256518,0.36011925,0.57725567,0.00000000,0.00000000
0.23077811,-1.67429137,0.01525877,0.47304466,1.12482274,0.00000000,0.00000000,0.45939189,1.45605969,1.47079694,0.36239547,0.58670741,0.00000000,0.00000000
0.22410393,-1.64584017,0.02060929,0.47054654,1.13428819,0.00000000,0.00000000,0.45752922,1.45207775,1.47591496,0.36473221,0.59784979,0.00000000,0.00000000
0.21294348,-1.62439036,0.02715406,0.46588612,1.14418614,0.00000000,0.00000000,0.45190573,1.45467949,1.47829509,0.36665735,0.60708225,0.00000000,0.00000000
0.19880134,-1.61116350,0.03439514,0.45956990,1.14878047,0.00000000,0.00000000,0.44277969,1.46144891,1.47846305,0.36787072,0.62171769,0.00000000,0.00000000
0.18291403,-1.60390735,0.04189516,0.45314053,1.15302658,0.00000000,0.00000000,0.43067077,1.46982574,1.47702110,0.36829570,0.63882500,0.00000000,0.00000000
0.16618919,-1.60045922,0.04933639,0.44793582,1.15802932,0.00000000,0.00000000,0.41612977,1.47752857,1.47453010,0.36793840,0.65207756,0.00000000,0.00000000
0.14927763,-1.59963346,0.05649374,0.44467372,1.16455424,0.00000000,0.00000000,0.39949116,1.48291969,1.47140622,0.36673918,0.66303617,0.00000000,0.00000000
0.13276589,-1.60096622,0.06313682,0.44364032,1.16860390,0.00000000,0.00000000,0.38074231,1.48493099,1.46792841,0.36444747,0.67041904,0.00000000,0.00000000
0.11736916,-1.60425043,0.06895626,0.44493431,1.17169511,0.00000000,0.00000000,0.35969031,1.48278344,1.46430242,0.36069477,0.67568427,0.00000000,0.00000000
0.10393184,-1.60944843,0.07360633,0.44849771,1.17570341,0.00000000,0.00000000,0.33621687,1.47608435,1.46064878,0.35521385,0.67876738,0.00000000,0.00000000
0.09326648,-1.61683857,0.07681468,0.45405230,1.17901146,0.00000000,0.00000000,0.31050119,1.46500683,1.45697200,0.34803006,0.67753094,0.00000000,0.00000000
0.08602533,-1.62603688,0.07841787,0.46161383,1.18514192,0.00000000,0.00000000,0.28287101,1.45008934,1.45320749,0.33926418,0.67570698,0.00000000,0.00000000
0.08238814,-1.63461983,0.07848886,0.47191423,1.19085217,0.00000000,0.00000000,0.25363564,1.43201375,1.44927371,0.32894078,0.67097080,0.00000000,0.00000000
0.08179235,-1.64002347,0.07749765,0.48490304,1.20011139,0.00000000,0.00000000,0.22332926,1.41151130,1.44511259,0.31717584,0.67039943,0.00000000,0.00000000
0.08335902,-1.64052939,0.07602543,0.49977198,1.21116364,0.00000000,0.00000000,0.19292158,1.38910425,1.44075835,0.30435038,0.67383862,0.00000000,0.00000000
0.08597285,-1.63625491,0.07474483,0.51547760,1.22397184,0.00000000,0.00000000,0.16325396,1.36554897,1.43623376,0.29088449,0.67665344,0.00000000,0.00000000
0.08858565,-1.62869215,0.07431759,0.53112900,1.22639251,0.00000000,0.00000000,0.13469677,1.34223020,1.43145621,0.27714837,0.67722988,0.00000000,0.00000000
0.09036168,-1.62044990,0.07533865,0.54534274,1.23020709,0.00000000,0.00000000,0.10742772,1.32062805,1.42633438,0.26355359,0.67024648,0.00000000,0.00000000
0.09068743,-1.61444950,0.07825584,0.55637765,1.23237252,0.00000000,0.00000000,0.08161562,1.30166233,1.42087412,0.25049126,0.66562223,0.00000000,0.00000000
0.08908572,-1.61201394,0.08327760,0.56343222,1.23720133,0.00000000,0.00000000,0.05749214,1.28555322,1.41518688,0.23834269,0.66043687,0.00000000,0.00000000
0.08509398,-1.61234331,0.09041794,0.56702501,1.24358046,0.00000000,0.00000000,0.03534856,1.27202404,1.40944195,0.22753219,0.65204507,0.00000000,0.00000000
0.07828182,-1.61365283,0.09961782,0.56822729,1.25132644,0.00000000,0.00000000,0.01537396,1.26056051,1.40381694,0.21835704,0.64708990,0.00000000,0.00000000
0.06822050,-1.61403263,0.11085708,0.56808263,1.25832617,0.00000000,0.00000000,-0.00241552,1.25057614,1.39847434,0.21082413,0.64428616,0.00000000,0.00000000
0.05431041,-1.61169231,0.12424839,0.56751871,1.27456927,0.00000000,0.00000000,-0.01795954,1.24149120,1.39356339,0.20484133,0.64082855,0.00000000,0.00000000
0.03594648,-1.60543287,0.13997883,0.56713903,1.28794670,0.00000000,0.00000000,-0.03087944,1.23264229,1.38924313,0.20057912,0.63121974,0.00000000,0.00000000
0.01304994,-1.59464324,0.15810393,0.56720030,1.30199862,0.00000000,0.00000000,-0.04056145,1.22348499,1.38565075,0.19857137,0.62111330,0.00000000,0.00000000
-0.01379078,-1.57898307,0.17850427,0.56784141,1.31699514,0.00000000,0.00000000,-0.04647751,1.21372521,1.38286567,0.19945426,0.60778493,0.00000000,0.00000000
-0.04344909,-1.55909276,0.20094416,0.56885016,1.33261967,0.00000000,0.00000000,-0.04852193,1.20297563,1.38092577,0.20348771,0.59796119,0.00000000,0.00000000
-0.07449582,-1.53731573,0.22509034,0.56926650,1.33365691,0.00000000,0.00000000,-0.04709981,1.19071996,1.37982285,0.21044968,0.58655560,0.00000000,0.00000000
-0.10563149,-1.51575279,0.25044310,0.56821620,1.33509004,0.00000000,0.00000000,-0.04295037,1.17693245,1.37944663,0.22000180,0.57353008,0.00000000,0.00000000
-0.13585073,-1.49492800,0.27627662,0.56555790,1.33855653,0.00000000,0.00000000,-0.03702289,1.16227126,1.37957799,0.23179807,0.56169862,0.00000000,0.00000000
-0.16413042,-1.47742295,0.30199522,0.56086731,1.34566855,0.00000000,0.00000000,-0.03045792,1.14761460,1.37995017,0.24525288,0.55061704,0.00000000,0.00000000
-0.18966533,-1.46656919,0.32726452,0.55523717,1.34882808,0.00000000,0.00000000,-0.02461634,1.13386667,1.38026655,0.25934398,0.54144859,0.00000000,0.00000000
-0.21223585,-1.46166015,0.35151461,0.55114269,1.35150111,0.00000000,0.00000000,-0.02098747,1.12195325,1.38020754,0.27270222,0.52914494,0.00000000,0.00000000
-0.23177804,-1.46090829,0.37398601,0.54951489,1.35538661,0.00000000,0.00000000,-0.02082377,1.11246061,1.37950516,0.28395873,0.51904756,0.00000000,0.00000000
-0.24778306,-1.46401536,0.39370430,0.54895997,1.36005068,0.00000000,0.00000000,-0.02510404,1.10560310,1.37795305,0.29177487,0.51248354,0.00000000,0.00000000
-0.25958726,-1.47016144,0.40943933,0.54760027,1.35494661,0.00000000,0.00000000,-0.03451720,1.10120761,1.37542188,0.29491222,0.51028872,0.00000000,0.00000000
-0.26664391,-1.47850835,0.42027336,0.54362547,1.34964192,0.00000000,0.00000000,-0.04929654,1.09861219,1.37191498,0.29251617,0.50468063,0.00000000,0.00000000
-0.26928383,-1.48806953,0.42629477,0.53732204,1.34129870,0.00000000,0.00000000,-0.06896552,1.09662485,1.36761248,0.28449625,0.49216574,0.00000000,0.00000000
-0.26908028,-1.49762535,0.42868051,0.53126031,1.33286297,0.00000000,0.00000000,-0.09233584,1.09399116,1.36280274,0.27170911,0.47924653,0.00000000,0.00000000
-0.26758274,-1.50771415,0.42893964,0.52717674,1.32138908,0.00000000,0.00000000,-0.11789233,1.09024894,1.35772145,0.25573528,0.46918917,0.00000000,0.00000000
-0.26604182,-1.51932001,0.42835033,0.52508759,1.30616009,0.00000000,0.00000000,-0.14414322,1.08628297,1.35244703,0.23862773,0.46323293,0.00000000,0.00000000
-0.26569197,-1.53385997,0.42811197,0.52295041,1.28651977,0.00000000,0.00000000,-0.16979307,1.08393764,1.34694970,0.22256225,0.46065161,0.00000000,0.00000000
-0.26683804,-1.55608511,0.42927346,0.51627058,1.26624000,0.00000000,0.00000000,-0.19399458,1.08533895,1.34115148,0.20923908,0.46232131,0.00000000,0.00000000
-0.26985893,-1.58718014,0.43205801,0.50338733,1.24568605,0.00000000,0.00000000,-0.21642886,1.09214544,1.33498406,0.19951645,0.45958775,0.00000000,0.00000000
-0.27505189,-1.62469661,0.43595341,0.48468837,1.22176564,0.00000000,0.00000000,-0.23710620,1.10500324,1.32843912,0.19354481,0.45625734,0.00000000,0.00000000
-0.28301793,-1.66389287,0.44028863,0.46189541,1.20395327,0.00000000,0.00000000,-0.25624248,1.12315273,1.32160926,0.19076099,0.45204952,0.00000000,0.00000000
-0.29563525,-1.69884980,0.44485185,0.43820116,1.18427944,0.00000000,0.00000000,-0.27424970,1.14384234,1.31474793,0.18963872,0.45538390,0.00000000,0.00000000
-0.31576332,-1.72367489,0.44983885,0.41767088,1.16291893,0.00000000,0.00000000,-0.29139772,1.16205668,1.30833757,0.18814403,0.45656979,0.00000000,0.00000000
-0.34599674,-1.73430490,0.45554885,0.40380871,1.14853048,0.00000000,0.00000000,-0.30768952,1.17226398,1.30292821,0.18457837,0.46217793,0.00000000,0.00000000
-0.38692248,-1.73034692,0.46204707,0.39779553,1.13238847,0.00000000,0.00000000,-0.32288107,1.17176807,1.29880142,0.17864127,0.47340846,0.00000000,0.00000000
-0.43605739,-1.71524215,0.46894765,0.39785215,1.11931133,0.00000000,0.00000000,-0.33664876,1.16247118,1.29579568,0.17170261,0.48225984,0.00000000,0.00000000
-0.48877871,-1.69412005,0.47550258,0.40056303,1.10717010,0.00000000,0.00000000,-0.34901696,1.14959133,1.29341793,0.16570652,0.49142936,0.00000000,0.00000000
-0.54069465,-1.67024791,0.48084569,0.40354335,1.09071076,0.00000000,0.00000000,-0.36050287,1.13794386,1.29119015,0.16168417,0.50478154,0.00000000,0.00000000
-0.58912814,-1.64436722,0.48432350,0.40640390,1.07588243,0.00000000,0.00000000,-0.37176377,1.12991548,1.28884649,0.15956104,0.52729744,0.00000000,0.00000000
-0.63263094,-1.61729312,0.48568720,0.40867999,1.05692029,0.00000000,0.00000000,-0.38334852,1.12534499,1.28634369,0.15849562,0.55832499,0.00000000,0.00000000
-0.67054629,-1.58885443,0.48477191,0.41000304,1.03942168,0.00000000,0.00000000,-0.39570993,1.12211287,1.28380370,0.15708983,0.58763868,0.00000000,0.00000000
-0.70291126,-1.55806494,0.48144218,0.41076988,1.01868868,0.00000000,0.00000000,-0.40918401,1.11742306,1.28141189,0.15387774,0.61800718,0.00000000,0.00000000
-0.72989815,-1.52475381,0.47557580,0.41186443,1.00847137,0.00000000,0.00000000,-0.42391169,1.10952485,1.27928567,0.14800876,0.64824164,0.00000000,0.00000000
-0.75116313,-1.49141610,0.46711472,0.41325060,0.99870187,0.00000000,0.00000000,-0.43967286,1.09857595,1.27742147,0.13974459,0.68145728,0.00000000,0.00000000
-0.76672971,-1.46165931,0.45629334,0.41406319,0.98914331,0.00000000,0.00000000,-0.45577091,1.08623850,1.27573860,0.13042563,0.71416980,0.00000000,0.00000000
-0.77720016,-1.43798518,0.44345596,0.41361216,0.98145825,0.00000000,0.00000000,-0.47130248,1.07478428,1.27413392,0.12174874,0.74571621,0.00000000,0.00000000
-0.78285801,-1.42319143,0.42891249,0.41044745,0.97369581,0.00000000,0.00000000,-0.48549545,1.06639194,1.27251041,0.11511668,0.77722079,0.00000000,0.00000000
-0.78367972,-1.41972184,0.41292527,0.40280387,0.96987957,0.00000000,0.00000000,-0.49778646,1.06261694,1.27079701,0.11148798,0.80537039,0.00000000,0.00000000
-0.77982414,-1.43028092,0.39602926,0.38860157,0.96772522,0.00000000,0.00000000,-0.50778782,1.06400478,1.26895857,0.11137886,0.83010876,0.00000000,0.00000000
-0.77246714,-1.45607579,0.37919214,0.36669791,0.96145827,0.00000000,0.00000000,-0.51530689,1.07003486,1.26698613,0.11478818,0.85804987,0.00000000,0.00000000
-0.76537502,-1.48547769,0.36296976,0.34338564,0.96459287,0.00000000,0.00000000,-0.52035004,1.07936823,1.26488304,0.12119321,0.88025832,0.00000000,0.00000000
-0.76225126,-1.51456535,0.34850743,0.32082629,0.96984822,0.00000000,0.00000000,-0.52323490,1.08999348,1.26266062,0.12936126,0.90329444,0.00000000,0.00000000
-0.76609200,-1.53938425,0.33634308,0.30120131,0.97544777,0.00000000,0.00000000,-0.52404392,1.09946060,1.26037693,0.13828075,0.93253338,0.00000000,0.00000000
-0.78102338,-1.55657637,0.32728276,0.28704417,0.97592986,0.00000000,0.00000000,-0.52272326,1.10534739,1.25811005,0.14715335,0.96279252,0.00000000,0.00000000
-0.80834138,-1.56754243,0.32158718,0.27761331,0.97675925,0.00000000,0.00000000,-0.51937217,1.10650110,1.25584424,0.15538837,0.99367094,0.00000000,0.00000000
-0.84589380,-1.57465792,0.31866106,0.27127030,0.97979409,0.00000000,0.00000000,-0.51433212,1.10401106,1.25337243,0.16285726,1.02461982,0.00000000,0.00000000
-0.88792819,-1.58281124,0.31725666,0.26478338,0.98268014,0.00000000,0.00000000,-0.50839418,1.10040510,1.25032699,0.16937980,1.04892063,0.00000000,0.00000000
-0.93006045,-1.59093773,0.31624663,0.25877473,0.98990130,0.00000000,0.00000000,-0.50266182,1.09817600,1.24630904,0.17438824,1.06281400,0.00000000,0.00000000
-0.97011018,-1.59723902,0.31509045,0.25414488,0.99398094,0.00000000,0.00000000,-0.49789083,1.09862161,1.24105453,0.17742455,1.08001697,0.00000000,0.00000000
-1.00688887,-1.60189462,0.31361109,0.25054753,0.99491197,0.00000000,0.00000000,-0.49444783,1.10180378,1.23445737,0.17814994,1.09760141,0.00000000,0.00000000
-1.03958583,-1.60515189,0.31168947,0.24767624,0.99646974,0.00000000,0.00000000,-0.49253109,1.10693216,1.22652042,0.17612983,1.12059283,0.00000000,0.00000000
-1.06772542,-1.60673010,0.30922279,0.24563998,0.99684334,0.00000000,0.00000000,-0.49235079,1.11289632,1.21729207,0.17076263,1.13880444,0.00000000,0.00000000
-1.09112096,-1.60594559,0.30613238,0.24489711,0.99848264,0.00000000,0.00000000,-0.49414381,1.11878085,1.20681870,0.16146253,1.15895867,0.00000000,0.00000000
-1.10963273,-1.60210967,0.30232483,0.24597999,0.99448311,0.00000000,0.00000000,-0.49806970,1.12414801,1.19513595,0.14793789,1.17521119,0.00000000,0.00000000
-1.12312806,-1.59489143,0.29768881,0.24926090,0.99460989,0.00000000,0.00000000,-0.50414222,1.12901354,1.18228495,0.13028620,1.18765557,0.00000000,0.00000000
-1.13165176,-1.58455813,0.29214826,0.25482041,0.99066186,0.00000000,0.00000000,-0.51221550,1.13358402,1.16833436,0.10886788,1.19996667,0.00000000,0.00000000
-1.13573742,-1.57197380,0.28575376,0.26252213,0.98868024,0.00000000,0.00000000,-0.52186853,1.13801086,1.15340161,0.08431766,1.21316040,0.00000000,0.00000000
-1.13635397,-1.55850220,0.27867985,0.27204987,0.98352921,0.00000000,0.00000000,-0.53229767,1.14258981,1.13764012,0.05774564,1.22214043,0.00000000,0.00000000
-1.13356245,-1.54626215,0.27087575,0.28230506,0.97549272,0.00000000,0.00000000,-0.54239321,1.14807773,1.12121403,0.03077795,1.22978425,0.00000000,0.00000000
-1.12589180,-1.53977597,0.26197734,0.29009697,0.97167599,0.00000000,0.00000000,-0.55088514,1.15567231,1.10428476,0.00537426,1.23182845,0.00000000,0.00000000
-1.11355567,-1.54331207,0.25211430,0.29211816,0.96240640,0.00000000,0.00000000,-0.55649203,1.16661525,1.08700132,-0.01655700,1.23545396,0.00000000,0.00000000
-1.09699368,-1.55412853,0.24114521,0.28845599,0.95262510,0.00000000,0.00000000,-0.55822158,1.18145359,1.06947792,-0.03377957,1.23690307,0.00000000,0.00000000
-1.07494497,-1.57012594,0.22851585,0.27928260,0.93921053,0.00000000,0.00000000,-0.55573916,1.19951987,1.05177629,-0.04626351,1.23714411,0.00000000,0.00000000
-1.05129576,-1.58871031,0.21526849,0.26657432,0.92693102,0.00000000,0.00000000,-0.54924423,1.21927285,1.03390241,-0.05489193,1.23717403,0.00000000,0.00000000
-1.03065050,-1.60604715,0.20257339,0.25312278,0.91119856,0.00000000,0.00000000,-0.53933728,1.23812628,1.01580453,-0.06123634,1.23197639,0.00000000,0.00000000
-1.01768267,-1.61802113,0.19148673,0.24189721,0.88858122,0.00000000,0.00000000,-0.52659184,1.25332367,0.99739265,-0.06675911,1.22589695,0.00000000,0.00000000
-1.01622510,-1.62341094,0.18287095,0.23412755,0.86668354,0.00000000,0.00000000,-0.51121765,1.26298606,0.97856623,-0.07218970,1.21718228,0.00000000,0.00000000
-1.02682161,-1.62344575,0.17687216,0.22921824,0.84157467,0.00000000,0.00000000,-0.49294272,1.26676536,0.95924193,-0.07728878,1.21238959,0.00000000,0.00000000
-1.04568434,-1.62008286,0.17272137,0.22568923,0.81351733,0.00000000,0.00000000,-0.47159159,1.26650012,0.93941844,-0.08126391,1.20770907,0.00000000,0.00000000
-1.06636834,-1.61470270,0.16909647,0.22250670,0.78532374,0.00000000,0.00000000,-0.44781357,1.26558113,0.91920471,-0.08362604,1.19978654,0.00000000,0.00000000
-1.08330393,-1.60954714,0.16492936,0.21875006,0.75561482,0.00000000,0.00000000,-0.42293918,1.26687610,0.89873248,-0.08463830,1.19502234,0.00000000,0.00000000
-1.09463000,-1.60645163,0.15997210,0.21369332,0.72896171,0.00000000,0.00000000,-0.39837205,1.27121603,0.87805367,-0.08523427,1.18786144,0.00000000,0.00000000
-1.10038018,-1.60403824,0.15429616,0.20818248,0.70172375,0.00000000,0.00000000,-0.37519953,1.27783239,0.85713589,-0.08660822,1.17824221,0.00000000,0.00000000
-1.10192347,-1.60079026,0.14821081,0.20315540,0.68010986,0.00000000,0.00000000,-0.35408255,1.28538275,0.83590603,-0.08981433,1.16551816,0.00000000,0.00000000
-1.10192454,-1.59601665,0.14225350,0.19922671,0.65587944,0.00000000,0.00000000,-0.33533564,1.29261589,0.81429136,-0.09557683,1.15345788,0.00000000,0.00000000
-1.10284448,-1.58957767,0.13689299,0.19666895,0.62819058,0.00000000,0.00000000,-0.31921113,1.29868686,0.79225773,-0.10433234,1.14305639,0.00000000,0.00000000
-1.10508895,-1.58171391,0.13218904,0.19528154,0.60290468,0.00000000,0.00000000,-0.30607072,1.30345297,0.76984441,-0.11621253,1.13769579,0.00000000,0.00000000
-1.10745299,-1.57205629,0.12786989,0.19496655,0.57844681,0.00000000,0.00000000,-0.29613203,1.30738640,0.74714839,-0.13096343,1.13544726,0.00000000,0.00000000
-1.10873151,-1.56008530,0.12364809,0.19563118,0.55677056,0.00000000,0.00000000,-0.28908738,1.31104064,0.72426343,-0.14800406,1.13410652,0.00000000,0.00000000
-1.10823250,-1.54623210,0.11934259,0.19675228,0.53513563,0.00000000,0.00000000,-0.28411844,1.31498611,0.70125860,-0.16654541,1.13130677,0.00000000,0.00000000
-1.10522008,-1.53164244,0.11477809,0.19760761,0.51059383,0.00000000,0.00000000,-0.28009108,1.32042229,0.67820752,-0.18543690,1.12789297,0.00000000,0.00000000
-1.09844005,-1.51868463,0.10970879,0.19695048,0.48506582,0.00000000,0.00000000,-0.27571729,1.32923985,0.65518278,-0.20310807,1.12441528,0.00000000,0.00000000
-1.08700836,-1.51025021,0.10399333,0.19332182,0.45453411,0.00000000,0.00000000,-0.26982808,1.34292066,0.63219464,-0.21810527,1.12263870,0.00000000,0.00000000
-1.07155359,-1.50751531,0.09778781,0.18629193,0.42638522,0.00000000,0.00000000,-0.26178363,1.36152935,0.60917807,-0.22981691,1.12341416,0.00000000,0.00000000
-1.05475104,-1.51012957,0.09162927,0.17631069,0.39641300,0.00000000,0.00000000,-0.25164619,1.38348222,0.58601862,-0.23875353,1.12138033,0.00000000,0.00000000
-1.04020691,-1.51443994,0.08615335,0.16591135,0.36719218,0.00000000,0.00000000,-0.23999937,1.40594006,0.56256521,-0.24626727,1.11815023,0.00000000,0.00000000
-1.03128946,-1.51657057,0.08190716,0.15803201,0.33149746,0.00000000,0.00000000,-0.22757824,1.42568243,0.53864700,-0.25393096,1.11320639,0.00000000,0.00000000
-1.02904952,-1.51495266,0.07905949,0.15414184,0.29457217,0.00000000,0.00000000,-0.21485084,1.44046211,0.51412815,-0.26278412,1.10455775,0.00000000,0.00000000
-1.03146029,-1.51136863,0.07733276,0.15334114,0.26258415,0.00000000,0.00000000,-0.20185387,1.44998813,0.48898026,-0.27288446,1.09650648,0.00000000,0.00000000
-1.03546965,-1.50855887,0.07631445,0.15396112,0.23332736,0.00000000,0.00000000,-0.18857372,1.45540750,0.46332836,-0.28368515,1.08832622,0.00000000,0.00000000
-1.03907311,-1.50777626,0.07574497,0.15521322,0.20899357,0.00000000,0.00000000,-0.17519490,1.45823836,0.43740505,-0.29457274,1.08431602,0.00000000,0.00000000
-1.04134667,-1.50914824,0.07550815,0.15696619,0.18992068,0.00000000,0.00000000,-0.16191000,1.45984602,0.41144538,-0.30508465,1.07741356,0.00000000,0.00000000
-1.04203093,-1.51263380,0.07556308,0.15913987,0.17687792,0.00000000,0.00000000,-0.14869785,1.46136212,0.38560906,-0.31490260,1.07106721,0.00000000,0.00000000
-1.04129434,-1.51821971,0.07591160,0.16157053,0.15941010,0.00000000,0.00000000,-0.13546605,1.46358776,0.36000034,-0.32387766,1.06067407,0.00000000,0.00000000
-1.03937542,-1.52553678,0.07654762,0.16429079,0.14419231,0.00000000,0.00000000,-0.12236436,1.46668923,0.33472881,-0.33216026,1.05879188,0.00000000,0.00000000
-1.03638256,-1.53436518,0.07743701,0.16728114,0.13290451,0.00000000,0.00000000,-0.10990433,1.47023022,0.30996138,-0.34021953,1.05409729,0.00000000,0.00000000
-1.03229797,-1.54577005,0.07853296,0.16949867,0.12112875,0.00000000,0.00000000,-0.09876940,1.47369385,0.28592485,-0.34861025,1.05168474,0.00000000,0.00000000
-1.02709055,-1.55724978,0.07975537,0.17157298,0.10844252,0.00000000,0.00000000,-0.08957589,1.47701550,0.26288658,-0.35768181,1.04554880,0.00000000,0.00000000
-1.02188265,-1.56391943,0.08118521,0.17614736,0.09821013,0.00000000,0.00000000,-0.08284857,1.48074365,0.24116400,-0.36746523,1.04042661,0.00000000,0.00000000
-1.01725566,-1.56543338,0.08284757,0.18345171,0.09387610,0.00000000,0.00000000,-0.07894455,1.48587334,0.22106722,-0.37766939,1.03383803,0.00000000,0.00000000
-1.01299739,-1.56289327,0.08463630,0.19283171,0.09313750,0.00000000,0.00000000,-0.07804427,1.49313092,0.20282069,-0.38795480,1.02463377,0.00000000,0.00000000
-1.00819957,-1.55750835,0.08630085,0.20358205,0.09307133,0.00000000,0.00000000,-0.08012863,1.50256371,0.18651098,-0.39815360,1.01967609,0.00000000,0.00000000
-1.00165582,-1.55123997,0.08751106,0.21463051,0.09223231,0.00000000,0.00000000,-0.08494207,1.51391184,0.17208707,-0.40818626,1.00962222,0.00000000,0.00000000
-0.99252820,-1.54640532,0.08798834,0.22472996,0.08726946,0.00000000,0.00000000,-0.09208079,1.52719891,0.15942690,-0.41784269,1.00319469,0.00000000,0.00000000
-0.98066056,-1.54486108,0.08758850,0.23284899,0.08780948,0.00000000,0.00000000,-0.10112944,1.54274082,0.14839678,-0.42676258,0.99934828,0.00000000,0.00000000
-0.96659535,-1.54735935,0.08633068,0.23847155,0.08879055,0.00000000,0.00000000,-0.11167108,1.56062365,0.13883643,-0.43468168,0.99155062,0.00000000,0.00000000
-0.95163667,-1.55315959,0.08443062,0.24179617,0.08799217,0.00000000,0.00000000,-0.12323473,1.58032978,0.13051052,-0.44165042,0.98090512,0.00000000,0.00000000
-0.93772399,-1.56040418,0.08228405,0.24355729,0.08256850,0.00000000,0.00000000,-0.13528572,1.60063446,0.12309185,-0.44814885,0.97622305,0.00000000,0.00000000
-0.92683798,-1.56722152,0.08033144,0.24445462,0.07632862,0.00000000,0.00000000,-0.14720766,1.61967468,0.11616179,-0.45506707,0.96879655,0.00000000,0.00000000
-0.92015934,-1.57277787,0.07885633,0.24459940,0.07234595,0.00000000,0.00000000,-0.15825655,1.63581944,0.10924038,-0.46316561,0.96548927,0.00000000,0.00000000
-0.91745621,-1.57748449,0.07783543,0.24345298,0.07091941,0.00000000,0.00000000,-0.16758813,1.64930809,0.10188683,-0.47211394,0.96513849,0.00000000,0.00000000
-0.91701496,-1.58236718,0.07692289,0.24019712,0.07055464,0.00000000,0.00000000,-0.17459416,1.66186738,0.09387916,-0.48080078,0.96489340,0.00000000,0.00000000
-0.91622740,-1.58830512,0.07560372,0.23414707,0.07724220,0.00000000,0.00000000,-0.17917199,1.67457902,0.08529161,-0.48856440,0.96061677,0.00000000,0.00000000
-0.91260809,-1.59628224,0.07344727,0.22464032,0.08008834,0.00000000,0.00000000,-0.18128566,1.68817306,0.07629001,-0.49493089,0.94759703,0.00000000,0.00000000
-0.90513390,-1.60659730,0.07038515,0.21211676,0.08330180,0.00000000,0.00000000,-0.18092583,1.70326531,0.06711823,-0.49946114,0.93689340,0.00000000,0.00000000
-0.89516550,-1.61731434,0.06686006,0.19950908,0.08642753,0.00000000,0.00000000,-0.17902179,1.71923590,0.05848171,-0.50249851,0.92680657,0.00000000,0.00000000
-0.88491863,-1.62816727,0.06347924,0.18779236,0.09016322,0.00000000,0.00000000,-0.17683737,1.73432565,0.05119070,-0.50500900,0.91532540,0.00000000,0.00000000
-0.87598270,-1.63721430,0.06062119,0.17823623,0.09142561,0.00000000,0.00000000,-0.17495364,1.74664140,0.04567017,-0.50794005,0.91042554,0.00000000,0.00000000
-0.86994380,-1.64279854,0.05856964,0.17190029,0.08917539,0.00000000,0.00000000,-0.17331973,1.75491405,0.04200195,-0.51184529,0.90555292,0.00000000,0.00000000
-0.86852276,-1.64403629,0.05757401,0.16940358,0.07847738,0.00000000,0.00000000,-0.17160496,1.75890613,0.04009670,-0.51672506,0.89926457,0.00000000,0.00000000
-0.87315345,-1.64040506,0.05781242,0.17115207,0.06370192,0.00000000,0.00000000,-0.16956609,1.75920129,0.03986455,-0.52217013,0.88287932,0.00000000,0.00000000
-0.88434935,-1.63266492,0.05932673,0.17680061,0.05021570,0.00000000,0.00000000,-0.16735372,1.75661802,0.04137193,-0.52770966,0.87153459,0.00000000,0.00000000
-0.90092278,-1.62286747,0.06189394,0.18516797,0.03341483,0.00000000,0.00000000,-0.16556028,1.75211155,0.04490342,-0.53289926,0.85927171,0.00000000,0.00000000
-0.91973889,-1.61086702,0.06490628,0.19588296,0.01522887,0.00000000,0.00000000,-0.16487126,1.74737573,0.05083223,-0.53692800,0.84986001,0.00000000,0.00000000
-0.93691176,-1.59595025,0.06753299,0.20818096,-0.00079709,0.00000000,0.00000000,-0.16579959,1.74466729,0.05946990,-0.53858811,0.83605212,0.00000000,0.00000000
-0.95028734,-1.58115768,0.06922302,0.21947974,-0.01415594,0.00000000,0.00000000,-0.16840410,1.74552143,0.07089445,-0.53693247,0.81911743,0.00000000,0.00000000
-0.95957595,-1.56800604,0.06974499,0.22884843,-0.02335349,0.00000000,0.00000000,-0.17203273,1.74989116,0.08479577,-0.53176451,0.80291861,0.00000000,0.00000000
-0.96510762,-1.55755019,0.06899602,0.23592874,-0.02438243,0.00000000,0.00000000,-0.17533296,1.75666714,0.10046346,-0.52342069,0.78760207,0.00000000,0.00000000
-0.96720868,-1.55106878,0.06690098,0.24022737,-0.02330890,0.00000000,0.00000000,-0.17680703,1.76484799,0.11707609,-0.51224178,0.76957029,0.00000000,0.00000000
-0.96594983,-1.54933512,0.06336340,0.24140948,-0.02103840,0.00000000,0.00000000,-0.17534310,1.77424550,0.13401385,-0.49820989,0.75357085,0.00000000,0.00000000
-0.96129715,-1.55238807,0.05830396,0.23944321,-0.02466157,0.00000000,0.00000000,-0.17034526,1.78563118,0.15097740,-0.48079011,0.73972911,0.00000000,0.00000000
-0.95355380,-1.55928421,0.05175751,0.23481944,-0.03302248,0.00000000,0.00000000,-0.16180953,1.80022216,0.16801034,-0.45923841,0.72395462,0.00000000,0.00000000
-0.94361866,-1.56793463,0.04391832,0.22866029,-0.04067867,0.00000000,0.00000000,-0.15053141,1.81838548,0.18544871,-0.43359071,0.71188515,0.00000000,0.00000000
-0.93300617,-1.57553506,0.03512692,0.22240718,-0.04826617,0.00000000,0.00000000,-0.13801061,1.83807337,0.20368105,-0.40589866,0.69726342,0.00000000,0.00000000
-0.92350715,-1.57958603,0.02578363,0.21723883,-0.05107262,0.00000000,0.00000000,-0.12556659,1.85688782,0.22290322,-0.37872261,0.67696595,0.00000000,0.00000000
-0.91659421,-1.57888854,0.01621960,0.21354085,-0.05107216,0.00000000,0.00000000,-0.11351103,1.87255538,0.24295385,-0.35390687,0.66279411,0.00000000,0.00000000
-0.91294461,-1.57365704,0.00660239,0.21085757,-0.04907011,0.00000000,0.00000000,-0.10178013,1.88200140,0.26354331,-0.33298981,0.64796114,0.00000000,0.00000000
-0.91205478,-1.56502163,-0.00313735,0.20823462,-0.04782901,0.00000000,0.00000000,-0.09074053,1.88397026,0.28462625,-0.31621772,0.62620181,0.00000000,0.00000000
-0.91224271,-1.55449080,-0.01330403,0.20467430,-0.04553266,0.00000000,0.00000000,-0.08039507,1.88048935,0.30627236,-0.30215019,0.60217267,0.00000000,0.00000000
-0.91122031,-1.54376531,-0.02431611,0.19931751,-0.04498258,0.00000000,0.00000000,-0.07026032,1.87394845,0.32849365,-0.28943560,0.57705975,0.00000000,0.00000000
-0.90636438,-1.53494656,-0.03663526,0.19128932,-0.05638717,0.00000000,0.00000000,-0.05988934,1.86657822,0.35133672,-0.27695298,0.54658210,0.00000000,0.00000000
-0.89446968,-1.53153920,-0.05078739,0.17930789,-0.07317780,0.00000000,0.00000000,-0.04889143,1.86027884,0.37485597,-0.26372612,0.51395941,0.00000000,0.00000000
-0.87397885,-1.53696823,-0.06690984,0.16263171,-0.09000129,0.00000000,0.00000000,-0.03707987,1.85576653,0.39907050,-0.24934061,0.47586238,0.00000000,0.00000000
-0.84792453,-1.54963875,-0.08424465,0.14283468,-0.10398916,0.00000000,0.00000000,-0.02436247,1.85209131,0.42389718,-0.23412125,0.44764033,0.00000000,0.00000000
-0.81962895,-1.56633222,-0.10206714,0.12183765,-0.11648097,0.00000000,0.00000000,-0.01038580,1.84867680,0.44921482,-0.21801937,0.41950032,0.00000000,0.00000000
-0.79148012,-1.58451116,-0.11994523,0.10099255,-0.12999326,0.00000000,0.00000000,0.00531734,1.84581065,0.47492576,-0.20047653,0.38803512,0.00000000,0.00000000
-0.76512063,-1.60251868,-0.13764273,0.08118763,-0.13889050,0.00000000,0.00000000,0.02291948,1.84442580,0.50099981,-0.18075928,0.35367405,0.00000000,0.00000000
-0.74145436,-1.61986685,-0.15506418,0.06274168,-0.13851973,0.00000000,0.00000000,0.04194697,1.84580886,0.52747804,-0.15824334,0.31690434,0.00000000,0.00000000
-0.72090697,-1.63689792,-0.17217802,0.04555872,-0.13963826,0.00000000,0.00000000,0.06105139,1.85127115,0.55443513,-0.13258025,0.28006890,0.00000000,0.00000000
-0.70242512,-1.65459955,-0.18901320,0.02935499,-0.12985626,0.00000000,0.00000000,0.07813111,1.86142850,0.58188927,-0.10403501,0.24834523,0.00000000,0.00000000
-0.68333393,-1.67439950,-0.20561531,0.01380448,-0.11872325,0.00000000,0.00000000,0.09108852,1.87590992,0.60972047,-0.07349110,0.22129959,0.00000000,0.00000000
-0.66142511,-1.69713056,-0.22196621,-0.00124383,-0.11199339,0.00000000,0.00000000,0.09860945,1.89399564,0.63768917,-0.04196484,0.19394472,0.00000000,0.00000000
-0.63570243,-1.72306073,-0.23799577,-0.01595182,-0.10611174,0.00000000,0.00000000,0.10039265,1.91471541,0.66549665,-0.01036391,0.16542308,0.00000000,0.00000000
-0.60603356,-1.75236094,-0.25362241,-0.03067794,-0.09522100,0.00000000,0.00000000,0.09707183,1.93672204,0.69285440,0.02057598,0.13947542,0.00000000,0.00000000
-0.57294160,-1.78508139,-0.26877591,-0.04591353,-0.08235943,0.00000000,0.00000000,0.09003510,1.95832133,0.71954662,0.05030525,0.11430977,0.00000000,0.00000000
-0.53745657,-1.82105219,-0.28340811,-0.06218955,-0.07814685,0.00000000,0.00000000,0.08120519,1.97765458,0.74546635,0.07845749,0.09504455,0.00000000,0.00000000
-0.50084788,-1.85994351,-0.29749215,-0.08003359,-0.08082584,0.00000000,0.00000000,0.07268838,1.99304080,0.77061075,0.10483814,0.07329240,0.00000000,0.00000000
-0.46432018,-1.90127325,-0.31101400,-0.09990237,-0.08805032,0.00000000,0.00000000,0.06635301,2.00332165,0.79503822,0.12940574,0.05368971,0.00000000,0.00000000
-0.42890507,-1.94425786,-0.32396895,-0.12208112,-0.10080402,0.00000000,0.00000000,0.06356537,2.00812292,0.81880605,0.15230243,0.03674646,0.00000000,0.00000000
-0.39550743,-1.98769593,-0.33636460,-0.14662297,-0.12094241,0.00000000,0.00000000,0.06504301,2.00803471,0.84190488,0.17386402,0.02104272,0.00000000,0.00000000
-0.36498380,-2.02998257,-0.34822741,-0.17335561,-0.14085606,0.00000000,0.00000000,0.07082984,2.00431728,0.86423302,0.19445680,0.00008978,0.00000000,0.00000000
-0.33816537,-2.06921053,-0.35960838,-0.20186207,-0.15673633,0.00000000,0.00000000,0.08047026,1.99822664,0.88563418,0.21428618,-0.01741397,0.00000000,0.00000000
-0.31561503,-2.10325861,-0.37055242,-0.23132761,-0.17275965,0.00000000,0.00000000,0.09305741,1.99066615,0.90592092,0.23330104,-0.03429707,0.00000000,0.00000000
-0.29827395,-2.13143182,-0.38111326,-0.26138875,-0.19288808,0.00000000,0.00000000,0.10718265,1.98265886,0.92482394,0.25132847,-0.05170364,0.00000000,0.00000000
-0.28797615,-2.15411043,-0.39147356,-0.29142398,-0.22177592,0.00000000,0.00000000,0.12151562,1.97556019,0.94201839,0.26832336,-0.07142125,0.00000000,0.00000000
-0.28305811,-2.16670895,-0.40164483,-0.31592974,-0.25328031,0.00000000,0.00000000,0.13519682,1.97035801,0.95724726,0.28420842,-0.09209656,0.00000000,0.00000000
-0.28082061,-2.16981173,-0.41131049,-0.33170962,-0.28232142,0.00000000,0.00000000,0.14746508,1.96697116,0.97039115,0.29845053,-0.11204152,0.00000000,0.00000000
-0.28017992,-2.17000008,-0.42028630,-0.33801061,-0.31008214,0.00000000,0.00000000,0.15771589,1.96489358,0.98140788,0.31036505,-0.12977384,0.00000000,0.00000000
-0.27991998,-2.16987777,-0.42840418,-0.33423743,-0.34018698,0.00000000,0.00000000,0.16554151,1.96398473,0.99023074,0.31945416,-0.14470151,0.00000000,0.00000000
-0.27803436,-2.16791749,-0.43535909,-0.32013884,-0.37181234,0.00000000,0.00000000,0.17050803,1.96447039,0.99674326,0.32537109,-0.15759005,0.00000000,0.00000000
-0.27264830,-2.16055584,-0.44079882,-0.29738262,-0.39503741,0.00000000,0.00000000,0.17165647,1.96614337,1.00084531,0.32750204,-0.16940424,0.00000000,0.00000000
-0.26389027,-2.14885116,-0.44455534,-0.27122119,-0.41473675,0.00000000,0.00000000,0.16771898,1.96802115,1.00254011,0.32497162,-0.17772806,0.00000000,0.00000000
-0.25304261,-2.13603449,-0.44677341,-0.24525967,-0.43927863,0.00000000,0.00000000,0.15846141,1.96953595,1.00191081,0.31760809,-0.17620066,0.00000000,0.00000000
-0.24260025,-2.12221599,-0.44803274,-0.22043373,-0.46325019,0.00000000,0.00000000,0.14461821,1.97065639,0.99910188,0.30592787,-0.17902166,0.00000000,0.00000000
-0.23438531,-2.10702372,-0.44876871,-0.19710466,-0.49301597,0.00000000,0.00000000,0.12757337,1.97142363,0.99435413,0.29083312,-0.17934673,0.00000000,0.00000000
-0.22902304,-2.09066033,-0.44915390,-0.17548329,-0.51949716,0.00000000,0.00000000,0.10915983,1.97173333,0.98799831,0.27343166,-0.17917477,0.00000000,0.00000000
-0.22648217,-2.07342339,-0.44923705,-0.15554665,-0.54882950,0.00000000,0.00000000,0.09129106,1.97151971,0.98037356,0.25488991,-0.17871526,0.00000000,0.00000000
-0.22652981,-2.05545187,-0.44903132,-0.13708329,-0.58334345,0.00000000,0.00000000,0.07556082,1.97085047,0.97176361,0.23623644,-0.17688087,0.00000000,0.00000000
-0.22886796,-2.03681469,-0.44854420,-0.11982785,-0.61810088,0.00000000,0.00000000,0.06298751,1.96980286,0.96238661,0.21818252,-0.17822339,0.00000000,0.00000000
-0.23300026,-2.01777530,-0.44777319,-0.10359303,-0.65495729,0.00000000,0.00000000,0.05392789,1.96844435,0.95239496,0.20108940,-0.17841156,0.00000000,0.00000000
-0.23797789,-1.99872088,-0.44670302,-0.08817261,-0.68915212,0.00000000,0.00000000,0.04814237,1.96683896,0.94188654,0.18501097,-0.17690559,0.00000000,0.00000000
-0.24260879,-1.98024809,-0.44532481,-0.07342922,-0.71905410,0.00000000,0.00000000,0.04503918,1.96485162,0.93094760,0.16976172,-0.17779396,0.00000000,0.00000000
-0.24617337,-1.96446431,-0.44364384,-0.06015915,-0.74606133,0.00000000,0.00000000,0.04420408,1.96215856,0.91968793,0.15517712,-0.17314570,0.00000000,0.00000000
-0.24816863,-1.95365155,-0.44168797,-0.04927550,-0.77385145,0.00000000,0.00000000,0.04584573,1.95843232,0.90824878,0.14138240,-0.17005786,0.00000000,0.00000000
-0.24815346,-1.94818687,-0.43952203,-0.04072115,-0.80627060,0.00000000,0.00000000,0.05036734,1.95332301,0.89677370,0.12860212,-0.16586737,0.00000000,0.00000000
-0.24673383,-1.94821501,-0.43723261,-0.03473892,-0.83443147,0.00000000,0.00000000,0.05766137,1.94649029,0.88536763,0.11686108,-0.15936092,0.00000000,0.00000000
-0.24544705,-1.95446384,-0.43489504,-0.03226360,-0.85847938,0.00000000,0.00000000,0.06676231,1.93778098,0.87407714,0.10585034,-0.15489495,0.00000000,0.00000000
-0.24553484,-1.96703565,-0.43255103,-0.03384333,-0.88835305,0.00000000,0.00000000,0.07601734,1.92742956,0.86290175,0.09499400,-0.15329474,0.00000000,0.00000000
-0.24764498,-1.98460257,-0.43021697,-0.03903783,-0.91667378,0.00000000,0.00000000,0.08337010,1.91626048,0.85181308,0.08361423,-0.15628898,0.00000000,0.00000000
-0.25310504,-2.00546312,-0.42791405,-0.04733992,-0.94008189,0.00000000,0.00000000,0.08679548,1.90550983,0.84079486,0.07111476,-0.16167745,0.00000000,0.00000000
-0.26363829,-2.02779031,-0.42567787,-0.05830892,-0.96144819,0.00000000,0.00000000,0.08497228,1.89658880,0.82988477,0.05728415,-0.16152561,0.00000000,0.00000000
-0.28045174,-2.04993725,-0.42354244,-0.07154536,-0.99026537,0.00000000,0.00000000,0.07770983,1.89094889,0.81918663,0.04247059,-0.16703412,0.00000000,0.00000000
-0.30309954,-2.07065678,-0.42148894,-0.08650219,-1.01422942,0.00000000,0.00000000,0.06590597,1.88957310,0.80886251,0.02738651,-0.16839142,0.00000000,0.00000000
-0.32928440,-2.08910394,-0.41940561,-0.10240309,-1.03003526,0.00000000,0.00000000,0.05125711,1.89247143,0.79910254,0.01280117,-0.17167300,0.00000000,0.00000000
-0.35668594,-2.10495782,-0.41714087,-0.11873340,-1.04354203,0.00000000,0.00000000,0.03554722,1.89852691,0.79008216,-0.00081725,-0.16874947,0.00000000,0.00000000
-0.38394645,-2.11821055,-0.41455555,-0.13534445,-1.05091178,0.00000000,0.00000000,0.01979937,1.90600634,0.78193778,-0.01348796,-0.16666599,0.00000000,0.00000000
-0.41012886,-2.12862682,-0.41152176,-0.15203124,-1.06289744,0.00000000,0.00000000,0.00407913,1.91337311,0.77477467,-0.02551635,-0.16556309,0.00000000,0.00000000
-0.43488595,-2.13547683,-0.40796292,-0.16843662,-1.07735729,0.00000000,0.00000000,-0.01200269,1.91984677,0.76868892,-0.03707423,-0.15977490,0.00000000,0.00000000
-0.45830804,-2.13747978,-0.40385646,-0.18397973,-1.08876574,0.00000000,0.00000000,-0.02910686,1.92550349,0.76378620,-0.04808910,-0.15095870,0.00000000,0.00000000
-0.48065597,-2.13302135,-0.39921010,-0.19787350,-1.10060418,0.00000000,0.00000000,-0.04814212,1.93086505,0.76018709,-0.05843200,-0.14994861,0.00000000,0.00000000
-0.50261784,-2.12089753,-0.39405578,-0.20954150,-1.11773658,0.00000000,0.00000000,-0.06993752,1.93634737,0.75801229,-0.06804172,-0.14942728,0.00000000,0.00000000
-0.52504528,-2.10085678,-0.38839239,-0.21887082,-1.13562357,0.00000000,0.00000000,-0.09494977,1.94178236,0.75735635,-0.07701363,-0.14753567,0.00000000,0.00000000
-0.54790992,-2.07295418,-0.38208398,-0.22566415,-1.15631628,0.00000000,0.00000000,-0.12323132,1.94652307,0.75828117,-0.08553569,-0.14834841,0.00000000,0.00000000
-0.57010096,-2.03812051,-0.37480685,-0.22983228,-1.18125927,0.00000000,0.00000000,-0.15428181,1.94984245,0.76081246,-0.09361647,-0.14414907,0.00000000,0.00000000
-0.59056824,-1.99945784,-0.36615330,-0.23191582,-1.20044124,0.00000000,0.00000000,-0.18646449,1.95100212,0.76490927,-0.10073432,-0.13986772,0.00000000,0.00000000
-0.60781884,-1.95544052,-0.35592863,-0.22913219,-1.22362435,0.00000000,0.00000000,-0.21749125,1.94887424,0.77046144,-0.10618187,-0.13368163,0.00000000,0.00000000
-0.62281209,-1.90421379,-0.34433556,-0.22010012,-1.24703681,0.00000000,0.00000000,-0.24591307,1.94255018,0.77738512,-0.10949757,-0.12270677,0.00000000,0.00000000
-0.63899922,-1.84866381,-0.33173481,-0.20787913,-1.26838684,0.00000000,0.00000000,-0.27146003,1.93212891,0.78568530,-0.11033908,-0.10807333,0.00000000,0.00000000
-0.65966731,-1.79052174,-0.31854200,-0.19533727,-1.29007339,0.00000000,0.00000000,-0.29494461,1.91797054,0.79542154,-0.10874981,-0.08983132,0.00000000,0.00000000
-0.68672550,-1.73068941,-0.30502400,-0.18415128,-1.31076372,0.00000000,0.00000000,-0.31679583,1.89993930,0.80659586,-0.10479159,-0.07146793,0.00000000,0.00000000
-0.72130686,-1.67239499,-0.29125530,-0.17673089,-1.33566964,0.00000000,0.00000000,-0.33643967,1.87737334,0.81912047,-0.09821977,-0.05505520,0.00000000,0.00000000
-0.76364815,-1.61793172,-0.27721494,-0.17449084,-1.36598146,0.00000000,0.00000000,-0.35265073,1.84912193,0.83284581,-0.08860003,-0.03914703,0.00000000,0.00000000
-0.81110740,-1.56634295,-0.26260483,-0.17593127,-1.39799297,0.00000000,0.00000000,-0.36402309,1.81369698,0.84760302,-0.07547235,-0.02327445,0.00000000,0.00000000
-0.86170965,-1.52315581,-0.24701871,-0.18306462,-1.42841947,0.00000000,0.00000000,-0.36948496,1.77004254,0.86326426,-0.05828031,-0.00695770,0.00000000,0.00000000
-0.91449058,-1.48901463,-0.23027080,-0.19631448,-1.45992541,0.00000000,0.00000000,-0.36957699,1.71779144,0.87978721,-0.03700498,0.01161004,0.00000000,0.00000000
-0.96701294,-1.46151948,-0.21199168,-0.21464106,-1.48784053,0.00000000,0.00000000,-0.36618096,1.65775096,0.89718956,-0.01209527,0.02682360,0.00000000,0.00000000
-1.01639116,-1.43725669,-0.19170254,-0.23653971,-1.51891363,0.00000000,0.00000000,-0.36304545,1.59149587,0.91546923,0.01474610,0.04436391,0.00000000,0.00000000
-1.06081319,-1.41240537,-0.16905080,-0.26049224,-1.54565644,0.00000000,0.00000000,-0.36537647,1.52217698,0.93451589,0.04115002,0.06429582,0.00000000,0.00000000
-1.09978175,-1.38450933,-0.14384587,-0.28573394,-1.57103872,0.00000000,0.00000000,-0.37285697,1.45642745,0.95407701,0.06971102,0.08847010,0.00000000,0.00000000
-1.13381255,-1.35237169,-0.11603809,-0.31195357,-1.59818864,0.00000000,0.00000000,-0.38565782,1.39641619,0.97383702,0.10111115,0.11466336,0.00000000,0.00000000
-1.16389787,-1.31533623,-0.08564464,-0.33876917,-1.62661600,0.00000000,0.00000000,-0.40440762,1.34191537,0.99347389,0.13492915,0.13856146,0.00000000,0.00000000
-1.19100678,-1.27301371,-0.05266523,-0.36557421,-1.65548897,0.00000000,0.00000000,-0.42951089,1.29196191,1.01269007,0.17070988,0.15976888,0.00000000,0.00000000
-1.21584487,-1.22548616,-0.01704843,-0.39176118,-1.68814957,0.00000000,0.00000000,-0.46127462,1.24508047,1.03123116,0.20795032,0.17952833,0.00000000,0.00000000
-1.23878539,-1.17361236,0.02131816,-0.41705224,-1.72610521,0.00000000,0.00000000,-0.49956757,1.20043325,1.04885101,0.24685234,0.19621830,0.00000000,0.00000000
-1.25981021,-1.11924672,0.06264933,-0.44178420,-1.76756740,0.00000000,0.00000000,-0.54373151,1.15817773,1.06528103,0.28865632,0.21459404,0.00000000,0.00000000
-1.27848434,-1.06499839,0.10730552,-0.46700647,-1.81568313,0.00000000,0.00000000,-0.59299928,1.11894488,1.08020055,0.33506727,0.23016445,0.00000000,0.00000000
-1.29411626,-1.01340187,0.15573949,-0.49425170,-1.86289465,0.00000000,0.00000000,-0.64642805,1.08505583,1.09310818,0.38878253,0.24536125,0.00000000,0.00000000
-1.30630207,-0.96638095,0.20820627,-0.52514845,-1.90414083,0.00000000,0.00000000,-0.70263964,1.05916321,1.10362291,0.45207492,0.26313934,0.00000000,0.00000000
-1.31555283,-0.92518026,0.26434454,-0.56092507,-1.94105113,0.00000000,0.00000000,-0.76195151,1.03589332,1.11225581,0.51943231,0.27914402,0.00000000,0.00000000
-1.32366300,-0.88895607,0.32279965,-0.60098886,-1.97488952,0.00000000,0.00000000,-0.82503319,1.00851095,1.11973071,0.58455396,0.30053803,0.00000000,0.00000000
-1.33460236,-0.85335433,0.38031420,-0.64127290,-2.00055027,0.00000000,0.00000000,-0.89366871,0.96967906,1.12642229,0.63945985,0.32656285,0.00000000,0.00000000
-1.35393834,-0.81229603,0.43180507,-0.67587948,-2.02488947,0.00000000,0.00000000,-0.96986157,0.91402739,1.13197613,0.67753601,0.34970668,0.00000000,0.00000000
-1.38476861,-0.76439011,0.47346348,-0.70305258,-2.04546094,0.00000000,0.00000000,-1.05342758,0.84242159,1.13544822,0.69779003,0.36969560,0.00000000,0.00000000
-1.42691493,-0.71048462,0.50382483,-0.72318918,-2.06126475,0.00000000,0.00000000,-1.14310026,0.75881249,1.13545418,0.70117813,0.38770795,0.00000000,0.00000000
-1.47858775,-0.65113217,0.52271014,-0.73600245,-2.07753515,0.00000000,0.00000000,-1.23727453,0.66831321,1.13034439,0.68907624,0.40414122,0.00000000,0.00000000
-1.53722990,-0.58720791,0.53079265,-0.74098527,-2.09302306,0.00000000,0.00000000,-1.33382201,0.57625610,1.11867201,0.66333061,0.42231905,0.00000000,0.00000000
-1.60017025,-0.52057821,0.52909267,-0.73868167,-2.10604739,0.00000000,0.00000000,-1.43007803,0.48723397,1.09955108,0.62595385,0.43804753,0.00000000,0.00000000
-1.66526568,-0.45393583,0.51801103,-0.73052490,-2.11867714,0.00000000,0.00000000,-1.52313650,0.40490657,1.07267284,0.57895637,0.44730625,0.00000000,0.00000000
-1.73073518,-0.39029017,0.49754789,-0.71835023,-2.12960362,0.00000000,0.00000000,-1.61030316,0.33209825,1.03826237,0.52459782,0.45598075,0.00000000,0.00000000
-1.79501510,-0.33272845,0.46815655,-0.70442688,-2.14073777,0.00000000,0.00000000,-1.68959069,0.26999155,0.99736547,0.46580368,0.45884055,0.00000000,0.00000000
-1.85709846,-0.28406674,0.43166393,-0.69164145,-2.14709997,0.00000000,0.00000000,-1.76059866,0.21673217,0.95223749,0.40636942,0.46267137,0.00000000,0.00000000
-1.91692865,-0.24567579,0.39201671,-0.68311739,-2.14990711,0.00000000,0.00000000,-1.82507598,0.16748896,0.90591615,0.35022423,0.46334916,0.00000000,0.00000000
-1.97492433,-0.21551394,0.35413224,-0.68015712,-2.15214515,0.00000000,0.00000000,-1.88585830,0.11823197,0.86057544,0.30005643,0.46031252,0.00000000,0.00000000
-2.03117228,-0.18939409,0.32151023,-0.68138617,-2.16291642,0.00000000,0.00000000,-1.94567275,0.06733483,0.81720304,0.25731972,0.45692644,0.00000000,0.00000000
-2.08533812,-0.16403162,0.29544017,-0.68415225,-2.17104721,0.00000000,0.00000000,-2.00567842,0.01443435,0.77600366,0.22183694,0.45113307,0.00000000,0.00000000
-2.13675499,-0.13817528,0.27512807,-0.68567091,-2.18320680,0.00000000,0.00000000,-2.06431031,-0.03947048,0.73656052,0.19187430,0.44576982,0.00000000,0.00000000
-2.18414807,-0.11247127,0.25766239,-0.68375504,-2.19261575,0.00000000,0.00000000,-2.11703134,-0.09036013,0.69791400,0.16535722,0.43735591,0.00000000,0.00000000
-2.22579098,-0.08960755,0.23892877,-0.67808980,-2.19952488,0.00000000,0.00000000,-2.15811396,-0.13189568,0.65903896,0.14121287,0.42719245,0.00000000,0.00000000
-2.26050162,-0.07312842,0.21589337,-0.67048693,-2.20185351,0.00000000,0.00000000,-2.18332124,-0.15909590,0.61940324,0.11946933,0.42166814,0.00000000,0.00000000
-2.28800678,-0.06480694,0.18770432,-0.66323853,-2.20498514,0.00000000,0.00000000,-2.19082284,-0.17000809,0.57898140,0.10065797,0.41968700,0.00000000,0.00000000
-2.30886030,-0.06395895,0.15533951,-0.65810704,-2.21141887,0.00000000,0.00000000,-2.18146682,-0.16462392,0.53802365,0.08580903,0.42051306,0.00000000,0.00000000
-2.32433820,-0.06846872,0.12078396,-0.65606892,-2.21526194,0.00000000,0.00000000,-2.15867138,-0.14456260,0.49690485,0.07603192,0.42533863,0.00000000,0.00000000
-2.33601952,-0.07547927,0.08628857,-0.65687203,-2.21899557,0.00000000,0.00000000,-2.12780857,-0.11329433,0.45604804,0.07181163,0.42761260,0.00000000,0.00000000
-2.34540558,-0.08161213,0.05399897,-0.65910167,-2.21882463,0.00000000,0.00000000,-2.09522057,-0.07507955,0.41587386,0.07299104,0.43603617,0.00000000,0.00000000
-2.35374212,-0.08420751,0.02559917,-0.66132241,-2.21431136,0.00000000,0.00000000,-2.06617355,-0.03376343,0.37674260,0.07877227,0.44458783,0.00000000,0.00000000
-2.36187220,-0.08228422,0.00212436,-0.66292882,-2.21029115,0.00000000,0.00000000,-2.04404807,0.00748742,0.33896703,0.08785326,0.45376301,0.00000000,0.00000000
-2.37025547,-0.07627548,-0.01591931,-0.66422689,-2.20494843,0.00000000,0.00000000,-2.03082800,0.04587212,0.30286527,0.09865350,0.46769848,0.00000000,0.00000000
-2.37906551,-0.06714779,-0.02843671,-0.66596729,-2.20068860,0.00000000,0.00000000,-2.02759910,0.07882591,0.26877710,0.10952558,0.48215824,0.00000000,0.00000000
-2.38828397,-0.05575943,-0.03566636,-0.66876495,-2.19924164,0.00000000,0.00000000,-2.03477740,0.10406426,0.23703136,0.11890431,0.49542880,0.00000000,0.00000000
-2.39795613,-0.04265252,-0.03789603,-0.67284811,-2.19551802,0.00000000,0.00000000,-2.05226755,0.11967517,0.20788732,0.12542297,0.50641853,0.00000000,0.00000000
-2.40872979,-0.02734084,-0.03505858,-0.67771977,-2.19283700,0.00000000,0.00000000,-2.07956886,0.12423027,0.18146993,0.12803809,0.51266110,0.00000000,0.00000000
-2.42174292,-0.00794198,-0.02684146,-0.68194401,-2.18537307,0.00000000,0.00000000,-2.11563849,0.11720071,0.15769708,0.12628973,0.52229548,0.00000000,0.00000000
-2.43745065,0.01736267,-0.01342360,-0.68382215,-2.17858624,0.00000000,0.00000000,-2.15858483,0.09975448,0.13623738,0.12061520,0.53298938,0.00000000,0.00000000
-2.45474029,0.04808464,0.00391751,-0.68251348,-2.17296290,0.00000000,0.00000000,-2.20585966,0.07454451,0.11660710,0.11206338,0.53789675,0.00000000,0.00000000
-2.47095370,0.08038848,0.02264181,-0.67881823,-2.16415906,0.00000000,0.00000000,-2.25443411,0.04521427,0.09828618,0.10196924,0.54584831,0.00000000,0.00000000
-2.48236108,0.10842830,0.03931744,-0.67503506,-2.15196609,0.00000000,0.00000000,-2.30102301,0.01664161,0.08079450,0.09227564,0.55140221,0.00000000,0.00000000
-2.48540783,0.12696792,0.05067879,-0.67368984,-2.14235353,0.00000000,0.00000000,-2.34292459,-0.00643435,0.06379003,0.08504786,0.55410635,0.00000000,0.00000000
-2.47839999,0.13277957,0.05473614,-0.67628127,-2.13655591,0.00000000,0.00000000,-2.37803125,-0.02170887,0.04705681,0.08132203,0.55460191,0.00000000,0.00000000
-2.46216965,0.12444337,0.05084954,-0.68311840,-2.12926722,0.00000000,0.00000000,-2.40368891,-0.02912293,0.03038464,0.08115102,0.55440992,0.00000000,0.00000000
-2.43987274,0.10264011,0.03937541,-0.69356298,-2.12558246,0.00000000,0.00000000,-2.41632342,-0.02946531,0.01350720,0.08429673,0.55497426,0.00000000,0.00000000
-2.41594434,0.07092911,0.02156594,-0.70623708,-2.12985492,0.00000000,0.00000000,-2.41357517,-0.02345154,-0.00378162,0.09073386,0.55511540,0.00000000,0.00000000
-2.39453030,0.03491309,-0.00028173,-0.71969151,-2.13914013,0.00000000,0.00000000,-2.39663076,-0.01181475,-0.02146181,0.10056367,0.55488878,0.00000000,0.00000000
-2.37813663,0.00004300,-0.02285679,-0.73281664,-2.15168858,0.00000000,0.00000000,-2.36950445,0.00404781,-0.03928862,0.11346416,0.55453908,0.00000000,0.00000000
-2.36753893,-0.02975803,-0.04266731,-0.74446738,-2.15671158,0.00000000,0.00000000,-2.33682537,0.02162651,-0.05690281,0.12827489,0.55374098,0.00000000,0.00000000
-2.36258698,-0.05173971,-0.05717997,-0.75331873,-2.16635966,0.00000000,0.00000000,-2.30289364,0.03803759,-0.07387704,0.14338155,0.55127317,0.00000000,0.00000000
-2.36275578,-0.06426284,-0.06510950,-0.75839251,-2.17671561,0.00000000,0.00000000,-2.27124906,0.05088308,-0.08976398,0.15723613,0.54972041,0.00000000,0.00000000
-2.36752295,-0.06678393,-0.06602918,-0.75935149,-2.18351603,0.00000000,0.00000000,-2.24427462,0.05849567,-0.10418308,0.16858399,0.55420780,0.00000000,0.00000000
-2.37656832,-0.05949754,-0.06004537,-0.75638831,-2.19108033,0.00000000,0.00000000,-2.22326279,0.05980136,-0.11686935,0.17648388,0.55379254,0.00000000,0.00000000
-2.38955641,-0.04313872,-0.04778314,-0.75010121,-2.20518351,0.00000000,0.00000000,-2.20881152,0.05442998,-0.12765974,0.18044789,0.54598063,0.00000000,0.00000000
-2.40566969,-0.01901069,-0.03047746,-0.74142349,-2.21425605,0.00000000,0.00000000,-2.20128441,0.04296058,-0.13644031,0.18058731,0.53339911,0.00000000,0.00000000
-2.42344570,0.01099148,-0.00990837,-0.73148155,-2.21661067,0.00000000,0.00000000,-2.20113349,0.02654293,-0.14310424,0.17739531,0.52051669,0.00000000,0.00000000
-2.44124341,0.04474239,0.01207571,-0.72123957,-2.21639681,0.00000000,0.00000000,-2.20894504,0.00568530,-0.14756651,0.17109543,0.50637013,0.00000000,0.00000000
-2.45803595,0.08028481,0.03423911,-0.71126562,-2.21322560,0.00000000,0.00000000,-2.22472596,-0.01977671,-0.14988373,0.16170740,0.49714488,0.00000000,0.00000000
-2.47368288,0.11574253,0.05620577,-0.70192689,-2.21024585,0.00000000,0.00000000,-2.24695444,-0.04765571,-0.15034589,0.15064439,0.48220354,0.00000000,0.00000000
-2.48816538,0.14971286,0.07782869,-0.69330746,-2.20787239,0.00000000,0.00000000,-2.27293658,-0.07479648,-0.14940578,0.13954319,0.46648553,0.00000000,0.00000000
-2.50078702,0.18191361,0.09845959,-0.68489057,-2.20118117,0.00000000,0.00000000,-2.30030632,-0.10095781,-0.14748216,0.12820707,0.45384327,0.00000000,0.00000000
-2.51032066,0.21162182,0.11690617,-0.67656541,-2.19400764,0.00000000,0.00000000,-2.32773876,-0.12562601,-0.14482723,0.11656408,0.43449038,0.00000000,0.00000000
-2.51536202,0.23757942,0.13172679,-0.66874796,-2.18455267,0.00000000,0.00000000,-2.35430527,-0.14492619,-0.14159396,0.10648867,0.40594146,0.00000000,0.00000000
-2.51452613,0.25851238,0.14153822,-0.66208273,-2.17722034,0.00000000,0.00000000,-2.37954855,-0.15647176,-0.13791081,0.09915392,0.37954959,0.00000000,0.00000000
-2.50666094,0.27285424,0.14536071,-0.65759659,-2.17489171,0.00000000,0.00000000,-2.40245891,-0.16399363,-0.13399199,0.09275106,0.35558811,0.00000000,0.00000000
-2.49111748,0.27839023,0.14298999,-0.65688872,-2.17304993,0.00000000,0.00000000,-2.41869617,-0.16395147,-0.13018927,0.09017813,0.33391458,0.00000000,0.00000000
-2.46827769,0.27363235,0.13543333,-0.66130584,-2.17415833,0.00000000,0.00000000,-2.42593169,-0.15577400,-0.12670200,0.09212997,0.31078675,0.00000000,0.00000000
-2.43968511,0.25908428,0.12484372,-0.67129534,-2.17064381,0.00000000,0.00000000,-2.42322040,-0.14166459,-0.12365213,0.09760838,0.28720570,0.00000000,0.00000000
-2.40802073,0.23746584,0.11404707,-0.68629849,-2.16637015,0.00000000,0.00000000,-2.41146803,-0.12426510,-0.12104106,0.10539959,0.26838183,0.00000000,0.00000000
-2.37619495,0.21255095,0.10575826,-0.70513386,-2.16578007,0.00000000,0.00000000,-2.39440393,-0.10669488,-0.11865807,0.11382446,0.24643052,0.00000000,0.00000000
-2.34638882,0.18821499,0.10203270,-0.72617739,-2.17226553,0.00000000,0.00000000,-2.37636733,-0.09126200,-0.11621505,0.12151497,0.22519317,0.00000000,0.00000000
-2.31961226,0.16748217,0.10400612,-0.74768680,-2.17986417,0.00000000,0.00000000,-2.36046910,-0.07856376,-0.11348811,0.12795262,0.20915107,0.00000000,0.00000000
-2.29601645,0.15166211,0.11198473,-0.76836073,-2.19140768,0.00000000,0.00000000,-2.34829211,-0.06852493,-0.11036526,0.13288446,0.19778590,0.00000000,0.00000000
-2.27549648,0.14057083,0.12572569,-0.78734201,-2.20758343,0.00000000,0.00000000,-2.34028387,-0.06129215,-0.10683050,0.13586672,0.18859608,0.00000000,0.00000000
-2.25817966,0.13314128,0.14468069,-0.80403090,-2.21884418,0.00000000,0.00000000,-2.33611131,-0.05750208,-0.10294343,0.13622245,0.18188067,0.00000000,0.00000000
-2.24444056,0.12787208,0.16819383,-0.81806821,-2.22473884,0.00000000,0.00000000,-2.33486509,-0.05816329,-0.09882258,0.13321528,0.17588821,0.00000000,0.00000000
-2.23466086,0.12334591,0.19577643,-0.82942706,-2.22486091,0.00000000,0.00000000,-2.33503294,-0.06417413,-0.09463500,0.12638678,0.17278676,0.00000000,0.00000000
-2.22915483,0.11885623,0.22740513,-0.83845568,-2.21937919,0.00000000,0.00000000,-2.33461571,-0.07585669,-0.09056403,0.11580926,0.16827697,0.00000000,0.00000000
-2.22807431,0.11465436,0.26356524,-0.84591997,-2.21581650,0.00000000,0.00000000,-2.33190274,-0.09293374,-0.08672532,0.10199015,0.16016258,0.00000000,0.00000000
-2.23114848,0.11169208,0.30498311,-0.85292923,-2.20528626,0.00000000,0.00000000,-2.32601166,-0.11481649,-0.08313544,0.08557816,0.15251026,0.00000000,0.00000000
-2.23761797,0.11124137,0.35225332,-0.86042881,-2.19416523,0.00000000,0.00000000,-2.31673741,-0.14087440,-0.07975879,0.06710979,0.14421520,0.00000000,0.00000000
-2.24653149,0.11431853,0.40552345,-0.86872298,-2.18746901,0.00000000,0.00000000,-2.30425143,-0.17067839,-0.07655938,0.04682757,0.13255471,0.00000000,0.00000000
-2.25684142,0.12142523,0.46427238,-0.87745243,-2.18579841,0.00000000,0.00000000,-2.28878379,-0.20348057,-0.07352793,0.02500857,0.12232179,0.00000000,0.00000000
-2.26728821,0.13235308,0.52709323,-0.88583702,-2.18268728,0.00000000,0.00000000,-2.27003670,-0.23740955,-0.07069167,0.00252137,0.10905119,0.00000000,0.00000000
-2.27625275,0.14567426,0.59135348,-0.89296341,-2.18401647,0.00000000,0.00000000,-2.24668956,-0.26924649,-0.06809045,-0.01893970,0.09442922,0.00000000,0.00000000
-2.28180051,0.15837863,0.65317130,-0.89812970,-2.19036436,0.00000000,0.00000000,-2.21678090,-0.29501289,-0.06574056,-0.03707861,0.07630187,0.00000000,0.00000000
-2.28190565,0.16715616,0.70851016,-0.90071481,-2.19459343,0.00000000,0.00000000,-2.18001294,-0.31118789,-0.06366708,-0.04966983,0.05693868,0.00000000,0.00000000
-2.27467585,0.17109185,0.75507367,-0.89940417,-2.20216298,0.00000000,0.00000000,-2.14036608,-0.31549039,-0.06200399,-0.05510637,0.03136724,0.00000000,0.00000000
-2.25926185,0.17194283,0.79325593,-0.89294219,-2.21281385,0.00000000,0.00000000,-2.10425329,-0.30734926,-0.06095406,-0.05271419,0.00785612,0.00000000,0.00000000
-2.23637176,0.17113282,0.82458377,-0.88175702,-2.22662878,0.00000000,0.00000000,-2.07672286,-0.28842211,-0.06062350,-0.04306245,-0.01600244,0.00000000,0.00000000
-2.20676947,0.16999140,0.85057402,-0.86599672,-2.24370408,0.00000000,0.00000000,-2.06070948,-0.26151466,-0.06096847,-0.02750287,-0.04433428,0.00000000,0.00000000
-2.17075658,0.16960016,0.87217039,-0.84502691,-2.26379895,0.00000000,0.00000000,-2.05758691,-0.22934632,-0.06182519,-0.00760814,-0.07092124,0.00000000,0.00000000
-2.12914538,0.16870408,0.88903797,-0.81964934,-2.28478193,0.00000000,0.00000000,-2.06760097,-0.19444390,-0.06294908,0.01487175,-0.09209677,0.00000000,0.00000000
-2.08354521,0.16427654,0.90012890,-0.79278415,-2.30701303,0.00000000,0.00000000,-2.09014511,-0.15964775,-0.06405304,0.03779265,-0.11580019,0.00000000,0.00000000
-2.03479481,0.15486965,0.90488780,-0.76660317,-2.32663226,0.00000000,0.00000000,-2.12393785,-0.12826341,-0.06485880,0.05868226,-0.14185305,0.00000000,0.00000000
-1.98470879,0.13858572,0.90324700,-0.74276441,-2.34301138,0.00000000,0.00000000,-2.16700935,-0.10347530,-0.06516213,0.07533213,-0.17180237,0.00000000,0.00000000
-1.93477118,0.11457683,0.89571553,-0.72121894,-2.35825419,0.00000000,0.00000000,-2.21695995,-0.08775819,-0.06487414,0.08639445,-0.20453192,0.00000000,0.00000000
-1.88609552,0.08421434,0.88391262,-0.70202655,-2.37661386,0.00000000,0.00000000,-2.27111506,-0.07828681,-0.06400380,0.09408806,-0.23289813,0.00000000,0.00000000
-1.83945918,0.04864434,0.86939543,-0.68553483,-2.39849758,0.00000000,0.00000000,-2.32590199,-0.06754360,-0.06269611,0.10344901,-0.26259938,0.00000000,0.00000000
-1.79601634,0.00822540,0.85363793,-0.67272168,-2.42219758,0.00000000,0.00000000,-2.37654471,-0.05329555,-0.06126931,0.11604609,-0.29202974,0.00000000,0.00000000
-1.75588143,-0.03494582,0.83830619,-0.66337347,-2.44436693,0.00000000,0.00000000,-2.42302561,-0.03738720,-0.05964907,0.13034374,-0.32458469,0.00000000,0.00000000
-1.71858799,-0.07867566,0.82472301,-0.65685987,-2.46708965,0.00000000,0.00000000,-2.46670866,-0.02347726,-0.05765639,0.14316502,-0.35946721,0.00000000,0.00000000
-1.68373740,-0.12224936,0.81354147,-0.65294743,-2.47926164,0.00000000,0.00000000,-2.50676298,-0.01360787,-0.05540459,0.15200526,-0.39246160,0.00000000,0.00000000
-1.65092933,-0.16632393,0.80474442,-0.65154099,-2.48622704,0.00000000,0.00000000,-2.54286766,-0.00842001,-0.05299500,0.15512550,-0.42775136,0.00000000,0.00000000
-1.61927152,-0.21135859,0.79789621,-0.65175581,-2.49579191,0.00000000,0.00000000,-2.57315302,-0.00623834,-0.05074322,0.15273342,-0.46092364,0.00000000,0.00000000
-1.58763564,-0.25785682,0.79207563,-0.65208173,-2.50446033,0.00000000,0.00000000,-2.59480667,-0.00265434,-0.04902232,0.14749919,-0.48980436,0.00000000,0.00000000
-1.55510902,-0.30685014,0.78584307,-0.65088844,-2.51291561,0.00000000,0.00000000,-2.60476685,0.00668480,-0.04816751,0.14275850,-0.52016932,0.00000000,0.00000000
-1.52109921,-0.35880736,0.77778536,-0.64650023,-2.52572989,0.00000000,0.00000000,-2.60195732,0.02304075,-0.04822884,0.14026529,-0.54412526,0.00000000,0.00000000
-1.48538482,-0.41270769,0.76728356,-0.63749820,-2.53383756,0.00000000,0.00000000,-2.58851075,0.04513728,-0.04886200,0.14028732,-0.56464469,0.00000000,0.00000000
-1.44815195,-0.46679652,0.75463486,-0.62329537,-2.54619241,0.00000000,0.00000000,-2.56717372,0.07063239,-0.04969427,0.14252356,-0.58349484,0.00000000,0.00000000
-1.40984678,-0.51981962,0.74054295,-0.60424191,-2.55482435,0.00000000,0.00000000,-2.54133916,0.09408491,-0.05030933,0.14442874,-0.60623753,0.00000000,0.00000000
-1.37101495,-0.57164192,0.72556782,-0.58128178,-2.56305218,0.00000000,0.00000000,-2.51357555,0.11351074,-0.05040181,0.14487225,-0.63002098,0.00000000,0.00000000
-1.33216584,-0.62275696,0.70995170,-0.55532318,-2.56875181,0.00000000,0.00000000,-2.48494101,0.12930915,-0.04986676,0.14377524,-0.65037674,0.00000000,0.00000000
-1.29374611,-0.67358547,0.69370127,-0.52685529,-2.57505202,0.00000000,0.00000000,-2.45544934,0.14243579,-0.04873658,0.14125849,-0.66349810,0.00000000,0.00000000
-1.25618494,-0.72409099,0.67668629,-0.49582013,-2.58056211,0.00000000,0.00000000,-2.42492008,0.15345679,-0.04705648,0.13727358,-0.67291689,0.00000000,0.00000000
-1.21986783,-0.77376705,0.65884387,-0.46192515,-2.58280444,0.00000000,0.00000000,-2.39331269,0.16268787,-0.04482787,0.13184631,-0.68195719,0.00000000,0.00000000
-1.18499351,-0.82175756,0.64035189,-0.42500129,-2.59209013,0.00000000,0.00000000,-2.36092043,0.17042036,-0.04197975,0.12526836,-0.68420011,0.00000000,0.00000000
-1.15138865,-0.86692649,0.62169212,-0.38520613,-2.60066199,0.00000000,0.00000000,-2.32876682,0.17679508,-0.03833093,0.11797208,-0.68238044,0.00000000,0.00000000
-1.11843598,-0.90806997,0.60355991,-0.34308794,-2.60740566,0.00000000,0.00000000,-2.29878402,0.18182720,-0.03359603,0.11040051,-0.67832249,0.00000000,0.00000000
-1.08520222,-0.94426143,0.58665711,-0.29951814,-2.61336780,0.00000000,0.00000000,-2.27335691,0.18588103,-0.02747005,0.10314076,-0.67437452,0.00000000,0.00000000
-1.05067253,-0.97503024,0.57150722,-0.25550359,-2.62100244,0.00000000,0.00000000,-2.25467253,0.18978326,-0.01971350,0.09694226,-0.66180527,0.00000000,0.00000000
-1.01394510,-1.00046122,0.55837137,-0.21208826,-2.62504697,0.00000000,0.00000000,-2.24432945,0.19429016,-0.01017903,0.09244987,-0.64773983,0.00000000,0.00000000
-0.97435755,-1.02145946,0.54724216,-0.17042102,-2.63193345,0.00000000,0.00000000,-2.24313378,0.19943433,0.00119596,0.08989459,-0.63710475,0.00000000,0.00000000
-0.93154407,-1.03965676,0.53790426,-0.13166294,-2.63584971,0.00000000,0.00000000,-2.25114870,0.20425944,0.01441960,0.08897104,-0.62987816,0.00000000,0.00000000
-0.88541228,-1.05684996,0.53003204,-0.09674691,-2.64012337,0.00000000,0.00000000,-2.26804399,0.20677917,0.02948963,0.08874394,-0.61960006,0.00000000,0.00000000
-0.83614314,-1.07456279,0.52326405,-0.06616978,-2.64423609,0.00000000,0.00000000,-2.29399014,0.20479447,0.04647195,0.08800795,-0.60797590,0.00000000,0.00000000
-0.78423762,-1.09384453,0.51724690,-0.03986537,-2.64955497,0.00000000,0.00000000,-2.32930589,0.19822341,0.06543945,0.08653539,-0.59271461,0.00000000,0.00000000
-0.73058748,-1.11502302,0.51167089,-0.01708085,-2.65206122,0.00000000,0.00000000,-2.37155318,0.18684250,0.08616578,0.08368608,-0.57919538,0.00000000,0.00000000
-0.67658353,-1.13772905,0.50629157,0.00364612,-2.64826202,0.00000000,0.00000000,-2.41756964,0.17276333,0.10833880,0.08024182,-0.56062180,0.00000000,0.00000000
-0.62383443,-1.16045177,0.50094950,0.02435812,-2.64079905,0.00000000,0.00000000,-2.46446609,0.15869649,0.13168769,0.07741839,-0.54746717,0.00000000,0.00000000
-0.57370144,-1.18082535,0.49555814,0.04712570,-2.62910128,0.00000000,0.00000000,-2.51037931,0.14653780,0.15605883,0.07612358,-0.53152126,0.00000000,0.00000000
-0.52702230,-1.19690752,0.49007255,0.07328670,-2.61232877,0.00000000,0.00000000,-2.55405688,0.13716686,0.18137236,0.07680003,-0.51252615,0.00000000,0.00000000
-0.48424485,-1.20843744,0.48449272,0.10304619,-2.60660100,0.00000000,0.00000000,-2.59272194,0.13186821,0.20742036,0.07982577,-0.49895898,0.00000000,0.00000000
-0.44574371,-1.21710563,0.47890180,0.13566251,-2.59981346,0.00000000,0.00000000,-2.62240481,0.13255297,0.23387264,0.08564683,-0.48604077,0.00000000,0.00000000
-0.41163674,-1.22557044,0.47342244,0.16976827,-2.59433675,0.00000000,0.00000000,-2.64184833,0.13799585,0.26063329,0.09334818,-0.47515428,0.00000000,0.00000000
-0.38165426,-1.23594117,0.46811834,0.20393728,-2.58569765,0.00000000,0.00000000,-2.65118289,0.14447290,0.28775579,0.10065968,-0.46899766,0.00000000,0.00000000
-0.35548019,-1.24958146,0.46300223,0.23701622,-2.57827544,0.00000000,0.00000000,-2.65229368,0.14828020,0.31551278,0.10555535,-0.46033841,0.00000000,0.00000000
-0.33282533,-1.26670170,0.45800397,0.26827645,-2.57101989,0.00000000,0.00000000,-2.64738345,0.14759828,0.34422037,0.10704298,-0.45654535,0.00000000,0.00000000
-0.31342870,-1.28623021,0.45298144,0.29737934,-2.56842184,0.00000000,0.00000000,-2.63793874,0.14322852,0.37406686,0.10553718,-0.44651344,0.00000000,0.00000000
-0.29727444,-1.30639696,0.44789442,0.32430893,-2.56747770,0.00000000,0.00000000,-2.62445474,0.13741063,0.40507787,0.10229409,-0.43695080,0.00000000,0.00000000
-0.28461394,-1.32549739,0.44295707,0.34922719,-2.56860471,0.00000000,0.00000000,-2.60650992,0.13218334,0.43717211,0.09848993,-0.42526904,0.00000000,0.00000000
-0.27550134,-1.34229755,0.43859562,0.37225378,-2.56718588,0.00000000,0.00000000,-2.58357692,0.12882966,0.47027203,0.09505647,-0.40737721,0.00000000,0.00000000
-0.26917520,-1.35622704,0.43533158,0.39335850,-2.56288171,0.00000000,0.00000000,-2.55594206,0.12817581,0.50438464,0.09309976,-0.39163989,0.00000000,0.00000000
-0.26380396,-1.36767852,0.43362400,0.41237491,-2.55511642,0.00000000,0.00000000,-2.52517891,0.13012382,0.53965437,0.09386086,-0.37688923,0.00000000,0.00000000
-0.25706786,-1.37775564,0.43367413,0.42906642,-2.54545498,0.00000000,0.00000000,-2.49378514,0.13296150,0.57636684,0.09821522,-0.36070037,0.00000000,0.00000000
-0.24727041,-1.38758647,0.43541074,0.44318995,-2.53334832,0.00000000,0.00000000,-2.46375489,0.13476856,0.61481100,0.10670527,-0.34696054,0.00000000,0.00000000
-0.23426385,-1.39687288,0.43848971,0.45458779,-2.51702547,0.00000000,0.00000000,-2.43565917,0.13442960,0.65517551,0.11955141,-0.33379719,0.00000000,0.00000000
-0.22005263,-1.40263212,0.44211042,0.46316737,-2.49790859,0.00000000,0.00000000,-2.40835166,0.13136066,0.69749928,0.13627908,-0.32151952,0.00000000,0.00000000
-0.20689061,-1.40392375,0.44515803,0.46877265,-2.48119330,0.00000000,0.00000000,-2.37945032,0.12632330,0.74161726,0.15629090,-0.31196505,0.00000000,0.00000000
-0.19630042,-1.40046060,0.44680977,0.47171101,-2.45959210,0.00000000,0.00000000,-2.34758186,0.12080048,0.78737414,0.18003494,-0.29827955,0.00000000,0.00000000
-0.18892410,-1.39319015,0.44686013,0.47242194,-2.43345952,0.00000000,0.00000000,-2.31255651,0.11565056,0.83475178,0.20866552,-0.28785902,0.00000000,0.00000000
-0.18508017,-1.38488388,0.44579753,0.47110119,-2.40750885,0.00000000,0.00000000,-2.27542400,0.11172157,0.88379073,0.24372914,-0.27629963,0.00000000,0.00000000
-0.18508796,-1.37966752,0.44473976,0.46748722,-2.37474489,0.00000000,0.00000000,-2.23780370,0.11090314,0.93443018,0.28631181,-0.26106167,0.00000000,0.00000000
-0.18915381,-1.38066483,0.44494194,0.46121994,-2.34478903,0.00000000,0.00000000,-2.19980073,0.10896933,0.98724884,0.33457464,-0.24357437,0.00000000,0.00000000
-0.19700420,-1.38932443,0.44729191,0.45193589,-2.31057858,0.00000000,0.00000000,-2.16106653,0.10579015,1.04224253,0.38804093,-0.22802095,0.00000000,0.00000000
-0.20794921,-1.40607119,0.45232698,0.43931821,-2.27839994,0.00000000,0.00000000,-2.12113523,0.10338099,1.09895051,0.44651440,-0.20871371,0.00000000,0.00000000
-0.22137566,-1.43055069,0.46031791,0.42341277,-2.24672699,0.00000000,0.00000000,-2.07900953,0.10408060,1.15643501,0.50880665,-0.19151603,0.00000000,0.00000000
-0.23715241,-1.46028268,0.47100395,0.40539113,-2.21749210,0.00000000,0.00000000,-2.03316331,0.11161644,1.21280324,0.57273585,-0.17391321,0.00000000,0.00000000
-0.25556067,-1.48872530,0.48329216,0.38849291,-2.18949866,0.00000000,0.00000000,-1.98171687,0.13219230,1.26453984,0.63533801,-0.15464529,0.00000000,0.00000000
-0.27707672,-1.50782943,0.49584177,0.37697574,-2.16779995,0.00000000,0.00000000,-1.92261672,0.17171361,1.30760944,0.69373780,-0.12936431,0.00000000,0.00000000
-0.30224597,-1.51498640,0.50825036,0.37272680,-2.14494681,0.00000000,0.00000000,-1.85439312,0.22969812,1.34076607,0.74611372,-0.10003633,0.00000000,0.00000000
-0.33064017,-1.51256549,0.52064174,0.37487277,-2.12250471,0.00000000,0.00000000,-1.77680945,0.30279678,1.36451662,0.79088002,-0.07146484,0.00000000,0.00000000
-0.36046207,-1.50525153,0.53309989,0.38107789,-2.09194040,0.00000000,0.00000000,-1.69055343,0.38768849,1.37971878,0.82638162,-0.03965640,0.00000000,0.00000000
-0.38944036,-1.49817502,0.54559886,0.38898656,-2.05943775,0.00000000,0.00000000,-1.59676158,0.48089987,1.38752007,0.85093397,-0.00467980,0.00000000,0.00000000
-0.41603082,-1.49464130,0.55804300,0.39744720,-2.03081703,0.00000000,0.00000000,-1.49671531,0.57829863,1.38956642,0.86295152,0.02739903,0.00000000,0.00000000
-0.43973050,-1.49484587,0.57016343,0.40664607,-2.00262380,0.00000000,0.00000000,-1.39185798,0.67539543,1.38784814,0.86124212,0.05845020,0.00000000,0.00000000
-0.46046808,-1.49626231,0.58131719,0.41773060,-1.97931981,0.00000000,0.00000000,-1.28401113,0.76824415,1.38420498,0.84542245,0.08879082,0.00000000,0.00000000
-0.47859973,-1.49589467,0.59088099,0.43176305,-1.95351207,0.00000000,0.00000000,-1.17489624,0.85323793,1.38041258,0.81632620,0.11903574,0.00000000,0.00000000
-0.49488702,-1.49277806,0.59869719,0.44831699,-1.92795324,0.00000000,0.00000000,-1.06510377,0.92645895,1.37861311,0.77691120,0.14249662,0.00000000,0.00000000
-0.50884986,-1.48881185,0.60454541,0.46431607,-1.90145838,0.00000000,0.00000000,-0.95437205,0.98603880,1.38024008,0.73310840,0.16148318,0.00000000,0.00000000
-0.51806051,-1.48901951,0.60793561,0.47467017,-1.87075460,0.00000000,0.00000000,-0.84356189,1.03555405,1.38414407,0.69170260,0.18279766,0.00000000,0.00000000
-0.52113390,-1.49450922,0.60807705,0.47780237,-1.84084618,0.00000000,0.00000000,-0.73432785,1.07975137,1.38834023,0.65617883,0.19599393,0.00000000,0.00000000
-0.51815033,-1.50272930,0.60422266,0.47505772,-1.81293881,0.00000000,0.00000000,-0.62836325,1.12113249,1.39159060,0.62657911,0.21228181,0.00000000,0.00000000
-0.50978500,-1.51015019,0.59594411,0.46873441,-1.78843296,0.00000000,0.00000000,-0.52739751,1.15976739,1.39350808,0.60082054,0.22716680,0.00000000,0.00000000
-0.49751863,-1.51350832,0.58351690,0.46161953,-1.76638258,0.00000000,0.00000000,-0.43259749,1.19354010,1.39453435,0.57635474,0.23687188,0.00000000,0.00000000
-0.48388416,-1.51080549,0.56818748,0.45652121,-1.75328994,0.00000000,0.00000000,-0.34371132,1.21909213,1.39571297,0.55199057,0.25081953,0.00000000,0.00000000
-0.47092438,-1.50159669,0.55157512,0.45511898,-1.73957050,0.00000000,0.00000000,-0.26011765,1.23489261,1.39757538,0.52787793,0.25947288,0.00000000,0.00000000
-0.45901823,-1.48617220,0.53507274,0.45758414,-1.72716141,0.00000000,0.00000000,-0.18223515,1.24306357,1.39948833,0.50432432,0.26799449,0.00000000,0.00000000
-0.44752008,-1.46573532,0.51998168,0.46296319,-1.71382642,0.00000000,0.00000000,-0.11094173,1.24788499,1.40026617,0.48166543,0.27905869,0.00000000,0.00000000
-0.43546563,-1.44351959,0.50752485,0.46958512,-1.70675147,0.00000000,0.00000000,-0.04698208,1.25506258,1.39848661,0.46064651,0.28466606,0.00000000,0.00000000
-0.42190662,-1.42476773,0.49854523,0.47566617,-1.70100188,0.00000000,0.00000000,0.00895487,1.27108860,1.39263153,0.44212362,0.28858131,0.00000000,0.00000000
-0.40623409,-1.41453111,0.49323910,0.47976425,-1.69640946,0.00000000,0.00000000,0.05611033,1.30131376,1.38150346,0.42636552,0.29395196,0.00000000,0.00000000
-0.38809681,-1.41565645,0.49119601,0.48085630,-1.70278680,0.00000000,0.00000000,0.09352437,1.34846485,1.36451471,0.41268381,0.29533130,0.00000000,0.00000000
-0.36730406,-1.42917073,0.49160433,0.47844708,-1.70837843,0.00000000,0.00000000,0.12051651,1.41283488,1.34166908,0.40021411,0.29639724,0.00000000,0.00000000
-0.34425262,-1.45488930,0.49344370,0.47276956,-1.71808827,0.00000000,0.00000000,0.13796024,1.49267578,1.31359923,0.38926026,0.30079100,0.00000000,0.00000000
-0.32022095,-1.48998809,0.49547800,0.46518719,-1.72806251,0.00000000,0.00000000,0.14823148,1.58365619,1.28163588,0.38075507,0.30385262,0.00000000,0.00000000
-0.29676718,-1.52962112,0.49640384,0.45781979,-1.73908401,0.00000000,0.00000000,0.15351489,1.68035889,1.24731505,0.37489605,0.30811819,0.00000000,0.00000000
-0.27487558,-1.56953561,0.49521482,0.45234060,-1.74811375,0.00000000,0.00000000,0.15529813,1.77707005,1.21210420,0.37102863,0.31423184,0.00000000,0.00000000
-0.25477299,-1.60775197,0.49141335,0.44937801,-1.76016021,0.00000000,0.00000000,0.15503985,1.86841297,1.17728865,0.36843106,0.31235152,0.00000000,0.00000000
-0.23585662,-1.64495957,0.48496866,0.44841442,-1.76582110,0.00000000,0.00000000,0.15468970,1.95009375,1.14388144,0.36683506,0.30953330,0.00000000,0.00000000
-0.21674636,-1.68329632,0.47606331,0.44823623,-1.77470195,0.00000000,0.00000000,0.15681000,2.01941776,1.11258626,0.36658192,0.30621159,0.00000000,0.00000000
-0.19596647,-1.72420239,0.46473768,0.44785032,-1.78696191,0.00000000,0.00000000,0.16337886,2.07572126,1.08366597,0.36814651,0.29353112,0.00000000,0.00000000
-0.17258008,-1.76853907,0.45082489,0.44630370,-1.79920244,0.00000000,0.00000000,0.17414780,2.11918449,1.05703926,0.37109107,0.27938023,0.00000000,0.00000000
-0.14590794,-1.81758881,0.43404812,0.44207987,-1.81159163,0.00000000,0.00000000,0.18709569,2.14945793,1.03257835,0.37401178,0.25932059,0.00000000,0.00000000
-0.11533275,-1.87188029,0.41416067,0.43323267,-1.82092261,0.00000000,0.00000000,0.20035821,2.16564655,1.01036072,0.37540299,0.24271089,0.00000000,0.00000000
-0.08058102,-1.92873120,0.39126584,0.41779533,-1.83316839,0.00000000,0.00000000,0.21307929,2.16974735,0.99079174,0.37393224,0.22613269,0.00000000,0.00000000
-0.04156920,-1.98388720,0.36590642,0.39467672,-1.84134519,0.00000000,0.00000000,0.22497517,2.17000008,0.97430342,0.36858532,0.20733342,0.00000000,0.00000000
0.00151950,-2.03502750,0.33890465,0.36384580,-1.84987438,0.00000000,0.00000000,0.23615909,2.17000008,0.96107525,0.35900161,0.19423698,0.00000000,0.00000000
0.04728510,-2.08086491,0.31124792,0.32611021,-1.85767162,0.00000000,0.00000000,0.24685681,2.16988397,0.95095581,0.34545186,0.18461047,0.00000000,0.00000000
0.09279761,-2.11991334,0.28394359,0.28307790,-1.86253929,0.00000000,0.00000000,0.25691503,2.16799569,0.94345754,0.32859597,0.18211961,0.00000000,0.00000000
0.13428164,-2.14937687,0.25773180,0.23736075,-1.87518489,0.00000000,0.00000000,0.26544493,2.16051149,0.93782997,0.30919072,0.18097478,0.00000000,0.00000000
0.16852590,-2.16562009,0.23287933,0.19248669,-1.89037025,0.00000000,0.00000000,0.27125967,2.14707708,0.93331504,0.28791857,0.18398857,0.00000000,0.00000000
0.19401205,-2.16974592,0.20926178,0.15233681,-1.90790367,0.00000000,0.00000000,0.27363774,2.13033152,0.92939550,0.26542217,0.18744676,0.00000000,0.00000000
0.21062912,-2.17000008,0.18663798,0.12017658,-1.91743791,0.00000000,0.00000000,0.27257663,2.11278057,0.92581034,0.24245514,0.19486061,0.00000000,0.00000000
0.21821763,-2.17000008,0.16487725,0.09785330,-1.92383754,0.00000000,0.00000000,0.26857945,2.09652877,0.92242420,0.22002336,0.20117064,0.00000000,0.00000000
0.21594360,-2.17000008,0.14397226,0.08567701,-1.92269206,0.00000000,0.00000000,0.26219344,2.08354378,0.91913205,0.19928835,0.20821515,0.00000000,0.00000000
0.20276073,-2.16998601,0.12396409,0.08268715,-1.92337167,0.00000000,0.00000000,0.25374067,2.07539296,0.91584843,0.18139671,0.22358446,0.00000000,0.00000000
0.17787501,-2.16960979,0.10490235,0.08673416,-1.92756450,0.00000000,0.00000000,0.24327938,2.07296658,0.91251594,0.16732922,0.23856902,0.00000000,0.00000000
0.14067633,-2.16633081,0.08683675,0.09450559,-1.92632926,0.00000000,0.00000000,0.23116180,2.07644296,0.90913492,0.15798794,0.25393814,0.00000000,0.00000000
0.09070206,-2.15617490,0.06979281,0.10226647,-1.92045987,0.00000000,0.00000000,0.21908942,2.08533478,0.90582025,0.15450871,0.26526999,0.00000000,0.00000000
0.02826573,-2.14129162,0.05370931,0.10712910,-1.91249096,0.00000000,0.00000000,0.20973904,2.09864783,0.90277058,0.15799305,0.27700785,0.00000000,0.00000000
-0.04470693,-2.12573290,0.03838608,0.10719895,-1.90846384,0.00000000,0.00000000,0.20481135,2.11487651,0.90016323,0.16854151,0.28909472,0.00000000,0.00000000
-0.12493055,-2.11268353,0.02352322,0.10126550,-1.90188265,0.00000000,0.00000000,0.20449725,2.13201237,0.89812058,0.18506542,0.30733427,0.00000000,0.00000000
-0.20852663,-2.10459042,0.00881520,0.08868223,-1.89293194,0.00000000,0.00000000,0.20812067,2.14782190,0.89671946,0.20586504,0.33050305,0.00000000,0.00000000
-0.29150528,-2.10299468,-0.00595839,0.06944701,-1.88822269,0.00000000,0.00000000,0.21460079,2.16023612,0.89597869,0.22917487,0.34751776,0.00000000,0.00000000
-0.36968946,-2.10843873,-0.02087754,0.04420063,-1.88492441,0.00000000,0.00000000,0.22220439,2.16757536,0.89580894,0.25322697,0.36155269,0.00000000,0.00000000
-0.43840688,-2.11998129,-0.03584396,0.01445042,-1.88123930,0.00000000,0.00000000,0.22862247,2.16975999,0.89609003,0.27603346,0.38500911,0.00000000,0.00000000
-0.49218586,-2.13559294,-0.05055484,-0.01776432,-1.87931538,0.00000000,0.00000000,0.23231526,2.16999245,0.89689791,0.29574522,0.40555707,0.00000000,0.00000000
-0.52773499,-2.15238953,-0.06455681,-0.05027269,-1.87332189,0.00000000,0.00000000,0.23440772,2.17000008,0.89872515,0.31154519,0.42709902,0.00000000,0.00000000
-0.54769790,-2.16432428,-0.07746883,-0.07960378,-1.86555886,0.00000000,0.00000000,0.23557809,2.17000008,0.90192723,0.32262689,0.44742614,0.00000000,0.00000000
-0.55504435,-2.16907120,-0.08904123,-0.10382590,-1.85635126,0.00000000,0.00000000,0.23392756,2.17000008,0.90579349,0.32913148,0.46521389,0.00000000,0.00000000
-0.55157924,-2.16995239,-0.09912835,-0.12217319,-1.84654212,0.00000000,0.00000000,0.23197965,2.16999674,0.91021109,0.33292902,0.49262321,0.00000000,0.00000000
-0.53876603,-2.17000008,-0.10767064,-0.13434446,-1.83622384,0.00000000,0.00000000,0.22919884,2.16978192,0.91492170,0.33341533,0.52110267,0.00000000,0.00000000
-0.51804286,-2.17000008,-0.11467726,-0.14100255,-1.83216989,0.00000000,0.00000000,0.22236246,2.16703796,0.91978091,0.32773960,0.55295283,0.00000000,0.00000000
-0.49063379,-2.17000008,-0.12020300,-0.14296745,-1.82405961,0.00000000,0.00000000,0.21033315,2.15782571,0.92453897,0.31518707,0.58199352,0.00000000,0.00000000
-0.45754641,-2.17000008,-0.12434385,-0.14061578,-1.81490958,0.00000000,0.00000000,0.19429833,2.14340854,0.92900336,0.29717913,0.61471474,0.00000000,0.00000000
-0.41946828,-2.17000008,-0.12720752,-0.13426527,-1.80531251,0.00000000,0.00000000,0.17462316,2.12403679,0.93328613,0.27449909,0.65524936,0.00000000,0.00000000
-0.37656939,-2.17000008,-0.12887599,-0.12472062,-1.79621828,0.00000000,0.00000000,0.14970000,2.10168576,0.93703985,0.24799502,0.68592817,0.00000000,0.00000000
-0.33063874,-2.17000008,-0.12957707,-0.11113850,-1.78689063,0.00000000,0.00000000,0.12172112,2.07980657,0.94020593,0.22072729,0.71206695,0.00000000,0.00000000
-0.28986505,-2.17000008,-0.13003567,-0.08939290,-1.77755082,0.00000000,0.00000000,0.09615348,2.06120801,0.94315434,0.19687964,0.73282051,0.00000000,0.00000000
-0.25761881,-2.16997790,-0.13047944,-0.06142957,-1.76591516,0.00000000,0.00000000,0.07637940,2.04571319,0.94633979,0.17830420,0.75568163,0.00000000,0.00000000
-0.23249140,-2.16960335,-0.13077031,-0.03046508,-1.75343299,0.00000000,0.00000000,0.06392762,2.03204966,0.95010304,0.16539125,0.78171426,0.00000000,0.00000000
-0.21303590,-2.16797900,-0.13083117,0.00041973,-1.73522377,0.00000000,0.00000000,0.05990465,2.01903844,0.95469958,0.15826231,0.80476582,0.00000000,0.00000000
-0.19737594,-2.16495919,-0.13068926,0.02888211,-1.72287178,0.00000000,0.00000000,0.06392676,2.00704217,0.96014690,0.15683545,0.82815367,0.00000000,0.00000000
-0.18298557,-2.16193652,-0.13046964,0.05369828,-1.71574843,0.00000000,0.00000000,0.07425399,1.99695659,0.96631950,0.16057506,0.85444289,0.00000000,0.00000000
-0.16768734,-2.16006732,-0.13035834,0.07437038,-1.71074700,0.00000000,0.00000000,0.08812010,1.98957109,0.97301328,0.16835952,0.88015050,0.00000000,0.00000000
-0.15140334,-2.15954089,-0.13048245,0.09082014,-1.70244050,0.00000000,0.00000000,0.10238805,1.98651171,0.97989762,0.17905085,0.90179372,0.00000000,0.00000000
-0.13670634,-2.15993071,-0.13081217,0.10313957,-1.69515026,0.00000000,0.00000000,0.11527599,1.98902726,0.98671389,0.19202338,0.91928762,0.00000000,0.00000000
-0.12629882,-2.16087127,-0.13125752,0.11139863,-1.69297612,0.00000000,0.00000000,0.12663130,1.99509346,0.99357253,0.20646948,0.94030106,0.00000000,0.00000000
-0.12135103,-2.16206837,-0.13177940,0.11574949,-1.69078434,0.00000000,0.00000000,0.13673778,2.00174570,1.00071359,0.22158879,0.96668625,0.00000000,0.00000000
-0.12194828,-2.16327667,-0.13238609,0.11641701,-1.69018400,0.00000000,0.00000000,0.14506207,2.00825310,1.00809908,0.23687440,0.98838586,0.00000000,0.00000000
-0.12752363,-2.16452003,-0.13311610,0.11357954,-1.68275023,0.00000000,0.00000000,0.14986397,2.01588845,1.01533759,0.25170025,1.00997043,0.00000000,0.00000000
-0.13720837,-2.16575527,-0.13401404,0.10758425,-1.67297816,0.00000000,0.00000000,0.15009928,2.02642918,1.02196074,0.26581800,1.02285194,0.00000000,0.00000000
-0.15019485,-2.16559887,-0.13509405,0.09991448,-1.66552246,0.00000000,0.00000000,0.14612068,2.04053903,1.02771902,0.27953193,1.03474867,0.00000000,0.00000000
-0.16534030,-2.16446066,-0.13637818,0.09196103,-1.65146565,0.00000000,0.00000000,0.13809936,2.05627108,1.03272414,0.29235905,1.05529070,0.00000000,0.00000000
