isaac-sim2real/sage/motion_files/wr75s/amass/0-Eyes_Japan_Dataset_hamada_gesture_etc-29-pantomime-hamada_poses_idx47.txt
l_joint1,l_joint2,l_joint3,l_joint4,l_joint5,l_joint6,l_joint7,r_joint1,r_joint2,r_joint3,r_joint4,r_joint5,r_joint6,r_joint7
-2.28202844,-0.44343361,-0.22387464,-0.60575074,-0.14693077,0.00000000,0.00000000,-1.46116793,0.84173262,0.26664338,-0.58887422,-0.05406549,0.00000000,0.00000000
-2.28200793,-0.44385323,-0.22384587,-0.60573965,-0.17265734,0.00000000,0.00000000,-1.46138656,0.84128720,0.26616621,-0.58900857,-0.06201064,0.00000000,0.00000000
-2.28197670,-0.44456616,-0.22393748,-0.60574758,-0.19539537,0.00000000,0.00000000,-1.46165264,0.84076625,0.26540896,-0.58916384,-0.07111331,0.00000000,0.00000000
-2.28194880,-0.44549865,-0.22422922,-0.60579461,-0.21860860,0.00000000,0.00000000,-1.46187568,0.84038645,0.26445597,-0.58926237,-0.08247732,0.00000000,0.00000000
-2.28194785,-0.44657588,-0.22468494,-0.60585213,-0.23865543,0.00000000,0.00000000,-1.46205497,0.84015191,0.26328874,-0.58929968,-0.09274176,0.00000000,0.00000000
-2.28198886,-0.44772628,-0.22518913,-0.60587645,-0.25730652,0.00000000,0.00000000,-1.46223199,0.83991903,0.26183972,-0.58935082,-0.10116834,0.00000000,0.00000000
-2.28206205,-0.44891164,-0.22556300,-0.60583735,-0.27222404,0.00000000,0.00000000,-1.46247768,0.83943880,0.26000410,-0.58955210,-0.11003770,0.00000000,0.00000000
-2.28212118,-0.45001373,-0.22560321,-0.60565567,-0.28401011,0.00000000,0.00000000,-1.46284676,0.83853334,0.25768614,-0.59000945,-0.12302218,0.00000000,0.00000000
-2.28209400,-0.45083293,-0.22514798,-0.60520005,-0.29107705,0.00000000,0.00000000,-1.46334243,0.83719814,0.25483695,-0.59075087,-0.13730587,0.00000000,0.00000000
-2.28191423,-0.45127571,-0.22416539,-0.60439384,-0.29533893,0.00000000,0.00000000,-1.46391332,0.83551884,0.25145856,-0.59177268,-0.15551391,0.00000000,0.00000000
-2.28155565,-0.45133808,-0.22277582,-0.60324049,-0.29970288,0.00000000,0.00000000,-1.46446276,0.83367187,0.24759491,-0.59304297,-0.16988279,0.00000000,0.00000000
-2.28099489,-0.45112583,-0.22118334,-0.60186046,-0.30320179,0.00000000,0.00000000,-1.46485424,0.83189750,0.24332631,-0.59451932,-0.18233603,0.00000000,0.00000000
-2.28018475,-0.45090741,-0.21961649,-0.60049361,-0.30672365,0.00000000,0.00000000,-1.46494496,0.83042991,0.23873594,-0.59616989,-0.19483127,0.00000000,0.00000000
-2.27907681,-0.45094606,-0.21828024,-0.59933329,-0.31136143,0.00000000,0.00000000,-1.46462381,0.82947451,0.23387249,-0.59795445,-0.20787896,0.00000000,0.00000000
-2.27765560,-0.45134184,-0.21730810,-0.59840810,-0.31392610,0.00000000,0.00000000,-1.46382022,0.82917035,0.22874421,-0.59983069,-0.21973467,0.00000000,0.00000000
-2.27592826,-0.45212451,-0.21676925,-0.59768647,-0.32158235,0.00000000,0.00000000,-1.46249890,0.82955611,0.22332600,-0.60178632,-0.22794829,0.00000000,0.00000000
-2.27389669,-0.45339420,-0.21668169,-0.59718883,-0.32208553,0.00000000,0.00000000,-1.46065652,0.83054501,0.21756624,-0.60386848,-0.23085079,0.00000000,0.00000000
-2.27155876,-0.45529985,-0.21699779,-0.59695429,-0.32142779,0.00000000,0.00000000,-1.45833087,0.83191466,0.21137273,-0.60619968,-0.23381950,0.00000000,0.00000000
-2.26892042,-0.45783341,-0.21763819,-0.59693772,-0.32279861,0.00000000,0.00000000,-1.45557714,0.83350980,0.20463446,-0.60887361,-0.24028660,0.00000000,0.00000000
-2.26599383,-0.46064284,-0.21850260,-0.59691346,-0.31871828,0.00000000,0.00000000,-1.45241618,0.83541989,0.19727685,-0.61185968,-0.24342524,0.00000000,0.00000000
-2.26277375,-0.46341500,-0.21948439,-0.59666574,-0.30843908,0.00000000,0.00000000,-1.44881856,0.83773988,0.18928365,-0.61511934,-0.24559994,0.00000000,0.00000000
-2.25924134,-0.46598244,-0.22051318,-0.59606826,-0.29570016,0.00000000,0.00000000,-1.44470417,0.84054589,0.18070073,-0.61862409,-0.24138440,0.00000000,0.00000000
-2.25536442,-0.46832067,-0.22157587,-0.59513402,-0.27478766,0.00000000,0.00000000,-1.43996346,0.84394521,0.17161265,-0.62233567,-0.24095969,0.00000000,0.00000000
-2.25109363,-0.47052824,-0.22268116,-0.59396213,-0.25931334,0.00000000,0.00000000,-1.43450046,0.84801596,0.16209662,-0.62623346,-0.24198560,0.00000000,0.00000000
-2.24638247,-0.47273272,-0.22383633,-0.59262168,-0.24821128,0.00000000,0.00000000,-1.42824292,0.85275638,0.15221383,-0.63033903,-0.24167261,0.00000000,0.00000000
-2.24120092,-0.47508204,-0.22506119,-0.59116203,-0.24129476,0.00000000,0.00000000,-1.42110634,0.85808396,0.14205226,-0.63471985,-0.24597520,0.00000000,0.00000000
-2.23551989,-0.47773322,-0.22636905,-0.58963716,-0.22898775,0.00000000,0.00000000,-1.41299963,0.86386234,0.13172080,-0.63946831,-0.25149706,0.00000000,0.00000000
-2.22931647,-0.48078817,-0.22775111,-0.58806676,-0.22159007,0.00000000,0.00000000,-1.40386283,0.86993045,0.12130223,-0.64467090,-0.25562373,0.00000000,0.00000000
-2.22256756,-0.48424017,-0.22916441,-0.58639741,-0.21517406,0.00000000,0.00000000,-1.39367473,0.87613529,0.11084042,-0.65038335,-0.25195998,0.00000000,0.00000000
-2.21523499,-0.48796627,-0.23052880,-0.58449161,-0.20114860,0.00000000,0.00000000,-1.38244951,0.88238841,0.10033997,-0.65660000,-0.23997115,0.00000000,0.00000000
-2.20725393,-0.49184573,-0.23174958,-0.58219504,-0.18700451,0.00000000,0.00000000,-1.37022746,0.88865024,0.08977486,-0.66327488,-0.23156090,0.00000000,0.00000000
-2.19853497,-0.49586794,-0.23277007,-0.57941663,-0.17764221,0.00000000,0.00000000,-1.35705507,0.89490962,0.07911409,-0.67033601,-0.22144377,0.00000000,0.00000000
-2.18899298,-0.50010526,-0.23362780,-0.57612211,-0.15887669,0.00000000,0.00000000,-1.34296584,0.90122080,0.06834538,-0.67767066,-0.20865941,0.00000000,0.00000000
-2.17854023,-0.50463659,-0.23442835,-0.57229644,-0.14374381,0.00000000,0.00000000,-1.32797170,0.90772635,0.05748849,-0.68513000,-0.19288124,0.00000000,0.00000000
-2.16705704,-0.50959766,-0.23527214,-0.56795621,-0.12935032,0.00000000,0.00000000,-1.31206489,0.91455340,0.04659813,-0.69258976,-0.18378396,0.00000000,0.00000000
-2.15440035,-0.51521099,-0.23624884,-0.56314421,-0.11808026,0.00000000,0.00000000,-1.29522443,0.92173773,0.03576339,-0.69997287,-0.17358635,0.00000000,0.00000000
-2.14042139,-0.52167022,-0.23744671,-0.55786055,-0.11462542,0.00000000,0.00000000,-1.27741301,0.92929208,0.02511814,-0.70719814,-0.16216232,0.00000000,0.00000000
-2.12496018,-0.52903789,-0.23892257,-0.55201221,-0.11624743,0.00000000,0.00000000,-1.25861061,0.93729788,0.01479238,-0.71411824,-0.14906229,0.00000000,0.00000000
-2.10785699,-0.53727943,-0.24069779,-0.54545945,-0.11960429,0.00000000,0.00000000,-1.23884213,0.94587088,0.00487473,-0.72055733,-0.13501804,0.00000000,0.00000000
-2.08898115,-0.54639250,-0.24281190,-0.53811789,-0.12225112,0.00000000,0.00000000,-1.21815050,0.95505524,-0.00454883,-0.72639865,-0.12341188,0.00000000,0.00000000
-2.06824994,-0.55644709,-0.24538992,-0.53001124,-0.12884621,0.00000000,0.00000000,-1.19656885,0.96483755,-0.01334680,-0.73156279,-0.11657503,0.00000000,0.00000000
-2.04564071,-0.56751621,-0.24864320,-0.52124482,-0.13832492,0.00000000,0.00000000,-1.17411828,0.97518325,-0.02132830,-0.73596525,-0.10745531,0.00000000,0.00000000
-2.02118063,-0.57961142,-0.25280243,-0.51193690,-0.13869280,0.00000000,0.00000000,-1.15084469,0.98601878,-0.02830062,-0.73953259,-0.09323741,0.00000000,0.00000000
-1.99493241,-0.59271353,-0.25808567,-0.50222498,-0.13974531,0.00000000,0.00000000,-1.12683618,0.99720007,-0.03409668,-0.74223095,-0.08131355,0.00000000,0.00000000
-1.96698475,-0.60674119,-0.26468420,-0.49224031,-0.13416649,0.00000000,0.00000000,-1.10221982,1.00856161,-0.03857672,-0.74403739,-0.07613122,0.00000000,0.00000000
-1.93746638,-0.62156820,-0.27277726,-0.48211932,-0.13693228,0.00000000,0.00000000,-1.07716882,1.01990199,-0.04164460,-0.74494529,-0.07665838,0.00000000,0.00000000
-1.90655398,-0.63706106,-0.28253314,-0.47201222,-0.13652664,0.00000000,0.00000000,-1.05191803,1.03097510,-0.04329217,-0.74497443,-0.07873068,0.00000000,0.00000000
-1.87446606,-0.65305871,-0.29410449,-0.46206248,-0.13412550,0.00000000,0.00000000,-1.02676332,1.04153657,-0.04361599,-0.74414676,-0.07750168,0.00000000,0.00000000
-1.84145164,-0.66931790,-0.30761304,-0.45237795,-0.13637127,0.00000000,0.00000000,-1.00202823,1.05137074,-0.04277876,-0.74249035,-0.07569411,0.00000000,0.00000000
-1.80776834,-0.68549138,-0.32313311,-0.44300270,-0.14324914,0.00000000,0.00000000,-0.97803742,1.06031287,-0.04098120,-0.74005914,-0.06616661,0.00000000,0.00000000
-1.77365911,-0.70119202,-0.34067994,-0.43392166,-0.14769526,0.00000000,0.00000000,-0.95510477,1.06822360,-0.03846522,-0.73697382,-0.06139495,0.00000000,0.00000000
-1.73932374,-0.71605438,-0.36020067,-0.42510155,-0.15997124,0.00000000,0.00000000,-0.93353260,1.07492733,-0.03550618,-0.73341733,-0.05504454,0.00000000,0.00000000
-1.70491922,-0.72972238,-0.38160002,-0.41650674,-0.16519651,0.00000000,0.00000000,-0.91361195,1.08028555,-0.03240235,-0.72954565,-0.05054549,0.00000000,0.00000000
-1.67056799,-0.74185348,-0.40477178,-0.40811127,-0.16962032,0.00000000,0.00000000,-0.89559889,1.08423662,-0.02944434,-0.72547418,-0.04439275,0.00000000,0.00000000
-1.63634229,-0.75219262,-0.42959124,-0.39992630,-0.17072257,0.00000000,0.00000000,-0.87967026,1.08678710,-0.02690016,-0.72137189,-0.04035830,0.00000000,0.00000000
-1.60223722,-0.76058984,-0.45588890,-0.39196971,-0.17420493,0.00000000,0.00000000,-0.86585504,1.08813214,-0.02499793,-0.71750331,-0.03566829,0.00000000,0.00000000
-1.56819201,-0.76706260,-0.48348111,-0.38432521,-0.17279218,0.00000000,0.00000000,-0.85399628,1.08857763,-0.02384538,-0.71414047,-0.02998548,0.00000000,0.00000000
-1.53412223,-0.77185422,-0.51220435,-0.37722558,-0.17398739,0.00000000,0.00000000,-0.84372413,1.08839953,-0.02334781,-0.71143538,-0.03094463,0.00000000,0.00000000
-1.49990010,-0.77541620,-0.54188478,-0.37099084,-0.18091714,0.00000000,0.00000000,-0.83445299,1.08787072,-0.02320882,-0.70939100,-0.03258603,0.00000000,0.00000000
-1.46536219,-0.77833432,-0.57233584,-0.36595771,-0.18880290,0.00000000,0.00000000,-0.82552534,1.08720517,-0.02304138,-0.70789790,-0.03430246,0.00000000,0.00000000
-1.43035316,-0.78104115,-0.60339284,-0.36235556,-0.19488178,0.00000000,0.00000000,-0.81634599,1.08665490,-0.02249713,-0.70683742,-0.03310634,0.00000000,0.00000000
-1.39472616,-0.78372872,-0.63490629,-0.36026660,-0.20849018,0.00000000,0.00000000,-0.80635238,1.08666277,-0.02126538,-0.70617414,-0.03232411,0.00000000,0.00000000
-1.35830522,-0.78674519,-0.66670078,-0.35983831,-0.22173592,0.00000000,0.00000000,-0.79486102,1.08780813,-0.01899811,-0.70586860,-0.03253111,0.00000000,0.00000000
-1.32083559,-0.79078609,-0.69852132,-0.36134452,-0.23820709,0.00000000,0.00000000,-0.78109336,1.09064841,-0.01529678,-0.70569396,-0.02760708,0.00000000,0.00000000
-1.28200066,-0.79677826,-0.73004371,-0.36515769,-0.26001298,0.00000000,0.00000000,-0.76432347,1.09570777,-0.00980910,-0.70510358,-0.02734776,0.00000000,0.00000000
-1.24145722,-0.80599988,-0.76090306,-0.37188181,-0.27400663,0.00000000,0.00000000,-0.74394178,1.10332596,-0.00226623,-0.70320427,-0.02906903,0.00000000,0.00000000
-1.19882870,-0.82013041,-0.79067582,-0.38238323,-0.28242430,0.00000000,0.00000000,-0.71945763,1.11363935,0.00750422,-0.69888079,-0.03218412,0.00000000,0.00000000
-1.15366602,-0.84115267,-0.81883264,-0.39769685,-0.28833991,0.00000000,0.00000000,-0.69053459,1.12679446,0.01949226,-0.69091904,-0.03474683,0.00000000,0.00000000
-1.10543358,-0.87119508,-0.84472203,-0.41884720,-0.29550242,0.00000000,0.00000000,-0.65696347,1.14317060,0.03351061,-0.67799675,-0.03706617,0.00000000,0.00000000
-1.05340052,-0.91220665,-0.86752272,-0.44632247,-0.30601555,0.00000000,0.00000000,-0.61857760,1.16400075,0.04934506,-0.65848333,-0.03303964,0.00000000,0.00000000
-0.99660265,-0.96540374,-0.88627779,-0.47943819,-0.31346890,0.00000000,0.00000000,-0.57520872,1.19164824,0.06701788,-0.63042688,-0.03045679,0.00000000,0.00000000
-0.93455678,-1.03020024,-0.90045476,-0.51646954,-0.32510963,0.00000000,0.00000000,-0.52679068,1.22732091,0.08718341,-0.59262311,-0.03183351,0.00000000,0.00000000
-0.86714882,-1.10445237,-0.90992141,-0.55481142,-0.33612204,0.00000000,0.00000000,-0.47359964,1.27160537,0.11092517,-0.54472077,-0.03470638,0.00000000,0.00000000
-0.79462653,-1.18562043,-0.91481674,-0.59202486,-0.35371956,0.00000000,0.00000000,-0.41648111,1.32468951,0.13930832,-0.48719943,-0.03674263,0.00000000,0.00000000
-0.71784097,-1.27187002,-0.91544259,-0.62686640,-0.36288011,0.00000000,0.00000000,-0.35690773,1.38593125,0.17295870,-0.42137244,-0.03403661,0.00000000,0.00000000
-0.63839161,-1.36199808,-0.91225678,-0.65922129,-0.37827092,0.00000000,0.00000000,-0.29683194,1.45388293,0.21188900,-0.34915251,-0.02645795,0.00000000,0.00000000
-0.55851102,-1.45472348,-0.90593678,-0.68949443,-0.39543787,0.00000000,0.00000000,-0.23846343,1.52666521,0.25559050,-0.27273139,-0.02000014,0.00000000,0.00000000
-0.48089638,-1.54837692,-0.89743054,-0.71820277,-0.41713434,0.00000000,0.00000000,-0.18408531,1.60223746,0.30321494,-0.19434296,-0.01200593,0.00000000,0.00000000
-0.40856254,-1.64101768,-0.88796186,-0.74581230,-0.43715066,0.00000000,0.00000000,-0.13591719,1.67837346,0.35373253,-0.11617228,-0.00584423,0.00000000,0.00000000
-0.34440815,-1.73070025,-0.87887990,-0.77260756,-0.46075454,0.00000000,0.00000000,-0.09598380,1.75256884,0.40605623,-0.04033601,0.00534992,0.00000000,0.00000000
-0.29071280,-1.81553972,-0.87149984,-0.79850674,-0.48686734,0.00000000,0.00000000,-0.06592436,1.82216454,0.45915356,0.03118437,0.01839161,0.00000000,0.00000000
-0.24932081,-1.89336693,-0.86725134,-0.82309657,-0.51380116,0.00000000,0.00000000,-0.04672435,1.88457811,0.51215196,0.09663690,0.03433399,0.00000000,0.00000000
-0.22208455,-1.96192229,-0.86769545,-0.84614187,-0.53481805,0.00000000,0.00000000,-0.03849207,1.93751156,0.56442928,0.15459357,0.04396598,0.00000000,0.00000000
-0.20991831,-2.01951623,-0.87389755,-0.86770737,-0.55605263,0.00000000,0.00000000,-0.04028519,1.97896600,0.61568266,0.20402037,0.05603945,0.00000000,0.00000000
-0.21035030,-2.06540298,-0.88535559,-0.88749123,-0.57997322,0.00000000,0.00000000,-0.04989709,2.00726318,0.66596770,0.24443172,0.06894582,0.00000000,0.00000000
-0.21796906,-2.10176229,-0.89927256,-0.90553188,-0.60516918,0.00000000,0.00000000,-0.06396358,2.02158570,0.71562779,0.27620271,0.07913938,0.00000000,0.00000000
-0.22787419,-2.13105726,-0.91283655,-0.92143595,-0.62500048,0.00000000,0.00000000,-0.07864210,2.02275968,0.76506084,0.30077457,0.09051885,0.00000000,0.00000000
-0.23748404,-2.15278339,-0.92539102,-0.93292224,-0.64163858,0.00000000,0.00000000,-0.09065980,2.01339269,0.81444609,0.32038590,0.09862735,0.00000000,0.00000000
-0.24551502,-2.16542530,-0.93736857,-0.93707907,-0.64588517,0.00000000,0.00000000,-0.09803955,1.99717402,0.86362290,0.33747661,0.10923575,0.00000000,0.00000000
-0.25131044,-2.16944838,-0.94980621,-0.93176723,-0.64666277,0.00000000,0.00000000,-0.10054695,1.97782815,0.91211563,0.35397112,0.11415233,0.00000000,0.00000000
-0.25434282,-2.16997719,-0.96399933,-0.91560721,-0.65136933,0.00000000,0.00000000,-0.09916522,1.95857465,0.95927924,0.37112996,0.11889420,0.00000000,0.00000000
-0.25426477,-2.17000008,-0.98051107,-0.88829803,-0.65593934,0.00000000,0.00000000,-0.09495444,1.94214475,1.00446367,0.38990366,0.11854648,0.00000000,0.00000000
-0.25010201,-2.16998959,-0.99835116,-0.85079688,-0.66042435,0.00000000,0.00000000,-0.08858868,1.93065333,1.04710758,0.41099042,0.12012711,0.00000000,0.00000000
-0.23972809,-2.16982841,-1.01533461,-0.80578989,-0.66182774,0.00000000,0.00000000,-0.08060109,1.92546093,1.08673847,0.43462259,0.12000851,0.00000000,0.00000000
-0.22227824,-2.16933203,-1.02958333,-0.75838053,-0.66370738,0.00000000,0.00000000,-0.07187325,1.92697787,1.12298989,0.46025842,0.12211814,0.00000000,0.00000000
-0.19782487,-2.16908288,-1.03931463,-0.71393442,-0.66828161,0.00000000,0.00000000,-0.06358796,1.93393862,1.15584946,0.48638266,0.12252676,0.00000000,0.00000000
-0.16853879,-2.16959000,-1.04476225,-0.67597204,-0.67671251,0.00000000,0.00000000,-0.05713866,1.94447637,1.18550014,0.51109666,0.12645794,0.00000000,0.00000000
-0.13653967,-2.16993761,-1.04722846,-0.64565504,-0.69000310,0.00000000,0.00000000,-0.05343778,1.95681298,1.21227574,0.53284121,0.12626123,0.00000000,0.00000000
-0.10397913,-2.16999722,-1.04815805,-0.62323666,-0.69802547,0.00000000,0.00000000,-0.05275970,1.96911430,1.23669934,0.55041593,0.12743054,0.00000000,0.00000000
-0.07167400,-2.17000008,-1.04889464,-0.60707706,-0.70541167,0.00000000,0.00000000,-0.05483545,1.98032916,1.25920415,0.56315786,0.12770484,0.00000000,0.00000000
-0.03842449,-2.17000008,-1.05081344,-0.59235811,-0.71669340,0.00000000,0.00000000,-0.05880322,1.99018466,1.28015101,0.57094306,0.12650405,0.00000000,0.00000000
-0.00513112,-2.17000008,-1.05539584,-0.57487088,-0.72784835,0.00000000,0.00000000,-0.06315538,1.99855673,1.30002284,0.57407653,0.12958093,0.00000000,0.00000000
0.02655922,-2.16997266,-1.06271601,-0.55385566,-0.73193836,0.00000000,0.00000000,-0.06603322,2.00560522,1.31929183,0.57331580,0.13256572,0.00000000,0.00000000
0.05528837,-2.16951108,-1.07166612,-0.53094405,-0.74699152,0.00000000,0.00000000,-0.06672781,2.01166344,1.33822846,0.56938863,0.13596332,0.00000000,0.00000000
0.07863282,-2.16749191,-1.08121681,-0.50903296,-0.75910431,0.00000000,0.00000000,-0.06708953,2.01659465,1.35694683,0.56282622,0.13417445,0.00000000,0.00000000
0.09536340,-2.16332698,-1.09072900,-0.48993832,-0.76852286,0.00000000,0.00000000,-0.06862102,2.02018332,1.37551630,0.55570722,0.13258700,0.00000000,0.00000000
0.10661907,-2.15747070,-1.09982538,-0.47351921,-0.77153659,0.00000000,0.00000000,-0.07122647,2.02402091,1.39339697,0.55109859,0.12551951,0.00000000,0.00000000
0.11379375,-2.15039110,-1.10834956,-0.45918062,-0.77227557,0.00000000,0.00000000,-0.07417683,2.02896690,1.41028190,0.55111128,0.11386909,0.00000000,0.00000000
0.11790909,-2.14227319,-1.11627591,-0.44639507,-0.77135831,0.00000000,0.00000000,-0.07751801,2.03525019,1.42602217,0.55632514,0.09857493,0.00000000,0.00000000
0.11982849,-2.13326144,-1.12360692,-0.43466845,-0.76762223,0.00000000,0.00000000,-0.08155340,2.04312539,1.44044995,0.56667405,0.08583973,0.00000000,0.00000000
0.11997559,-2.12433767,-1.13019264,-0.42399392,-0.76019889,0.00000000,0.00000000,-0.08653011,2.05292225,1.45336664,0.58160514,0.07025178,0.00000000,0.00000000
0.11830527,-2.11681342,-1.13585830,-0.41469544,-0.75676310,0.00000000,0.00000000,-0.09280063,2.06453681,1.46466923,0.59968001,0.05860570,0.00000000,0.00000000
0.11460020,-2.11154342,-1.14055514,-0.40700501,-0.75375730,0.00000000,0.00000000,-0.10055231,2.07756066,1.47427869,0.61909801,0.04704752,0.00000000,0.00000000
0.10877605,-2.10961342,-1.14417219,-0.40120617,-0.74554664,0.00000000,0.00000000,-0.11064213,2.09178329,1.48193002,0.63786501,0.03235496,0.00000000,0.00000000
0.10205489,-2.11226392,-1.14642942,-0.39736533,-0.73494458,0.00000000,0.00000000,-0.12431233,2.10729098,1.48716009,0.65409404,0.01830288,0.00000000,0.00000000
0.09567130,-2.11899495,-1.14741182,-0.39587921,-0.72800499,0.00000000,0.00000000,-0.14022177,2.12349176,1.48985624,0.66779268,0.00280996,0.00000000,0.00000000
0.08656669,-2.12702084,-1.14809597,-0.39875713,-0.71664232,0.00000000,0.00000000,-0.15376823,2.13851070,1.49062634,0.68132985,-0.00840473,0.00000000,0.00000000
0.07243966,-2.13387775,-1.14927781,-0.40673441,-0.71128297,0.00000000,0.00000000,-0.16167147,2.15082192,1.49002576,0.69660932,-0.02136994,0.00000000,0.00000000
0.05367650,-2.13895774,-1.15107119,-0.41907543,-0.71403587,0.00000000,0.00000000,-0.16415349,2.16025066,1.48805964,0.71362448,-0.03025307,0.00000000,0.00000000
0.03142483,-2.14177012,-1.15349782,-0.43471935,-0.71494406,0.00000000,0.00000000,-0.16297244,2.16640592,1.48485732,0.73141414,-0.04193034,0.00000000,0.00000000
0.00689186,-2.14264274,-1.15637219,-0.45297447,-0.72075713,0.00000000,0.00000000,-0.16029355,2.16919327,1.48038137,0.74881774,-0.04953998,0.00000000,0.00000000
-0.01841839,-2.14303565,-1.15916848,-0.47335181,-0.72768152,0.00000000,0.00000000,-0.15862463,2.16991043,1.47413135,0.76451421,-0.06136024,0.00000000,0.00000000
-0.04267026,-2.14390445,-1.16139865,-0.49489176,-0.73394549,0.00000000,0.00000000,-0.16008416,2.16999674,1.46618450,0.77705979,-0.06589308,0.00000000,0.00000000
-0.06402856,-2.14573479,-1.16267288,-0.51605111,-0.74346441,0.00000000,0.00000000,-0.16511755,2.17000008,1.45723784,0.78570348,-0.06561407,0.00000000,0.00000000
-0.08126432,-2.14852762,-1.16285658,-0.53493679,-0.75503033,0.00000000,0.00000000,-0.17183247,2.17000008,1.44851208,0.79093683,-0.06349272,0.00000000,0.00000000
-0.09401494,-2.15143752,-1.16225111,-0.54978168,-0.76681888,0.00000000,0.00000000,-0.17712180,2.17000008,1.44158101,0.79390508,-0.06531172,0.00000000,0.00000000
-0.10250255,-2.15299535,-1.16147208,-0.55943817,-0.76864505,0.00000000,0.00000000,-0.17944047,2.17000008,1.43711007,0.79497790,-0.06323660,0.00000000,0.00000000
-0.10667938,-2.15224481,-1.16092169,-0.56346178,-0.76827782,0.00000000,0.00000000,-0.17975572,2.17000008,1.43467319,0.79321426,-0.06557568,0.00000000,0.00000000
-0.10631223,-2.14908934,-1.16061676,-0.56222945,-0.77282798,0.00000000,0.00000000,-0.17952785,2.17000008,1.43336260,0.78760332,-0.06754497,0.00000000,0.00000000
-0.10193096,-2.14385223,-1.16041040,-0.55733490,-0.77503824,0.00000000,0.00000000,-0.17952292,2.17000008,1.43223155,0.77774262,-0.06362531,0.00000000,0.00000000
-0.09365597,-2.13811827,-1.15960181,-0.55081689,-0.77800870,0.00000000,0.00000000,-0.18018615,2.16996503,1.43104303,0.76337743,-0.06233825,0.00000000,0.00000000
-0.08189017,-2.13295364,-1.15765131,-0.54451615,-0.78281248,0.00000000,0.00000000,-0.18141530,2.16935325,1.42960238,0.74469101,-0.05518332,0.00000000,0.00000000
-0.06729955,-2.12926579,-1.15411055,-0.54001385,-0.78450310,0.00000000,0.00000000,-0.18238629,2.16643500,1.42743778,0.72250748,-0.04759801,0.00000000,0.00000000
-0.05082372,-2.12826753,-1.14850247,-0.53893381,-0.78849715,0.00000000,0.00000000,-0.18247980,2.16011739,1.42389333,0.69802618,-0.04130362,0.00000000,0.00000000
-0.03376510,-2.13057423,-1.14059567,-0.54280579,-0.79578465,0.00000000,0.00000000,-0.18242271,2.15216756,1.41801727,0.67277879,-0.03707380,0.00000000,0.00000000
-0.01724236,-2.13562512,-1.13046312,-0.55241948,-0.80173886,0.00000000,0.00000000,-0.18184762,2.14487290,1.40914440,0.64941806,-0.03036599,0.00000000,0.00000000
-0.00179675,-2.14229941,-1.11822510,-0.56757563,-0.80800176,0.00000000,0.00000000,-0.17943238,2.13932896,1.39721382,0.62983572,-0.02101328,0.00000000,0.00000000
0.01243697,-2.14955711,-1.10388458,-0.58738244,-0.81409252,0.00000000,0.00000000,-0.17446458,2.13605809,1.38239288,0.61425215,-0.00681471,0.00000000,0.00000000
0.02543415,-2.15696812,-1.08723295,-0.61089426,-0.81978798,0.00000000,0.00000000,-0.16687830,2.13525558,1.36497056,0.60163623,0.00468215,0.00000000,0.00000000
0.03752575,-2.16386080,-1.06807160,-0.63719857,-0.82491660,0.00000000,0.00000000,-0.15676159,2.13670039,1.34539843,0.59044999,0.01162188,0.00000000,0.00000000
0.04789771,-2.16857195,-1.04731619,-0.66529322,-0.83720201,0.00000000,0.00000000,-0.14441292,2.13952708,1.32432485,0.57949007,0.01902781,0.00000000,0.00000000
0.05299353,-2.16991472,-1.02816749,-0.69345599,-0.85117918,0.00000000,0.00000000,-0.13128257,2.14122772,1.30281425,0.56786019,0.02879941,0.00000000,0.00000000
0.05383932,-2.17000008,-1.01231337,-0.71974951,-0.86273915,0.00000000,0.00000000,-0.11878747,2.14147663,1.28110075,0.55627191,0.04328090,0.00000000,0.00000000
0.05133668,-2.17000008,-1.00053144,-0.74285585,-0.87396842,0.00000000,0.00000000,-0.10662980,2.14174628,1.25890243,0.54706395,0.05562961,0.00000000,0.00000000
0.04549424,-2.17000008,-0.99379718,-0.76115000,-0.88471264,0.00000000,0.00000000,-0.09473152,2.14113665,1.23666596,0.54096317,0.07199615,0.00000000,0.00000000
0.03781705,-2.17000008,-0.99188161,-0.77319503,-0.90005320,0.00000000,0.00000000,-0.08346350,2.13867664,1.21480370,0.53780144,0.08026474,0.00000000,0.00000000
0.03189989,-2.17000008,-0.99215108,-0.77865136,-0.91636395,0.00000000,0.00000000,-0.07222445,2.13706112,1.19262719,0.53872478,0.08903348,0.00000000,0.00000000
0.02455568,-2.17000008,-0.99559498,-0.77787989,-0.92772943,0.00000000,0.00000000,-0.06198176,2.13512492,1.17035115,0.54298675,0.10232939,0.00000000,0.00000000
0.01628244,-2.17000008,-1.00161374,-0.77087730,-0.93736148,0.00000000,0.00000000,-0.05440362,2.13092732,1.14827883,0.54924130,0.12077588,0.00000000,0.00000000
0.00841193,-2.16993070,-1.00827861,-0.75895560,-0.94514251,0.00000000,0.00000000,-0.04889200,2.12600064,1.12591696,0.55850643,0.14028028,0.00000000,0.00000000
0.00379356,-2.16890311,-1.01300514,-0.74399388,-0.95240808,0.00000000,0.00000000,-0.04409659,2.12156701,1.10296154,0.57219505,0.16051091,0.00000000,0.00000000
0.00195128,-2.16606212,-1.01465726,-0.72870517,-0.96152240,0.00000000,0.00000000,-0.03852051,2.11522150,1.08023643,0.59073871,0.18404736,0.00000000,0.00000000
0.00235840,-2.16421700,-1.01173031,-0.71600318,-0.96815723,0.00000000,0.00000000,-0.03077539,2.10854125,1.05726731,0.61532235,0.20572229,0.00000000,0.00000000
0.00258703,-2.16473532,-1.00421822,-0.70602965,-0.97427440,0.00000000,0.00000000,-0.02458875,2.10050869,1.03337336,0.64110160,0.22853674,0.00000000,0.00000000
0.00017618,-2.16703558,-0.99303693,-0.69813329,-0.97595495,0.00000000,0.00000000,-0.02150002,2.08320642,1.01044297,0.65939629,0.25370488,0.00000000,0.00000000
-0.00452383,-2.16926098,-0.97892606,-0.69085157,-0.99059802,0.00000000,0.00000000,-0.02523870,2.05063510,0.98920393,0.66443610,0.28171709,0.00000000,0.00000000
-0.01213237,-2.16995502,-0.96288884,-0.68323106,-1.00986481,0.00000000,0.00000000,-0.03972572,1.99855721,0.96958542,0.65342450,0.30688202,0.00000000,0.00000000
-0.02330174,-2.17000008,-0.94555408,-0.67513996,-1.02656746,0.00000000,0.00000000,-0.06764694,1.92382300,0.95134997,0.62531555,0.33125296,0.00000000,0.00000000
-0.03632685,-2.17000008,-0.92699033,-0.66612017,-1.04211545,0.00000000,0.00000000,-0.11144271,1.82478225,0.93400782,0.58006352,0.35295162,0.00000000,0.00000000
-0.05045281,-2.17000008,-0.90771115,-0.65612841,-1.05866480,0.00000000,0.00000000,-0.17303172,1.70118248,0.91707087,0.51818043,0.37277091,0.00000000,0.00000000
-0.06527291,-2.17000008,-0.88833326,-0.64576215,-1.07392776,0.00000000,0.00000000,-0.25327817,1.55451620,0.90010339,0.44071752,0.39043486,0.00000000,0.00000000
-0.08019210,-2.17000008,-0.86925584,-0.63596541,-1.09090078,0.00000000,0.00000000,-0.35148484,1.38799989,0.88279325,0.34934545,0.40188056,0.00000000,0.00000000
-0.09574071,-2.17000008,-0.85124093,-0.62778914,-1.10825968,0.00000000,0.00000000,-0.46518022,1.20630157,0.86504912,0.24641608,0.41646919,0.00000000,0.00000000
-0.11262566,-2.17000008,-0.83502042,-0.62159365,-1.12220550,0.00000000,0.00000000,-0.59033102,1.01516449,0.84708804,0.13491251,0.43525481,0.00000000,0.00000000
-0.13014494,-2.17000008,-0.82070798,-0.61685461,-1.14168549,0.00000000,0.00000000,-0.72184038,0.82091188,0.82948565,0.01824901,0.45548993,0.00000000,0.00000000
-0.14701335,-2.17000008,-0.80792463,-0.61317378,-1.16285324,0.00000000,0.00000000,-0.85419327,0.62985772,0.81315482,-0.10003740,0.47448701,0.00000000,0.00000000
-0.16202480,-2.17000008,-0.79602951,-0.61064893,-1.18555188,0.00000000,0.00000000,-0.98211247,0.44771215,0.79925233,-0.21661162,0.49224827,0.00000000,0.00000000
-0.17428572,-2.17000008,-0.78434509,-0.60969144,-1.20657730,0.00000000,0.00000000,-1.10109115,0.27913556,0.78903687,-0.32858470,0.50991553,0.00000000,0.00000000
-0.18378946,-2.17000008,-0.77247071,-0.61093885,-1.22944903,0.00000000,0.00000000,-1.20774734,0.12753941,0.78371012,-0.43361381,0.53155571,0.00000000,0.00000000
-0.19163767,-2.17000008,-0.76041049,-0.61516106,-1.24117315,0.00000000,0.00000000,-1.30005658,-0.00489195,0.78424823,-0.52985060,0.55701482,0.00000000,0.00000000
-0.19942604,-2.17000008,-0.74832678,-0.62313515,-1.24559546,0.00000000,0.00000000,-1.37743163,-0.11705755,0.79124773,-0.61584413,0.58166862,0.00000000,0.00000000
-0.20858353,-2.17000008,-0.73622596,-0.63564819,-1.25030088,0.00000000,0.00000000,-1.44057524,-0.20877619,0.80481064,-0.69052380,0.60258460,0.00000000,0.00000000
-0.21944948,-2.17000008,-0.72373462,-0.65294272,-1.24904895,0.00000000,0.00000000,-1.49114311,-0.28059953,0.82448411,-0.75333744,0.62534773,0.00000000,0.00000000
-0.23120826,-2.17000008,-0.71020949,-0.67416871,-1.24709582,0.00000000,0.00000000,-1.53142560,-0.33392364,0.84917587,-0.80456448,0.64465153,0.00000000,0.00000000
-0.24439365,-2.17000008,-0.69536096,-0.69863796,-1.24733448,0.00000000,0.00000000,-1.56417215,-0.37149253,0.87708843,-0.84559256,0.66803139,0.00000000,0.00000000
-0.26044449,-2.17000008,-0.67938089,-0.72461975,-1.24748206,0.00000000,0.00000000,-1.59246695,-0.39734787,0.90591705,-0.87883592,0.69365978,0.00000000,0.00000000
-0.28160274,-2.17000008,-0.66332084,-0.74793345,-1.24615371,0.00000000,0.00000000,-1.61895645,-0.41569871,0.93357998,-0.90688467,0.71576709,0.00000000,0.00000000
-0.30503580,-2.17000008,-0.64627683,-0.76423931,-1.25379109,0.00000000,0.00000000,-1.64425850,-0.42871690,0.95945299,-0.93153340,0.73169708,0.00000000,0.00000000
-0.33039668,-2.17000008,-0.62829727,-0.77161592,-1.26175880,0.00000000,0.00000000,-1.66926217,-0.43827057,0.98287249,-0.95387608,0.74015439,0.00000000,0.00000000
-0.35865042,-2.17000008,-0.60963386,-0.76970357,-1.26295555,0.00000000,0.00000000,-1.69470000,-0.44595575,1.00330377,-0.97477114,0.74726766,0.00000000,0.00000000
-0.38975841,-2.17000008,-0.59012306,-0.75800645,-1.26309264,0.00000000,0.00000000,-1.72048223,-0.45284212,1.02064788,-0.99502856,0.74830222,0.00000000,0.00000000
-0.42394105,-2.17000008,-0.56967449,-0.73613262,-1.26620781,0.00000000,0.00000000,-1.74673879,-0.46007943,1.03469455,-1.01525283,0.75111914,0.00000000,0.00000000
-0.46155384,-2.17000008,-0.54812843,-0.70393050,-1.27244580,0.00000000,0.00000000,-1.77436030,-0.46910086,1.04487002,-1.03566599,0.75506908,0.00000000,0.00000000
-0.49946329,-2.16987300,-0.52415311,-0.66016757,-1.28446841,0.00000000,0.00000000,-1.80303562,-0.48082131,1.05121148,-1.05661690,0.76075232,0.00000000,0.00000000
-0.53402138,-2.16772366,-0.49634469,-0.60383379,-1.28678489,0.00000000,0.00000000,-1.83260131,-0.49593690,1.05364418,-1.07815015,0.76196975,0.00000000,0.00000000
-0.56244129,-2.15812898,-0.46382463,-0.53458560,-1.28459311,0.00000000,0.00000000,-1.86295736,-0.51485044,1.05197155,-1.10010958,0.76086026,0.00000000,0.00000000
-0.58261532,-2.13685298,-0.42626065,-0.45249730,-1.28162920,0.00000000,0.00000000,-1.89339328,-0.53749555,1.04631031,-1.12241888,0.75595027,0.00000000,0.00000000
-0.59284478,-2.10258746,-0.38378409,-0.35794061,-1.27966571,0.00000000,0.00000000,-1.92271364,-0.56326079,1.03724277,-1.14499962,0.74377549,0.00000000,0.00000000
-0.59148103,-2.05473876,-0.33687124,-0.25159389,-1.27667284,0.00000000,0.00000000,-1.95002449,-0.59097135,1.02563906,-1.16739380,0.73828089,0.00000000,0.00000000
-0.57672638,-1.99253166,-0.28630042,-0.13448450,-1.27380776,0.00000000,0.00000000,-1.97545588,-0.61913770,1.01230085,-1.18866253,0.73139906,0.00000000,0.00000000
-0.54650664,-1.91511405,-0.23312898,-0.00797629,-1.26613998,0.00000000,0.00000000,-1.99948239,-0.64640659,0.99798054,-1.20837545,0.72726488,0.00000000,0.00000000
-0.49864265,-1.82211602,-0.17863412,0.12622157,-1.24895847,0.00000000,0.00000000,-2.02195215,-0.67167866,0.98373288,-1.22743011,0.72171664,0.00000000,0.00000000
-0.43178704,-1.71439922,-0.12423331,0.26602352,-1.23544049,0.00000000,0.00000000,-2.04307699,-0.69374144,0.97066897,-1.24674773,0.71670675,0.00000000,0.00000000
-0.34644911,-1.59429121,-0.07140017,0.40895638,-1.21888304,0.00000000,0.00000000,-2.06387854,-0.71143478,0.95948607,-1.26662004,0.70754784,0.00000000,0.00000000
-0.24509335,-1.46519983,-0.02158008,0.55221146,-1.20170701,0.00000000,0.00000000,-2.08535910,-0.72435707,0.95029807,-1.28735065,0.69648433,0.00000000,0.00000000
-0.13153452,-1.33114076,0.02388521,0.69278759,-1.18323255,0.00000000,0.00000000,-2.10810208,-0.73273158,0.94290704,-1.30937254,0.68542224,0.00000000,0.00000000
-0.01024658,-1.19643831,0.06381022,0.82768160,-1.17101133,0.00000000,0.00000000,-2.13318586,-0.73685163,0.93673849,-1.33292794,0.67665094,0.00000000,0.00000000
0.11415566,-1.06546295,0.09720212,0.95410681,-1.16179836,0.00000000,0.00000000,-2.16108012,-0.73676986,0.93169749,-1.35742617,0.66428387,0.00000000,0.00000000
0.23727356,-0.94236833,0.12327683,1.06966758,-1.15708423,0.00000000,0.00000000,-2.19189763,-0.73229718,0.92813456,-1.38233805,0.64435923,0.00000000,0.00000000
0.35516354,-0.83082038,0.14143513,1.17249274,-1.15295446,0.00000000,0.00000000,-2.22504520,-0.72344071,0.92671877,-1.40763545,0.62160254,0.00000000,0.00000000
0.46448949,-0.73377657,0.15123184,1.26127827,-1.15560615,0.00000000,0.00000000,-2.25890660,-0.71057963,0.92847216,-1.43356979,0.60009021,0.00000000,0.00000000
0.56265044,-0.65332180,0.15238801,1.33521891,-1.16554606,0.00000000,0.00000000,-2.29078841,-0.69370586,0.93553162,-1.45970643,0.57623070,0.00000000,0.00000000
0.64795214,-0.59041065,0.14488862,1.39390838,-1.17586136,0.00000000,0.00000000,-2.31877470,-0.67207450,0.95009136,-1.48405504,0.55275583,0.00000000,0.00000000
0.71997339,-0.54436463,0.12929074,1.43742681,-1.18386078,0.00000000,0.00000000,-2.34221601,-0.64664805,0.97147632,-1.50579143,0.52889544,0.00000000,0.00000000
0.78004026,-0.51249081,0.10718192,1.46675467,-1.19165456,0.00000000,0.00000000,-2.36029387,-0.62015754,0.99700701,-1.52598846,0.50453293,0.00000000,0.00000000
0.83104348,-0.49098983,0.08117022,1.48394156,-1.20520806,0.00000000,0.00000000,-2.37207079,-0.59467590,1.02442360,-1.54568768,0.47870156,0.00000000,0.00000000
0.87571985,-0.47642261,0.05359818,1.49210823,-1.20352960,0.00000000,0.00000000,-2.37649798,-0.57054442,1.05299878,-1.56508625,0.45780113,0.00000000,0.00000000
0.91517335,-0.46604368,0.02539017,1.49541461,-1.20405793,0.00000000,0.00000000,-2.37237620,-0.54689223,1.08309197,-1.58383691,0.43964484,0.00000000,0.00000000
0.95045996,-0.45792088,-0.00256151,1.49685001,-1.20542336,0.00000000,0.00000000,-2.35871387,-0.52245438,1.11518347,-1.60126042,0.42471457,0.00000000,0.00000000
0.98209983,-0.45100725,-0.02980857,1.49742007,-1.20394683,0.00000000,0.00000000,-2.33505201,-0.49618414,1.14923990,-1.61641502,0.41424772,0.00000000,0.00000000
1.01024497,-0.44465262,-0.05621254,1.49714887,-1.20024002,0.00000000,0.00000000,-2.30159497,-0.46741045,1.18468273,-1.62812853,0.39917892,0.00000000,0.00000000
1.03513300,-0.43838370,-0.08156061,1.49578798,-1.19581914,0.00000000,0.00000000,-2.25915313,-0.43589035,1.22060108,-1.63512337,0.38652903,0.00000000,0.00000000
1.05697107,-0.43172136,-0.10565794,1.49316430,-1.18755019,0.00000000,0.00000000,-2.20903635,-0.40188479,1.25589204,-1.63612723,0.37453893,0.00000000,0.00000000
1.07611036,-0.42417759,-0.12817582,1.48898530,-1.17792273,0.00000000,0.00000000,-2.15282321,-0.36629203,1.28940380,-1.63006425,0.36605373,0.00000000,0.00000000
1.09300268,-0.41545451,-0.14869548,1.48278487,-1.17002416,0.00000000,0.00000000,-2.09238386,-0.33056632,1.32006097,-1.61611128,0.36388728,0.00000000,0.00000000
1.10769403,-0.40544739,-0.16713427,1.47427142,-1.16113758,0.00000000,0.00000000,-2.03003621,-0.29644811,1.34692121,-1.59370565,0.36911052,0.00000000,0.00000000
1.12003124,-0.39394686,-0.18355919,1.46354473,-1.15613902,0.00000000,0.00000000,-1.96835971,-0.26580814,1.36923647,-1.56267703,0.37983862,0.00000000,0.00000000
1.13005650,-0.38061199,-0.19785844,1.45092964,-1.15653646,0.00000000,0.00000000,-1.90983951,-0.24034509,1.38657331,-1.52327704,0.38549146,0.00000000,0.00000000
1.13803995,-0.36513823,-0.20972502,1.43672621,-1.15278101,0.00000000,0.00000000,-1.85639608,-0.22122112,1.39893079,-1.47610974,0.38680583,0.00000000,0.00000000
1.14433849,-0.34733987,-0.21878082,1.42110801,-1.14887452,0.00000000,0.00000000,-1.80897832,-0.20888725,1.40679741,-1.42202306,0.38949388,0.00000000,0.00000000
1.14917970,-0.32723576,-0.22476098,1.40405595,-1.15619159,0.00000000,0.00000000,-1.76754916,-0.20303646,1.41116691,-1.36195230,0.39441645,0.00000000,0.00000000
1.15254223,-0.30511326,-0.22761485,1.38531053,-1.16093421,0.00000000,0.00000000,-1.73143351,-0.20270866,1.41336298,-1.29683685,0.39570266,0.00000000,0.00000000
1.15413594,-0.28162250,-0.22752631,1.36430120,-1.16932166,0.00000000,0.00000000,-1.69994259,-0.20681362,1.41445720,-1.22762716,0.40025854,0.00000000,0.00000000
1.15339398,-0.25796995,-0.22493364,1.34001493,-1.17787552,0.00000000,0.00000000,-1.67212796,-0.21449198,1.41500425,-1.15645278,0.40711930,0.00000000,0.00000000
1.14936411,-0.23591188,-0.22060496,1.31105971,-1.18885565,0.00000000,0.00000000,-1.64623487,-0.22508624,1.41520917,-1.08867371,0.41001371,0.00000000,0.00000000
1.14064479,-0.21754326,-0.21565132,1.27589417,-1.19252205,0.00000000,0.00000000,-1.62296402,-0.23995128,1.41327655,-1.02980983,0.40367764,0.00000000,0.00000000
1.12540352,-0.20508304,-0.21147230,1.23303187,-1.19375920,0.00000000,0.00000000,-1.60380256,-0.26079649,1.40729094,-0.98240536,0.40286505,0.00000000,0.00000000
1.10126424,-0.20098557,-0.20981672,1.18103766,-1.19265151,0.00000000,0.00000000,-1.58884072,-0.28682983,1.39742053,-0.94652390,0.40441909,0.00000000,0.00000000
1.06532633,-0.20834947,-0.21277860,1.11837053,-1.19351470,0.00000000,0.00000000,-1.57758677,-0.31533882,1.38515067,-0.92094570,0.40410137,0.00000000,0.00000000
1.01465869,-0.23082902,-0.22244957,1.04351258,-1.18938124,0.00000000,0.00000000,-1.56991708,-0.34306377,1.37227798,-0.90373093,0.40730324,0.00000000,0.00000000
0.94709688,-0.27184772,-0.24037822,0.95534021,-1.18308949,0.00000000,0.00000000,-1.56589341,-0.36729181,1.36033487,-0.89319044,0.41915825,0.00000000,0.00000000
0.86185056,-0.33384681,-0.26723155,0.85330129,-1.17758191,0.00000000,0.00000000,-1.56540036,-0.38609847,1.35046220,-0.88842028,0.42823103,0.00000000,0.00000000
0.75968099,-0.41802332,-0.30280277,0.73734409,-1.17471099,0.00000000,0.00000000,-1.56831837,-0.39836416,1.34332168,-0.88905835,0.43749484,0.00000000,0.00000000
0.64273304,-0.52419329,-0.34622765,0.60794091,-1.17483389,0.00000000,0.00000000,-1.57470012,-0.40402189,1.33894110,-0.89495331,0.44560704,0.00000000,0.00000000
0.51424974,-0.65057081,-0.39622313,0.46628904,-1.17312896,0.00000000,0.00000000,-1.58461726,-0.40416262,1.33673215,-0.90608066,0.44900477,0.00000000,0.00000000
0.37831378,-0.79368550,-0.45126933,0.31448990,-1.18133676,0.00000000,0.00000000,-1.59795713,-0.40046501,1.33584070,-0.92235208,0.45148912,0.00000000,0.00000000
0.23959187,-0.94862092,-0.50975627,0.15553199,-1.18233085,0.00000000,0.00000000,-1.61457813,-0.39442173,1.33551550,-0.94328356,0.45651156,0.00000000,0.00000000
0.10302541,-1.10951483,-0.57012033,-0.00694767,-1.18938494,0.00000000,0.00000000,-1.63431787,-0.38703206,1.33527291,-0.96825981,0.46216723,0.00000000,0.00000000
-0.02655724,-1.27016604,-0.63096458,-0.16902271,-1.19904292,0.00000000,0.00000000,-1.65667558,-0.37855321,1.33514786,-0.99703932,0.46141580,0.00000000,0.00000000
-0.14488024,-1.42463624,-0.69114673,-0.32684889,-1.20757401,0.00000000,0.00000000,-1.68133163,-0.36849767,1.33571017,-1.02951729,0.46636111,0.00000000,0.00000000
-0.24863264,-1.56776011,-0.74982077,-0.47696581,-1.21066797,0.00000000,0.00000000,-1.70744038,-0.35698938,1.33728731,-1.06629872,0.46864614,0.00000000,0.00000000
-0.33573413,-1.69559193,-0.80642915,-0.61651438,-1.21628380,0.00000000,0.00000000,-1.73438334,-0.34574285,1.33911824,-1.10834765,0.47047675,0.00000000,0.00000000
-0.40538597,-1.80570686,-0.86064279,-0.74335414,-1.22266674,0.00000000,0.00000000,-1.76321721,-0.33605346,1.34028447,-1.15520227,0.46645316,0.00000000,0.00000000
-0.45784372,-1.89724135,-0.91226596,-0.85605133,-1.22733843,0.00000000,0.00000000,-1.79476285,-0.32737929,1.34106839,-1.20544434,0.46619117,0.00000000,0.00000000
-0.49393895,-1.97069466,-0.96112406,-0.95378679,-1.23333454,0.00000000,0.00000000,-1.82812202,-0.32069424,1.34097683,-1.25890696,0.46096024,0.00000000,0.00000000
-0.51477969,-2.02763796,-1.00695062,-1.03631592,-1.23761797,0.00000000,0.00000000,-1.86146879,-0.31698471,1.33981967,-1.31548512,0.45934117,0.00000000,0.00000000
-0.52176553,-2.07048893,-1.04930770,-1.10404003,-1.23698580,0.00000000,0.00000000,-1.89409697,-0.31701282,1.33732820,-1.37348795,0.45700267,0.00000000,0.00000000
-0.51691949,-2.10219574,-1.08768928,-1.15815055,-1.24382389,0.00000000,0.00000000,-1.92720330,-0.32164970,1.33274496,-1.43076456,0.45393026,0.00000000,0.00000000
-0.50322813,-2.12562919,-1.12188876,-1.20066345,-1.25261879,0.00000000,0.00000000,-1.96217418,-0.33168206,1.32538009,-1.48580217,0.44649297,0.00000000,0.00000000
-0.48441803,-2.14291906,-1.15231597,-1.23412478,-1.26073718,0.00000000,0.00000000,-2.00011706,-0.34738776,1.31489134,-1.53710508,0.43878612,0.00000000,0.00000000
-0.46416667,-2.15557647,-1.17958117,-1.26122737,-1.27243459,0.00000000,0.00000000,-2.04171777,-0.36865985,1.30115986,-1.58336377,0.42928016,0.00000000,0.00000000
-0.44491109,-2.16450739,-1.20412135,-1.28398085,-1.27813625,0.00000000,0.00000000,-2.08694983,-0.39508548,1.28426218,-1.62373042,0.41950861,0.00000000,0.00000000
-0.42702809,-2.16892529,-1.22696900,-1.30252612,-1.28841519,0.00000000,0.00000000,-2.13414431,-0.42488056,1.26581812,-1.65721869,0.41154051,0.00000000,0.00000000
-0.41065505,-2.16993999,-1.24846983,-1.31739366,-1.29653239,0.00000000,0.00000000,-2.18224001,-0.45686862,1.24666381,-1.68318915,0.40718526,0.00000000,0.00000000
-0.39585522,-2.17000008,-1.26927710,-1.32971346,-1.30721724,0.00000000,0.00000000,-2.22920156,-0.48910418,1.22825205,-1.70136380,0.41393813,0.00000000,0.00000000
-0.38249668,-2.17000008,-1.28927362,-1.34120810,-1.32202148,0.00000000,0.00000000,-2.27440453,-0.52053857,1.21126974,-1.71165490,0.42049694,0.00000000,0.00000000
-0.37017193,-2.17000008,-1.30828822,-1.35270810,-1.33271706,0.00000000,0.00000000,-2.31830978,-0.55087805,1.19586539,-1.71394074,0.42581987,0.00000000,0.00000000
-0.35856599,-2.17000008,-1.32655942,-1.36450136,-1.35036135,0.00000000,0.00000000,-2.36062813,-0.57986504,1.18228996,-1.70852280,0.43623373,0.00000000,0.00000000
-0.34698936,-2.17000008,-1.34444535,-1.37585557,-1.37039554,0.00000000,0.00000000,-2.39913607,-0.60667211,1.17127657,-1.69648993,0.44250795,0.00000000,0.00000000
-0.33555925,-2.17000008,-1.36217487,-1.38675451,-1.39068508,0.00000000,0.00000000,-2.43364143,-0.63119417,1.16238570,-1.67825639,0.44178885,0.00000000,0.00000000
-0.32439920,-2.17000008,-1.37985015,-1.39686990,-1.40971303,0.00000000,0.00000000,-2.46437788,-0.65341169,1.15484536,-1.65404582,0.45228347,0.00000000,0.00000000
-0.31299046,-2.17000008,-1.39710033,-1.40579426,-1.42195606,0.00000000,0.00000000,-2.48960400,-0.67276531,1.14859521,-1.62482667,0.46602184,0.00000000,0.00000000
-0.30137625,-2.17000008,-1.41366684,-1.41442776,-1.43380511,0.00000000,0.00000000,-2.50859261,-0.68839848,1.14393449,-1.59072459,0.48091936,0.00000000,0.00000000
-0.29004136,-2.17000008,-1.42996490,-1.42329872,-1.44127870,0.00000000,0.00000000,-2.52262807,-0.69941270,1.14095223,-1.55056608,0.49685830,0.00000000,0.00000000
-0.27943134,-2.17000008,-1.44665682,-1.43244100,-1.44797981,0.00000000,0.00000000,-2.53252983,-0.70438308,1.14004111,-1.50324142,0.50779450,0.00000000,0.00000000
-0.27047345,-2.17000008,-1.46453893,-1.44213283,-1.45648551,0.00000000,0.00000000,-2.54031110,-0.70207191,1.14083028,-1.44728565,0.51815051,0.00000000,0.00000000
-0.26413912,-2.17000008,-1.48278654,-1.45226359,-1.45519114,0.00000000,0.00000000,-2.54667091,-0.69247270,1.14153230,-1.38235116,0.53213263,0.00000000,0.00000000
-0.26020536,-2.17000008,-1.50078821,-1.46110952,-1.45082676,0.00000000,0.00000000,-2.55231476,-0.67596972,1.14068377,-1.30844545,0.55116451,0.00000000,0.00000000
-0.25850621,-2.17000008,-1.51742828,-1.46808958,-1.44551373,0.00000000,0.00000000,-2.55746055,-0.65374976,1.13697481,-1.22639370,0.57075268,0.00000000,0.00000000
-0.25877097,-2.17000008,-1.53090560,-1.47329104,-1.44372785,0.00000000,0.00000000,-2.56158853,-0.62791818,1.12914515,-1.13798511,0.59024531,0.00000000,0.00000000
-0.26087776,-2.17000008,-1.54004216,-1.47685730,-1.44733012,0.00000000,0.00000000,-2.56434608,-0.60056883,1.11647809,-1.04519439,0.60867822,0.00000000,0.00000000
-0.26481476,-2.17000008,-1.54426825,-1.47886395,-1.45071495,0.00000000,0.00000000,-2.56549311,-0.57363063,1.09878218,-0.95011139,0.63004351,0.00000000,0.00000000
-0.27056006,-2.17000008,-1.54333007,-1.47932363,-1.45408881,0.00000000,0.00000000,-2.56480241,-0.54885948,1.07628512,-0.85491061,0.64922088,0.00000000,0.00000000
-0.27800083,-2.17000008,-1.53717971,-1.47816586,-1.45194912,0.00000000,0.00000000,-2.56202650,-0.52779508,1.04957044,-0.76177830,0.67075896,0.00000000,0.00000000
-0.28690112,-2.17000008,-1.52593040,-1.47519386,-1.44943619,0.00000000,0.00000000,-2.55688834,-0.51171893,1.01949668,-0.67282063,0.68704581,0.00000000,0.00000000
-0.29704040,-2.17000008,-1.50979745,-1.47021413,-1.45128405,0.00000000,0.00000000,-2.54911280,-0.50155902,0.98709476,-0.58991313,0.70409709,0.00000000,0.00000000
-0.30822775,-2.17000008,-1.48905671,-1.46304131,-1.44676304,0.00000000,0.00000000,-2.53803658,-0.49758086,0.95356566,-0.51466942,0.72655356,0.00000000,0.00000000
-0.32028407,-2.17000008,-1.46465719,-1.45327747,-1.44168782,0.00000000,0.00000000,-2.52335072,-0.49941456,0.92002189,-0.44840178,0.75198090,0.00000000,0.00000000
-0.33320743,-2.17000008,-1.43918133,-1.44021583,-1.43325996,0.00000000,0.00000000,-2.50643253,-0.50656462,0.88712281,-0.39221931,0.77627897,0.00000000,0.00000000
-0.34696960,-2.17000008,-1.41576087,-1.42305493,-1.42097497,0.00000000,0.00000000,-2.48695064,-0.51696974,0.85592204,-0.34694424,0.80170685,0.00000000,0.00000000
-0.36132219,-2.17000008,-1.39669323,-1.40100765,-1.40792739,0.00000000,0.00000000,-2.46600127,-0.52822310,0.82702404,-0.31163678,0.82670915,0.00000000,0.00000000
-0.37539035,-2.17000008,-1.38254237,-1.37301087,-1.38909733,0.00000000,0.00000000,-2.44583511,-0.53810531,0.80061179,-0.28406155,0.84991890,0.00000000,0.00000000
-0.38812292,-2.17000008,-1.37243831,-1.33802319,-1.37611341,0.00000000,0.00000000,-2.42522645,-0.54542226,0.77705127,-0.26299965,0.87066627,0.00000000,0.00000000
-0.39824200,-2.17000008,-1.36441731,-1.29505706,-1.36029029,0.00000000,0.00000000,-2.40567780,-0.54952371,0.75626481,-0.24636866,0.88413388,0.00000000,0.00000000
-0.40488663,-2.16996479,-1.35660076,-1.24357700,-1.34173846,0.00000000,0.00000000,-2.39007092,-0.55022937,0.73797411,-0.23204917,0.90068179,0.00000000,0.00000000
-0.40799287,-2.16935563,-1.34728479,-1.18377960,-1.33352971,0.00000000,0.00000000,-2.37877250,-0.54768229,0.72215337,-0.21954128,0.92036283,0.00000000,0.00000000
-0.40831894,-2.16648936,-1.33502281,-1.11658394,-1.31750000,0.00000000,0.00000000,-2.37019324,-0.54397136,0.70879543,-0.21027763,0.93674624,0.00000000,0.00000000
-0.40722233,-2.16004658,-1.31888855,-1.04342651,-1.30247605,0.00000000,0.00000000,-2.36327004,-0.54124087,0.69782478,-0.20551525,0.95746940,0.00000000,0.00000000
-0.40643221,-2.15059042,-1.29847407,-0.96611446,-1.28393781,0.00000000,0.00000000,-2.35741377,-0.54083049,0.68916512,-0.20590746,0.98103738,0.00000000,0.00000000
-0.40763801,-2.13932347,-1.27370310,-0.88655227,-1.26738775,0.00000000,0.00000000,-2.35204935,-0.54367507,0.68273431,-0.21188976,0.99396133,0.00000000,0.00000000
-0.41181096,-2.12728190,-1.24468875,-0.80618840,-1.25395930,0.00000000,0.00000000,-2.34648752,-0.55030334,0.67844731,-0.22373314,1.00635076,0.00000000,0.00000000
-0.41945177,-2.11485577,-1.21186626,-0.72586459,-1.23991930,0.00000000,0.00000000,-2.33983946,-0.56067395,0.67623937,-0.24149452,1.01600778,0.00000000,0.00000000
-0.43080038,-2.10183597,-1.17591667,-0.64598602,-1.22700977,0.00000000,0.00000000,-2.33113384,-0.57453477,0.67603689,-0.26515564,1.03226519,0.00000000,0.00000000
-0.44508192,-2.08830023,-1.13721776,-0.56680089,-1.21108317,0.00000000,0.00000000,-2.31908011,-0.59209883,0.67773306,-0.29499421,1.05492091,0.00000000,0.00000000
-0.46220291,-2.07442069,-1.09628189,-0.48945269,-1.19617188,0.00000000,0.00000000,-2.30257201,-0.61315596,0.68122238,-0.33091128,1.07645130,0.00000000,0.00000000
-0.48078263,-2.06380844,-1.05251479,-0.41661057,-1.18769586,0.00000000,0.00000000,-2.28062820,-0.63608426,0.68654233,-0.37196442,1.09978628,0.00000000,0.00000000
-0.50135219,-2.05774570,-1.00636983,-0.35155156,-1.18035042,0.00000000,0.00000000,-2.25230980,-0.65928751,0.69375604,-0.41714779,1.12107682,0.00000000,0.00000000
-0.52113456,-2.05734801,-0.95792639,-0.29382709,-1.17116618,0.00000000,0.00000000,-2.21632504,-0.68248767,0.70283639,-0.46617627,1.14049625,0.00000000,0.00000000
-0.54097676,-2.06042218,-0.90814275,-0.24378252,-1.16081119,0.00000000,0.00000000,-2.17478061,-0.70334053,0.71343595,-0.51628137,1.15876830,0.00000000,0.00000000
-0.56090093,-2.06576180,-0.85755092,-0.20117478,-1.14545047,0.00000000,0.00000000,-2.12880540,-0.72051477,0.72526896,-0.56552589,1.17786574,0.00000000,0.00000000
-0.57927799,-2.07315946,-0.80626708,-0.16486615,-1.13465130,0.00000000,0.00000000,-2.07914090,-0.73357761,0.73800033,-0.61263198,1.19646025,0.00000000,0.00000000
-0.59491605,-2.08214498,-0.75443608,-0.13379650,-1.12388706,0.00000000,0.00000000,-2.02655530,-0.74246997,0.75125140,-0.65650475,1.21107149,0.00000000,0.00000000
-0.60720283,-2.09226847,-0.70220053,-0.10721868,-1.11522508,0.00000000,0.00000000,-1.97157228,-0.74759436,0.76464373,-0.69636416,1.22799933,0.00000000,0.00000000
-0.61596185,-2.10319829,-0.64968055,-0.08467858,-1.10989249,0.00000000,0.00000000,-1.91461992,-0.74968535,0.77780044,-0.73163468,1.24213254,0.00000000,0.00000000
-0.62136751,-2.11462450,-0.59697473,-0.06591179,-1.09975672,0.00000000,0.00000000,-1.85605800,-0.74961597,0.79040849,-0.76184976,1.25560427,0.00000000,0.00000000
-0.62386364,-2.12615228,-0.54415673,-0.05073677,-1.09246516,0.00000000,0.00000000,-1.79616272,-0.74824095,0.80227512,-0.78661269,1.27145135,0.00000000,0.00000000
-0.62410796,-2.13723207,-0.49127302,-0.03898658,-1.08757961,0.00000000,0.00000000,-1.73515975,-0.74631482,0.81333417,-0.80558980,1.28845191,0.00000000,0.00000000
-0.62289524,-2.14727259,-0.43834001,-0.03052333,-1.08395600,0.00000000,0.00000000,-1.67331719,-0.74453610,0.82357287,-0.81854987,1.30407226,0.00000000,0.00000000
-0.62105310,-2.15579534,-0.38534540,-0.02526795,-1.07947862,0.00000000,0.00000000,-1.61109436,-0.74358064,0.83293104,-0.82535577,1.31710255,0.00000000,0.00000000
-0.61937875,-2.16248369,-0.33225453,-0.02320885,-1.07738018,0.00000000,0.00000000,-1.54929101,-0.74407899,0.84123725,-0.82589537,1.33456337,0.00000000,0.00000000
-0.61853790,-2.16708088,-0.27901745,-0.02434086,-1.07895625,0.00000000,0.00000000,-1.48904848,-0.74650872,0.84824377,-0.82000792,1.35308325,0.00000000,0.00000000
-0.61888611,-2.16940427,-0.22557403,-0.02850978,-1.08145428,0.00000000,0.00000000,-1.43166542,-0.75092870,0.85379660,-0.80741280,1.37114000,0.00000000,0.00000000
-0.62057006,-2.16996622,-0.17186110,-0.03522104,-1.08876657,0.00000000,0.00000000,-1.37852681,-0.75650668,0.85803068,-0.78752238,1.38943267,0.00000000,0.00000000
-0.62370676,-2.17000008,-0.11781862,-0.04344230,-1.09618187,0.00000000,0.00000000,-1.33128643,-0.76078629,0.86157376,-0.75900596,1.40730798,0.00000000,0.00000000
-0.62810498,-2.17000008,-0.06338179,-0.05141597,-1.09864688,0.00000000,0.00000000,-1.29101169,-0.76335859,0.86446524,-0.72301340,1.42834425,0.00000000,0.00000000
-0.63298935,-2.17000008,-0.00846436,-0.05683704,-1.10069811,0.00000000,0.00000000,-1.25745606,-0.77004200,0.86488062,-0.68698704,1.44568539,0.00000000,0.00000000
-0.63762969,-2.17000008,0.04703246,-0.05761941,-1.09832704,0.00000000,0.00000000,-1.23184097,-0.77983588,0.86298603,-0.65318555,1.46419227,0.00000000,0.00000000
-0.64155042,-2.17000008,0.10320655,-0.05240706,-1.09853816,0.00000000,0.00000000,-1.21341980,-0.79156148,0.85948431,-0.62238455,1.47541595,0.00000000,0.00000000
-0.64441317,-2.17000008,0.16014226,-0.04024070,-1.09970856,0.00000000,0.00000000,-1.19997203,-0.80489159,0.85510772,-0.59562522,1.49017429,0.00000000,0.00000000
-0.64602453,-2.17000008,0.21789198,-0.02016321,-1.10351574,0.00000000,0.00000000,-1.18972266,-0.81913108,0.85051876,-0.57333815,1.50196481,0.00000000,0.00000000
-0.64640445,-2.17000008,0.27644947,0.00912399,-1.10389292,0.00000000,0.00000000,-1.18157125,-0.83330125,0.84621531,-0.55534863,1.51725626,0.00000000,0.00000000
-0.64579397,-2.17000008,0.33570758,0.04947048,-1.10691500,0.00000000,0.00000000,-1.17469943,-0.84594607,0.84271282,-0.54102719,1.52960050,0.00000000,0.00000000
-0.64473957,-2.17000008,0.39538991,0.10309951,-1.11031079,0.00000000,0.00000000,-1.16846883,-0.85531867,0.84055698,-0.52947444,1.53753889,0.00000000,0.00000000
-0.64414221,-2.17000008,0.45496726,0.17209171,-1.11040211,0.00000000,0.00000000,-1.16265857,-0.85992497,0.84014797,-0.51971740,1.54215693,0.00000000,0.00000000
-0.64473164,-2.16982722,0.51357931,0.25733942,-1.11107302,0.00000000,0.00000000,-1.15731728,-0.85931516,0.84157848,-0.51115501,1.54336560,0.00000000,0.00000000
-0.64615101,-2.16674042,0.57001173,0.35734567,-1.10584998,0.00000000,0.00000000,-1.15263891,-0.85467529,0.84452385,-0.50385469,1.55124104,0.00000000,0.00000000
-0.64658767,-2.15111971,0.62280309,0.46807227,-1.10603678,0.00000000,0.00000000,-1.14898098,-0.84835219,0.84836137,-0.49830645,1.56050146,0.00000000,0.00000000
-0.64375353,-2.11310625,0.67054600,0.58429581,-1.10851586,0.00000000,0.00000000,-1.14658678,-0.84302604,0.85242695,-0.49508768,1.57633400,0.00000000,0.00000000
-0.63605165,-2.05333304,0.71210283,0.70131022,-1.11033094,0.00000000,0.00000000,-1.14560890,-0.84077865,0.85620266,-0.49446976,1.58938766,0.00000000,0.00000000
-0.62177020,-1.97559428,0.74643934,0.81527746,-1.11111104,0.00000000,0.00000000,-1.14618087,-0.84113789,0.85973406,-0.49585557,1.59994507,0.00000000,0.00000000
-0.59985006,-1.88303471,0.77298307,0.92317659,-1.11720741,0.00000000,0.00000000,-1.14804888,-0.84379566,0.86309278,-0.49894211,1.61191308,0.00000000,0.00000000
-0.56929743,-1.77832818,0.79145736,1.02259648,-1.12707579,0.00000000,0.00000000,-1.15097356,-0.84779942,0.86648154,-0.50351405,1.62156415,0.00000000,0.00000000
-0.52935076,-1.66399598,0.80185425,1.11158013,-1.13658738,0.00000000,0.00000000,-1.15444255,-0.85210431,0.87018776,-0.50949132,1.63225079,0.00000000,0.00000000
-0.47983000,-1.54266500,0.80444276,1.18850005,-1.14684176,0.00000000,0.00000000,-1.15810990,-0.85583466,0.87443674,-0.51670820,1.64326429,0.00000000,0.00000000
-0.42129275,-1.41696918,0.79965878,1.25198853,-1.16008604,0.00000000,0.00000000,-1.16229188,-0.85817957,0.87930578,-0.52482694,1.65233839,0.00000000,0.00000000
-0.35510284,-1.28951144,0.78802538,1.30087364,-1.17601812,0.00000000,0.00000000,-1.16735482,-0.85867840,0.88477403,-0.53375852,1.65923440,0.00000000,0.00000000
-0.28307733,-1.16327441,0.77022159,1.33401501,-1.19138205,0.00000000,0.00000000,-1.17293060,-0.85715348,0.89090365,-0.54394919,1.67236805,0.00000000,0.00000000
-0.20730785,-1.04126644,0.74722928,1.35044312,-1.20568311,0.00000000,0.00000000,-1.17950439,-0.85397285,0.89742780,-0.55566746,1.68652511,0.00000000,0.00000000
-0.12991658,-0.92640871,0.72017753,1.34938669,-1.21967459,0.00000000,0.00000000,-1.18745673,-0.84961098,0.90406567,-0.56926143,1.70279062,0.00000000,0.00000000
-0.05284945,-0.82161522,0.69022894,1.33023977,-1.23344541,0.00000000,0.00000000,-1.19691992,-0.84427220,0.91065145,-0.58510584,1.71994841,0.00000000,0.00000000
0.02233447,-0.73006457,0.65862054,1.29260814,-1.24218643,0.00000000,0.00000000,-1.20813489,-0.83739388,0.91722304,-0.60327065,1.74164951,0.00000000,0.00000000
0.09427238,-0.65367788,0.62625813,1.23990333,-1.25046587,0.00000000,0.00000000,-1.22141182,-0.82746524,0.92410624,-0.62348670,1.76248276,0.00000000,0.00000000
0.16168071,-0.58976889,0.59326261,1.18325591,-1.25450122,0.00000000,0.00000000,-1.23695672,-0.81459999,0.93115580,-0.64613539,1.77736354,0.00000000,0.00000000
0.22441752,-0.53505194,0.56008929,1.12981129,-1.25973940,0.00000000,0.00000000,-1.25472677,-0.80134958,0.93748945,-0.67259914,1.78656220,0.00000000,0.00000000
0.28222582,-0.48840645,0.52690464,1.08148241,-1.26186085,0.00000000,0.00000000,-1.27471745,-0.78877866,0.94267046,-0.70376587,1.79780793,0.00000000,0.00000000
0.33487117,-0.44964203,0.49379697,1.03883505,-1.27132416,0.00000000,0.00000000,-1.29683018,-0.77671307,0.94668585,-0.74017304,1.80367005,0.00000000,0.00000000
0.38230056,-0.41869709,0.46091452,1.00213599,-1.28320229,0.00000000,0.00000000,-1.32090735,-0.76466560,0.94967115,-0.78226155,1.81759715,0.00000000,0.00000000
0.42462677,-0.39544851,0.42844433,0.97155899,-1.29165602,0.00000000,0.00000000,-1.34708917,-0.75184709,0.95188057,-0.83008623,1.83059227,0.00000000,0.00000000
0.46244770,-0.37924525,0.39676988,0.94756520,-1.30311704,0.00000000,0.00000000,-1.37422144,-0.73785222,0.95396119,-0.88353455,1.84268236,0.00000000,0.00000000
0.49676910,-0.36791185,0.36633736,0.93107837,-1.31607258,0.00000000,0.00000000,-1.39888287,-0.72264290,0.95736337,-0.94059438,1.85410559,0.00000000,0.00000000
0.52789170,-0.35920763,0.33710793,0.92109895,-1.32493567,0.00000000,0.00000000,-1.42133486,-0.70395643,0.96350420,-0.99427736,1.86606920,0.00000000,0.00000000
0.55610573,-0.35401717,0.30930090,0.91283262,-1.33064711,0.00000000,0.00000000,-1.44253564,-0.68244541,0.97206831,-1.04160333,1.88256264,0.00000000,0.00000000
0.58150607,-0.35155320,0.28285003,0.90400821,-1.33635879,0.00000000,0.00000000,-1.46273935,-0.65939921,0.98263586,-1.08197331,1.89646697,0.00000000,0.00000000
0.60396290,-0.35105652,0.25755143,0.89378011,-1.33809423,0.00000000,0.00000000,-1.48200774,-0.63573790,0.99502087,-1.11477673,1.90668082,0.00000000,0.00000000
0.62333524,-0.35178611,0.23320277,0.88165689,-1.34570277,0.00000000,0.00000000,-1.50008690,-0.61223924,1.00920427,-1.13948083,1.90949452,0.00000000,0.00000000
0.63980794,-0.35301641,0.20980595,0.86753660,-1.35714757,0.00000000,0.00000000,-1.51648283,-0.58954906,1.02525008,-1.15572822,1.90437376,0.00000000,0.00000000
0.65339732,-0.35440445,0.18728860,0.85139561,-1.36884129,0.00000000,0.00000000,-1.53070199,-0.56819630,1.04313672,-1.16337299,1.89063609,0.00000000,0.00000000
0.66379261,-0.35568121,0.16538687,0.83327037,-1.37962127,0.00000000,0.00000000,-1.54244280,-0.54865044,1.06263101,-1.16249907,1.88216996,0.00000000,0.00000000
0.67056686,-0.35662407,0.14377813,0.81318617,-1.39403117,0.00000000,0.00000000,-1.55169177,-0.53139108,1.08321369,-1.15343881,1.87675083,0.00000000,0.00000000
0.67305779,-0.35728917,0.12202444,0.79095989,-1.41030991,0.00000000,0.00000000,-1.55875254,-0.51684183,1.10411561,-1.13678145,1.87143493,0.00000000,0.00000000
0.67044216,-0.35810348,0.09962024,0.76615214,-1.42524493,0.00000000,0.00000000,-1.56426167,-0.50534481,1.12437904,-1.11336493,1.86739242,0.00000000,0.00000000
0.66161615,-0.35950118,0.07591396,0.73831242,-1.44000387,0.00000000,0.00000000,-1.56926882,-0.49725395,1.14285100,-1.08414376,1.86696303,0.00000000,0.00000000
0.64518738,-0.36183915,0.05011144,0.70703661,-1.45248592,0.00000000,0.00000000,-1.57394385,-0.49318397,1.15847731,-1.05106485,1.87064993,0.00000000,0.00000000
0.61881405,-0.36740232,0.02094129,0.67085195,-1.46263909,0.00000000,0.00000000,-1.57686400,-0.49402621,1.17068064,-1.01995766,1.86887789,0.00000000,0.00000000
0.57861817,-0.38238421,-0.01367238,0.62630063,-1.47229087,0.00000000,0.00000000,-1.58086753,-0.49870050,1.17918932,-0.99737376,1.86783826,0.00000000,0.00000000
0.52205831,-0.41229483,-0.05512914,0.57062721,-1.47916806,0.00000000,0.00000000,-1.58722365,-0.50281549,1.18622851,-0.98456383,1.86174524,0.00000000,0.00000000
0.44888479,-0.46061397,-0.10374454,0.50231189,-1.48294568,0.00000000,0.00000000,-1.59606314,-0.50255775,1.19397640,-0.98058724,1.86261153,0.00000000,0.00000000
0.36057287,-0.52893484,-0.15912816,0.42078820,-1.48548841,0.00000000,0.00000000,-1.60789371,-0.49621046,1.20338261,-0.98466873,1.85897601,0.00000000,0.00000000
0.25982484,-0.61695427,-0.22047551,0.32641071,-1.48394120,0.00000000,0.00000000,-1.62347984,-0.48369047,1.21453679,-0.99631047,1.85193574,0.00000000,0.00000000
0.15026079,-0.72272080,-0.28672001,0.22041446,-1.48083580,0.00000000,0.00000000,-1.64371216,-0.46608508,1.22692370,-1.01526284,1.84354424,0.00000000,0.00000000
0.03618898,-0.84291136,-0.35660574,0.10484416,-1.47223055,0.00000000,0.00000000,-1.66952014,-0.44547260,1.23941123,-1.04153669,1.84082258,0.00000000,0.00000000
-0.07770119,-0.97313589,-0.42876154,-0.01761757,-1.46204102,0.00000000,0.00000000,-1.70119298,-0.42439556,1.25055373,-1.07544887,1.84173000,0.00000000,0.00000000
-0.18682714,-1.10827875,-0.50181878,-0.14390007,-1.45040798,0.00000000,0.00000000,-1.73687959,-0.40375558,1.26022971,-1.11675167,1.84541380,0.00000000,0.00000000
-0.28731379,-1.24297881,-0.57454509,-0.27081963,-1.44523859,0.00000000,0.00000000,-1.77376175,-0.38238734,1.26989305,-1.16295528,1.85080409,0.00000000,0.00000000
-0.37646624,-1.37231588,-0.64593768,-0.39532858,-1.43630624,0.00000000,0.00000000,-1.80945468,-0.35982904,1.28041780,-1.21195447,1.85773039,0.00000000,0.00000000
-0.45288157,-1.49242103,-0.71524370,-0.51468557,-1.42445874,0.00000000,0.00000000,-1.84318256,-0.33780560,1.29048264,-1.26308310,1.85847878,0.00000000,0.00000000
-0.51620156,-1.60076869,-0.78192323,-0.62656319,-1.41475666,0.00000000,0.00000000,-1.87509787,-0.31750068,1.29883373,-1.31574428,1.85930264,0.00000000,0.00000000
-0.56673127,-1.69624043,-0.84557700,-0.72918612,-1.40165305,0.00000000,0.00000000,-1.90477395,-0.30006546,1.30429733,-1.37049425,1.86632705,0.00000000,0.00000000
-0.60507160,-1.77884555,-0.90589213,-0.82135731,-1.38375485,0.00000000,0.00000000,-1.93072820,-0.28684196,1.30585241,-1.42967772,1.87170041,0.00000000,0.00000000
-0.63174003,-1.84894109,-0.96265078,-0.90216386,-1.36574721,0.00000000,0.00000000,-1.95441473,-0.27758044,1.30317533,-1.49093568,1.87289882,0.00000000,0.00000000
-0.64732486,-1.90756273,-1.01559174,-0.97126311,-1.35107231,0.00000000,0.00000000,-1.97693765,-0.27176178,1.29615104,-1.55233264,1.87122524,0.00000000,0.00000000
-0.65254378,-1.95621812,-1.06441891,-1.02886188,-1.33650208,0.00000000,0.00000000,-1.99851573,-0.26893038,1.28481245,-1.61270702,1.88263059,0.00000000,0.00000000
-0.64860904,-1.99664664,-1.10892105,-1.07574749,-1.32598948,0.00000000,0.00000000,-2.01880884,-0.26860568,1.26964295,-1.67061782,1.89323151,0.00000000,0.00000000
-0.63762480,-2.03067994,-1.14910710,-1.11339307,-1.31820393,0.00000000,0.00000000,-2.03685665,-0.27031925,1.25148678,-1.72453809,1.90149260,0.00000000,0.00000000
-0.62232453,-2.05992675,-1.18524337,-1.14373863,-1.30744684,0.00000000,0.00000000,-2.05126882,-0.27339077,1.23136961,-1.77312124,1.91303587,0.00000000,0.00000000
-0.60516524,-2.08548951,-1.21772873,-1.16860199,-1.30134881,0.00000000,0.00000000,-2.06076336,-0.27686560,1.21022725,-1.81544721,1.92603040,0.00000000,0.00000000
-0.58773547,-2.10780787,-1.24707580,-1.18917036,-1.29814887,0.00000000,0.00000000,-2.06467843,-0.27970612,1.18876290,-1.85105109,1.93370855,0.00000000,0.00000000
-0.57084018,-2.12677932,-1.27393579,-1.20599055,-1.28884137,0.00000000,0.00000000,-2.06315112,-0.28114748,1.16748500,-1.87982404,1.93955719,0.00000000,0.00000000
-0.55477077,-2.14209485,-1.29896164,-1.21923053,-1.27100897,0.00000000,0.00000000,-2.05699348,-0.28096408,1.14671195,-1.90194917,1.94566739,0.00000000,0.00000000
-0.53940791,-2.15360546,-1.32255447,-1.22891188,-1.25277269,0.00000000,0.00000000,-2.04739141,-0.27943763,1.12659419,-1.91788125,1.95028317,0.00000000,0.00000000
-0.52527404,-2.16164804,-1.34480751,-1.23611557,-1.23139644,0.00000000,0.00000000,-2.03612328,-0.27724391,1.10738862,-1.92792082,1.94919622,0.00000000,0.00000000
-0.51367545,-2.16696310,-1.36551607,-1.24322200,-1.21160066,0.00000000,0.00000000,-2.02463341,-0.27512956,1.08927870,-1.93239975,1.94280922,0.00000000,0.00000000
-0.50312757,-2.16942883,-1.38501942,-1.24932837,-1.19251418,0.00000000,0.00000000,-2.01230836,-0.27256584,1.07222676,-1.93218148,1.94429266,0.00000000,0.00000000
-0.49227339,-2.16996861,-1.40325856,-1.25344026,-1.17209983,0.00000000,0.00000000,-1.99845243,-0.26957354,1.05634129,-1.92798412,1.95310831,0.00000000,0.00000000
-0.48350164,-2.17000008,-1.41878450,-1.25853431,-1.15620816,0.00000000,0.00000000,-1.98377752,-0.26870632,1.04183972,-1.92001367,1.96153688,0.00000000,0.00000000
-0.47660291,-2.17000008,-1.43136251,-1.26335943,-1.14498580,0.00000000,0.00000000,-1.96705639,-0.27097523,1.02853167,-1.90821075,1.96504200,0.00000000,0.00000000
-0.47129217,-2.16999292,-1.44121552,-1.26670349,-1.13851309,0.00000000,0.00000000,-1.94526434,-0.27603245,1.01612842,-1.89214838,1.96590781,0.00000000,0.00000000
-0.46633193,-2.16988659,-1.44812143,-1.26736248,-1.12830150,0.00000000,0.00000000,-1.91507161,-0.28337011,1.00507772,-1.87159634,1.97024691,0.00000000,0.00000000
-0.46069998,-2.16953945,-1.45124543,-1.26474798,-1.12075448,0.00000000,0.00000000,-1.87398052,-0.29250163,0.99584138,-1.84574425,1.97374797,0.00000000,0.00000000
-0.45711949,-2.16909456,-1.45060754,-1.26114333,-1.11626041,0.00000000,0.00000000,-1.82316697,-0.30267721,0.98769104,-1.81202745,1.97659552,0.00000000,0.00000000
-0.45620242,-2.16878748,-1.44619894,-1.25707507,-1.11355174,0.00000000,0.00000000,-1.76528049,-0.31445387,0.98015839,-1.76872611,1.97611511,0.00000000,0.00000000
-0.45739019,-2.16905975,-1.43755972,-1.25221467,-1.11088240,0.00000000,0.00000000,-1.70222449,-0.32892883,0.97338599,-1.71515560,1.97367930,0.00000000,0.00000000
-0.46054116,-2.16972542,-1.42505836,-1.24622333,-1.10411274,0.00000000,0.00000000,-1.63693595,-0.34612662,0.96728748,-1.65099370,1.96891749,0.00000000,0.00000000
-0.46589577,-2.16998243,-1.41015768,-1.23862123,-1.09708047,0.00000000,0.00000000,-1.57550085,-0.36473384,0.96103132,-1.57625163,1.96482503,0.00000000,0.00000000
-0.47332272,-2.17000008,-1.39274514,-1.22917104,-1.09336734,0.00000000,0.00000000,-1.52136457,-0.38393331,0.95456845,-1.49142444,1.96510351,0.00000000,0.00000000
-0.48261648,-2.17000008,-1.37217879,-1.21785879,-1.08867037,0.00000000,0.00000000,-1.47569847,-0.40240899,0.94892246,-1.39659870,1.96461749,0.00000000,0.00000000
-0.49410802,-2.17000008,-1.34890854,-1.20485973,-1.07986975,0.00000000,0.00000000,-1.43774307,-0.41863677,0.94596899,-1.29343700,1.95900810,0.00000000,0.00000000
-0.50744611,-2.17000008,-1.32505345,-1.18976176,-1.07458627,0.00000000,0.00000000,-1.40274179,-0.43411270,0.94693673,-1.19192326,1.95130897,0.00000000,0.00000000
-0.52286977,-2.17000008,-1.30250132,-1.17372942,-1.06752765,0.00000000,0.00000000,-1.37214184,-0.44769299,0.95113617,-1.09887743,1.94914579,0.00000000,0.00000000
-0.53968745,-2.16999578,-1.28076792,-1.15784919,-1.06016028,0.00000000,0.00000000,-1.34682226,-0.45882058,0.95752722,-1.01639152,1.94774723,0.00000000,0.00000000
-0.55674285,-2.16988564,-1.25831020,-1.14256978,-1.04731548,0.00000000,0.00000000,-1.32500958,-0.46846908,0.96529454,-0.94575959,1.93644738,0.00000000,0.00000000
-0.57374364,-2.16889381,-1.23397064,-1.12818098,-1.03566766,0.00000000,0.00000000,-1.30551600,-0.47769153,0.97354400,-0.88767761,1.92515397,0.00000000,0.00000000
-0.59169018,-2.16496944,-1.20854712,-1.11350656,-1.01945031,0.00000000,0.00000000,-1.28920412,-0.48675367,0.98166883,-0.84142643,1.91798437,0.00000000,0.00000000
-0.61165428,-2.15652823,-1.18320370,-1.09703541,-1.00024891,0.00000000,0.00000000,-1.27768660,-0.49612510,0.98881346,-0.80586964,1.91660368,0.00000000,0.00000000
-0.63268274,-2.14413047,-1.15705025,-1.07688761,-0.97162354,0.00000000,0.00000000,-1.27142859,-0.50770932,0.99329382,-0.78040636,1.91892827,0.00000000,0.00000000
-0.65477055,-2.12859035,-1.12926805,-1.05269539,-0.94048202,0.00000000,0.00000000,-1.26951873,-0.52101952,0.99526972,-0.76315218,1.92171490,0.00000000,0.00000000
-0.67850953,-2.11033463,-1.09948838,-1.02478206,-0.91291165,0.00000000,0.00000000,-1.27337742,-0.53590500,0.99443001,-0.75180417,1.92429221,0.00000000,0.00000000
-0.70268726,-2.08938837,-1.06705451,-0.99238640,-0.88814020,0.00000000,0.00000000,-1.28344488,-0.55445904,0.98984623,-0.74677509,1.92790461,0.00000000,0.00000000
-0.72418040,-2.06479645,-1.03124571,-0.95340121,-0.86382204,0.00000000,0.00000000,-1.29855776,-0.57751572,0.98156142,-0.74830914,1.92494893,0.00000000,0.00000000
-0.73913240,-2.03417778,-0.99180275,-0.90490019,-0.83676022,0.00000000,0.00000000,-1.31552184,-0.60165352,0.97192454,-0.75401628,1.92523873,0.00000000,0.00000000
-0.74456465,-1.99528623,-0.94862664,-0.84479594,-0.80816191,0.00000000,0.00000000,-1.33297527,-0.62565941,0.96193099,-0.76291746,1.92403126,0.00000000,0.00000000
-0.73834884,-1.94641054,-0.90163684,-0.77202123,-0.77468717,0.00000000,0.00000000,-1.35054672,-0.64973003,0.95166868,-0.77508694,1.92052329,0.00000000,0.00000000
-0.71899062,-1.88609111,-0.85088444,-0.68625402,-0.73987454,0.00000000,0.00000000,-1.36875987,-0.67416084,0.94088644,-0.78981823,1.91795349,0.00000000,0.00000000
-0.68539310,-1.81318498,-0.79655963,-0.58782887,-0.70424503,0.00000000,0.00000000,-1.38771915,-0.69839966,0.92977935,-0.80552351,1.91861200,0.00000000,0.00000000
-0.63657409,-1.72693670,-0.73900580,-0.47767597,-0.67051965,0.00000000,0.00000000,-1.40624809,-0.72054654,0.91948664,-0.82019472,1.92224097,0.00000000,0.00000000
-0.57176769,-1.62707841,-0.67876750,-0.35722607,-0.63939655,0.00000000,0.00000000,-1.42336404,-0.73995453,0.91053969,-0.83360511,1.92023766,0.00000000,0.00000000
-0.49067989,-1.51422513,-0.61658931,-0.22838362,-0.61790812,0.00000000,0.00000000,-1.43883491,-0.75636870,0.90306646,-0.84612477,1.91032863,0.00000000,0.00000000
-0.39395693,-1.39019394,-0.55340618,-0.09349573,-0.59286934,0.00000000,0.00000000,-1.45272017,-0.76936376,0.89719343,-0.85803616,1.90334964,0.00000000,0.00000000
-0.28353673,-1.25796485,-0.49032632,0.04470543,-0.57118648,0.00000000,0.00000000,-1.46518648,-0.77859002,0.89301735,-0.86966324,1.89270997,0.00000000,0.00000000
-0.16259500,-1.12135601,-0.42858931,0.18320505,-0.54995728,0.00000000,0.00000000,-1.47653198,-0.78382170,0.89055592,-0.88137680,1.88288212,0.00000000,0.00000000
-0.03516045,-0.98463035,-0.36949894,0.31887257,-0.53146654,0.00000000,0.00000000,-1.48724341,-0.78510696,0.88965178,-0.89371151,1.87442923,0.00000000,0.00000000
0.09436645,-0.85213906,-0.31434700,0.44866538,-0.51739168,0.00000000,0.00000000,-1.49795341,-0.78285742,0.88994998,-0.90745372,1.86680186,0.00000000,0.00000000
0.22164063,-0.72799200,-0.26433814,0.56982565,-0.50134963,0.00000000,0.00000000,-1.50916076,-0.77749908,0.89115149,-0.92343378,1.85936069,0.00000000,0.00000000
0.34270546,-0.61579645,-0.22052240,0.68003637,-0.48246506,0.00000000,0.00000000,-1.52119136,-0.76926857,0.89312381,-0.94223350,1.85178566,0.00000000,0.00000000
0.45421433,-0.51849300,-0.18374915,0.77751511,-0.46116886,0.00000000,0.00000000,-1.53436971,-0.75828511,0.89579242,-0.96425450,1.84702373,0.00000000,0.00000000
0.55355293,-0.43826437,-0.15464178,0.86105031,-0.44069752,0.00000000,0.00000000,-1.54898882,-0.74448711,0.89918244,-0.98969650,1.84422731,0.00000000,0.00000000
0.63893199,-0.37643337,-0.13356173,0.93002152,-0.42264852,0.00000000,0.00000000,-1.56526184,-0.72742695,0.90358651,-1.01813066,1.84199178,0.00000000,0.00000000
0.70950645,-0.33313388,-0.12053084,0.98452634,-0.41240564,0.00000000,0.00000000,-1.58322763,-0.70647389,0.90955138,-1.04842234,1.83351064,0.00000000,0.00000000
0.76552242,-0.30650747,-0.11509363,1.02578771,-0.39842364,0.00000000,0.00000000,-1.60240901,-0.68166828,0.91752970,-1.07949138,1.82498872,0.00000000,0.00000000
0.80846936,-0.29214939,-0.11612034,1.05655122,-0.39168921,0.00000000,0.00000000,-1.62198949,-0.65454012,0.92726940,-1.11084843,1.82492757,0.00000000,0.00000000
0.84101737,-0.28447425,-0.12175044,1.08041894,-0.38019180,0.00000000,0.00000000,-1.64154208,-0.62747937,0.93784487,-1.14217448,1.82074428,0.00000000,0.00000000
0.86628139,-0.27933669,-0.12983947,1.10019970,-0.37363738,0.00000000,0.00000000,-1.66142559,-0.60227001,0.94834399,-1.17309999,1.81334412,0.00000000,0.00000000
0.88697636,-0.27509788,-0.13851793,1.11705709,-0.36803102,0.00000000,0.00000000,-1.68188059,-0.57975298,0.95846832,-1.20402861,1.80082333,0.00000000,0.00000000
0.90522677,-0.27210239,-0.14633766,1.13080895,-0.36477450,0.00000000,0.00000000,-1.70168424,-0.56108886,0.96830499,-1.23724675,1.78807235,0.00000000,0.00000000
0.92201304,-0.27164984,-0.15266064,1.14092731,-0.36508566,0.00000000,0.00000000,-1.72090101,-0.54594296,0.97832197,-1.27393603,1.77591336,0.00000000,0.00000000
0.93623281,-0.27478111,-0.15827961,1.14803994,-0.35801429,0.00000000,0.00000000,-1.74286747,-0.52992868,0.99023080,-1.31299758,1.76218867,0.00000000,0.00000000
0.94640988,-0.28211150,-0.16423573,1.15346313,-0.34883958,0.00000000,0.00000000,-1.76368713,-0.51719475,1.00311363,-1.36125398,1.74474549,0.00000000,0.00000000
0.95401657,-0.29050297,-0.16932872,1.15924454,-0.33762723,0.00000000,0.00000000,-1.78126669,-0.50742531,1.01849461,-1.41440189,1.73393226,0.00000000,0.00000000
0.95970082,-0.29880342,-0.17303722,1.16565073,-0.32861078,0.00000000,0.00000000,-1.79738915,-0.49827623,1.03736842,-1.46658158,1.72313428,0.00000000,0.00000000
0.96351463,-0.30736578,-0.17533602,1.17188489,-0.32121515,0.00000000,0.00000000,-1.81304574,-0.48958126,1.05932999,-1.51571941,1.72024310,0.00000000,0.00000000
0.96554250,-0.31640413,-0.17617272,1.17730618,-0.32072392,0.00000000,0.00000000,-1.82876289,-0.48159471,1.08367801,-1.56043565,1.72133732,0.00000000,0.00000000
0.96578151,-0.32600439,-0.17555636,1.18160605,-0.31499606,0.00000000,0.00000000,-1.84496951,-0.47426194,1.10976648,-1.59933233,1.71913302,0.00000000,0.00000000
0.96412981,-0.33603311,-0.17356704,1.18492877,-0.31048584,0.00000000,0.00000000,-1.86176765,-0.46730796,1.13709557,-1.63114190,1.71713197,0.00000000,0.00000000
0.96036226,-0.34630913,-0.17038350,1.18771088,-0.30313998,0.00000000,0.00000000,-1.87903345,-0.46025100,1.16532946,-1.65475428,1.71564233,0.00000000,0.00000000
0.95436424,-0.35681546,-0.16612118,1.19027710,-0.28931379,0.00000000,0.00000000,-1.89655304,-0.45256588,1.19428670,-1.66930258,1.72086561,0.00000000,0.00000000
0.94633102,-0.36758813,-0.16067654,1.19271600,-0.26996017,0.00000000,0.00000000,-1.91402555,-0.44399700,1.22383165,-1.67429042,1.72890580,0.00000000,0.00000000
0.93642259,-0.37840560,-0.15396076,1.19522727,-0.25331870,0.00000000,0.00000000,-1.93101275,-0.43459457,1.25375605,-1.66959608,1.73332131,0.00000000,0.00000000
0.92477810,-0.38880676,-0.14589025,1.19810724,-0.23483238,0.00000000,0.00000000,-1.94693923,-0.42466483,1.28378057,-1.65542364,1.74172282,0.00000000,0.00000000
0.91177326,-0.39854670,-0.13621607,1.20130861,-0.21160847,0.00000000,0.00000000,-1.96124220,-0.41464564,1.31359315,-1.63223147,1.74999380,0.00000000,0.00000000
0.89767623,-0.40759227,-0.12477449,1.20460820,-0.18623869,0.00000000,0.00000000,-1.97348940,-0.40495956,1.34280169,-1.60073328,1.75755930,0.00000000,0.00000000
0.88249147,-0.41594779,-0.11159492,1.20786011,-0.15758187,0.00000000,0.00000000,-1.98344171,-0.39601347,1.37080002,-1.56200957,1.76695597,0.00000000,0.00000000
0.86616528,-0.42370844,-0.09675172,1.21090603,-0.13525632,0.00000000,0.00000000,-1.99100399,-0.38831913,1.39670503,-1.51765084,1.77413356,0.00000000,0.00000000
0.84875327,-0.43095377,-0.08023470,1.21358097,-0.11519308,0.00000000,0.00000000,-1.99601984,-0.38260350,1.41949940,-1.46977174,1.77632523,0.00000000,0.00000000
0.83051980,-0.43760544,-0.06186878,1.21583903,-0.09341011,0.00000000,0.00000000,-1.99809539,-0.37974754,1.43825424,-1.42080486,1.77455413,0.00000000,0.00000000
0.81168467,-0.44348580,-0.04150917,1.21787035,-0.07843661,0.00000000,0.00000000,-1.99659646,-0.38049912,1.45238018,-1.37308109,1.77089691,0.00000000,0.00000000
0.79218817,-0.44857845,-0.01922558,1.21999156,-0.06082793,0.00000000,0.00000000,-1.99098051,-0.38511956,1.46184540,-1.32814252,1.76829743,0.00000000,0.00000000
0.77181214,-0.45310992,0.00479223,1.22257090,-0.03650531,0.00000000,0.00000000,-1.98139489,-0.39333078,1.46711206,-1.28619015,1.77059281,0.00000000,0.00000000
0.75021702,-0.45745057,0.03026729,1.22614729,-0.01781958,0.00000000,0.00000000,-1.96877611,-0.40471882,1.46872520,-1.24656260,1.77063203,0.00000000,0.00000000
0.72688609,-0.46240863,0.05679289,1.23121881,-0.00232876,0.00000000,0.00000000,-1.95388460,-0.41907722,1.46705997,-1.20928907,1.76766431,0.00000000,0.00000000
0.70100904,-0.46888074,0.08373397,1.23863256,0.00673873,0.00000000,0.00000000,-1.93706954,-0.43572563,1.46288919,-1.17571330,1.76365650,0.00000000,0.00000000
0.67111015,-0.47824308,0.10993432,1.24925637,0.02210267,0.00000000,0.00000000,-1.91990805,-0.45407841,1.45664978,-1.14740050,1.76486909,0.00000000,0.00000000
0.63387340,-0.49339926,0.13279609,1.26077282,0.03941891,0.00000000,0.00000000,-1.90389431,-0.47428611,1.44803488,-1.12630260,1.76207745,0.00000000,0.00000000
0.58438677,-0.52144796,0.14850591,1.26441193,0.04903418,0.00000000,0.00000000,-1.89137805,-0.49375543,1.43887079,-1.11254954,1.75577450,0.00000000,0.00000000
0.52093458,-0.57003456,0.15565611,1.25317609,0.06293513,0.00000000,0.00000000,-1.88431036,-0.50901467,1.43174601,-1.10497379,1.74443555,0.00000000,0.00000000
0.44398984,-0.64084709,0.15408497,1.22532988,0.07026511,0.00000000,0.00000000,-1.88266265,-0.51870644,1.42776525,-1.10285604,1.73618758,0.00000000,0.00000000
0.35516176,-0.73243487,0.14402460,1.18081641,0.07280870,0.00000000,0.00000000,-1.88564491,-0.52283126,1.42707109,-1.10544419,1.73415136,0.00000000,0.00000000
0.25680152,-0.84212166,0.12581564,1.12010074,0.07220263,0.00000000,0.00000000,-1.89281726,-0.52175689,1.42952573,-1.11141670,1.73038828,0.00000000,0.00000000
0.15175575,-0.96622229,0.09975673,1.04421806,0.07030867,0.00000000,0.00000000,-1.90378344,-0.51615345,1.43476331,-1.11931288,1.72385359,0.00000000,0.00000000
0.04328967,-1.10019886,0.06617410,0.95473421,0.06768711,0.00000000,0.00000000,-1.91747344,-0.50689650,1.44227505,-1.12838554,1.71270359,0.00000000,0.00000000
-0.06512078,-1.23881209,0.02549191,0.85370016,0.06104010,0.00000000,0.00000000,-1.93316138,-0.49470687,1.45152009,-1.13858211,1.69478977,0.00000000,0.00000000
-0.17021237,-1.37640131,-0.02174288,0.74356484,0.04762679,0.00000000,0.00000000,-1.95042980,-0.48035699,1.46178305,-1.15011692,1.67138410,0.00000000,0.00000000
-0.26947671,-1.50739419,-0.07485246,0.62705642,0.04170895,0.00000000,0.00000000,-1.96817207,-0.46454719,1.47244263,-1.16331136,1.64846063,0.00000000,0.00000000
-0.36147299,-1.62711453,-0.13304114,0.50701827,0.03106475,0.00000000,0.00000000,-1.98563290,-0.44803554,1.48277497,-1.17806196,1.62336946,0.00000000,0.00000000
-0.44558230,-1.73243022,-0.19542812,0.38622564,0.01727050,0.00000000,0.00000000,-2.00217938,-0.43103680,1.49244833,-1.19460809,1.59839320,0.00000000,0.00000000
-0.52159810,-1.82177746,-0.26106051,0.26722822,0.00225863,0.00000000,0.00000000,-2.01733255,-0.41363809,1.50131953,-1.21293795,1.57751679,0.00000000,0.00000000
-0.58940589,-1.89488816,-0.32894862,0.15220653,-0.00872945,0.00000000,0.00000000,-2.03127551,-0.39593706,1.50932145,-1.23188686,1.55602551,0.00000000,0.00000000
-0.64860016,-1.95242405,-0.39812982,0.04291354,-0.01026172,0.00000000,0.00000000,-2.04419613,-0.37761667,1.51674461,-1.25032544,1.53351510,0.00000000,0.00000000
-0.69851750,-1.99572933,-0.46768057,-0.05938026,-0.01615130,0.00000000,0.00000000,-2.05621052,-0.35838011,1.52385688,-1.26762664,1.51138806,0.00000000,0.00000000
-0.73870760,-2.02676630,-0.53672343,-0.15399745,-0.02309803,0.00000000,0.00000000,-2.06738210,-0.33850148,1.53044355,-1.28377962,1.48799646,0.00000000,0.00000000
-0.76908797,-2.04783893,-0.60443586,-0.24076153,-0.03713220,0.00000000,0.00000000,-2.07768250,-0.31873024,1.53586102,-1.29920733,1.46955347,0.00000000,0.00000000
-0.78947085,-2.06096840,-0.67006516,-0.31963897,-0.04883713,0.00000000,0.00000000,-2.08689404,-0.29948756,1.53972757,-1.31445169,1.45186818,0.00000000,0.00000000
-0.80074900,-2.06832314,-0.73301500,-0.39106643,-0.06172865,0.00000000,0.00000000,-2.09538555,-0.28180814,1.54111350,-1.32976222,1.43470657,0.00000000,0.00000000
-0.80352712,-2.07149482,-0.79277390,-0.45535344,-0.07501286,0.00000000,0.00000000,-2.10319400,-0.26605979,1.53986883,-1.34507740,1.42221844,0.00000000,0.00000000
-0.79943663,-2.07190919,-0.84906656,-0.51316106,-0.08778075,0.00000000,0.00000000,-2.11033916,-0.25292042,1.53526759,-1.36083126,1.41202724,0.00000000,0.00000000
-0.79040337,-2.07065773,-0.90177608,-0.56524861,-0.10539266,0.00000000,0.00000000,-2.11667156,-0.24297847,1.52648962,-1.37762058,1.40238965,0.00000000,0.00000000
-0.77715313,-2.06821179,-0.95074791,-0.61187333,-0.12932919,0.00000000,0.00000000,-2.12134814,-0.23579632,1.51382959,-1.39549899,1.39580965,0.00000000,0.00000000
-0.76108623,-2.06501508,-0.99598575,-0.65364313,-0.14926393,0.00000000,0.00000000,-2.12381887,-0.23164982,1.49652171,-1.41558993,1.39325309,0.00000000,0.00000000
-0.74348539,-2.06133413,-1.03753734,-0.69113523,-0.17130446,0.00000000,0.00000000,-2.12302709,-0.23057936,1.47400010,-1.43876648,1.38651633,0.00000000,0.00000000
-0.72459459,-2.05715060,-1.07534480,-0.72448033,-0.18722895,0.00000000,0.00000000,-2.11686468,-0.23138733,1.44720376,-1.46401751,1.39280593,0.00000000,0.00000000
-0.70500773,-2.05258346,-1.10938179,-0.75405169,-0.20506833,0.00000000,0.00000000,-2.10367703,-0.23364437,1.41635108,-1.49105632,1.39650619,0.00000000,0.00000000
-0.68524569,-2.04784942,-1.13957238,-0.78027803,-0.22594571,0.00000000,0.00000000,-2.08177233,-0.23641862,1.38261676,-1.51738513,1.40595150,0.00000000,0.00000000
-0.66560155,-2.04318237,-1.16578531,-0.80352855,-0.24024998,0.00000000,0.00000000,-2.04998517,-0.23914416,1.34724402,-1.54044449,1.41182351,0.00000000,0.00000000
-0.64691716,-2.03898597,-1.18791461,-0.82445264,-0.25583407,0.00000000,0.00000000,-2.00736880,-0.24228498,1.31082332,-1.55907595,1.42438781,0.00000000,0.00000000
-0.62990016,-2.03541732,-1.20593739,-0.84357876,-0.26782101,0.00000000,0.00000000,-1.95396709,-0.24652031,1.27398598,-1.57172346,1.43186855,0.00000000,0.00000000
-0.61480623,-2.03244686,-1.21984577,-0.86115307,-0.27199513,0.00000000,0.00000000,-1.89122331,-0.25272411,1.23732710,-1.57646823,1.43336880,0.00000000,0.00000000
-0.60174197,-2.03010321,-1.22959721,-0.87736583,-0.27243039,0.00000000,0.00000000,-1.82158852,-0.26234818,1.20130455,-1.57190311,1.43832326,0.00000000,0.00000000
-0.59091067,-2.02842474,-1.23518419,-0.89243954,-0.27331564,0.00000000,0.00000000,-1.74889123,-0.27699938,1.16636336,-1.55703080,1.44840920,0.00000000,0.00000000
-0.58244455,-2.02738619,-1.23663282,-0.90653676,-0.27365994,0.00000000,0.00000000,-1.67751503,-0.29741898,1.13304794,-1.53133285,1.46180773,0.00000000,0.00000000
-0.57623607,-2.02682137,-1.23399746,-0.91967505,-0.27271137,0.00000000,0.00000000,-1.61134243,-0.32281911,1.10201538,-1.49461877,1.47786176,0.00000000,0.00000000
-0.57194203,-2.02627087,-1.22744584,-0.93167365,-0.26771596,0.00000000,0.00000000,-1.55307066,-0.35111398,1.07404792,-1.44685030,1.50216436,0.00000000,0.00000000
-0.56948644,-2.02535701,-1.21716225,-0.94258606,-0.26836210,0.00000000,0.00000000,-1.50337279,-0.38028976,1.05012369,-1.38836300,1.52007926,0.00000000,0.00000000
-0.56905478,-2.02390599,-1.20327759,-0.95266110,-0.26483572,0.00000000,0.00000000,-1.46180570,-0.40849653,1.03147566,-1.31957400,1.53406155,0.00000000,0.00000000
-0.57018799,-2.02068400,-1.18638921,-0.96133101,-0.25868097,0.00000000,0.00000000,-1.42642355,-0.43447173,1.01917040,-1.24363935,1.54776347,0.00000000,0.00000000
-0.57217407,-2.01340652,-1.16761994,-0.96744823,-0.25338453,0.00000000,0.00000000,-1.39472187,-0.46081355,1.01154244,-1.17005479,1.56147027,0.00000000,0.00000000
-0.57409680,-1.99975419,-1.14802992,-0.96969932,-0.25357774,0.00000000,0.00000000,-1.36944354,-0.48831162,1.00595784,-1.10496438,1.57307029,0.00000000,0.00000000
-0.57572842,-1.97845078,-1.12819064,-0.96754694,-0.26574197,0.00000000,0.00000000,-1.35054564,-0.51787639,1.00137472,-1.05048144,1.58025765,0.00000000,0.00000000
-0.57511973,-1.94773102,-1.10839295,-0.95931470,-0.28077260,0.00000000,0.00000000,-1.33848262,-0.54872757,0.99733526,-1.00677669,1.59014404,0.00000000,0.00000000
-0.56969273,-1.90573990,-1.08867502,-0.94304234,-0.29055908,0.00000000,0.00000000,-1.33325815,-0.58050871,0.99350196,-0.97390163,1.60343230,0.00000000,0.00000000
-0.55551958,-1.85025454,-1.06874084,-0.91611403,-0.29444560,0.00000000,0.00000000,-1.33337522,-0.61215162,0.99016345,-0.95211428,1.61279857,0.00000000,0.00000000
-0.52884859,-1.77854466,-1.04845595,-0.87605417,-0.29778197,0.00000000,0.00000000,-1.33788133,-0.64167178,0.98808390,-0.94087881,1.62034178,0.00000000,0.00000000
-0.48738459,-1.68825305,-1.02780914,-0.82132113,-0.30072790,0.00000000,0.00000000,-1.34690154,-0.66739309,0.98770303,-0.93916875,1.62863600,0.00000000,0.00000000
-0.43003780,-1.57800484,-1.00670552,-0.75134385,-0.30524352,0.00000000,0.00000000,-1.36057651,-0.68849832,0.98914355,-0.94623947,1.63019001,0.00000000,0.00000000
-0.35662970,-1.44794273,-0.98484355,-0.66649258,-0.30569446,0.00000000,0.00000000,-1.37881529,-0.70524514,0.99212629,-0.96186191,1.63571310,0.00000000,0.00000000
-0.26771846,-1.29983711,-0.96182901,-0.56798339,-0.30068189,0.00000000,0.00000000,-1.40175223,-0.71826726,0.99597639,-0.98590028,1.64536691,0.00000000,0.00000000
-0.16482329,-1.13704288,-0.93738812,-0.45782241,-0.29987863,0.00000000,0.00000000,-1.42991829,-0.72811025,0.99974084,-1.01799870,1.64709818,0.00000000,0.00000000
-0.05071227,-0.96430737,-0.91155213,-0.33872235,-0.30178353,0.00000000,0.00000000,-1.46394289,-0.73524320,1.00237846,-1.05763304,1.64940476,0.00000000,0.00000000
0.07065306,-0.78736866,-0.88475060,-0.21391240,-0.29839227,0.00000000,0.00000000,-1.50303733,-0.74016684,1.00349391,-1.10417497,1.64969587,0.00000000,0.00000000
0.19453000,-0.61239731,-0.85781127,-0.08690610,-0.29509678,0.00000000,0.00000000,-1.54605126,-0.74251771,1.00368750,-1.15524769,1.64136291,0.00000000,0.00000000
0.31604183,-0.44534904,-0.83188111,0.03876751,-0.29472959,0.00000000,0.00000000,-1.59257650,-0.74117744,1.00408041,-1.20747745,1.63244617,0.00000000,0.00000000
0.43082812,-0.29144594,-0.80828273,0.15982459,-0.29290584,0.00000000,0.00000000,-1.64160252,-0.73562849,1.00587273,-1.25904858,1.62257361,0.00000000,0.00000000
0.53547192,-0.15485209,-0.78835398,0.27344158,-0.28713378,0.00000000,0.00000000,-1.69212627,-0.72583324,1.01001167,-1.30941880,1.62060010,0.00000000,0.00000000
0.62765521,-0.03855991,-0.77330554,0.37738305,-0.27947664,0.00000000,0.00000000,-1.74368203,-0.71207297,1.01695406,-1.35888720,1.61246705,0.00000000,0.00000000
0.70615947,0.05563916,-0.76409119,0.47006458,-0.27495360,0.00000000,0.00000000,-1.79569995,-0.69524843,1.02661490,-1.40868664,1.60601902,0.00000000,0.00000000
0.77097780,0.12741485,-0.76121598,0.55061066,-0.27654549,0.00000000,0.00000000,-1.84708261,-0.67697233,1.03852475,-1.46059775,1.60147059,0.00000000,0.00000000
0.82371247,0.17860600,-0.76442307,0.61901766,-0.27932343,0.00000000,0.00000000,-1.89709711,-0.65855813,1.05240273,-1.51499403,1.59688497,0.00000000,0.00000000
0.86749351,0.21327294,-0.77260804,0.67639053,-0.28018835,0.00000000,0.00000000,-1.94637287,-0.64139330,1.06694221,-1.57055771,1.59658253,0.00000000,0.00000000
0.90551597,0.23586378,-0.78440648,0.72466207,-0.28457376,0.00000000,0.00000000,-1.99653661,-0.62760806,1.07914102,-1.62611496,1.59513187,0.00000000,0.00000000
0.93967944,0.24959894,-0.79881591,0.76568311,-0.28567076,0.00000000,0.00000000,-2.04949832,-0.61831075,1.08702111,-1.68015683,1.59203577,0.00000000,0.00000000
0.97098947,0.25636283,-0.81525135,0.80062008,-0.29020393,0.00000000,0.00000000,-2.10684156,-0.61335957,1.09040439,-1.73050475,1.57718933,0.00000000,0.00000000
1.00013518,0.25724056,-0.83339477,0.83010381,-0.29300854,0.00000000,0.00000000,-2.16920233,-0.61196518,1.09034967,-1.77479446,1.56384540,0.00000000,0.00000000
1.02783394,0.25364771,-0.85279697,0.85485995,-0.29453722,0.00000000,0.00000000,-2.23606396,-0.61288565,1.08875275,-1.81084228,1.55272973,0.00000000,0.00000000
1.05473423,0.24843284,-0.87251526,0.87636954,-0.29021734,0.00000000,0.00000000,-2.30616260,-0.61495173,1.08782518,-1.83694291,1.53964996,0.00000000,0.00000000
1.08064890,0.24394195,-0.89191753,0.89627743,-0.28490326,0.00000000,0.00000000,-2.37773156,-0.61778080,1.08940458,-1.85220659,1.52574909,0.00000000,0.00000000
1.10518718,0.24078277,-0.91101110,0.91547817,-0.28103822,0.00000000,0.00000000,-2.44847393,-0.62113118,1.09484255,-1.85659254,1.51089716,0.00000000,0.00000000
1.12830162,0.23896557,-0.92991865,0.93435526,-0.27467859,0.00000000,0.00000000,-2.51611876,-0.62464845,1.10508716,-1.85069489,1.49913394,0.00000000,0.00000000
1.15026879,0.23829621,-0.94870985,0.95294303,-0.26981080,0.00000000,0.00000000,-2.57884979,-0.62804812,1.12066221,-1.83557212,1.48653829,0.00000000,0.00000000
1.17151880,0.23842703,-0.96741116,0.97105420,-0.27237618,0.00000000,0.00000000,-2.63544965,-0.63102669,1.14148390,-1.81262767,1.47441125,0.00000000,0.00000000
1.19237328,0.23901762,-0.98606229,0.98852098,-0.27462798,0.00000000,0.00000000,-2.68524170,-0.63325059,1.16673064,-1.78360939,1.45741594,0.00000000,0.00000000
1.21293938,0.23980135,-1.00480878,1.00528336,-0.27686736,0.00000000,0.00000000,-2.72799158,-0.63458133,1.19497001,-1.75064635,1.44313312,0.00000000,0.00000000
1.23338127,0.24062084,-1.02384937,1.02125943,-0.27365085,0.00000000,0.00000000,-2.76382422,-0.63519663,1.22435844,-1.71604371,1.43084216,0.00000000,0.00000000
1.25404918,0.24156517,-1.04329622,1.03639781,-0.27289188,0.00000000,0.00000000,-2.79303193,-0.63560045,1.25294387,-1.68204939,1.42844927,0.00000000,0.00000000
1.27532518,0.24304196,-1.06309164,1.05107641,-0.27306148,0.00000000,0.00000000,-2.81577492,-0.63660520,1.27893734,-1.65087152,1.41915059,0.00000000,0.00000000
1.29748702,0.24560866,-1.08304918,1.06690419,-0.27579156,0.00000000,0.00000000,-2.83173823,-0.63920552,1.30093431,-1.62477756,1.40437639,0.00000000,0.00000000
1.32118511,0.24984385,-1.10271060,1.08721793,-0.26818794,0.00000000,0.00000000,-2.84093070,-0.64395505,1.31840801,-1.60587633,1.39318419,0.00000000,0.00000000
1.34777355,0.25583452,-1.12149203,1.11591351,-0.26097155,0.00000000,0.00000000,-2.84602618,-0.65005416,1.33207500,-1.59479046,1.37743366,0.00000000,0.00000000
1.37950003,0.26466802,-1.13778031,1.15583849,-0.25874668,0.00000000,0.00000000,-2.84983873,-0.65594798,1.34372663,-1.58952415,1.36309147,0.00000000,0.00000000
1.41804135,0.27890465,-1.14908314,1.20828044,-0.25650895,0.00000000,0.00000000,-2.85220718,-0.66149163,1.35389006,-1.58721817,1.35631561,0.00000000,0.00000000
1.46281469,0.29981226,-1.15450454,1.27055860,-0.24847500,0.00000000,0.00000000,-2.85306048,-0.66746134,1.36149395,-1.58516443,1.34744811,0.00000000,0.00000000
1.51400375,0.32439700,-1.15604436,1.33214724,-0.24013686,0.00000000,0.00000000,-2.85272312,-0.67464387,1.36534870,-1.58254194,1.33792543,0.00000000,0.00000000
1.57267666,0.35038471,-1.15523398,1.38698435,-0.23923080,0.00000000,0.00000000,-2.85129023,-0.68286300,1.36597526,-1.57906139,1.32480109,0.00000000,0.00000000
1.63792026,0.37663144,-1.15372586,1.43329418,-0.23756242,0.00000000,0.00000000,-2.84895372,-0.69147211,1.36458671,-1.57432485,1.32068634,0.00000000,0.00000000
1.70711482,0.40225083,-1.15331745,1.47036314,-0.23575529,0.00000000,0.00000000,-2.84596634,-0.69980341,1.36226285,-1.56832719,1.32067740,0.00000000,0.00000000
1.77693307,0.42635602,-1.15544331,1.49803138,-0.23202100,0.00000000,0.00000000,-2.84264112,-0.70748132,1.35950339,-1.56177378,1.31609666,0.00000000,0.00000000
1.84416592,0.44805476,-1.16096127,1.51661754,-0.22829823,0.00000000,0.00000000,-2.83940864,-0.71440142,1.35632133,-1.55567324,1.31300735,0.00000000,0.00000000
1.90627360,0.46645975,-1.17012763,1.52689946,-0.22994560,0.00000000,0.00000000,-2.83681250,-0.72029138,1.35291719,-1.55040550,1.30889297,0.00000000,0.00000000
1.96169198,0.48087001,-1.18269241,1.53004026,-0.23079993,0.00000000,0.00000000,-2.83530307,-0.72471559,1.34977579,-1.54575324,1.29978704,0.00000000,0.00000000
2.00984716,0.49100363,-1.19806385,1.52747357,-0.23260459,0.00000000,0.00000000,-2.83499694,-0.72733164,1.34738255,-1.54152989,1.29167342,0.00000000,0.00000000
2.05106974,0.49708068,-1.21537292,1.52070999,-0.23093909,0.00000000,0.00000000,-2.83566904,-0.72803378,1.34599555,-1.53773212,1.28643382,0.00000000,0.00000000
2.08624864,0.49981225,-1.23360550,1.51128304,-0.22580102,0.00000000,0.00000000,-2.83699346,-0.72680491,1.34577799,-1.53403223,1.28255391,0.00000000,0.00000000
2.11602068,0.50015533,-1.25192118,1.50095558,-0.22228287,0.00000000,0.00000000,-2.83870149,-0.72374660,1.34673524,-1.53001630,1.28167880,0.00000000,0.00000000
2.14034152,0.49900544,-1.26981711,1.49170041,-0.22564645,0.00000000,0.00000000,-2.84046650,-0.71941227,1.34829652,-1.52650392,1.28381467,0.00000000,0.00000000
2.15881228,0.49716946,-1.28698373,1.48537207,-0.22666793,0.00000000,0.00000000,-2.84229565,-0.71436840,1.34975421,-1.52474904,1.28672540,0.00000000,0.00000000
2.17137313,0.49524301,-1.30319142,1.48309040,-0.22448245,0.00000000,0.00000000,-2.84392548,-0.70894402,1.35079944,-1.52557302,1.29552817,0.00000000,0.00000000
2.17916727,0.49334484,-1.31829262,1.48431909,-0.21848518,0.00000000,0.00000000,-2.84374452,-0.70342433,1.35163343,-1.52952290,1.30745089,0.00000000,0.00000000
2.18422818,0.49131402,-1.33216727,1.48727655,-0.20735344,0.00000000,0.00000000,-2.83978486,-0.69757271,1.35332727,-1.53565001,1.31955600,0.00000000,0.00000000
2.18790412,0.48879686,-1.34510934,1.49056435,-0.19609670,0.00000000,0.00000000,-2.83257985,-0.69034612,1.35732198,-1.54140055,1.33142626,0.00000000,0.00000000
2.19089150,0.48549205,-1.35744274,1.49333572,-0.18258753,0.00000000,0.00000000,-2.82337928,-0.68114471,1.36422169,-1.54492521,1.35156286,0.00000000,0.00000000
2.19360161,0.48120490,-1.36935997,1.49505591,-0.16813274,0.00000000,0.00000000,-2.81348038,-0.66967112,1.37414575,-1.54451299,1.36970150,0.00000000,0.00000000
2.19609833,0.47585091,-1.38098705,1.49562013,-0.16027109,0.00000000,0.00000000,-2.80422044,-0.65573329,1.38704360,-1.53838158,1.39445341,0.00000000,0.00000000
2.19825745,0.46944642,-1.39237523,1.49519074,-0.15051872,0.00000000,0.00000000,-2.79651475,-0.63933104,1.40277636,-1.52520096,1.41469848,0.00000000,0.00000000
2.19995737,0.46215904,-1.40344834,1.49400711,-0.13759506,0.00000000,0.00000000,-2.79059529,-0.62065953,1.42113400,-1.50429893,1.43620026,0.00000000,0.00000000
2.20110035,0.45434543,-1.41399407,1.49236739,-0.12676169,0.00000000,0.00000000,-2.78621006,-0.60007566,1.44174790,-1.47555947,1.46048105,0.00000000,0.00000000
2.20155692,0.44644549,-1.42379141,1.49061716,-0.11424657,0.00000000,0.00000000,-2.78300190,-0.57800800,1.46407390,-1.43925560,1.48511636,0.00000000,0.00000000
2.20124888,0.43897972,-1.43255162,1.48908174,-0.09965311,0.00000000,0.00000000,-2.78070760,-0.55500913,1.48727047,-1.39600503,1.50860322,0.00000000,0.00000000
2.20041895,0.43255454,-1.43979812,1.48783815,-0.08495969,0.00000000,0.00000000,-2.77899766,-0.53183877,1.51016235,-1.34690475,1.53496301,0.00000000,0.00000000
2.19975686,0.42781281,-1.44486225,1.48658752,-0.07254656,0.00000000,0.00000000,-2.77722502,-0.50939047,1.53145885,-1.29362929,1.55323339,0.00000000,0.00000000
2.20012021,0.42544141,-1.44691813,1.48494041,-0.07259654,0.00000000,0.00000000,-2.77471328,-0.48857152,1.55003190,-1.23804188,1.57347226,0.00000000,0.00000000
2.20199108,0.42603719,-1.44520617,1.48284316,-0.06761768,0.00000000,0.00000000,-2.77092075,-0.47031668,1.56501830,-1.18198252,1.59552622,0.00000000,0.00000000
2.20505309,0.42932445,-1.43992805,1.48050392,-0.06489300,0.00000000,0.00000000,-2.76437378,-0.45563135,1.57574499,-1.12936211,1.61374795,0.00000000,0.00000000
2.20819950,0.43361327,-1.43289888,1.47809219,-0.06164094,0.00000000,0.00000000,-2.75473762,-0.44515637,1.58193505,-1.08554268,1.63015282,0.00000000,0.00000000
2.21049428,0.43724105,-1.42587018,1.47572410,-0.05775866,0.00000000,0.00000000,-2.74479151,-0.43912545,1.58366859,-1.05123138,1.64745724,0.00000000,0.00000000
2.21157622,0.43936986,-1.41962004,1.47343040,-0.05197005,0.00000000,0.00000000,-2.73605776,-0.43700308,1.58161497,-1.02535570,1.66999590,0.00000000,0.00000000
2.21132469,0.43971810,-1.41428435,1.47126019,-0.04570483,0.00000000,0.00000000,-2.72868419,-0.43749270,1.57696211,-1.00651443,1.69137275,0.00000000,0.00000000
2.20973706,0.43817011,-1.40977252,1.46922052,-0.03619819,0.00000000,0.00000000,-2.72284698,-0.43950620,1.57069039,-0.99304324,1.70636940,0.00000000,0.00000000
2.20726800,0.43479061,-1.40570021,1.46696472,-0.01896202,0.00000000,0.00000000,-2.71856236,-0.44253156,1.56333268,-0.98372310,1.72388017,0.00000000,0.00000000
2.20446110,0.42976794,-1.40155196,1.46411383,-0.00092484,0.00000000,0.00000000,-2.71546865,-0.44597247,1.55546510,-0.97750592,1.74625206,0.00000000,0.00000000
2.20138764,0.42326951,-1.39695644,1.46071172,0.01353448,0.00000000,0.00000000,-2.71332741,-0.44936040,1.54755461,-0.97342259,1.77079439,0.00000000,0.00000000
2.19789219,0.41546440,-1.39161599,1.45701289,0.02646271,0.00000000,0.00000000,-2.71209955,-0.45255828,1.53980637,-0.97090489,1.79614830,0.00000000,0.00000000
2.19377732,0.40640873,-1.38538969,1.45323944,0.03861155,0.00000000,0.00000000,-2.71180701,-0.45551869,1.53232813,-0.96961153,1.81733775,0.00000000,0.00000000
2.18895578,0.39603773,-1.37817705,1.44943440,0.04976156,0.00000000,0.00000000,-2.71224880,-0.45818111,1.52521729,-0.96960294,1.83695650,0.00000000,0.00000000
2.18355131,0.38426080,-1.36975443,1.44544351,0.06215093,0.00000000,0.00000000,-2.71299934,-0.46062532,1.51845944,-0.97136742,1.85602117,0.00000000,0.00000000
2.17762733,0.37093768,-1.35990787,1.44113910,0.07697465,0.00000000,0.00000000,-2.71358991,-0.46312499,1.51188135,-0.97565717,1.87029004,0.00000000,0.00000000
2.17096663,0.35584474,-1.34855926,1.43656659,0.09161952,0.00000000,0.00000000,-2.71305418,-0.46559981,1.50554633,-0.98365366,1.88433242,0.00000000,0.00000000
2.16336036,0.33897457,-1.33539259,1.43188632,0.10536351,0.00000000,0.00000000,-2.70864320,-0.46700558,1.50026226,-0.99715954,1.89249825,0.00000000,0.00000000
2.15501761,0.32085845,-1.31942499,1.42728508,0.12142360,0.00000000,0.00000000,-2.69669938,-0.46612206,1.49701726,-1.01705277,1.90239048,0.00000000,0.00000000
2.14620614,0.30202118,-1.29970515,1.42290771,0.14320293,0.00000000,0.00000000,-2.67655420,-0.46243915,1.49610925,-1.04146397,1.90597296,0.00000000,0.00000000
2.13664436,0.28236553,-1.27611196,1.41884530,0.16168380,0.00000000,0.00000000,-2.64749336,-0.45466873,1.49830425,-1.06946707,1.91124213,0.00000000,0.00000000
2.12591600,0.26164472,-1.24875164,1.41513407,0.17627311,0.00000000,0.00000000,-2.60978723,-0.44237080,1.50364959,-1.10002947,1.91050160,0.00000000,0.00000000
2.11374664,0.23984550,-1.21752739,1.41183472,0.19104563,0.00000000,0.00000000,-2.56460762,-0.42593551,1.51148951,-1.13173723,1.91115046,0.00000000,0.00000000
2.09981751,0.21718946,-1.18225431,1.40920103,0.19928250,0.00000000,0.00000000,-2.51323724,-0.40608338,1.52086377,-1.16337860,1.90978122,0.00000000,0.00000000
2.08374429,0.19405720,-1.14277256,1.40764666,0.20923109,0.00000000,0.00000000,-2.45704699,-0.38379875,1.53058982,-1.19396210,1.90623820,0.00000000,0.00000000
2.06525779,0.17079119,-1.09905028,1.40743160,0.21783073,0.00000000,0.00000000,-2.39758015,-0.36013442,1.53948069,-1.22253621,1.90287411,0.00000000,0.00000000
2.04426074,0.14756742,-1.05124962,1.40851200,0.22372493,0.00000000,0.00000000,-2.33660293,-0.33606818,1.54654586,-1.24803483,1.90094328,0.00000000,0.00000000
2.02066588,0.12435598,-0.99977028,1.41061270,0.23020715,0.00000000,0.00000000,-2.27608633,-0.31250873,1.55105186,-1.26925755,1.89980745,0.00000000,0.00000000
1.99436426,0.10102251,-0.94514596,1.41335440,0.23597309,0.00000000,0.00000000,-2.21798944,-0.29034674,1.55254102,-1.28502095,1.90307891,0.00000000,0.00000000
1.96524286,0.07751407,-0.88787609,1.41641688,0.24685542,0.00000000,0.00000000,-2.16405106,-0.27053633,1.55078053,-1.29435039,1.90378368,0.00000000,0.00000000
1.93316436,0.05391181,-0.82839388,1.41959143,0.24858969,0.00000000,0.00000000,-2.11580324,-0.25403488,1.54568160,-1.29653120,1.90411234,0.00000000,0.00000000
1.89798093,0.03038390,-0.76708817,1.42272711,0.25824842,0.00000000,0.00000000,-2.07447624,-0.24164210,1.53726745,-1.29116344,1.90771222,0.00000000,0.00000000
1.85967898,0.00715124,-0.70421940,1.42566121,0.26525378,0.00000000,0.00000000,-2.04064727,-0.23392145,1.52576077,-1.27830899,1.90883112,0.00000000,0.00000000
1.81855810,-0.01561948,-0.63982564,1.42817962,0.27263105,0.00000000,0.00000000,-2.01399803,-0.23113368,1.51170349,-1.25857556,1.90904725,0.00000000,0.00000000
1.77500093,-0.03793336,-0.57390064,1.43041015,0.27339205,0.00000000,0.00000000,-1.99376822,-0.23313162,1.49590230,-1.23276854,1.90793002,0.00000000,0.00000000
