isaac-sim2real/sage/motion_files/wr75s/amass/0-Eyes_Japan_Dataset_kudo_jump-01-normal-kudo_poses_idx64.txt
l_joint1,l_joint2,l_joint3,l_joint4,l_joint5,l_joint6,l_joint7,r_joint1,r_joint2,r_joint3,r_joint4,r_joint5,r_joint6,r_joint7
-2.48552084,-0.30000356,0.13093342,-0.66125119,0.00844861,0.00000000,0.00000000,-2.12210274,0.39194578,-0.74688441,0.47070074,-0.02101204,0.00000000,0.00000000
-2.48529720,-0.29988092,0.13126203,-0.66112316,0.00732241,0.00000000,0.00000000,-2.12222290,0.39179218,-0.74701375,0.47062919,-0.02230519,0.00000000,0.00000000
-2.48484898,-0.29963660,0.13182969,-0.66086704,0.00541574,0.00000000,0.00000000,-2.12241793,0.39162418,-0.74723423,0.47051951,-0.02349698,0.00000000,0.00000000
-2.48415852,-0.29929277,0.13253927,-0.66048986,0.00501608,0.00000000,0.00000000,-2.12263751,0.39159906,-0.74749982,0.47041446,-0.02389860,0.00000000,0.00000000
-2.48320985,-0.29894578,0.13329946,-0.66003269,0.00723520,0.00000000,0.00000000,-2.12284422,0.39182806,-0.74777013,0.47034961,-0.02386582,0.00000000,0.00000000
-2.48199129,-0.29875833,0.13404004,-0.65956634,0.01174985,0.00000000,0.00000000,-2.12300777,0.39237592,-0.74801791,0.47034633,-0.01978366,0.00000000,0.00000000
-2.48049402,-0.29883072,0.13474596,-0.65912819,0.01871975,0.00000000,0.00000000,-2.12312078,0.39323846,-0.74823296,0.47039255,-0.01958585,0.00000000,0.00000000
-2.47872138,-0.29913443,0.13546114,-0.65869576,0.02196732,0.00000000,0.00000000,-2.12319803,0.39434952,-0.74841464,0.47045740,-0.02285132,0.00000000,0.00000000
-2.47668362,-0.29961920,0.13625066,-0.65824831,0.02543458,0.00000000,0.00000000,-2.12324381,0.39562333,-0.74856400,0.47052842,-0.02326510,0.00000000,0.00000000
-2.47440481,-0.30028015,0.13719271,-0.65781003,0.03167694,0.00000000,0.00000000,-2.12325048,0.39694110,-0.74868685,0.47060126,-0.02510375,0.00000000,0.00000000
-2.47191930,-0.30109742,0.13838066,-0.65741611,0.03422940,0.00000000,0.00000000,-2.12322807,0.39813834,-0.74879926,0.47064087,-0.02683281,0.00000000,0.00000000
-2.46925163,-0.30198684,0.13989268,-0.65706092,0.03666330,0.00000000,0.00000000,-2.12321353,0.39908218,-0.74892294,0.47060472,-0.02718437,0.00000000,0.00000000
-2.46640587,-0.30288211,0.14175427,-0.65671974,0.04093079,0.00000000,0.00000000,-2.12322235,0.39975941,-0.74906695,0.47051010,-0.02868076,0.00000000,0.00000000
-2.46337533,-0.30376738,0.14395384,-0.65638107,0.04286476,0.00000000,0.00000000,-2.12324476,0.40021989,-0.74923038,0.47040981,-0.03462052,0.00000000,0.00000000
-2.46015477,-0.30465657,0.14646624,-0.65605015,0.04371041,0.00000000,0.00000000,-2.12326741,0.40051371,-0.74941081,0.47034115,-0.04431387,0.00000000,0.00000000
-2.45673847,-0.30556214,0.14925697,-0.65572941,0.04567705,0.00000000,0.00000000,-2.12329721,0.40066943,-0.74960744,0.47029287,-0.05328988,0.00000000,0.00000000
-2.45311904,-0.30648029,0.15229939,-0.65540785,0.04676106,0.00000000,0.00000000,-2.12337184,0.40066728,-0.74981576,0.47023141,-0.06336743,0.00000000,0.00000000
-2.44928408,-0.30737031,0.15556872,-0.65504861,0.04515835,0.00000000,0.00000000,-2.12352967,0.40048909,-0.75000948,0.47013387,-0.07683983,0.00000000,0.00000000
-2.44521189,-0.30819494,0.15902080,-0.65460384,0.04527609,0.00000000,0.00000000,-2.12379193,0.40017191,-0.75014508,0.46999028,-0.09218329,0.00000000,0.00000000
-2.44086671,-0.30897817,0.16256931,-0.65403688,0.04816889,0.00000000,0.00000000,-2.12416625,0.39983270,-0.75018531,0.46980119,-0.10525046,0.00000000,0.00000000
-2.43620300,-0.30981058,0.16609006,-0.65333289,0.05246467,0.00000000,0.00000000,-2.12465048,0.39964378,-0.75011200,0.46958289,-0.11458302,0.00000000,0.00000000
-2.43117905,-0.31080252,0.16946626,-0.65249825,0.05878032,0.00000000,0.00000000,-2.12523174,0.39975753,-0.74992126,0.46936324,-0.11825245,0.00000000,0.00000000
-2.42576814,-0.31203261,0.17263755,-0.65155017,0.06615995,0.00000000,0.00000000,-2.12589145,0.40024304,-0.74961674,0.46916395,-0.12497538,0.00000000,0.00000000
-2.41996098,-0.31355119,0.17560087,-0.65051186,0.07360023,0.00000000,0.00000000,-2.12661171,0.40109661,-0.74921459,0.46900049,-0.13449267,0.00000000,0.00000000
-2.41376114,-0.31541398,0.17839721,-0.64942741,0.08347272,0.00000000,0.00000000,-2.12738180,0.40224209,-0.74875563,0.46888715,-0.14238453,0.00000000,0.00000000
-2.40718126,-0.31758979,0.18111455,-0.64830840,0.08431215,0.00000000,0.00000000,-2.12822318,0.40353227,-0.74829257,0.46881080,-0.15566066,0.00000000,0.00000000
-2.40023017,-0.31992230,0.18386221,-0.64710033,0.08578829,0.00000000,0.00000000,-2.12915587,0.40484956,-0.74784052,0.46873733,-0.16523264,0.00000000,0.00000000
-2.39291215,-0.32227957,0.18673463,-0.64575881,0.09047840,0.00000000,0.00000000,-2.13016677,0.40612680,-0.74738413,0.46864080,-0.17757554,0.00000000,0.00000000
-2.38522696,-0.32466009,0.18978325,-0.64430058,0.09223730,0.00000000,0.00000000,-2.13121271,0.40734434,-0.74691522,0.46853307,-0.18957779,0.00000000,0.00000000
-2.37717319,-0.32715252,0.19304201,-0.64278775,0.09265179,0.00000000,0.00000000,-2.13224769,0.40847042,-0.74645936,0.46844584,-0.20750774,0.00000000,0.00000000
-2.36874318,-0.32982025,0.19655433,-0.64126593,0.09143450,0.00000000,0.00000000,-2.13324833,0.40945220,-0.74606764,0.46840331,-0.22332115,0.00000000,0.00000000
-2.35991597,-0.33262086,0.20036015,-0.63970822,0.09355841,0.00000000,0.00000000,-2.13420296,0.41029420,-0.74576610,0.46841455,-0.23703620,0.00000000,0.00000000
-2.35066342,-0.33547673,0.20448543,-0.63805765,0.09596018,0.00000000,0.00000000,-2.13510036,0.41104296,-0.74554420,0.46846816,-0.25448415,0.00000000,0.00000000
-2.34096003,-0.33833846,0.20894589,-0.63627034,0.10274941,0.00000000,0.00000000,-2.13592887,0.41173878,-0.74537641,0.46853426,-0.27215675,0.00000000,0.00000000
-2.33078289,-0.34121659,0.21375036,-0.63433528,0.10749485,0.00000000,0.00000000,-2.13667536,0.41239020,-0.74523872,0.46856987,-0.28429830,0.00000000,0.00000000
-2.32011175,-0.34417066,0.21889193,-0.63226587,0.10855958,0.00000000,0.00000000,-2.13732958,0.41298279,-0.74511731,0.46854320,-0.28920043,0.00000000,0.00000000
-2.30892253,-0.34727341,0.22433971,-0.63007522,0.11283160,0.00000000,0.00000000,-2.13789129,0.41350091,-0.74499911,0.46843958,-0.29375365,0.00000000,0.00000000
-2.29718471,-0.35060036,0.23003328,-0.62776506,0.11731616,0.00000000,0.00000000,-2.13836098,0.41395292,-0.74485767,0.46825695,-0.29822174,0.00000000,0.00000000
-2.28486037,-0.35422391,0.23588218,-0.62531585,0.11490455,0.00000000,0.00000000,-2.13873053,0.41440016,-0.74465054,0.46800354,-0.30394045,0.00000000,0.00000000
-2.27190685,-0.35817707,0.24179289,-0.62267751,0.10802566,0.00000000,0.00000000,-2.13899159,0.41494125,-0.74433714,0.46768481,-0.31192881,0.00000000,0.00000000
-2.25828981,-0.36246654,0.24771228,-0.61981064,0.09958438,0.00000000,0.00000000,-2.13913822,0.41562739,-0.74389571,0.46730468,-0.31398615,0.00000000,0.00000000
-2.24398398,-0.36708438,0.25361839,-0.61668956,0.09237827,0.00000000,0.00000000,-2.13915992,0.41647574,-0.74330902,0.46687493,-0.30890638,0.00000000,0.00000000
-2.22896528,-0.37200147,0.25951385,-0.61328512,0.08232444,0.00000000,0.00000000,-2.13904667,0.41748625,-0.74256110,0.46639580,-0.30580258,0.00000000,0.00000000
-2.21320820,-0.37718183,0.26542509,-0.60956413,0.06904303,0.00000000,0.00000000,-2.13879704,0.41863671,-0.74164647,0.46585044,-0.30265215,0.00000000,0.00000000
-2.19668746,-0.38260695,0.27139360,-0.60550672,0.05926351,0.00000000,0.00000000,-2.13840652,0.41988337,-0.74056727,0.46522379,-0.29948261,0.00000000,0.00000000
-2.17937899,-0.38827440,0.27746928,-0.60111028,0.05020421,0.00000000,0.00000000,-2.13786292,0.42116573,-0.73932010,0.46450645,-0.29853827,0.00000000,0.00000000
-2.16125917,-0.39416441,0.28371859,-0.59637427,0.03604531,0.00000000,0.00000000,-2.13715601,0.42240077,-0.73789269,0.46367764,-0.29696250,0.00000000,0.00000000
-2.14230371,-0.40025625,0.29020938,-0.59130180,0.02226554,0.00000000,0.00000000,-2.13627100,0.42351305,-0.73626572,0.46270871,-0.28981668,0.00000000,0.00000000
-2.12248516,-0.40654320,0.29700229,-0.58589995,0.00957837,0.00000000,0.00000000,-2.13518381,0.42444366,-0.73441434,0.46156126,-0.27908486,0.00000000,0.00000000
-2.10176849,-0.41302118,0.30412284,-0.58015364,-0.00561686,0.00000000,0.00000000,-2.13384914,0.42519683,-0.73229980,0.46021286,-0.26656184,0.00000000,0.00000000
-2.08011436,-0.41967586,0.31157064,-0.57402408,-0.01434947,0.00000000,0.00000000,-2.13220763,0.42582113,-0.72986937,0.45864621,-0.25567713,0.00000000,0.00000000
-2.05748153,-0.42651826,0.31932145,-0.56747049,-0.01654609,0.00000000,0.00000000,-2.13017845,0.42638898,-0.72705680,0.45684367,-0.24185765,0.00000000,0.00000000
-2.03383303,-0.43363804,0.32732767,-0.56048143,-0.01978503,0.00000000,0.00000000,-2.12765241,0.42696506,-0.72378474,0.45477992,-0.22772998,0.00000000,0.00000000
-2.00913930,-0.44121400,0.33550838,-0.55307800,-0.03046874,0.00000000,0.00000000,-2.12449598,0.42760345,-0.71997911,0.45241517,-0.21060313,0.00000000,0.00000000
-1.98337555,-0.44945949,0.34373632,-0.54527867,-0.04337736,0.00000000,0.00000000,-2.12056470,0.42839000,-0.71558332,0.44969442,-0.19788963,0.00000000,0.00000000
-1.95651400,-0.45851228,0.35186994,-0.53705132,-0.05962000,0.00000000,0.00000000,-2.11572313,0.42945907,-0.71055019,0.44653812,-0.18754765,0.00000000,0.00000000
-1.92852759,-0.46841350,0.35981005,-0.52832907,-0.07472672,0.00000000,0.00000000,-2.10985208,0.43092772,-0.70481652,0.44283953,-0.17249727,0.00000000,0.00000000
-1.89939642,-0.47918233,0.36751357,-0.51906288,-0.08787607,0.00000000,0.00000000,-2.10283184,0.43284047,-0.69829220,0.43847021,-0.15773469,0.00000000,0.00000000
-1.86911476,-0.49089718,0.37494978,-0.50924850,-0.10124230,0.00000000,0.00000000,-2.09451532,0.43520358,-0.69087034,0.43330497,-0.14738823,0.00000000,0.00000000
-1.83769262,-0.50368834,0.38205257,-0.49889484,-0.11458702,0.00000000,0.00000000,-2.08471322,0.43807626,-0.68244940,0.42723611,-0.13411005,0.00000000,0.00000000
-1.80515301,-0.51769495,0.38872886,-0.48799995,-0.13286190,0.00000000,0.00000000,-2.07321405,0.44157189,-0.67293906,0.42016554,-0.12297375,0.00000000,0.00000000
-1.77153277,-0.53304464,0.39488247,-0.47654861,-0.15311088,0.00000000,0.00000000,-2.05979705,0.44583106,-0.66224855,0.41199434,-0.11246575,0.00000000,0.00000000
-1.73688459,-0.54985017,0.40041611,-0.46450895,-0.17221890,0.00000000,0.00000000,-2.04423428,0.45103136,-0.65028334,0.40263006,-0.10310180,0.00000000,0.00000000
-1.70128167,-0.56818229,0.40522960,-0.45181704,-0.19233619,0.00000000,0.00000000,-2.02630925,0.45739949,-0.63695830,0.39200523,-0.09039510,0.00000000,0.00000000
-1.66481960,-0.58804417,0.40921828,-0.43836379,-0.21270829,0.00000000,0.00000000,-2.00584483,0.46518564,-0.62221891,0.38009435,-0.08310290,0.00000000,0.00000000
-1.62762761,-0.60940325,0.41226089,-0.42400530,-0.23820798,0.00000000,0.00000000,-1.98273087,0.47457623,-0.60606766,0.36691853,-0.07823673,0.00000000,0.00000000
-1.58987248,-0.63220531,0.41423473,-0.40858188,-0.26204547,0.00000000,0.00000000,-1.95692301,0.48564920,-0.58855814,0.35253146,-0.07131089,0.00000000,0.00000000
-1.55175054,-0.65635848,0.41504791,-0.39193410,-0.29080358,0.00000000,0.00000000,-1.92842972,0.49838546,-0.56977201,0.33700618,-0.06226720,0.00000000,0.00000000
-1.51347876,-0.68171668,0.41465873,-0.37391481,-0.31056604,0.00000000,0.00000000,-1.89730108,0.51268959,-0.54980183,0.32042047,-0.05647827,0.00000000,0.00000000
-1.47528422,-0.70809460,0.41308114,-0.35440850,-0.33062398,0.00000000,0.00000000,-1.86362481,0.52838475,-0.52873856,0.30282977,-0.04975503,0.00000000,0.00000000
-1.43739510,-0.73529315,0.41038257,-0.33335003,-0.35023114,0.00000000,0.00000000,-1.82752383,0.54520208,-0.50666171,0.28422877,-0.04231738,0.00000000,0.00000000
-1.40002811,-0.76307589,0.40667775,-0.31070480,-0.37187135,0.00000000,0.00000000,-1.78914857,0.56283283,-0.48362622,0.26454979,-0.03435203,0.00000000,0.00000000
-1.36337399,-0.79112434,0.40212518,-0.28644004,-0.38747236,0.00000000,0.00000000,-1.74866092,0.58102310,-0.45965609,0.24372478,-0.02482713,0.00000000,0.00000000
-1.32758653,-0.81908441,0.39691919,-0.26055181,-0.39591098,0.00000000,0.00000000,-1.70622587,0.59957725,-0.43475628,0.22171190,-0.01902979,0.00000000,0.00000000
-1.29277134,-0.84662884,0.39127994,-0.23310032,-0.40512002,0.00000000,0.00000000,-1.66200864,0.61833411,-0.40892410,0.19848420,-0.01771535,0.00000000,0.00000000
-1.25898111,-0.87349713,0.38543805,-0.20422439,-0.41190243,0.00000000,0.00000000,-1.61617339,0.63715810,-0.38215852,0.17401870,-0.02041783,0.00000000,0.00000000
-1.22622585,-0.89951044,0.37961510,-0.17412762,-0.41466397,0.00000000,0.00000000,-1.56887996,0.65594208,-0.35447273,0.14830552,-0.02288752,0.00000000,0.00000000
-1.19448805,-0.92456579,0.37400818,-0.14305292,-0.42205995,0.00000000,0.00000000,-1.52028322,0.67461401,-0.32590640,0.12136915,-0.02379834,0.00000000,0.00000000
-1.16373181,-0.94862652,0.36878470,-0.11126589,-0.42263868,0.00000000,0.00000000,-1.47053337,0.69314355,-0.29653370,0.09328711,-0.02476654,0.00000000,0.00000000
-1.13391519,-0.97173154,0.36407864,-0.07904845,-0.42386961,0.00000000,0.00000000,-1.41977918,0.71151167,-0.26646972,0.06418101,-0.01990317,0.00000000,0.00000000
-1.10500014,-0.99397093,0.35999182,-0.04667903,-0.41871968,0.00000000,0.00000000,-1.36817062,0.72970593,-0.23587126,0.03420958,-0.01741677,0.00000000,0.00000000
-1.07696235,-1.01544571,0.35659739,-0.01440472,-0.41327494,0.00000000,0.00000000,-1.31585884,0.74772251,-0.20493418,0.00356659,-0.01463597,0.00000000,0.00000000
-1.04979849,-1.03624606,0.35394400,0.01757322,-0.40668365,0.00000000,0.00000000,-1.26299846,0.76555443,-0.17388697,-0.02752107,-0.01208159,0.00000000,0.00000000
-1.02352941,-1.05645168,0.35206142,0.04909562,-0.39999720,0.00000000,0.00000000,-1.20974541,0.78317404,-0.14298208,-0.05880244,-0.01186270,0.00000000,0.00000000
-0.99819171,-1.07613075,0.35096532,0.08003750,-0.39519355,0.00000000,0.00000000,-1.15625739,0.80052388,-0.11248582,-0.09002042,-0.00776736,0.00000000,0.00000000
-0.97383153,-1.09533060,0.35065916,0.11030390,-0.39258865,0.00000000,0.00000000,-1.10269189,0.81752479,-0.08266895,-0.12092673,-0.00355697,0.00000000,0.00000000
-0.95049745,-1.11407351,0.35113487,0.13982768,-0.39257887,0.00000000,0.00000000,-1.04920650,0.83408254,-0.05379923,-0.15128544,0.00458781,0.00000000,0.00000000
-0.92824149,-1.13236260,0.35237357,0.16856532,-0.38278261,0.00000000,0.00000000,-0.99595755,0.85008323,-0.02613546,-0.18087465,0.01220805,0.00000000,0.00000000
-0.90711331,-1.15019059,0.35434493,0.19648957,-0.37591827,0.00000000,0.00000000,-0.94309896,0.86538917,0.00007812,-0.20949423,0.02133105,0.00000000,0.00000000
-0.88715202,-1.16753876,0.35700399,0.22358401,-0.36649829,0.00000000,0.00000000,-0.89078146,0.87985164,0.02461693,-0.23697288,0.03377569,0.00000000,0.00000000
-0.86837888,-1.18437803,0.36028683,0.24983788,-0.35535851,0.00000000,0.00000000,-0.83915192,0.89332688,0.04727910,-0.26316777,0.03948436,0.00000000,0.00000000
-0.85078162,-1.20067739,0.36410314,0.27522910,-0.34729546,0.00000000,0.00000000,-0.78835219,0.90573245,0.06788862,-0.28794223,0.04635853,0.00000000,0.00000000
-0.83430660,-1.21639383,0.36832887,0.29973155,-0.34357002,0.00000000,0.00000000,-0.73851734,0.91707224,0.08629909,-0.31116885,0.06119470,0.00000000,0.00000000
-0.81888419,-1.23145604,0.37281302,0.32335740,-0.33965752,0.00000000,0.00000000,-0.68977511,0.92734426,0.10239075,-0.33279985,0.07417842,0.00000000,0.00000000
-0.80442470,-1.24581683,0.37738040,0.34611902,-0.33483043,0.00000000,0.00000000,-0.64224386,0.93655103,0.11607006,-0.35285756,0.08358078,0.00000000,0.00000000
-0.79080838,-1.25946808,0.38182852,0.36801073,-0.33178502,0.00000000,0.00000000,-0.59602493,0.94478303,0.12727174,-0.37140042,0.09383178,0.00000000,0.00000000
-0.77790022,-1.27243185,0.38593644,0.38902506,-0.32969213,0.00000000,0.00000000,-0.55119312,0.95225221,0.13596064,-0.38852268,0.10868600,0.00000000,0.00000000
-0.76556277,-1.28479350,0.38948441,0.40914181,-0.32534891,0.00000000,0.00000000,-0.50778097,0.95930278,0.14213555,-0.40436894,0.11835856,0.00000000,0.00000000
-0.75362611,-1.29683006,0.39226252,0.42823535,-0.31842667,0.00000000,0.00000000,-0.46575922,0.96648782,0.14584275,-0.41911331,0.12569687,0.00000000,0.00000000
-0.74185157,-1.30908442,0.39406306,0.44601718,-0.30491534,0.00000000,0.00000000,-0.42500800,0.97465312,0.14721243,-0.43289074,0.13709067,0.00000000,0.00000000
-0.72993815,-1.32227576,0.39466771,0.46209040,-0.28987065,0.00000000,0.00000000,-0.38530272,0.98489755,0.14649817,-0.44573918,0.14388771,0.00000000,0.00000000
-0.71755010,-1.33710134,0.39383420,0.47605571,-0.27348047,0.00000000,0.00000000,-0.34634426,0.99839163,0.14409228,-0.45756829,0.14962944,0.00000000,0.00000000
-0.70431125,-1.35410321,0.39127764,0.48755157,-0.26704687,0.00000000,0.00000000,-0.30782378,1.01623440,0.14051647,-0.46813464,0.16034040,0.00000000,0.00000000
-0.68977535,-1.37369990,0.38666540,0.49621242,-0.25138453,0.00000000,0.00000000,-0.26945782,1.03945994,0.13642897,-0.47700751,0.17178507,0.00000000,0.00000000
-0.67345369,-1.39629209,0.37965992,0.50164044,-0.23607951,0.00000000,0.00000000,-0.23095663,1.06903028,0.13266997,-0.48352325,0.18450369,0.00000000,0.00000000
-0.65492892,-1.42232835,0.37001348,0.50341737,-0.22332223,0.00000000,0.00000000,-0.19199695,1.10557353,0.13026442,-0.48677570,0.19727761,0.00000000,0.00000000
-0.63396829,-1.45225656,0.35764930,0.50113308,-0.21241833,0.00000000,0.00000000,-0.15232201,1.14888799,0.13026617,-0.48575225,0.21081325,0.00000000,0.00000000
-0.61056006,-1.48638129,0.34266651,0.49443415,-0.20926820,0.00000000,0.00000000,-0.11189823,1.19776475,0.13352589,-0.47963792,0.22556949,0.00000000,0.00000000
-0.58487701,-1.52477956,0.32529184,0.48306653,-0.20258036,0.00000000,0.00000000,-0.07095113,1.25049913,0.14058740,-0.46807244,0.24617362,0.00000000,0.00000000
-0.55718589,-1.56734073,0.30581081,0.46687567,-0.19833182,0.00000000,0.00000000,-0.02991159,1.30563903,0.15171625,-0.45119134,0.26486814,0.00000000,0.00000000
-0.52775228,-1.61379671,0.28451061,0.44579861,-0.19707146,0.00000000,0.00000000,0.01058901,1.36228502,0.16694738,-0.42945927,0.28323233,0.00000000,0.00000000
-0.49682707,-1.66370523,0.26167315,0.41986755,-0.18652691,0.00000000,0.00000000,0.04973827,1.41988730,0.18612418,-0.40346262,0.29977563,0.00000000,0.00000000
-0.46472540,-1.71642840,0.23760329,0.38922432,-0.18029779,0.00000000,0.00000000,0.08664693,1.47803020,0.20894544,-0.37381133,0.31827435,0.00000000,0.00000000
-0.43191233,-1.77119482,0.21264662,0.35410854,-0.17496833,0.00000000,0.00000000,0.12048184,1.53637874,0.23501427,-0.34113726,0.33219782,0.00000000,0.00000000
-0.39899454,-1.82722962,0.18716691,0.31480974,-0.17059734,0.00000000,0.00000000,0.15053776,1.59468138,0.26387465,-0.30608308,0.35315999,0.00000000,0.00000000
-0.36662021,-1.88375545,0.16149969,0.27167240,-0.16498441,0.00000000,0.00000000,0.17622496,1.65275145,0.29503664,-0.26924250,0.36966419,0.00000000,0.00000000
-0.33539131,-1.93977356,0.13592802,0.22519878,-0.15741695,0.00000000,0.00000000,0.19703931,1.71043503,0.32799944,-0.23111553,0.38591692,0.00000000,0.00000000
-0.30582544,-1.99391091,0.11068986,0.17610578,-0.14626214,0.00000000,0.00000000,0.21258660,1.76757920,0.36227223,-0.19214144,0.40362972,0.00000000,0.00000000
-0.27830458,-2.04457521,0.08598653,0.12522461,-0.13759665,0.00000000,0.00000000,0.22265187,1.82397807,0.39738625,-0.15277466,0.41587743,0.00000000,0.00000000
-0.25299114,-2.09006214,0.06198009,0.07345841,-0.12951760,0.00000000,0.00000000,0.22725269,1.87926567,0.43290004,-0.11352083,0.42803657,0.00000000,0.00000000
-0.22980553,-2.12805128,0.03879679,0.02212174,-0.12154800,0.00000000,0.00000000,0.22664897,1.93275476,0.46840745,-0.07494332,0.43157601,0.00000000,0.00000000
-0.20865028,-2.15469265,0.01654140,-0.02645655,-0.11787137,0.00000000,0.00000000,0.22136825,1.98326719,0.50355601,-0.03768770,0.43491828,0.00000000,0.00000000
-0.18986611,-2.16710234,-0.00471583,-0.06870169,-0.11299348,0.00000000,0.00000000,0.21229476,2.02910686,0.53807420,-0.00247954,0.43782181,0.00000000,0.00000000
-0.17433189,-2.16983986,-0.02498293,-0.10068149,-0.10837062,0.00000000,0.00000000,0.20071991,2.06844258,0.57179964,0.03006276,0.44027710,0.00000000,0.00000000
-0.16283651,-2.17000008,-0.04434088,-0.11972453,-0.10007706,0.00000000,0.00000000,0.18819456,2.10002899,0.60468161,0.05975035,0.44820145,0.00000000,0.00000000
-0.15561657,-2.17000008,-0.06288140,-0.12499394,-0.09236173,0.00000000,0.00000000,0.17618866,2.12355947,0.63674235,0.08687534,0.45477200,0.00000000,0.00000000
-0.15235302,-2.17000008,-0.08065645,-0.11733892,-0.08549706,0.00000000,0.00000000,0.16580091,2.13964152,0.66801631,0.11203194,0.45543224,0.00000000,0.00000000
-0.15224117,-2.17000008,-0.09766075,-0.09950314,-0.07822108,0.00000000,0.00000000,0.15777996,2.14968085,0.69850135,0.13598233,0.45361555,0.00000000,0.00000000
-0.15416650,-2.17000008,-0.11385982,-0.07590002,-0.06689772,0.00000000,0.00000000,0.15265924,2.15550160,0.72814268,0.15948519,0.45039591,0.00000000,0.00000000
-0.15702572,-2.17000008,-0.12924911,-0.05098593,-0.05427713,0.00000000,0.00000000,0.15066515,2.15870309,0.75684476,0.18297566,0.44634378,0.00000000,0.00000000
-0.15996419,-2.17000008,-0.14388485,-0.02771685,-0.04089354,0.00000000,0.00000000,0.15160130,2.16031122,0.78448874,0.20639798,0.44794816,0.00000000,0.00000000
-0.16250439,-2.17000008,-0.15787050,-0.00745067,-0.02747441,0.00000000,0.00000000,0.15497161,2.16087794,0.81094652,0.22933277,0.45251131,0.00000000,0.00000000
-0.16448937,-2.16999769,-0.17132683,0.00940790,-0.01176987,0.00000000,0.00000000,0.16012612,2.16069174,0.83608872,0.25119814,0.45673993,0.00000000,0.00000000
-0.16591971,-2.16996288,-0.18437020,0.02279159,0.00119922,0.00000000,0.00000000,0.16621567,2.15994620,0.85977107,0.27136749,0.45590454,0.00000000,0.00000000
-0.16696756,-2.16985178,-0.19710137,0.03258371,0.00682857,0.00000000,0.00000000,0.17215711,2.15880108,0.88182837,0.28922340,0.45729080,0.00000000,0.00000000
-0.16808076,-2.16976380,-0.20959638,0.03852019,0.01396070,0.00000000,0.00000000,0.17685005,2.15740156,0.90209794,0.30426851,0.45960665,0.00000000,0.00000000
-0.16981231,-2.16982841,-0.22190520,0.04036754,0.02368369,0.00000000,0.00000000,0.17944708,2.15598369,0.92043895,0.31628537,0.46000552,0.00000000,0.00000000
-0.17245111,-2.16995335,-0.23405918,0.03817688,0.02423340,0.00000000,0.00000000,0.17944293,2.15499330,0.93672937,0.32540512,0.45478699,0.00000000,0.00000000
-0.17592169,-2.16999722,-0.24607570,0.03241888,0.02172490,0.00000000,0.00000000,0.17672023,2.15504217,0.95087767,0.33206597,0.44959509,0.00000000,0.00000000
-0.18004784,-2.17000008,-0.25795606,0.02396869,0.01779569,0.00000000,0.00000000,0.17167917,2.15661073,0.96288335,0.33689675,0.44304273,0.00000000,0.00000000
-0.18475077,-2.17000008,-0.26968789,0.01401034,0.01434895,0.00000000,0.00000000,0.16515985,2.15965700,0.97289294,0.34049693,0.43634099,0.00000000,0.00000000
-0.18995729,-2.17000008,-0.28125572,0.00387443,0.01423350,0.00000000,0.00000000,0.15795545,2.16350222,0.98116285,0.34317139,0.43299738,0.00000000,0.00000000
-0.19546108,-2.17000008,-0.29264861,-0.00518022,0.01007902,0.00000000,0.00000000,0.15032871,2.16709661,0.98795718,0.34482574,0.42450061,0.00000000,0.00000000
-0.20093735,-2.17000008,-0.30386266,-0.01212901,0.01237142,0.00000000,0.00000000,0.14213039,2.16935325,0.99352437,0.34511849,0.41179466,0.00000000,0.00000000
-0.20597138,-2.17000008,-0.31490064,-0.01620458,0.01914896,0.00000000,0.00000000,0.13336425,2.16996193,0.99819064,0.34368503,0.39970306,0.00000000,0.00000000
-0.21002871,-2.17000008,-0.32577217,-0.01692112,0.02148739,0.00000000,0.00000000,0.12425144,2.16995382,1.00231373,0.34027532,0.38338986,0.00000000,0.00000000
-0.21254586,-2.17000008,-0.33649495,-0.01427051,0.01915737,0.00000000,0.00000000,0.11458782,2.16922998,1.00598037,0.33488148,0.36642897,0.00000000,0.00000000
-0.21306984,-2.17000008,-0.34709895,-0.00885512,0.01783335,0.00000000,0.00000000,0.10375731,2.16669488,1.00895989,0.32778659,0.35108396,0.00000000,0.00000000
-0.21121137,-2.17000008,-0.35763025,-0.00172019,0.01652161,0.00000000,0.00000000,0.09150343,2.16290832,1.01106787,0.31932652,0.32813451,0.00000000,0.00000000
-0.20654874,-2.16999674,-0.36815307,0.00590557,0.01433368,0.00000000,0.00000000,0.07795180,2.15846491,1.01231456,0.30960467,0.30932277,0.00000000,0.00000000
-0.19871765,-2.16995406,-0.37874565,0.01282465,0.00701839,0.00000000,0.00000000,0.06318291,2.15360761,1.01276767,0.29857945,0.28827572,0.00000000,0.00000000
-0.18764949,-2.16987920,-0.38948891,0.01807967,-0.00338474,0.00000000,0.00000000,0.04721924,2.14862466,1.01248991,0.28631273,0.26629135,0.00000000,0.00000000
-0.17376643,-2.16992807,-0.40045056,0.02114102,-0.01455434,0.00000000,0.00000000,0.03055867,2.14375067,1.01160729,0.27320126,0.25543609,0.00000000,0.00000000
-0.15801778,-2.16998243,-0.41167459,0.02193355,-0.02487574,0.00000000,0.00000000,0.01492319,2.13933587,1.01034689,0.26031867,0.24382010,0.00000000,0.00000000
-0.14186068,-2.16994905,-0.42318267,0.02043466,-0.03523019,0.00000000,0.00000000,0.00285190,2.13589263,1.00898123,0.24922365,0.23969875,0.00000000,0.00000000
-0.12697315,-2.16981888,-0.43498403,0.01621412,-0.04665838,0.00000000,0.00000000,-0.00397661,2.13383389,1.00771141,0.24113263,0.23544633,0.00000000,0.00000000
-0.11431486,-2.16977358,-0.44708583,0.00875181,-0.05790835,0.00000000,0.00000000,-0.00504786,2.13359809,1.00662339,0.23682348,0.22948971,0.00000000,0.00000000
-0.10434352,-2.16990185,-0.45948923,-0.00228096,-0.06985234,0.00000000,0.00000000,-0.00046734,2.13519549,1.00578451,0.23660903,0.22104314,0.00000000,0.00000000
-0.09757473,-2.16998529,-0.47218886,-0.01684998,-0.09083279,0.00000000,0.00000000,0.00893128,2.13817215,1.00523579,0.24011485,0.21111472,0.00000000,0.00000000
-0.09425016,-2.16999960,-0.48517680,-0.03439060,-0.11367463,0.00000000,0.00000000,0.02116045,2.14214253,1.00489140,0.24622668,0.20113002,0.00000000,0.00000000
-0.09292082,-2.17000008,-0.49842167,-0.05360321,-0.13837264,0.00000000,0.00000000,0.03321657,2.14698386,1.00452650,0.25333142,0.18990202,0.00000000,0.00000000
-0.09143602,-2.17000008,-0.51186639,-0.07298227,-0.16199064,0.00000000,0.00000000,0.04256008,2.15258932,1.00393474,0.26006094,0.18080159,0.00000000,0.00000000
-0.08919242,-2.17000008,-0.52547556,-0.09182832,-0.18808368,0.00000000,0.00000000,0.04850666,2.15812182,1.00315487,0.26573509,0.17218760,0.00000000,0.00000000
-0.08624561,-2.17000008,-0.53924048,-0.10964445,-0.21314068,0.00000000,0.00000000,0.05134197,2.16302371,1.00228202,0.27028310,0.16406956,0.00000000,0.00000000
-0.08232716,-2.17000008,-0.55315715,-0.12569077,-0.23447424,0.00000000,0.00000000,0.05127383,2.16699147,1.00137937,0.27369505,0.14691451,0.00000000,0.00000000
-0.07679202,-2.17000008,-0.56721222,-0.13914551,-0.25611067,0.00000000,0.00000000,0.04838195,2.16934252,1.00058663,0.27561554,0.13138364,0.00000000,0.00000000
-0.06912903,-2.17000008,-0.58139509,-0.14956509,-0.27881739,0.00000000,0.00000000,0.04290828,2.16996145,1.00015521,0.27544257,0.11739819,0.00000000,0.00000000
-0.05937230,-2.17000008,-0.59571934,-0.15714106,-0.30259389,0.00000000,0.00000000,0.03518698,2.16999221,1.00029659,0.27276638,0.11189684,0.00000000,0.00000000
-0.04790640,-2.17000008,-0.61023372,-0.16227736,-0.32281411,0.00000000,0.00000000,0.02549169,2.16983962,1.00102949,0.26776585,0.10627620,0.00000000,0.00000000
-0.03532679,-2.17000008,-0.62502927,-0.16514298,-0.34356636,0.00000000,0.00000000,0.01443692,2.16892862,1.00226176,0.26130086,0.10210948,0.00000000,0.00000000
-0.02291926,-2.16996098,-0.64022642,-0.16615999,-0.36750352,0.00000000,0.00000000,0.00327007,2.16647148,1.00401318,0.25447437,0.09080651,0.00000000,0.00000000
-0.01186620,-2.16934133,-0.65587842,-0.16620688,-0.38776454,0.00000000,0.00000000,-0.00678844,2.16279292,1.00635624,0.24827841,0.08072187,0.00000000,0.00000000
-0.00255880,-2.16709089,-0.67193615,-0.16647427,-0.41012803,0.00000000,0.00000000,-0.01508080,2.15897870,1.00928771,0.24358089,0.06462273,0.00000000,0.00000000
0.00481091,-2.16371512,-0.68834281,-0.16828167,-0.42249578,0.00000000,0.00000000,-0.02095539,2.15604329,1.01280940,0.24128865,0.04577253,0.00000000,0.00000000
0.00978769,-2.16037774,-0.70511007,-0.17267306,-0.43373999,0.00000000,0.00000000,-0.02334555,2.15446329,1.01700914,0.24232781,0.02501586,0.00000000,0.00000000
0.01201309,-2.15750766,-0.72229302,-0.18005994,-0.44622076,0.00000000,0.00000000,-0.02150021,2.15437746,1.02197301,0.24728790,0.00328674,0.00000000,0.00000000
0.01190162,-2.15491343,-0.73990810,-0.19017205,-0.45886418,0.00000000,0.00000000,-0.01618945,2.15601683,1.02763367,0.25596642,-0.01752233,0.00000000,0.00000000
0.01059507,-2.15233016,-0.75790089,-0.20236769,-0.47273403,0.00000000,0.00000000,-0.01016941,2.15913939,1.03380120,0.26696306,-0.03075438,0.00000000,0.00000000
0.00915034,-2.14949393,-0.77620983,-0.21599549,-0.48900059,0.00000000,0.00000000,-0.00692046,2.16258526,1.04032683,0.27814457,-0.04716285,0.00000000,0.00000000
0.00777061,-2.14614320,-0.79483759,-0.23071061,-0.50684798,0.00000000,0.00000000,-0.00811073,2.16503739,1.04722524,0.28813797,-0.05834086,0.00000000,0.00000000
0.00627165,-2.14248228,-0.81377256,-0.24653441,-0.51637805,0.00000000,0.00000000,-0.01345874,2.16556811,1.05462933,0.29660234,-0.07183366,0.00000000,0.00000000
0.00491283,-2.13919759,-0.83290082,-0.26354277,-0.52306658,0.00000000,0.00000000,-0.02168870,2.16403008,1.06265354,0.30396679,-0.09111285,0.00000000,0.00000000
0.00463878,-2.13682318,-0.85203230,-0.28144568,-0.53545618,0.00000000,0.00000000,-0.03100850,2.16062284,1.07140648,0.31109020,-0.10492554,0.00000000,0.00000000
0.00692958,-2.13527584,-0.87096500,-0.29942155,-0.54722941,0.00000000,0.00000000,-0.04026525,2.15517068,1.08099484,0.31841663,-0.12204389,0.00000000,0.00000000
0.01324537,-2.13393331,-0.88955671,-0.31641752,-0.55500227,0.00000000,0.00000000,-0.04963768,2.14732718,1.09143281,0.32564026,-0.13584259,0.00000000,0.00000000
0.02422738,-2.13194990,-0.90780175,-0.33164144,-0.56241995,0.00000000,0.00000000,-0.05976517,2.13716149,1.10262418,0.33230603,-0.15147331,0.00000000,0.00000000
0.03885925,-2.12860966,-0.92589480,-0.34504372,-0.57147360,0.00000000,0.00000000,-0.07045170,2.12526679,1.11445975,0.33850706,-0.17767073,0.00000000,0.00000000
0.05493411,-2.12371969,-0.94411874,-0.35729995,-0.58117825,0.00000000,0.00000000,-0.08109017,2.11240816,1.12684119,0.34462750,-0.20447287,0.00000000,0.00000000
0.07066668,-2.11767125,-0.96263367,-0.36923614,-0.58874923,0.00000000,0.00000000,-0.09167182,2.09970403,1.13955796,0.35098925,-0.22990116,0.00000000,0.00000000
0.08522474,-2.11139774,-0.98140365,-0.38165981,-0.59638751,0.00000000,0.00000000,-0.10268945,2.08855915,1.15230513,0.35792556,-0.25950149,0.00000000,0.00000000
0.09804361,-2.10609674,-1.00031173,-0.39552695,-0.60190266,0.00000000,0.00000000,-0.11401393,2.08007979,1.16488862,0.36612320,-0.29096091,0.00000000,0.00000000
0.10776552,-2.10273933,-1.01936269,-0.41211489,-0.60367203,0.00000000,0.00000000,-0.12423510,2.07449412,1.17739356,0.37670210,-0.31814763,0.00000000,0.00000000
0.11293606,-2.10149169,-1.03869987,-0.43236622,-0.59816098,0.00000000,0.00000000,-0.13152967,2.07142854,1.19004810,0.39080465,-0.34171435,0.00000000,0.00000000
0.11422602,-2.10186696,-1.05830073,-0.45583221,-0.59165967,0.00000000,0.00000000,-0.13536641,2.07055020,1.20294142,0.40883961,-0.37007743,0.00000000,0.00000000
0.11456016,-2.10329318,-1.07785320,-0.48084453,-0.57365799,0.00000000,0.00000000,-0.13739820,2.07172704,1.21590388,0.42999032,-0.39599985,0.00000000,0.00000000
0.11596009,-2.10518456,-1.09716916,-0.50615007,-0.55635744,0.00000000,0.00000000,-0.14023103,2.07499838,1.22861338,0.45286593,-0.41795397,0.00000000,0.00000000
0.11862484,-2.10684824,-1.11633778,-0.53133267,-0.54199994,0.00000000,0.00000000,-0.14542411,2.08029842,1.24083984,0.47653121,-0.43646312,0.00000000,0.00000000
0.12226362,-2.10785246,-1.13544142,-0.55625200,-0.52623820,0.00000000,0.00000000,-0.15329380,2.08657598,1.25270426,0.50035000,-0.45510039,0.00000000,0.00000000
0.12711471,-2.10803580,-1.15439880,-0.58052427,-0.51593012,0.00000000,0.00000000,-0.16394421,2.09224892,1.26449668,0.52355963,-0.47118953,0.00000000,0.00000000
0.13363147,-2.10754871,-1.17298317,-0.60373467,-0.50243795,0.00000000,0.00000000,-0.17740890,2.09590435,1.27648664,0.54544765,-0.48317394,0.00000000,0.00000000
0.14184734,-2.10668874,-1.19096446,-0.62576252,-0.48935780,0.00000000,0.00000000,-0.19325985,2.09685421,1.28879976,0.56580770,-0.49822983,0.00000000,0.00000000
0.15130092,-2.10558915,-1.20823157,-0.64674217,-0.46997190,0.00000000,0.00000000,-0.21065390,2.09524989,1.30136240,0.58499777,-0.52211195,0.00000000,0.00000000
0.16139643,-2.10424542,-1.22474277,-0.66688323,-0.45445567,0.00000000,0.00000000,-0.22882211,2.09150958,1.31401813,0.60347772,-0.54588962,0.00000000,0.00000000
0.17157008,-2.10267258,-1.24044418,-0.68641841,-0.43788016,0.00000000,0.00000000,-0.24725907,2.08560801,1.32673764,0.62145525,-0.57102686,0.00000000,0.00000000
0.18098319,-2.10074306,-1.25537181,-0.70568967,-0.41328982,0.00000000,0.00000000,-0.26504868,2.07723498,1.33962476,0.63933563,-0.59541464,0.00000000,0.00000000
0.18865891,-2.09812546,-1.26966214,-0.72503227,-0.38997981,0.00000000,0.00000000,-0.28041455,2.06646419,1.35272264,0.65822381,-0.62011856,0.00000000,0.00000000
0.19443855,-2.09486961,-1.28319061,-0.74445498,-0.36980957,0.00000000,0.00000000,-0.29171333,2.05371666,1.36593544,0.67936087,-0.64449161,0.00000000,0.00000000
0.19864361,-2.09160638,-1.29552031,-0.76393360,-0.35537475,0.00000000,0.00000000,-0.29770231,2.03964043,1.37903309,0.70391834,-0.66740364,0.00000000,0.00000000
0.20089822,-2.08905625,-1.30624330,-0.78392798,-0.34418601,0.00000000,0.00000000,-0.29700306,2.02468181,1.39185131,0.73321742,-0.69296956,0.00000000,0.00000000
0.19971390,-2.08739018,-1.31531525,-0.80541325,-0.33227637,0.00000000,0.00000000,-0.28792030,2.00842190,1.40458477,0.76861286,-0.72138608,0.00000000,0.00000000
0.19292423,-2.08614564,-1.32306683,-0.82963187,-0.31888503,0.00000000,0.00000000,-0.26927963,1.98916984,1.41789532,0.81052870,-0.74988383,0.00000000,0.00000000
0.17846766,-2.08445311,-1.33002400,-0.85771465,-0.30487841,0.00000000,0.00000000,-0.24179345,1.96481144,1.43236852,0.85736930,-0.77905297,0.00000000,0.00000000
0.15540247,-2.08122253,-1.33667421,-0.88995343,-0.28854525,0.00000000,0.00000000,-0.20840117,1.93460619,1.44762099,0.90583044,-0.80663979,0.00000000,0.00000000
0.12564889,-2.07580900,-1.34283209,-0.92460352,-0.26912397,0.00000000,0.00000000,-0.17322300,1.89948165,1.46229863,0.95221740,-0.83557785,0.00000000,0.00000000
0.09482832,-2.06863594,-1.34716833,-0.95753163,-0.25709182,0.00000000,0.00000000,-0.14041331,1.86088598,1.47484243,0.99321210,-0.86691314,0.00000000,0.00000000
0.06860538,-2.06062150,-1.34817851,-0.98450452,-0.24645799,0.00000000,0.00000000,-0.11296780,1.82015550,1.48422468,1.02606261,-0.89455146,0.00000000,0.00000000
0.04873921,-2.05284238,-1.34536994,-1.00300145,-0.23555110,0.00000000,0.00000000,-0.09154232,1.78172350,1.49013352,1.04892516,-0.92635274,0.00000000,0.00000000
0.03442074,-2.04786658,-1.33936787,-1.01135147,-0.22630966,0.00000000,0.00000000,-0.07526004,1.75522101,1.49253619,1.06145775,-0.95411181,0.00000000,0.00000000
0.02462967,-2.05011868,-1.33105290,-1.00856268,-0.21948618,0.00000000,0.00000000,-0.06407139,1.74491560,1.49147618,1.06401503,-0.98350412,0.00000000,0.00000000
0.01962079,-2.06009173,-1.32056141,-0.99436116,-0.21222441,0.00000000,0.00000000,-0.05883811,1.75140500,1.48710728,1.05652499,-1.01613057,0.00000000,0.00000000
0.02171773,-2.07320094,-1.30720508,-0.96886712,-0.20349887,0.00000000,0.00000000,-0.06057239,1.77454650,1.47946513,1.03867078,-1.04126072,0.00000000,0.00000000
0.03515315,-2.08576727,-1.28992105,-0.93252742,-0.19562007,0.00000000,0.00000000,-0.07143448,1.81250036,1.46802485,1.01032043,-1.06627595,0.00000000,0.00000000
0.06192284,-2.09754300,-1.26805544,-0.88645411,-0.18531927,0.00000000,0.00000000,-0.09460722,1.86082637,1.45143282,0.97225797,-1.09274447,0.00000000,0.00000000
0.09784536,-2.10909367,-1.24230647,-0.83490354,-0.17351444,0.00000000,0.00000000,-0.13129602,1.91731393,1.42784953,0.92676079,-1.11417437,0.00000000,0.00000000
0.13332696,-2.11783385,-1.21591604,-0.78424335,-0.16173249,0.00000000,0.00000000,-0.17711788,1.97953737,1.39814806,0.87901783,-1.13485074,0.00000000,0.00000000
0.16194129,-2.11813545,-1.19286716,-0.73628128,-0.15092635,0.00000000,0.00000000,-0.22288924,2.03410769,1.37085199,0.83458650,-1.15509903,0.00000000,0.00000000
0.18052202,-2.10733652,-1.17490447,-0.69062448,-0.14505926,0.00000000,0.00000000,-0.26410496,2.07383966,1.35021818,0.79290962,-1.17911017,0.00000000,0.00000000
0.19184625,-2.08901763,-1.15992188,-0.64618635,-0.14093028,0.00000000,0.00000000,-0.29781362,2.09819055,1.33661985,0.75324661,-1.19980156,0.00000000,0.00000000
0.19856502,-2.06751657,-1.14579260,-0.60290819,-0.14376657,0.00000000,0.00000000,-0.32335907,2.11076784,1.32819843,0.71586752,-1.22132373,0.00000000,0.00000000
0.20084216,-2.04647470,-1.13138258,-0.56220180,-0.14426653,0.00000000,0.00000000,-0.34116641,2.11658931,1.32249188,0.68161112,-1.24974680,0.00000000,0.00000000
0.19871761,-2.02867794,-1.11603320,-0.52528298,-0.14166838,0.00000000,0.00000000,-0.35162336,2.11910534,1.31799114,0.65129364,-1.28054190,0.00000000,0.00000000
0.19295524,-2.01575089,-1.09941149,-0.49241808,-0.13906460,0.00000000,0.00000000,-0.35556275,2.11963224,1.31419528,0.62490803,-1.30921543,0.00000000,0.00000000
0.18473488,-2.00867033,-1.08134556,-0.46337119,-0.13754764,0.00000000,0.00000000,-0.35429344,2.11799097,1.31122351,0.60177124,-1.33769703,0.00000000,0.00000000
0.17496204,-2.00813913,-1.06180513,-0.43814364,-0.13796139,0.00000000,0.00000000,-0.34851199,2.11467028,1.30908656,0.58199251,-1.37306190,0.00000000,0.00000000
0.16382921,-2.01446819,-1.04096472,-0.41716838,-0.13998102,0.00000000,0.00000000,-0.33763433,2.11328149,1.30688357,0.56766289,-1.40489399,0.00000000,0.00000000
0.15150960,-2.02703571,-1.01915777,-0.40043810,-0.14165610,0.00000000,0.00000000,-0.32292920,2.11925507,1.30289543,0.56059819,-1.43560076,0.00000000,0.00000000
0.13896696,-2.04369545,-0.99681312,-0.38659358,-0.13884985,0.00000000,0.00000000,-0.30829331,2.13170981,1.29715407,0.55878329,-1.46139860,0.00000000,0.00000000
0.12720266,-2.06122708,-0.97444320,-0.37353432,-0.13669534,0.00000000,0.00000000,-0.29287156,2.14382195,1.29196632,0.55947745,-1.48894954,0.00000000,0.00000000
0.11657445,-2.07693028,-0.95247900,-0.35964796,-0.13871843,0.00000000,0.00000000,-0.27668750,2.15289712,1.28812146,0.56080866,-1.51419485,0.00000000,0.00000000
0.10679874,-2.08992624,-0.93109232,-0.34450403,-0.14020763,0.00000000,0.00000000,-0.26083246,2.15933084,1.28525352,0.56183720,-1.53613722,0.00000000,0.00000000
0.09760224,-2.10079646,-0.91021818,-0.32842276,-0.13657852,0.00000000,0.00000000,-0.24583232,2.16416955,1.28278899,0.56240594,-1.55576944,0.00000000,0.00000000
0.08892860,-2.11045146,-0.88973409,-0.31186673,-0.13597637,0.00000000,0.00000000,-0.23197131,2.16770124,1.28037453,0.56238639,-1.57351947,0.00000000,0.00000000
0.08059353,-2.11942673,-0.86961031,-0.29526719,-0.12938087,0.00000000,0.00000000,-0.21929146,2.16953325,1.27794671,0.56157297,-1.59026754,0.00000000,0.00000000
0.07204539,-2.12788391,-0.84992331,-0.27909911,-0.12343310,0.00000000,0.00000000,-0.20757228,2.16997361,1.27555025,0.55986673,-1.60815477,0.00000000,0.00000000
0.06255797,-2.13589025,-0.83077872,-0.26387489,-0.11824795,0.00000000,0.00000000,-0.19662353,2.17000008,1.27321422,0.55719763,-1.62298393,0.00000000,0.00000000
0.05149767,-2.14354515,-0.81225675,-0.25006312,-0.11870041,0.00000000,0.00000000,-0.18645746,2.17000008,1.27088964,0.55348384,-1.63606000,0.00000000,0.00000000
0.03830899,-2.15084314,-0.79443067,-0.23805517,-0.12529938,0.00000000,0.00000000,-0.17709865,2.17000008,1.26844263,0.54882032,-1.64941835,0.00000000,0.00000000
0.02242085,-2.15752983,-0.77739120,-0.22815122,-0.12932330,0.00000000,0.00000000,-0.16836050,2.17000008,1.26571167,0.54362309,-1.66224718,0.00000000,0.00000000
0.00340422,-2.16315317,-0.76122159,-0.22049260,-0.13065647,0.00000000,0.00000000,-0.15984273,2.17000008,1.26261175,0.53853571,-1.67186761,0.00000000,0.00000000
-0.01873876,-2.16723442,-0.74595135,-0.21498947,-0.13368291,0.00000000,0.00000000,-0.15099701,2.17000008,1.25922751,0.53425252,-1.68292940,0.00000000,0.00000000
-0.04364332,-2.16941833,-0.73157072,-0.21132445,-0.13400500,0.00000000,0.00000000,-0.14113207,2.16996765,1.25584710,0.53140175,-1.69055164,0.00000000,0.00000000
-0.07061157,-2.16996670,-0.71806669,-0.20879933,-0.13046183,0.00000000,0.00000000,-0.12974274,2.16940165,1.25289512,0.53028750,-1.70354378,0.00000000,0.00000000
-0.09792841,-2.17000008,-0.70535076,-0.20605135,-0.12899438,0.00000000,0.00000000,-0.11737414,2.16664791,1.25076258,0.53036630,-1.71664178,0.00000000,0.00000000
-0.12211927,-2.17000008,-0.69310844,-0.20124082,-0.12741220,0.00000000,0.00000000,-0.10616313,2.16011906,1.24955869,0.53007013,-1.72379017,0.00000000,0.00000000
-0.13920993,-2.16999030,-0.68088990,-0.19289149,-0.12394700,0.00000000,0.00000000,-0.09888155,2.14998841,1.24896526,0.52762771,-1.73281062,0.00000000,0.00000000
-0.14697555,-2.16982603,-0.66839272,-0.18052082,-0.12263845,0.00000000,0.00000000,-0.09744287,2.13763666,1.24840069,0.52199650,-1.73858595,0.00000000,0.00000000
-0.14559789,-2.16909218,-0.65556133,-0.16473183,-0.12453879,0.00000000,0.00000000,-0.10232595,2.12482667,1.24729121,0.51306587,-1.74346638,0.00000000,0.00000000
-0.13686934,-2.16779089,-0.64251101,-0.14696313,-0.12922306,0.00000000,0.00000000,-0.11285260,2.11315060,1.24524486,0.50136882,-1.74970949,0.00000000,0.00000000
-0.12317095,-2.16695046,-0.62944019,-0.12900716,-0.13658451,0.00000000,0.00000000,-0.12754640,2.10354996,1.24216270,0.48776466,-1.75437570,0.00000000,0.00000000
-0.10699233,-2.16734266,-0.61658639,-0.11247095,-0.14382280,0.00000000,0.00000000,-0.14427680,2.09614277,1.23826587,0.47328240,-1.76384294,0.00000000,0.00000000
-0.09050486,-2.16859031,-0.60418534,-0.09821990,-0.15178803,0.00000000,0.00000000,-0.16060132,2.09057140,1.23395646,0.45900151,-1.77036130,0.00000000,0.00000000
-0.07499598,-2.16966009,-0.59240609,-0.08631544,-0.15327008,0.00000000,0.00000000,-0.17450896,2.08622646,1.22967601,0.44577253,-1.77202380,0.00000000,0.00000000
-0.06081549,-2.16997886,-0.58133882,-0.07645839,-0.15576521,0.00000000,0.00000000,-0.18483818,2.08261228,1.22576845,0.43421903,-1.77079713,0.00000000,0.00000000
-0.04782825,-2.17000008,-0.57103103,-0.06840056,-0.16388363,0.00000000,0.00000000,-0.19100329,2.07970023,1.22241187,0.42502818,-1.76247239,0.00000000,0.00000000
-0.03614719,-2.17000008,-0.56152934,-0.06211456,-0.17536323,0.00000000,0.00000000,-0.19249214,2.07781982,1.21969092,0.41910654,-1.74975550,0.00000000,0.00000000
-0.02652000,-2.17000008,-0.55289531,-0.05764928,-0.18874037,0.00000000,0.00000000,-0.18885893,2.07724166,1.21769071,0.41732293,-1.74424732,0.00000000,0.00000000
-0.01944136,-2.17000008,-0.54517740,-0.05464919,-0.19960018,0.00000000,0.00000000,-0.18045923,2.07811022,1.21643519,0.41995230,-1.73914039,0.00000000,0.00000000
-0.01410428,-2.17000008,-0.53837973,-0.05213896,-0.20961805,0.00000000,0.00000000,-0.16943035,2.08059740,1.21575022,0.42608973,-1.73474467,0.00000000,0.00000000
-0.00927083,-2.17000008,-0.53248465,-0.04911042,-0.22097456,0.00000000,0.00000000,-0.15952401,2.08467841,1.21531653,0.43368074,-1.72665381,0.00000000,0.00000000
-0.00427197,-2.17000008,-0.52748251,-0.04493529,-0.23197751,0.00000000,0.00000000,-0.15376559,2.09020638,1.21486354,0.44091454,-1.71907151,0.00000000,0.00000000
0.00102993,-2.17000008,-0.52337265,-0.03943530,-0.24029207,0.00000000,0.00000000,-0.15323761,2.09675813,1.21433806,0.44689220,-1.71452820,0.00000000,0.00000000
0.00656702,-2.17000008,-0.52015764,-0.03275992,-0.24609730,0.00000000,0.00000000,-0.15786582,2.10352063,1.21387911,0.45116478,-1.70893979,0.00000000,0.00000000
0.01228605,-2.17000008,-0.51784295,-0.02526226,-0.25326189,0.00000000,0.00000000,-0.16704935,2.10961366,1.21368158,0.45348102,-1.70101035,0.00000000,0.00000000
0.01812897,-2.17000008,-0.51644045,-0.01751324,-0.26532653,0.00000000,0.00000000,-0.17985746,2.11439157,1.21390796,0.45379624,-1.69823086,0.00000000,0.00000000
0.02394906,-2.17000008,-0.51596999,-0.01023147,-0.27516451,0.00000000,0.00000000,-0.19533075,2.11747146,1.21467316,0.45220369,-1.69513535,0.00000000,0.00000000
0.02943268,-2.17000008,-0.51645607,-0.00401953,-0.28439245,0.00000000,0.00000000,-0.21228220,2.11879158,1.21606398,0.44911766,-1.69053638,0.00000000,0.00000000
0.03398527,-2.17000008,-0.51792306,0.00080609,-0.29624593,0.00000000,0.00000000,-0.22836362,2.11886215,1.21816075,0.44580349,-1.68339300,0.00000000,0.00000000
0.03690209,-2.16999316,-0.52038968,0.00388522,-0.30805618,0.00000000,0.00000000,-0.24136275,2.11816597,1.22106123,0.44352871,-1.67285919,0.00000000,0.00000000
0.03791538,-2.16989136,-0.52386975,0.00470484,-0.32037851,0.00000000,0.00000000,-0.25041294,2.11722398,1.22474384,0.44296193,-1.66650867,0.00000000,0.00000000
0.03700152,-2.16958833,-0.52837014,0.00261165,-0.32930607,0.00000000,0.00000000,-0.25562218,2.11672926,1.22906303,0.44443637,-1.65858841,0.00000000,0.00000000
0.03406770,-2.16938734,-0.53388697,-0.00297146,-0.33520293,0.00000000,0.00000000,-0.25723007,2.11741924,1.23385310,0.44837719,-1.65094435,0.00000000,0.00000000
0.02899104,-2.16956854,-0.54040301,-0.01229077,-0.34702215,0.00000000,0.00000000,-0.25518671,2.11978269,1.23903358,0.45538831,-1.64006984,0.00000000,0.00000000
0.02217831,-2.16988325,-0.54788482,-0.02501617,-0.36235118,0.00000000,0.00000000,-0.24972449,2.12411618,1.24453413,0.46581674,-1.63138461,0.00000000,0.00000000
0.01468027,-2.16999292,-0.55627894,-0.04036971,-0.37642696,0.00000000,0.00000000,-0.24228074,2.13034606,1.25024843,0.47906458,-1.61925578,0.00000000,0.00000000
0.00756458,-2.17000008,-0.56551456,-0.05754529,-0.38979062,0.00000000,0.00000000,-0.23534563,2.13766932,1.25614119,0.49357069,-1.60481858,0.00000000,0.00000000
0.00129436,-2.17000008,-0.57552356,-0.07588966,-0.40488610,0.00000000,0.00000000,-0.23076333,2.14520025,1.26224136,0.50804663,-1.58397734,0.00000000,0.00000000
-0.00417375,-2.17000008,-0.58624977,-0.09487937,-0.41615364,0.00000000,0.00000000,-0.22876810,2.15217209,1.26869416,0.52211761,-1.56316090,0.00000000,0.00000000
-0.00871744,-2.16996193,-0.59763128,-0.11393856,-0.42954418,0.00000000,0.00000000,-0.22904134,2.15765119,1.27574432,0.53560185,-1.54224062,0.00000000,0.00000000
-0.01179512,-2.16933131,-0.60958433,-0.13241301,-0.44256973,0.00000000,0.00000000,-0.23150124,2.16081572,1.28355920,0.54807568,-1.52362907,0.00000000,0.00000000
-0.01281113,-2.16670680,-0.62200665,-0.14989574,-0.45384917,0.00000000,0.00000000,-0.23619650,2.16140747,1.29209471,0.55908012,-1.50755012,0.00000000,0.00000000
-0.01147293,-2.16159773,-0.63479477,-0.16642918,-0.46798167,0.00000000,0.00000000,-0.24312238,2.15982723,1.30110228,0.56837463,-1.49239111,0.00000000,0.00000000
-0.00778628,-2.15464783,-0.64786047,-0.18228242,-0.48290250,0.00000000,0.00000000,-0.25230888,2.15676427,1.31026137,0.57588810,-1.47751606,0.00000000,0.00000000
-0.00213099,-2.14646077,-0.66116214,-0.19768204,-0.49492866,0.00000000,0.00000000,-0.26340842,2.15281582,1.31933415,0.58181167,-1.45596969,0.00000000,0.00000000
0.00446659,-2.13727522,-0.67473680,-0.21286824,-0.50551218,0.00000000,0.00000000,-0.27500921,2.14847279,1.32821715,0.58689129,-1.42930639,0.00000000,0.00000000
0.01089356,-2.12748480,-0.68862754,-0.22824261,-0.51734823,0.00000000,0.00000000,-0.28609058,2.14409351,1.33684182,0.59168124,-1.40530217,0.00000000,0.00000000
0.01662237,-2.11781216,-0.70280957,-0.24429870,-0.53405845,0.00000000,0.00000000,-0.29669639,2.14021730,1.34502840,0.59637588,-1.38581586,0.00000000,0.00000000
0.02143170,-2.10911226,-0.71722311,-0.26160359,-0.55064964,0.00000000,0.00000000,-0.30700725,2.13754892,1.35257149,0.60136795,-1.36872995,0.00000000,0.00000000
0.02506913,-2.10200858,-0.73182690,-0.28065518,-0.56341672,0.00000000,0.00000000,-0.31607932,2.13654971,1.35946679,0.60778952,-1.35324550,0.00000000,0.00000000
0.02723641,-2.09662485,-0.74661702,-0.30168104,-0.57457638,0.00000000,0.00000000,-0.32188305,2.13710141,1.36600232,0.61729246,-1.33727360,0.00000000,0.00000000
0.02805231,-2.09253740,-0.76157868,-0.32441476,-0.58616275,0.00000000,0.00000000,-0.32305813,2.13858843,1.37257254,0.63089037,-1.31566167,0.00000000,0.00000000
0.02789690,-2.08908391,-0.77667761,-0.34831241,-0.60007888,0.00000000,0.00000000,-0.32042077,2.13987780,1.37956548,0.64794135,-1.29069746,0.00000000,0.00000000
0.02697328,-2.08552194,-0.79191321,-0.37283817,-0.61062670,0.00000000,0.00000000,-0.31648710,2.14011693,1.38710690,0.66670221,-1.26009834,0.00000000,0.00000000
0.02523954,-2.08121490,-0.80731416,-0.39760453,-0.62033474,0.00000000,0.00000000,-0.31296885,2.13921976,1.39507973,0.68611509,-1.23624086,0.00000000,0.00000000
0.02250907,-2.07585406,-0.82288134,-0.42242172,-0.63242853,0.00000000,0.00000000,-0.31012151,2.13737869,1.40336692,0.70609367,-1.21034813,0.00000000,0.00000000
0.01907786,-2.06937003,-0.83847821,-0.44696659,-0.64941972,0.00000000,0.00000000,-0.30814075,2.13472199,1.41183162,0.72646713,-1.18139601,0.00000000,0.00000000
0.01601273,-2.06183672,-0.85378206,-0.47062403,-0.66321945,0.00000000,0.00000000,-0.30798978,2.13126040,1.42022097,0.74639189,-1.15154707,0.00000000,0.00000000
0.01446164,-2.05353999,-0.86839563,-0.49285975,-0.67442411,0.00000000,0.00000000,-0.31067392,2.12697816,1.42820394,0.76492184,-1.12402940,0.00000000,0.00000000
0.01498309,-2.04487801,-0.88200712,-0.51349682,-0.67969835,0.00000000,0.00000000,-0.31594741,2.12184787,1.43553388,0.78195739,-1.09597802,0.00000000,0.00000000
0.01755050,-2.03594947,-0.89449346,-0.53250897,-0.68870598,0.00000000,0.00000000,-0.32193080,2.11582804,1.44211423,0.79853821,-1.06852531,0.00000000,0.00000000
0.02165034,-2.02647781,-0.90592349,-0.54989445,-0.69496328,0.00000000,0.00000000,-0.32625541,2.10863686,1.44804537,0.81606114,-1.04369569,0.00000000,0.00000000
0.02634278,-2.01633620,-0.91641986,-0.56587309,-0.70351398,0.00000000,0.00000000,-0.32716307,2.09955382,1.45368719,0.83550072,-1.02074981,0.00000000,0.00000000
0.03073291,-2.00578308,-0.92601603,-0.58086723,-0.71002394,0.00000000,0.00000000,-0.32363978,2.08815265,1.45928383,0.85746360,-0.99863619,0.00000000,0.00000000
0.03382931,-1.99552035,-0.93467140,-0.59565771,-0.71475434,0.00000000,0.00000000,-0.31494436,2.07433939,1.46494126,0.88251221,-0.97718596,0.00000000,0.00000000
0.03430490,-1.98632956,-0.94240075,-0.61128986,-0.71879768,0.00000000,0.00000000,-0.29986131,2.05752945,1.47109091,0.91151834,-0.96093559,0.00000000,0.00000000
0.03064043,-1.97848141,-0.94938791,-0.62863469,-0.72192639,0.00000000,0.00000000,-0.27666485,2.03603029,1.47884941,0.94547588,-0.94690633,0.00000000,0.00000000
0.02158809,-1.97166789,-0.95590401,-0.64808929,-0.72163457,0.00000000,0.00000000,-0.24475066,2.00745511,1.48954046,0.98397946,-0.93345916,0.00000000,0.00000000
0.00681657,-1.96531034,-0.96208465,-0.66943079,-0.71850866,0.00000000,0.00000000,-0.20712242,1.97096384,1.50293636,1.02358174,-0.91753560,0.00000000,0.00000000
-0.01266038,-1.95888543,-0.96770895,-0.69174564,-0.71505356,0.00000000,0.00000000,-0.16931354,1.92809868,1.51692307,1.05946028,-0.90714461,0.00000000,0.00000000
-0.03434582,-1.95220566,-0.97202307,-0.71340412,-0.71364260,0.00000000,0.00000000,-0.13572031,1.88069880,1.52942765,1.08823907,-0.89839005,0.00000000,0.00000000
-0.05476929,-1.94532192,-0.97387308,-0.73218304,-0.71085387,0.00000000,0.00000000,-0.10871658,1.83009970,1.53914917,1.10816729,-0.88984168,0.00000000,0.00000000
-0.07120961,-1.93852580,-0.97221285,-0.74598128,-0.71117938,0.00000000,0.00000000,-0.08907127,1.77784145,1.54544306,1.11813891,-0.87883353,0.00000000,0.00000000
-0.08296797,-1.93266129,-0.96653086,-0.75332063,-0.71074414,0.00000000,0.00000000,-0.07597204,1.72876251,1.54827535,1.11731112,-0.87113154,0.00000000,0.00000000
-0.09036636,-1.92928445,-0.95691830,-0.75275648,-0.70688134,0.00000000,0.00000000,-0.06799715,1.69173563,1.54786658,1.10570598,-0.86146694,0.00000000,0.00000000
-0.09373560,-1.93115437,-0.94381177,-0.74307400,-0.70073390,0.00000000,0.00000000,-0.06448283,1.67016149,1.54450619,1.08393085,-0.85428172,0.00000000,0.00000000
-0.09276716,-1.94002497,-0.92743117,-0.72379994,-0.68959522,0.00000000,0.00000000,-0.06567296,1.66464984,1.53843904,1.05231941,-0.84469759,0.00000000,0.00000000
-0.08633622,-1.95379150,-0.90749037,-0.69506973,-0.67539972,0.00000000,0.00000000,-0.07221162,1.67581177,1.52959108,1.01100314,-0.83315659,0.00000000,0.00000000
-0.07102829,-1.96856928,-0.88326883,-0.65745097,-0.65858924,0.00000000,0.00000000,-0.08606990,1.70259440,1.51726317,0.96040189,-0.82618260,0.00000000,0.00000000
-0.04253857,-1.98324168,-0.85397285,-0.61178738,-0.64575654,0.00000000,0.00000000,-0.11090806,1.74090672,1.49982107,0.90228760,-0.82172978,0.00000000,0.00000000
0.00086769,-1.99916947,-0.81928766,-0.55942214,-0.62987131,0.00000000,0.00000000,-0.14829738,1.78969836,1.47535193,0.84073085,-0.81595516,0.00000000,0.00000000
0.05704864,-2.01601744,-0.78030670,-0.50144571,-0.61509049,0.00000000,0.00000000,-0.19526021,1.84862792,1.44392431,0.78256828,-0.81249058,0.00000000,0.00000000
0.12009905,-2.02951026,-0.73978686,-0.43832055,-0.59851569,0.00000000,0.00000000,-0.24283810,1.90960991,1.41053081,0.73282564,-0.80847198,0.00000000,0.00000000
0.18266346,-2.03759789,-0.70008665,-0.37240648,-0.58161122,0.00000000,0.00000000,-0.28504509,1.96351004,1.38012326,0.68858534,-0.80653763,0.00000000,0.00000000
0.23998085,-2.04145837,-0.66220146,-0.30669490,-0.56425834,0.00000000,0.00000000,-0.31889355,2.00789642,1.35398471,0.64911342,-0.80357730,0.00000000,0.00000000
0.28963813,-2.04318380,-0.62642241,-0.24359900,-0.54667097,0.00000000,0.00000000,-0.34407598,2.04230762,1.33224821,0.61420977,-0.79938120,0.00000000,0.00000000
0.33040309,-2.04488564,-0.59280461,-0.18497749,-0.52471817,0.00000000,0.00000000,-0.36138824,2.06754851,1.31451583,0.58342695,-0.79451370,0.00000000,0.00000000
0.36148509,-2.04847908,-0.56132942,-0.13231385,-0.50714511,0.00000000,0.00000000,-0.37155998,2.08507419,1.30020046,0.55661470,-0.79010868,0.00000000,0.00000000
0.38199282,-2.05537963,-0.53197223,-0.08672068,-0.48992199,0.00000000,0.00000000,-0.37475362,2.09581757,1.28898060,0.53387672,-0.78611845,0.00000000,0.00000000
0.39069334,-2.06618953,-0.50470728,-0.04886890,-0.46995920,0.00000000,0.00000000,-0.37076208,2.10067010,1.28062737,0.51559734,-0.77975160,0.00000000,0.00000000
0.38643846,-2.08050871,-0.47948229,-0.01889073,-0.44750029,0.00000000,0.00000000,-0.35971653,2.10186315,1.27456141,0.50248796,-0.77330953,0.00000000,0.00000000
0.36939785,-2.09724307,-0.45618954,0.00368014,-0.42852104,0.00000000,0.00000000,-0.34239992,2.10287714,1.26987624,0.49538603,-0.76472712,0.00000000,0.00000000
0.34145454,-2.11499739,-0.43469277,0.01987245,-0.41161543,0.00000000,0.00000000,-0.32031882,2.10677600,1.26572967,0.49452847,-0.75634497,0.00000000,0.00000000
0.30560496,-2.13227987,-0.41487458,0.03113913,-0.39674890,0.00000000,0.00000000,-0.29565898,2.11419868,1.26179385,0.49876982,-0.74867463,0.00000000,0.00000000
0.26505193,-2.14760256,-0.39665544,0.03907834,-0.38083354,0.00000000,0.00000000,-0.27069053,2.12277818,1.25845313,0.50580126,-0.73839951,0.00000000,0.00000000
0.22260420,-2.15959930,-0.37998253,0.04513277,-0.36478004,0.00000000,0.00000000,-0.24689277,2.12953067,1.25628006,0.51357305,-0.72766715,0.00000000,0.00000000
0.18075582,-2.16697788,-0.36481786,0.05055504,-0.35335162,0.00000000,0.00000000,-0.22486097,2.13315535,1.25544918,0.52111161,-0.71179789,0.00000000,0.00000000
0.14195122,-2.16957355,-0.35113731,0.05655652,-0.34318992,0.00000000,0.00000000,-0.20485710,2.13360977,1.25581169,0.52805310,-0.69818062,0.00000000,0.00000000
0.10825339,-2.16998005,-0.33892873,0.06412764,-0.33031559,0.00000000,0.00000000,-0.18713196,2.13095546,1.25719202,0.53407025,-0.68190253,0.00000000,0.00000000
0.08072145,-2.17000008,-0.32818392,0.07355588,-0.31645629,0.00000000,0.00000000,-0.17181262,2.12510467,1.25947607,0.53883684,-0.66080719,0.00000000,0.00000000
0.05935567,-2.17000008,-0.31889600,0.08425891,-0.30173334,0.00000000,0.00000000,-0.15880191,2.11600375,1.26257741,0.54213786,-0.63918024,0.00000000,0.00000000
0.04358493,-2.17000008,-0.31106275,0.09510335,-0.28909934,0.00000000,0.00000000,-0.14786631,2.10382652,1.26636994,0.54388678,-0.61577821,0.00000000,0.00000000
0.03273598,-2.17000008,-0.30468360,0.10485326,-0.27930149,0.00000000,0.00000000,-0.13878803,2.08909774,1.27064073,0.54412174,-0.59443891,0.00000000,0.00000000
0.02611284,-2.17000008,-0.29974127,0.11246686,-0.26870447,0.00000000,0.00000000,-0.13147669,2.07271910,1.27508020,0.54301894,-0.57062769,0.00000000,0.00000000
0.02283772,-2.17000008,-0.29617852,0.11724363,-0.25476283,0.00000000,0.00000000,-0.12607101,2.05593514,1.27928925,0.54083318,-0.54672927,0.00000000,0.00000000
0.02175761,-2.17000008,-0.29388711,0.11888161,-0.24614806,0.00000000,0.00000000,-0.12293907,2.04014730,1.28282738,0.53778279,-0.52104533,0.00000000,0.00000000
0.02154967,-2.17000008,-0.29271635,0.11748908,-0.23942617,0.00000000,0.00000000,-0.12242568,2.02660465,1.28531766,0.53406322,-0.49602830,0.00000000,0.00000000
0.02092817,-2.17000008,-0.29249874,0.11351097,-0.23017114,0.00000000,0.00000000,-0.12450764,2.01609659,1.28655624,0.52996957,-0.47395590,0.00000000,0.00000000
0.01885133,-2.17000008,-0.29308468,0.10750323,-0.23059906,0.00000000,0.00000000,-0.12869978,2.00882697,1.28654873,0.52590787,-0.45639303,0.00000000,0.00000000
0.01467268,-2.17000008,-0.29436994,0.09983499,-0.23420398,0.00000000,0.00000000,-0.13421045,2.00455093,1.28545153,0.52229404,-0.43959519,0.00000000,0.00000000
0.00815705,-2.17000008,-0.29629442,0.09055901,-0.23827225,0.00000000,0.00000000,-0.14011870,2.00286174,1.28347576,0.51952940,-0.42628103,0.00000000,0.00000000
-0.00066854,-2.17000008,-0.29881537,0.07961136,-0.24040277,0.00000000,0.00000000,-0.14549874,2.00342941,1.28081393,0.51808125,-0.41351709,0.00000000,0.00000000
-0.01172763,-2.17000008,-0.30188248,0.06715388,-0.24332379,0.00000000,0.00000000,-0.14958081,2.00601768,1.27762532,0.51848036,-0.40262517,0.00000000,0.00000000
-0.02492172,-2.17000008,-0.30543739,0.05372632,-0.24268238,0.00000000,0.00000000,-0.15194669,2.01028275,1.27407360,0.52113724,-0.38822380,0.00000000,0.00000000
-0.03984852,-2.17000008,-0.30942714,0.04019374,-0.24213603,0.00000000,0.00000000,-0.15260968,2.01562667,1.27035844,0.52616662,-0.37046072,0.00000000,0.00000000
-0.05556093,-2.17000008,-0.31380638,0.02769447,-0.23745090,0.00000000,0.00000000,-0.15196714,2.02129173,1.26668823,0.53336442,-0.35181126,0.00000000,0.00000000
-0.07071944,-2.17000008,-0.31852612,0.01759004,-0.22889622,0.00000000,0.00000000,-0.15071402,2.02646375,1.26325738,0.54225463,-0.33367798,0.00000000,0.00000000
-0.08376265,-2.17000008,-0.32353222,0.01129978,-0.21746702,0.00000000,0.00000000,-0.14986275,2.03027463,1.26024079,0.55206561,-0.31701982,0.00000000,0.00000000
-0.09297841,-2.16986489,-0.32877401,0.00992232,-0.20905921,0.00000000,0.00000000,-0.15074261,2.03185105,1.25776470,0.56174439,-0.30467567,0.00000000,0.00000000
-0.09681298,-2.16766024,-0.33421618,0.01374779,-0.19981253,0.00000000,0.00000000,-0.15474814,2.03043795,1.25586736,0.57013428,-0.29132125,0.00000000,0.00000000
-0.09448367,-2.15883899,-0.33985090,0.02197566,-0.19030862,0.00000000,0.00000000,-0.16285187,2.02532315,1.25455344,0.57619286,-0.28055173,0.00000000,0.00000000
-0.08634051,-2.14277601,-0.34570169,0.03288075,-0.18392411,0.00000000,0.00000000,-0.17531352,2.01571631,1.25386536,0.57902580,-0.27199546,0.00000000,0.00000000
-0.07353498,-2.12266994,-0.35181606,0.04441409,-0.17888536,0.00000000,0.00000000,-0.19178657,2.00112033,1.25379670,0.57786077,-0.25714713,0.00000000,0.00000000
-0.05757805,-2.10186338,-0.35824978,0.05492148,-0.18001604,0.00000000,0.00000000,-0.21138102,1.98177445,1.25424123,0.57223648,-0.24706821,0.00000000,0.00000000
-0.04005328,-2.08250809,-0.36505345,0.06358472,-0.18495521,0.00000000,0.00000000,-0.23231170,1.95889914,1.25503063,0.56248301,-0.24296832,0.00000000,0.00000000
-0.02239780,-2.06570053,-0.37226292,0.07030922,-0.19434905,0.00000000,0.00000000,-0.25206041,1.93455660,1.25594997,0.54975802,-0.24233563,0.00000000,0.00000000
-0.00623690,-2.05217648,-0.37988222,0.07499213,-0.20064689,0.00000000,0.00000000,-0.26892278,1.91087842,1.25672841,0.53514260,-0.24242435,0.00000000,0.00000000
0.00661199,-2.04258847,-0.38788080,0.07711950,-0.20792191,0.00000000,0.00000000,-0.28251818,1.88970315,1.25701928,0.51933557,-0.23726189,0.00000000,0.00000000
0.01461035,-2.03733492,-0.39621434,0.07602586,-0.21385986,0.00000000,0.00000000,-0.29319024,1.87251258,1.25645041,0.50304872,-0.23032582,0.00000000,0.00000000
0.01709633,-2.03627419,-0.40485317,0.07144106,-0.22070733,0.00000000,0.00000000,-0.30114508,1.86046159,1.25473726,0.48745015,-0.22344144,0.00000000,0.00000000
0.01402211,-2.03857803,-0.41377294,0.06366638,-0.22087243,0.00000000,0.00000000,-0.30606970,1.85452557,1.25173604,0.47410706,-0.21936969,0.00000000,0.00000000
0.00559794,-2.04298925,-0.42294407,0.05333132,-0.22294779,0.00000000,0.00000000,-0.30742311,1.85548222,1.24742413,0.46449673,-0.21483801,0.00000000,0.00000000
-0.00757153,-2.04824471,-0.43234086,0.04114967,-0.22868434,0.00000000,0.00000000,-0.30510014,1.86382616,1.24181378,0.45952436,-0.20940191,0.00000000,0.00000000
-0.02421036,-2.05329347,-0.44194704,0.02788419,-0.23509803,0.00000000,0.00000000,-0.29984152,1.87950969,1.23493385,0.45930248,-0.20672780,0.00000000,0.00000000
-0.04260154,-2.05735946,-0.45174217,0.01427237,-0.24077451,0.00000000,0.00000000,-0.29295015,1.90142620,1.22696209,0.46316153,-0.20303333,0.00000000,0.00000000
-0.06113843,-2.06007719,-0.46168831,0.00079385,-0.24396917,0.00000000,0.00000000,-0.28572375,1.92696309,1.21839023,0.46971264,-0.20248424,0.00000000,0.00000000
-0.07837459,-2.06161761,-0.47173095,-0.01237417,-0.24435714,0.00000000,0.00000000,-0.27956563,1.95215738,1.21000361,0.47678968,-0.19967467,0.00000000,0.00000000
-0.09281652,-2.06223536,-0.48180073,-0.02496414,-0.24811527,0.00000000,0.00000000,-0.27577120,1.97299123,1.20260382,0.48209718,-0.19726633,0.00000000,0.00000000
-0.10319334,-2.06192183,-0.49181950,-0.03646854,-0.25210869,0.00000000,0.00000000,-0.27490890,1.98685431,1.19671106,0.48413289,-0.19675009,0.00000000,0.00000000
-0.10891868,-2.06064487,-0.50171727,-0.04651086,-0.25316289,0.00000000,0.00000000,-0.27672100,1.99289548,1.19249296,0.48238137,-0.20094681,0.00000000,0.00000000
-0.11042312,-2.05880070,-0.51145226,-0.05532458,-0.25137857,0.00000000,0.00000000,-0.28047436,1.99150407,1.18987274,0.47694191,-0.20704052,0.00000000,0.00000000
-0.10930940,-2.05729699,-0.52102393,-0.06382785,-0.25110856,0.00000000,0.00000000,-0.28487566,1.98411644,1.18859851,0.46848685,-0.21229877,0.00000000,0.00000000
-0.10785906,-2.05717754,-0.53046274,-0.07316241,-0.24284911,0.00000000,0.00000000,-0.28808159,1.97348535,1.18818128,0.45843565,-0.21456456,0.00000000,0.00000000
-0.10789617,-2.05946136,-0.53978831,-0.08425387,-0.23437996,0.00000000,0.00000000,-0.28892246,1.96316206,1.18789649,0.44842783,-0.21015340,0.00000000,0.00000000
-0.11003748,-2.06507730,-0.54897153,-0.09769574,-0.22528109,0.00000000,0.00000000,-0.28719002,1.95645523,1.18700957,0.43997639,-0.20836964,0.00000000,0.00000000
-0.11372954,-2.07470679,-0.55792725,-0.11381789,-0.22069949,0.00000000,0.00000000,-0.28329894,1.95570540,1.18498671,0.43425176,-0.20970502,0.00000000,0.00000000
-0.11776818,-2.08857036,-0.56653118,-0.13268639,-0.22148779,0.00000000,0.00000000,-0.27797976,1.96213877,1.18153918,0.43189639,-0.20657176,0.00000000,0.00000000
-0.12088085,-2.10624552,-0.57465076,-0.15399525,-0.22258875,0.00000000,0.00000000,-0.27187636,1.97599351,1.17659724,0.43306294,-0.20817603,0.00000000,0.00000000
-0.12192317,-2.12638879,-0.58217531,-0.17686868,-0.21904415,0.00000000,0.00000000,-0.26550275,1.99663389,1.17026675,0.43746990,-0.21892653,0.00000000,0.00000000
-0.11984028,-2.14626622,-0.58906889,-0.19964631,-0.21670635,0.00000000,0.00000000,-0.25966465,2.02256298,1.16280258,0.44434214,-0.22331628,0.00000000,0.00000000
-0.11419782,-2.16145182,-0.59549654,-0.21995853,-0.21405141,0.00000000,0.00000000,-0.25575846,2.05124450,1.15465939,0.45233563,-0.22447364,0.00000000,0.00000000
-0.10580345,-2.16844273,-0.60192531,-0.23514172,-0.21859455,0.00000000,0.00000000,-0.25513065,2.07871103,1.14667308,0.45970336,-0.22497807,0.00000000,0.00000000
-0.09609123,-2.16971803,-0.60891491,-0.24315423,-0.22271362,0.00000000,0.00000000,-0.25812688,2.09950924,1.14016283,0.46465695,-0.22225033,0.00000000,0.00000000
-0.08607513,-2.16664720,-0.61670387,-0.24372396,-0.22874482,0.00000000,0.00000000,-0.26408499,2.10865545,1.13641691,0.46591678,-0.21714534,0.00000000,0.00000000
-0.07592259,-2.15490389,-0.62506306,-0.23848803,-0.23302318,0.00000000,0.00000000,-0.27182686,2.10479236,1.13583648,0.46339113,-0.21577974,0.00000000,0.00000000
-0.06525621,-2.13589740,-0.63353115,-0.23001812,-0.23377796,0.00000000,0.00000000,-0.28021681,2.09089279,1.13772523,0.45822605,-0.21393298,0.00000000,0.00000000
-0.05372062,-2.11424112,-0.64173174,-0.22064449,-0.23200542,0.00000000,0.00000000,-0.28849855,2.07194304,1.14088011,0.45212308,-0.21325371,0.00000000,0.00000000
-0.04136495,-2.09322548,-0.64950120,-0.21192895,-0.22778100,0.00000000,0.00000000,-0.29618895,2.05212498,1.14431012,0.44646367,-0.21083246,0.00000000,0.00000000
-0.02863167,-2.07453227,-0.65684670,-0.20471630,-0.22089985,0.00000000,0.00000000,-0.30252168,2.03394175,1.14748943,0.44213656,-0.20727782,0.00000000,0.00000000
-0.01592776,-2.05878663,-0.66384739,-0.19931732,-0.21255077,0.00000000,0.00000000,-0.30617413,2.01892972,1.15020001,0.43994704,-0.20268844,0.00000000,0.00000000
-0.00363687,-2.04640007,-0.67059249,-0.19601677,-0.20892626,0.00000000,0.00000000,-0.30618826,2.00802064,1.15233958,0.44051754,-0.19821136,0.00000000,0.00000000
0.00766794,-2.03779864,-0.67718410,-0.19530779,-0.20357095,0.00000000,0.00000000,-0.30222389,2.00168371,1.15384662,0.44431072,-0.19733632,0.00000000,0.00000000
0.01741430,-2.03311443,-0.68373990,-0.19766563,-0.19486712,0.00000000,0.00000000,-0.29435134,1.99997938,1.15470421,0.45166650,-0.19782624,0.00000000,0.00000000
0.02500995,-2.03195882,-0.69040543,-0.20336485,-0.18710405,0.00000000,0.00000000,-0.28284457,2.00257277,1.15495992,0.46279362,-0.19713843,0.00000000,0.00000000
0.02986605,-2.03335690,-0.69735479,-0.21235976,-0.18049225,0.00000000,0.00000000,-0.26814923,2.00872326,1.15473950,0.47767052,-0.19495532,0.00000000,0.00000000
0.03176151,-2.03588557,-0.70474768,-0.22417864,-0.17475298,0.00000000,0.00000000,-0.25119117,2.01694274,1.15430057,0.49563062,-0.19667868,0.00000000,0.00000000
0.03105459,-2.03783870,-0.71270365,-0.23793550,-0.17037325,0.00000000,0.00000000,-0.23363365,2.02473736,1.15406859,0.51506633,-0.20000787,0.00000000,0.00000000
0.02782311,-2.03724074,-0.72139955,-0.25268272,-0.16869520,0.00000000,0.00000000,-0.21688016,2.02952981,1.15452516,0.53436577,-0.20565049,0.00000000,0.00000000
0.02140379,-2.03205752,-0.73111182,-0.26770842,-0.16817956,0.00000000,0.00000000,-0.20101587,2.02986312,1.15602374,0.55299199,-0.21046692,0.00000000,0.00000000
0.01105518,-2.02093434,-0.74206740,-0.28261790,-0.16792117,0.00000000,0.00000000,-0.18547021,2.02492952,1.15882361,0.57092261,-0.21580322,0.00000000,0.00000000
-0.00315567,-2.00379181,-0.75424886,-0.29723430,-0.16709393,0.00000000,0.00000000,-0.16994177,2.01428056,1.16299617,0.58790684,-0.22113185,0.00000000,0.00000000
-0.02016496,-1.98195577,-0.76731908,-0.31157246,-0.16723770,0.00000000,0.00000000,-0.15462385,1.99795556,1.16832519,0.60332072,-0.22326507,0.00000000,0.00000000
-0.03856391,-1.95748031,-0.78075981,-0.32579610,-0.16667202,0.00000000,0.00000000,-0.13969965,1.97654557,1.17440081,0.61661220,-0.22336027,0.00000000,0.00000000
-0.05738999,-1.93220437,-0.79409027,-0.34008056,-0.16393648,0.00000000,0.00000000,-0.12486281,1.95081329,1.18087614,0.62767828,-0.21883629,0.00000000,0.00000000
-0.07644778,-1.90727806,-0.80699009,-0.35448313,-0.16075027,0.00000000,0.00000000,-0.10907467,1.92133975,1.18763125,0.63690859,-0.21064657,0.00000000,0.00000000
-0.09604766,-1.88310921,-0.81930172,-0.36883596,-0.15301885,0.00000000,0.00000000,-0.09059467,1.88880610,1.19465625,0.64507848,-0.19947889,0.00000000,0.00000000
-0.11633451,-1.86004543,-0.83086026,-0.38291198,-0.15136902,0.00000000,0.00000000,-0.06845389,1.85362148,1.20195496,0.65244931,-0.18924731,0.00000000,0.00000000
-0.13707966,-1.83859646,-0.84143549,-0.39656049,-0.14570405,0.00000000,0.00000000,-0.04274603,1.81600547,1.20944870,0.65882677,-0.18219928,0.00000000,0.00000000
-0.15778233,-1.81917536,-0.85078079,-0.40965772,-0.14093575,0.00000000,0.00000000,-0.01439678,1.77618253,1.21691489,0.66385639,-0.17456920,0.00000000,0.00000000
-0.17777732,-1.80179107,-0.85869503,-0.42192936,-0.13822161,0.00000000,0.00000000,0.01527094,1.73452175,1.22400737,0.66717875,-0.16871649,0.00000000,0.00000000
-0.19642825,-1.78590989,-0.86508000,-0.43285376,-0.12800661,0.00000000,0.00000000,0.04502572,1.69165885,1.23030365,0.66858208,-0.16664977,0.00000000,0.00000000
-0.21325004,-1.77056849,-0.86994928,-0.44171977,-0.11706111,0.00000000,0.00000000,0.07370981,1.64843369,1.23532724,0.66794807,-0.16145061,0.00000000,0.00000000
-0.22785686,-1.75480163,-0.87335014,-0.44783279,-0.10898729,0.00000000,0.00000000,0.10003955,1.60570967,1.23858130,0.66505158,-0.14786634,0.00000000,0.00000000
-0.23990554,-1.73838568,-0.87521756,-0.45086685,-0.09997759,0.00000000,0.00000000,0.12282120,1.56433892,1.23960507,0.65955818,-0.13943286,0.00000000,0.00000000
-0.24921675,-1.72249722,-0.87526888,-0.45120305,-0.09505939,0.00000000,0.00000000,0.14131163,1.52529728,1.23801219,0.65116721,-0.13478833,0.00000000,0.00000000
-0.25566846,-1.70939493,-0.87305367,-0.44970664,-0.08895719,0.00000000,0.00000000,0.15519334,1.48978806,1.23348939,0.63964355,-0.13035804,0.00000000,0.00000000
-0.25889516,-1.70121050,-0.86814696,-0.44697940,-0.07915593,0.00000000,0.00000000,0.16421960,1.45908439,1.22582960,0.62463427,-0.12908377,0.00000000,0.00000000
-0.25836277,-1.69931674,-0.86029959,-0.44288054,-0.06830118,0.00000000,0.00000000,0.16802886,1.43475628,1.21498668,0.60544252,-0.13027747,0.00000000,0.00000000
-0.25357887,-1.70478737,-0.84943634,-0.43656665,-0.05801628,0.00000000,0.00000000,0.16611794,1.42073917,1.20103347,0.58119112,-0.12929133,0.00000000,0.00000000
-0.24359348,-1.71871138,-0.83555579,-0.42681196,-0.04995661,0.00000000,0.00000000,0.15755576,1.42370892,1.18400240,0.55147755,-0.12820503,0.00000000,0.00000000
-0.22705756,-1.74124837,-0.81867182,-0.41285303,-0.04193570,0.00000000,0.00000000,0.14136885,1.44729471,1.16382372,0.51645339,-0.12512347,0.00000000,0.00000000
-0.20292300,-1.77089989,-0.79879528,-0.39497361,-0.03528147,0.00000000,0.00000000,0.11686856,1.49014413,1.14045036,0.47638896,-0.12168549,0.00000000,0.00000000
-0.16972922,-1.80588031,-0.77595603,-0.37385881,-0.02590239,0.00000000,0.00000000,0.08350582,1.54664409,1.11393547,0.43202248,-0.11833728,0.00000000,0.00000000
-0.12615332,-1.84522200,-0.75030625,-0.34992176,-0.01509047,0.00000000,0.00000000,0.04072313,1.61317933,1.08451724,0.38463169,-0.11555027,0.00000000,0.00000000
-0.07233646,-1.88799024,-0.72230881,-0.32333127,0.00132125,0.00000000,0.00000000,-0.01111236,1.68847120,1.05276597,0.33571994,-0.10915550,0.00000000,0.00000000
-0.01097116,-1.93215966,-0.69296449,-0.29442927,0.01697037,0.00000000,0.00000000,-0.06916245,1.77035797,1.01984763,0.28713942,-0.10272359,0.00000000,0.00000000
0.05244583,-1.97381794,-0.66383630,-0.26377511,0.02802536,0.00000000,0.00000000,-0.12739593,1.85348105,0.98758167,0.24094763,-0.09978907,0.00000000,0.00000000
0.11191305,-2.00770497,-0.63650447,-0.23148862,0.03756669,0.00000000,0.00000000,-0.17929307,1.93061423,0.95767462,0.19852349,-0.09628324,0.00000000,0.00000000
0.16343603,-2.03015661,-0.61188745,-0.19756897,0.04641955,0.00000000,0.00000000,-0.22112538,1.99599588,0.93100965,0.16005717,-0.09876872,0.00000000,0.00000000
0.20547587,-2.04098821,-0.59016621,-0.16269329,0.05861242,0.00000000,0.00000000,-0.25214446,2.04739904,0.90767723,0.12532139,-0.09351467,0.00000000,0.00000000
0.23777650,-2.04329562,-0.57113296,-0.12871166,0.07227213,0.00000000,0.00000000,-0.27332371,2.08528662,0.88739705,0.09411146,-0.08077206,0.00000000,0.00000000
0.26024848,-2.04144645,-0.55452901,-0.09805847,0.08681088,0.00000000,0.00000000,-0.28605303,2.11144185,0.86983037,0.06642102,-0.06654291,0.00000000,0.00000000
0.27256075,-2.03903389,-0.54018223,-0.07275818,0.10190855,0.00000000,0.00000000,-0.29090860,2.12847757,0.85470998,0.04291812,-0.04924197,0.00000000,0.00000000
0.27439126,-2.03815389,-0.52799606,-0.05397277,0.11482426,0.00000000,0.00000000,-0.28742188,2.13951516,0.84186453,0.02505543,-0.03044335,0.00000000,0.00000000
0.26599565,-2.03941655,-0.51791286,-0.04196656,0.12356132,0.00000000,0.00000000,-0.27511692,2.14759541,0.83118981,0.01439626,-0.01079755,0.00000000,0.00000000
0.24850617,-2.04207802,-0.50988901,-0.03613562,0.13405934,0.00000000,0.00000000,-0.25476697,2.15491033,0.82261407,0.01157346,0.00709220,0.00000000,0.00000000
0.22411080,-2.04439902,-0.50387013,-0.03499743,0.14488709,0.00000000,0.00000000,-0.22886449,2.16196060,0.81607395,0.01552804,0.02166111,0.00000000,0.00000000
0.19558498,-2.04430866,-0.49978241,-0.03656369,0.15357929,0.00000000,0.00000000,-0.20106882,2.16729784,0.81149966,0.02363558,0.03283880,0.00000000,0.00000000
0.16512766,-2.04042578,-0.49754289,-0.03927347,0.16285153,0.00000000,0.00000000,-0.17456470,2.16949224,0.80881041,0.03318255,0.04153664,0.00000000,0.00000000
0.13396925,-2.03268194,-0.49706724,-0.04257344,0.16692513,0.00000000,0.00000000,-0.15098242,2.16892219,0.80791736,0.04275221,0.04822767,0.00000000,0.00000000
0.10308232,-2.02177143,-0.49826348,-0.04646469,0.16596028,0.00000000,0.00000000,-0.13103956,2.16484690,0.80872232,0.05192355,0.05871315,0.00000000,0.00000000
0.07361875,-2.00839734,-0.50102705,-0.05089648,0.16170390,0.00000000,0.00000000,-0.11526741,2.15670681,0.81112230,0.06043207,0.07057969,0.00000000,0.00000000
0.04653858,-1.99320424,-0.50524819,-0.05577683,0.15742981,0.00000000,0.00000000,-0.10369961,2.14467669,0.81502533,0.06812048,0.08434747,0.00000000,0.00000000
0.02225581,-1.97700119,-0.51082236,-0.06121856,0.15839288,0.00000000,0.00000000,-0.09552458,2.12920928,0.82036275,0.07523023,0.10033834,0.00000000,0.00000000
0.00077739,-1.96064937,-0.51765418,-0.06748208,0.15573716,0.00000000,0.00000000,-0.08952358,2.11104107,0.82707858,0.08234509,0.11788797,0.00000000,0.00000000
-0.01805193,-1.94474328,-0.52565736,-0.07475099,0.15252650,0.00000000,0.00000000,-0.08476644,2.09121752,0.83510458,0.09012714,0.13259956,0.00000000,0.00000000
-0.03452631,-1.92950988,-0.53475928,-0.08308704,0.14664224,0.00000000,0.00000000,-0.08088646,2.07098246,0.84434599,0.09915722,0.14213513,0.00000000,0.00000000
-0.04907586,-1.91496587,-0.54490042,-0.09252556,0.13930088,0.00000000,0.00000000,-0.07786986,2.05150151,0.85468888,0.10987883,0.15186200,0.00000000,0.00000000
-0.06213003,-1.90112138,-0.55602431,-0.10312134,0.13795909,0.00000000,0.00000000,-0.07587476,2.03348017,0.86601639,0.12244388,0.16212305,0.00000000,0.00000000
-0.07396280,-1.88803613,-0.56806612,-0.11489637,0.14060704,0.00000000,0.00000000,-0.07515689,2.01701856,0.87821782,0.13662069,0.17188543,0.00000000,0.00000000
-0.08468606,-1.87577033,-0.58095080,-0.12781487,0.14190830,0.00000000,0.00000000,-0.07580723,2.00181103,0.89120054,0.15200433,0.18436553,0.00000000,0.00000000
-0.09434137,-1.86433697,-0.59460157,-0.14182098,0.14636686,0.00000000,0.00000000,-0.07752296,1.98747003,0.90489805,0.16832982,0.19014011,0.00000000,0.00000000
-0.10295478,-1.85370421,-0.60894346,-0.15686233,0.14507832,0.00000000,0.00000000,-0.07971954,1.97369051,0.91926342,0.18555750,0.19618803,0.00000000,0.00000000
-0.11052480,-1.84383690,-0.62389719,-0.17286083,0.14272349,0.00000000,0.00000000,-0.08182611,1.96020293,0.93425733,0.20373315,0.20147732,0.00000000,0.00000000
-0.11699376,-1.83469200,-0.63937372,-0.18965371,0.14311868,0.00000000,0.00000000,-0.08349153,1.94672585,0.94983554,0.22284387,0.20751035,0.00000000,0.00000000
-0.12225105,-1.82615662,-0.65527862,-0.20696983,0.13787502,0.00000000,0.00000000,-0.08471649,1.93302476,0.96592706,0.24274094,0.21033579,0.00000000,0.00000000
-0.12616271,-1.81798148,-0.67152703,-0.22446528,0.13185880,0.00000000,0.00000000,-0.08590157,1.91903305,0.98240966,0.26314077,0.21516088,0.00000000,0.00000000
-0.12866408,-1.80976748,-0.68806392,-0.24180794,0.13027669,0.00000000,0.00000000,-0.08771109,1.90493798,0.99910486,0.28373590,0.22105613,0.00000000,0.00000000
-0.12989350,-1.80101800,-0.70488214,-0.25875685,0.12701617,0.00000000,0.00000000,-0.09080796,1.89116561,1.01579773,0.30434710,0.22363676,0.00000000,0.00000000
-0.13017149,-1.79124439,-0.72201186,-0.27516699,0.12593748,0.00000000,0.00000000,-0.09571077,1.87825060,1.03226233,0.32494101,0.22192605,0.00000000,0.00000000
-0.12977020,-1.78013933,-0.73947018,-0.29094669,0.12829569,0.00000000,0.00000000,-0.10290781,1.86671305,1.04825997,0.34545103,0.22563697,0.00000000,0.00000000
-0.12873782,-1.76782238,-0.75720173,-0.30608988,0.13128045,0.00000000,0.00000000,-0.11297215,1.85699284,1.06352937,0.36558113,0.22835481,0.00000000,0.00000000
-0.12695478,-1.75498652,-0.77505565,-0.32075620,0.13269839,0.00000000,0.00000000,-0.12637930,1.84937751,1.07782185,0.38478991,0.23646072,0.00000000,0.00000000
-0.12428851,-1.74273682,-0.79281539,-0.33523467,0.13155226,0.00000000,0.00000000,-0.14313990,1.84395659,1.09097576,0.40245163,0.24062464,0.00000000,0.00000000
-0.12065437,-1.73218501,-0.81025326,-0.34976149,0.12812325,0.00000000,0.00000000,-0.16258968,1.84068656,1.10296738,0.41806519,0.24123093,0.00000000,0.00000000
-0.11604322,-1.72407711,-0.82719028,-0.36436987,0.12352547,0.00000000,0.00000000,-0.18342045,1.83949828,1.11391807,0.43143168,0.24711053,0.00000000,0.00000000
-0.11077867,-1.71873820,-0.84356081,-0.37900472,0.11348365,0.00000000,0.00000000,-0.20407198,1.84032726,1.12403440,0.44262213,0.25148499,0.00000000,0.00000000
-0.10574678,-1.71636307,-0.85942048,-0.39378551,0.10167710,0.00000000,0.00000000,-0.22334777,1.84305573,1.13351274,0.45173180,0.25471061,0.00000000,0.00000000
-0.10158136,-1.71708310,-0.87480021,-0.40878665,0.09215344,0.00000000,0.00000000,-0.24032792,1.84747756,1.14251983,0.45898148,0.25607893,0.00000000,0.00000000
-0.09824263,-1.72091484,-0.88963330,-0.42396462,0.08200908,0.00000000,0.00000000,-0.25454634,1.85338056,1.15112710,0.46469596,0.25668472,0.00000000,0.00000000
-0.09541447,-1.72773910,-0.90382725,-0.43935916,0.07413147,0.00000000,0.00000000,-0.26597095,1.86070359,1.15928423,0.46931285,0.26034918,0.00000000,0.00000000
-0.09280497,-1.73731041,-0.91732341,-0.45511699,0.06448351,0.00000000,0.00000000,-0.27479911,1.86939895,1.16690683,0.47334000,0.26580307,0.00000000,0.00000000
-0.09029969,-1.74927342,-0.93012434,-0.47138461,0.05140591,0.00000000,0.00000000,-0.28134602,1.87926793,1.17395627,0.47722840,0.26911876,0.00000000,0.00000000
-0.08806355,-1.76314127,-0.94231200,-0.48822749,0.03695477,0.00000000,0.00000000,-0.28588986,1.89006650,1.18044186,0.48138949,0.27500135,0.00000000,0.00000000
-0.08647194,-1.77826738,-0.95403743,-0.50557190,0.03109374,0.00000000,0.00000000,-0.28871170,1.90159535,1.18638968,0.48618302,0.27921379,0.00000000,0.00000000
-0.08564761,-1.79367876,-0.96548110,-0.52296633,0.02391283,0.00000000,0.00000000,-0.29038453,1.91370845,1.19179761,0.49175057,0.28303966,0.00000000,0.00000000
-0.08526058,-1.80794334,-0.97686273,-0.53949648,0.01848360,0.00000000,0.00000000,-0.29202101,1.92621326,1.19661701,0.49778250,0.28767177,0.00000000,0.00000000
-0.08504859,-1.81945646,-0.98849100,-0.55422944,0.01394320,0.00000000,0.00000000,-0.29461372,1.93852615,1.20090377,0.50369042,0.29678303,0.00000000,0.00000000
-0.08509888,-1.82699752,-1.00068820,-0.56667286,0.00792359,0.00000000,0.00000000,-0.29823565,1.94958866,1.20493031,0.50901890,0.30813995,0.00000000,0.00000000
-0.08543593,-1.83022535,-1.01357186,-0.57681423,0.00025638,0.00000000,0.00000000,-0.30263680,1.95822465,1.20903325,0.51332408,0.31768328,0.00000000,0.00000000
-0.08574578,-1.82972181,-1.02695930,-0.58492446,-0.00425006,0.00000000,0.00000000,-0.30779582,1.96374023,1.21339130,0.51614380,0.32509828,0.00000000,0.00000000
-0.08550595,-1.82672834,-1.04043651,-0.59141213,-0.00876923,0.00000000,0.00000000,-0.31380796,1.96623302,1.21795142,0.51719385,0.33339772,0.00000000,0.00000000
-0.08421659,-1.82284212,-1.05347323,-0.59678155,-0.01772387,0.00000000,0.00000000,-0.32068732,1.96641910,1.22249913,0.51642543,0.33724445,0.00000000,0.00000000
-0.08145187,-1.81975865,-1.06550646,-0.60156757,-0.02474471,0.00000000,0.00000000,-0.32834488,1.96517932,1.22679675,0.51388073,0.34508026,0.00000000,0.00000000
-0.07687064,-1.81903696,-1.07601249,-0.60623431,-0.03039026,0.00000000,0.00000000,-0.33637127,1.96321940,1.23071110,0.50970268,0.35187927,0.00000000,0.00000000
-0.07038996,-1.82191598,-1.08459234,-0.61113828,-0.03674851,0.00000000,0.00000000,-0.34375429,1.96106219,1.23424828,0.50437355,0.36630958,0.00000000,0.00000000
-0.06214597,-1.82923222,-1.09099793,-0.61649704,-0.03919137,0.00000000,0.00000000,-0.34958810,1.95919430,1.23742330,0.49858454,0.37896350,0.00000000,0.00000000
-0.05224609,-1.84126735,-1.09514701,-0.62232345,-0.04005091,0.00000000,0.00000000,-0.35339493,1.95824301,1.24017358,0.49320352,0.39380437,0.00000000,0.00000000
-0.04084759,-1.85769701,-1.09716249,-0.62854707,-0.04197378,0.00000000,0.00000000,-0.35476294,1.95879889,1.24245620,0.48929870,0.40420902,0.00000000,0.00000000
-0.02848198,-1.87758863,-1.09744358,-0.63518184,-0.03448400,0.00000000,0.00000000,-0.35301498,1.96115005,1.24435389,0.48804042,0.41797927,0.00000000,0.00000000
-0.01619033,-1.89935434,-1.09671664,-0.64230973,-0.02918537,0.00000000,0.00000000,-0.34720373,1.96515810,1.24609053,0.49052706,0.42792714,0.00000000,0.00000000
-0.00529594,-1.92083359,-1.09597051,-0.64991486,-0.02852275,0.00000000,0.00000000,-0.33674043,1.97034705,1.24792087,0.49738735,0.43449399,0.00000000,0.00000000
0.00385700,-1.93943655,-1.09617949,-0.65726125,-0.02867122,0.00000000,0.00000000,-0.32243106,1.97640276,1.24987555,0.50830740,0.44093347,0.00000000,0.00000000
0.01181495,-1.95283115,-1.09808660,-0.66323131,-0.03368781,0.00000000,0.00000000,-0.30658293,1.98321509,1.25173390,0.52199620,0.45149928,0.00000000,0.00000000
0.01824390,-1.95960021,-1.10230207,-0.66753566,-0.04212677,0.00000000,0.00000000,-0.29174608,1.99043870,1.25327706,0.53682107,0.45720300,0.00000000,0.00000000
0.02228305,-1.95893347,-1.10933065,-0.67039174,-0.04713436,0.00000000,0.00000000,-0.27938846,1.99733973,1.25447023,0.55150968,0.46534905,0.00000000,0.00000000
0.02370954,-1.95112848,-1.11914754,-0.67203146,-0.04981222,0.00000000,0.00000000,-0.27021471,2.00277615,1.25544405,0.56490052,0.47754601,0.00000000,0.00000000
0.02352292,-1.93817210,-1.13086724,-0.67259598,-0.05072739,0.00000000,0.00000000,-0.26474714,2.00585365,1.25624657,0.57582641,0.49013036,0.00000000,0.00000000
0.02323785,-1.92325628,-1.14306736,-0.67244059,-0.04962937,0.00000000,0.00000000,-0.26305884,2.00649309,1.25672781,0.58357906,0.49479577,0.00000000,0.00000000
0.02390810,-1.90941608,-1.15448093,-0.67221928,-0.04666483,0.00000000,0.00000000,-0.26445705,2.00527000,1.25665736,0.58821338,0.49622020,0.00000000,0.00000000
0.02602580,-1.89862943,-1.16433513,-0.67252409,-0.03625105,0.00000000,0.00000000,-0.26776648,2.00292683,1.25585580,0.59030652,0.49364591,0.00000000,0.00000000
0.02976182,-1.89176834,-1.17230010,-0.67361206,-0.02159694,0.00000000,0.00000000,-0.27182311,1.99996841,1.25425637,0.59050840,0.49384585,0.00000000,0.00000000
0.03501034,-1.88884127,-1.17838216,-0.67541569,-0.00560579,0.00000000,0.00000000,-0.27544117,1.99661243,1.25191081,0.58946031,0.49706036,0.00000000,0.00000000
0.04142172,-1.88920319,-1.18285179,-0.67765260,0.01415731,0.00000000,0.00000000,-0.27705699,1.99305701,1.24892974,0.58802527,0.50081664,0.00000000,0.00000000
0.04850356,-1.89196146,-1.18609655,-0.68004912,0.03400515,0.00000000,0.00000000,-0.27560300,1.98943841,1.24539638,0.58687091,0.50373363,0.00000000,0.00000000
0.05584780,-1.89632380,-1.18847072,-0.68246651,0.05782820,0.00000000,0.00000000,-0.27106065,1.98584652,1.24129856,0.58625877,0.50457698,0.00000000,0.00000000
0.06307325,-1.90172577,-1.19025934,-0.68499881,0.08420580,0.00000000,0.00000000,-0.26401013,1.98235178,1.23658371,0.58632559,0.50591028,0.00000000,0.00000000
0.06974883,-1.90759957,-1.19177401,-0.68785483,0.11165459,0.00000000,0.00000000,-0.25513315,1.97899199,1.23123050,0.58727950,0.50898683,0.00000000,0.00000000
0.07545985,-1.91301441,-1.19346845,-0.69108385,0.13723156,0.00000000,0.00000000,-0.24523383,1.97554553,1.22530854,0.58915037,0.50604194,0.00000000,0.00000000
0.07971819,-1.91650188,-1.19601190,-0.69451886,0.16757101,0.00000000,0.00000000,-0.23530346,1.97135413,1.21899498,0.59155107,0.50146991,0.00000000,0.00000000
0.08173712,-1.91625869,-1.20025742,-0.69804311,0.19584256,0.00000000,0.00000000,-0.22599193,1.96551275,1.21255910,0.59404099,0.49686593,0.00000000,0.00000000
0.08040887,-1.91076827,-1.20701420,-0.70190632,0.22318821,0.00000000,0.00000000,-0.21718642,1.95683289,1.20643830,0.59643859,0.48498672,0.00000000,0.00000000
0.07476800,-1.89933300,-1.21674919,-0.70661831,0.25224033,0.00000000,0.00000000,-0.20821096,1.94398320,1.20116341,0.59875810,0.47096610,0.00000000,0.00000000
0.06471968,-1.88242388,-1.22929311,-0.71252459,0.28346086,0.00000000,0.00000000,-0.19866796,1.92600977,1.19703829,0.60078466,0.46128312,0.00000000,0.00000000
0.05119057,-1.86165833,-1.24379742,-0.71964085,0.31166145,0.00000000,0.00000000,-0.18885817,1.90283000,1.19390738,0.60192001,0.45392314,0.00000000,0.00000000
0.03543095,-1.83922029,-1.25907981,-0.72791272,0.33931556,0.00000000,0.00000000,-0.17922670,1.87515366,1.19131374,0.60156941,0.44625089,0.00000000,0.00000000
0.01837413,-1.81724751,-1.27398765,-0.73744410,0.36628592,0.00000000,0.00000000,-0.16975613,1.84403789,1.18880332,0.59950763,0.44235790,0.00000000,0.00000000
0.00058722,-1.79758167,-1.28751564,-0.74842954,0.39337137,0.00000000,0.00000000,-0.15987214,1.81055295,1.18607497,0.59586954,0.43472153,0.00000000,0.00000000
-0.01763432,-1.78168905,-1.29883087,-0.76099890,0.41643712,0.00000000,0.00000000,-0.14859110,1.77573180,1.18297732,0.59097064,0.42328510,0.00000000,0.00000000
-0.03613085,-1.77070618,-1.30725050,-0.77512187,0.43957317,0.00000000,0.00000000,-0.13514899,1.74048090,1.17944157,0.58493823,0.40670902,0.00000000,0.00000000
-0.05438900,-1.76540732,-1.31219995,-0.79044628,0.45958093,0.00000000,0.00000000,-0.11948795,1.70564771,1.17534721,0.57764882,0.39232165,0.00000000,0.00000000
-0.07144994,-1.76607275,-1.31324065,-0.80638939,0.48086736,0.00000000,0.00000000,-0.10224451,1.67201877,1.17046070,0.56892776,0.37699705,0.00000000,0.00000000
-0.08627493,-1.77242899,-1.31012940,-0.82236290,0.49639031,0.00000000,0.00000000,-0.08438435,1.64009273,1.16452730,0.55873305,0.36047828,0.00000000,0.00000000
-0.09802739,-1.78365314,-1.30288112,-0.83776635,0.50850523,0.00000000,0.00000000,-0.06662849,1.60995913,1.15742505,0.54730642,0.34346965,0.00000000,0.00000000
-0.10616125,-1.79826725,-1.29187441,-0.85178506,0.52014768,0.00000000,0.00000000,-0.04925064,1.58140624,1.14920604,0.53511506,0.33123568,0.00000000,0.00000000
-0.11089768,-1.81396663,-1.27803826,-0.86349756,0.53460759,0.00000000,0.00000000,-0.03248334,1.55401194,1.14000773,0.52251297,0.32471544,0.00000000,0.00000000
-0.11377079,-1.82762718,-1.26297259,-0.87227380,0.55126363,0.00000000,0.00000000,-0.01681755,1.52730155,1.12994730,0.50954789,0.31872991,0.00000000,0.00000000
-0.11729030,-1.83585584,-1.24865484,-0.87794191,0.57056248,0.00000000,0.00000000,-0.00274234,1.50098217,1.11909485,0.49611288,0.31477451,0.00000000,0.00000000
-0.12366543,-1.83627546,-1.23655713,-0.88057190,0.58974469,0.00000000,0.00000000,0.00950820,1.47511804,1.10746729,0.48209649,0.31061956,0.00000000,0.00000000
-0.13306446,-1.82873046,-1.22665870,-0.87986809,0.61114013,0.00000000,0.00000000,0.01987800,1.45026159,1.09499872,0.46743160,0.30085003,0.00000000,0.00000000
-0.14297864,-1.81536901,-1.21725428,-0.87489927,0.63287133,0.00000000,0.00000000,0.02822346,1.42731214,1.08154690,0.45199165,0.28300494,0.00000000,0.00000000
-0.14990324,-1.79914594,-1.20609510,-0.86454195,0.65220785,0.00000000,0.00000000,0.03425356,1.40744591,1.06695199,0.43543899,0.26559627,0.00000000,0.00000000
-0.15174229,-1.78271532,-1.19167709,-0.84790659,0.67391473,0.00000000,0.00000000,0.03786276,1.39348483,1.05106866,0.41732830,0.25138551,0.00000000,0.00000000
-0.14783014,-1.77045357,-1.17334998,-0.82429129,0.69344175,0.00000000,0.00000000,0.03885412,1.39169359,1.03372419,0.39746937,0.23831835,0.00000000,0.00000000
-0.13696162,-1.76954746,-1.15078402,-0.79335743,0.71105593,0.00000000,0.00000000,0.03582617,1.40876424,1.01467919,0.37596190,0.22847368,0.00000000,0.00000000
-0.11748596,-1.78172719,-1.12362957,-0.75538033,0.72957379,0.00000000,0.00000000,0.02697425,1.44763494,0.99368560,0.35283086,0.21610674,0.00000000,0.00000000
-0.08824248,-1.80146873,-1.09151220,-0.71105540,0.74626797,0.00000000,0.00000000,0.01092871,1.50630677,0.97057986,0.32788748,0.20312797,0.00000000,0.00000000
-0.04801038,-1.82542372,-1.05424953,-0.66115201,0.75741750,0.00000000,0.00000000,-0.01372825,1.57925117,0.94533014,0.30089459,0.19168933,0.00000000,0.00000000
0.00339664,-1.85288715,-1.01217079,-0.60637558,0.75983042,0.00000000,0.00000000,-0.04851302,1.66195977,0.91806883,0.27195609,0.18104848,0.00000000,0.00000000
0.06325699,-1.88244879,-0.96665543,-0.54785770,0.76475400,0.00000000,0.00000000,-0.09311718,1.75170696,0.88929731,0.24205969,0.17234872,0.00000000,0.00000000
0.12384620,-1.90989208,-0.92070270,-0.48783416,0.77192444,0.00000000,0.00000000,-0.14258425,1.84237587,0.86043209,0.21240346,0.17217970,0.00000000,0.00000000
0.17529184,-1.92901361,-0.87779623,-0.42879274,0.77834874,0.00000000,0.00000000,-0.18895748,1.92149365,0.83355075,0.18238790,0.17227109,0.00000000,0.00000000
0.21240662,-1.93703437,-0.83934909,-0.37222272,0.78298157,0.00000000,0.00000000,-0.22695899,1.98118484,0.80965608,0.15145124,0.18048014,0.00000000,0.00000000
0.23413199,-1.93681884,-0.80482101,-0.31989014,0.78233427,0.00000000,0.00000000,-0.25400186,2.02160406,0.78866154,0.12085561,0.18924622,0.00000000,0.00000000
0.24099419,-1.93392932,-0.77311873,-0.27401906,0.78202742,0.00000000,0.00000000,-0.26852757,2.04673433,0.77016568,0.09311637,0.19719566,0.00000000,0.00000000
0.23415855,-1.93316448,-0.74335760,-0.23609549,0.78240263,0.00000000,0.00000000,-0.26981878,2.06138396,0.75377667,0.07077562,0.20617798,0.00000000,0.00000000
0.21489014,-1.93744779,-0.71498513,-0.20649032,0.78286219,0.00000000,0.00000000,-0.25841996,2.07023525,0.73916066,0.05559801,0.21667401,0.00000000,0.00000000
0.18465388,-1.94811773,-0.68766516,-0.18483278,0.78092963,0.00000000,0.00000000,-0.23633842,2.07748103,0.72604764,0.04836426,0.22461635,0.00000000,0.00000000
0.14586967,-1.96511054,-0.66114312,-0.17016453,0.78320849,0.00000000,0.00000000,-0.20656814,2.08645153,0.71422839,0.04912060,0.23542836,0.00000000,0.00000000
0.10247015,-1.98679996,-0.63516062,-0.16051638,0.78373510,0.00000000,0.00000000,-0.17267287,2.09935999,0.70351332,0.05730279,0.25009751,0.00000000,0.00000000
0.05981498,-2.00993347,-0.60941094,-0.15247065,0.78141308,0.00000000,0.00000000,-0.13881731,2.11662245,0.69369119,0.07125328,0.26440871,0.00000000,0.00000000
0.02229395,-2.03054333,-0.58365655,-0.14228785,0.77551448,0.00000000,0.00000000,-0.10902166,2.13588762,0.68455261,0.08792275,0.28021616,0.00000000,0.00000000
-0.00778651,-2.04550385,-0.55777198,-0.12727536,0.77397352,0.00000000,0.00000000,-0.08605505,2.15316010,0.67593956,0.10392934,0.29679602,0.00000000,0.00000000
-0.02969637,-2.05376458,-0.53169250,-0.10643946,0.76788086,0.00000000,0.00000000,-0.07081460,2.16467524,0.66778296,0.11683401,0.31728512,0.00000000,0.00000000
-0.04360232,-2.05617309,-0.50539863,-0.08020472,0.76550692,0.00000000,0.00000000,-0.06261526,2.16915417,0.66011524,0.12526058,0.33778018,0.00000000,0.00000000
-0.05018903,-2.05434895,-0.47893566,-0.04966098,0.76088381,0.00000000,0.00000000,-0.05999013,2.16995764,0.65303636,0.12837441,0.35731488,0.00000000,0.00000000
-0.05059936,-2.04976463,-0.45241606,-0.01601977,0.76624578,0.00000000,0.00000000,-0.06129620,2.17000008,0.64663613,0.12580198,0.38264650,0.00000000,0.00000000
-0.04641931,-2.04351020,-0.42598608,0.01955273,0.77271831,0.00000000,0.00000000,-0.06492133,2.17000008,0.64093959,0.11781926,0.40480870,0.00000000,0.00000000
-0.03944754,-2.03648400,-0.39978260,0.05594149,0.77841878,0.00000000,0.00000000,-0.06941032,2.16998982,0.63590080,0.10537736,0.42670050,0.00000000,0.00000000
-0.03137377,-2.02959657,-0.37391129,0.09207089,0.77797920,0.00000000,0.00000000,-0.07364142,2.16978431,0.63142520,0.08996662,0.44786853,0.00000000,0.00000000
-0.02364723,-2.02375269,-0.34844008,0.12691461,0.77669513,0.00000000,0.00000000,-0.07683299,2.16846418,0.62741625,0.07331413,0.46948835,0.00000000,0.00000000
-0.01753503,-2.01970029,-0.32338983,0.15955368,0.77825993,0.00000000,0.00000000,-0.07837559,2.16485763,0.62382025,0.05693506,0.48506051,0.00000000,0.00000000
-0.01417559,-2.01793480,-0.29873142,0.18928006,0.78187358,0.00000000,0.00000000,-0.07772718,2.15946579,0.62063116,0.04180745,0.50198179,0.00000000,0.00000000
-0.01448713,-2.01868129,-0.27440628,0.21569270,0.78261745,0.00000000,0.00000000,-0.07450774,2.15293789,0.61786336,0.02838060,0.52082682,0.00000000,0.00000000
-0.01898352,-2.02187777,-0.25036389,0.23871872,0.77804178,0.00000000,0.00000000,-0.06864538,2.14556670,0.61552840,0.01677600,0.54353428,0.00000000,0.00000000
-0.02762377,-2.02718830,-0.22659914,0.25854713,0.77363497,0.00000000,0.00000000,-0.06036933,2.13772130,0.61363125,0.00699599,0.57057554,0.00000000,0.00000000
-0.03973598,-2.03408051,-0.20318824,0.27553055,0.76571184,0.00000000,0.00000000,-0.05009375,2.13000250,0.61217391,-0.00096179,0.59418112,0.00000000,0.00000000
-0.05405893,-2.04193902,-0.18030949,0.29010296,0.76182574,0.00000000,0.00000000,-0.03831103,2.12311816,0.61115813,-0.00709196,0.61121160,0.00000000,0.00000000
-0.06900565,-2.05011868,-0.15821595,0.30271786,0.75520068,0.00000000,0.00000000,-0.02550516,2.11767983,0.61058396,-0.01138568,0.62997842,0.00000000,0.00000000
-0.08308818,-2.05794382,-0.13716453,0.31380051,0.74746096,0.00000000,0.00000000,-0.01204926,2.11415195,0.61044633,-0.01379690,0.64943743,0.00000000,0.00000000
-0.09515872,-2.06475258,-0.11737466,0.32372350,0.74004614,0.00000000,0.00000000,0.00182254,2.11291838,0.61073071,-0.01424596,0.66978490,0.00000000,0.00000000
-0.10429505,-2.07004499,-0.09905820,0.33277482,0.73276740,0.00000000,0.00000000,0.01589856,2.11426687,0.61141193,-0.01272048,0.68407798,0.00000000,0.00000000
-0.10958636,-2.07378387,-0.08246502,0.34103587,0.73081452,0.00000000,0.00000000,0.02987602,2.11819935,0.61245281,-0.00940135,0.69676226,0.00000000,0.00000000
-0.11009362,-2.07666373,-0.06788031,0.34821269,0.72494650,0.00000000,0.00000000,0.04342334,2.12425303,0.61380410,-0.00468580,0.70845652,0.00000000,0.00000000
-0.10497702,-2.07996082,-0.05557500,0.35364574,0.71405911,0.00000000,0.00000000,0.05636552,2.13158870,0.61540806,0.00092597,0.71193951,0.00000000,0.00000000
-0.09366692,-2.08492708,-0.04574889,0.35657609,0.70562679,0.00000000,0.00000000,0.06883433,2.13928819,0.61720592,0.00698012,0.71351361,0.00000000,0.00000000
-0.07596462,-2.09226990,-0.03849713,0.35641006,0.69348258,0.00000000,0.00000000,0.08126640,2.14659381,0.61914378,0.01315627,0.71290225,0.00000000,0.00000000
-0.05199822,-2.10211039,-0.03380784,0.35275623,0.68449813,0.00000000,0.00000000,0.09420500,2.15300250,0.62117523,0.01927954,0.71079534,0.00000000,0.00000000
-0.02210725,-2.11419916,-0.03157290,0.34533033,0.67557698,0.00000000,0.00000000,0.10800077,2.15827894,0.62325931,0.02527367,0.70936805,0.00000000,0.00000000
0.01319073,-2.12795186,-0.03158780,0.33396378,0.66147161,0.00000000,0.00000000,0.12263747,2.16239214,0.62535608,0.03106824,0.70963657,0.00000000,0.00000000
0.05305106,-2.14226580,-0.03353100,0.31873825,0.64547658,0.00000000,0.00000000,0.13783689,2.16540170,0.62742615,0.03653515,0.70748693,0.00000000,0.00000000
0.09602620,-2.15539503,-0.03693757,0.30008152,0.63334429,0.00000000,0.00000000,0.15326165,2.16741729,0.62943292,0.04152030,0.70637530,0.00000000,0.00000000
0.13986972,-2.16489863,-0.04120350,0.27884161,0.61551380,0.00000000,0.00000000,0.16856277,2.16863179,0.63134301,0.04593251,0.70166039,0.00000000,0.00000000
0.18173446,-2.16909409,-0.04566748,0.25642473,0.60006362,0.00000000,0.00000000,0.18340491,2.16932297,0.63312650,0.04983289,0.69595104,0.00000000,0.00000000
0.21896565,-2.16995168,-0.04978269,0.23458365,0.58634967,0.00000000,0.00000000,0.19759844,2.16973305,0.63476151,0.05347980,0.68998122,0.00000000,0.00000000
0.24998268,-2.17000008,-0.05326274,0.21464340,0.57319570,0.00000000,0.00000000,0.21106575,2.16994405,0.63623637,0.05727343,0.68461919,0.00000000,0.00000000
0.27471414,-2.17000008,-0.05611357,0.19698320,0.55786365,0.00000000,0.00000000,0.22354223,2.16999698,0.63754606,0.06163159,0.67968065,0.00000000,0.00000000
0.29457727,-2.17000008,-0.05857843,0.18124829,0.53944832,0.00000000,0.00000000,0.23428676,2.17000008,0.63868725,0.06690646,0.67209005,0.00000000,0.00000000
0.31183329,-2.17000008,-0.06100533,0.16692680,0.51587790,0.00000000,0.00000000,0.24220048,2.17000008,0.63965839,0.07339064,0.66498071,0.00000000,0.00000000
0.32842320,-2.17000008,-0.06367940,0.15378889,0.49235335,0.00000000,0.00000000,0.24638057,2.17000008,0.64046592,0.08126776,0.65930223,0.00000000,0.00000000
0.34514049,-2.17000008,-0.06673227,0.14186683,0.46463665,0.00000000,0.00000000,0.24659859,2.17000008,0.64113808,0.09039762,0.65398717,0.00000000,0.00000000
0.36189026,-2.17000008,-0.07018798,0.13105083,0.43264204,0.00000000,0.00000000,0.24315438,2.17000008,0.64173681,0.10005474,0.65519488,0.00000000,0.00000000
0.37839735,-2.17000008,-0.07405153,0.12068614,0.40394217,0.00000000,0.00000000,0.23639436,2.17000008,0.64235437,0.10891961,0.65457338,0.00000000,0.00000000
0.39427179,-2.17000008,-0.07833023,0.10959816,0.38350084,0.00000000,0.00000000,0.22659810,2.17000008,0.64310366,0.11549211,0.64868748,0.00000000,0.00000000
0.40856493,-2.17000008,-0.08300757,0.09648233,0.35686266,0.00000000,0.00000000,0.21431589,2.17000008,0.64411849,0.11862338,0.64196873,0.00000000,0.00000000
0.41964960,-2.17000008,-0.08804433,0.08033235,0.32523248,0.00000000,0.00000000,0.20043585,2.17000008,0.64553994,0.11775345,0.64018667,0.00000000,0.00000000
0.42547292,-2.17000008,-0.09341207,0.06074240,0.29099217,0.00000000,0.00000000,0.18589061,2.17000008,0.64748162,0.11287870,0.64053452,0.00000000,0.00000000
0.42399371,-2.17000008,-0.09913336,0.03800575,0.25403050,0.00000000,0.00000000,0.17132708,2.17000008,0.64999217,0.10443680,0.64221847,0.00000000,0.00000000
0.41369489,-2.17000008,-0.10530339,0.01300045,0.22153012,0.00000000,0.00000000,0.15694994,2.16999102,0.65304410,0.09321696,0.64024407,0.00000000,0.00000000
0.39385036,-2.17000008,-0.11207601,-0.01297733,0.18940881,0.00000000,0.00000000,0.14256258,2.16978121,0.65655524,0.08028244,0.63254929,0.00000000,0.00000000
0.36436692,-2.17000008,-0.11962608,-0.03830446,0.15530498,0.00000000,0.00000000,0.12777010,2.16816592,0.66043353,0.06683105,0.62900072,0.00000000,0.00000000
0.32553896,-2.17000008,-0.12811393,-0.06117295,0.11625962,0.00000000,0.00000000,0.11214799,2.16332555,0.66461873,0.05390010,0.62745404,0.00000000,0.00000000
0.27782369,-2.17000008,-0.13766126,-0.07988352,0.07408479,0.00000000,0.00000000,0.09524555,2.15594721,0.66909730,0.04208946,0.62302297,0.00000000,0.00000000
0.22171555,-2.17000008,-0.14833632,-0.09324259,0.03338444,0.00000000,0.00000000,0.07656763,2.14738703,0.67389166,0.03164141,0.61503601,0.00000000,0.00000000
0.15796286,-2.16990137,-0.16013174,-0.10099555,-0.00394794,0.00000000,0.00000000,0.05594691,2.13877296,0.67904747,0.02278613,0.60520393,0.00000000,0.00000000
0.08812024,-2.16829109,-0.17292711,-0.10422460,-0.03966147,0.00000000,0.00000000,0.03409597,2.13117981,0.68462712,0.01597491,0.60045642,0.00000000,0.00000000
0.01472829,-2.16187572,-0.18648303,-0.10532019,-0.07588265,0.00000000,0.00000000,0.01246274,2.12535024,0.69069523,0.01172597,0.59730178,0.00000000,0.00000000
-0.05918672,-2.15057230,-0.20049849,-0.10700329,-0.11566825,0.00000000,0.00000000,-0.00744445,2.12141919,0.69730407,0.01035990,0.59742767,0.00000000,0.00000000
