isaac-sim2real/sage/motion_files/wr75s/amass/0-Eyes_Japan_Dataset_takiguchi_throw_toss-08-frisbee-takiguchi_poses_idx28.txt
l_joint1,l_joint2,l_joint3,l_joint4,l_joint5,l_joint6,l_joint7,r_joint1,r_joint2,r_joint3,r_joint4,r_joint5,r_joint6,r_joint7
-1.15391088,-1.91390359,-0.98368627,-0.71931869,0.02118029,0.00000000,0.00000000,-1.82185972,-0.26470000,0.66587222,-0.66636276,-0.01971002,0.00000000,0.00000000
-1.15429389,-1.91342974,-0.98397136,-0.71825051,0.02482220,0.00000000,0.00000000,-1.82210088,-0.26460046,0.66582847,-0.66570812,-0.02544507,0.00000000,0.00000000
-1.15507603,-1.91309547,-0.98432583,-0.71677077,0.02983280,0.00000000,0.00000000,-1.82189655,-0.26496512,0.66585416,-0.66521710,-0.02618908,0.00000000,0.00000000
-1.15614212,-1.91286969,-0.98472202,-0.71491677,0.03254639,0.00000000,0.00000000,-1.82147419,-0.26556459,0.66592872,-0.66472626,-0.02655333,0.00000000,0.00000000
-1.15724051,-1.91301179,-0.98502123,-0.71270066,0.03817283,0.00000000,0.00000000,-1.82110190,-0.26644135,0.66595703,-0.66402078,-0.02877709,0.00000000,0.00000000
-1.15823710,-1.91360188,-0.98516500,-0.71012431,0.04145902,0.00000000,0.00000000,-1.82107735,-0.26761585,0.66582412,-0.66287875,-0.03188688,0.00000000,0.00000000
-1.15897286,-1.91447926,-0.98512876,-0.70717180,0.04208195,0.00000000,0.00000000,-1.82111144,-0.26874596,0.66569614,-0.66137886,-0.04227387,0.00000000,0.00000000
-1.15941811,-1.91563356,-0.98486990,-0.70387489,0.04107703,0.00000000,0.00000000,-1.82100618,-0.26985294,0.66562611,-0.65969920,-0.05469186,0.00000000,0.00000000
-1.15970361,-1.91716814,-0.98433375,-0.70029008,0.03042183,0.00000000,0.00000000,-1.82096303,-0.27104944,0.66549706,-0.65767974,-0.06702872,0.00000000,0.00000000
-1.15995753,-1.91928375,-0.98344725,-0.69647002,0.01896177,0.00000000,0.00000000,-1.82111120,-0.27264684,0.66517609,-0.65529966,-0.08048727,0.00000000,0.00000000
-1.16043663,-1.92185509,-0.98232520,-0.69249773,0.00668331,0.00000000,0.00000000,-1.82142544,-0.27460450,0.66467786,-0.65262532,-0.09829935,0.00000000,0.00000000
-1.16130078,-1.92462015,-0.98108113,-0.68856966,-0.01005877,0.00000000,0.00000000,-1.82193732,-0.27644840,0.66410297,-0.64958417,-0.11760801,0.00000000,0.00000000
-1.16245055,-1.92748642,-0.97968924,-0.68496168,-0.02728648,0.00000000,0.00000000,-1.82266712,-0.27795777,0.66350251,-0.64630896,-0.13193767,0.00000000,0.00000000
-1.16380680,-1.93020642,-0.97817826,-0.68168563,-0.04915811,0.00000000,0.00000000,-1.82350898,-0.27919766,0.66289306,-0.64312088,-0.14438158,0.00000000,0.00000000
-1.16524816,-1.93267441,-0.97653884,-0.67867202,-0.07530259,0.00000000,0.00000000,-1.82408643,-0.28055403,0.66232991,-0.64066017,-0.15543656,0.00000000,0.00000000
-1.16673887,-1.93485451,-0.97476447,-0.67592639,-0.09995545,0.00000000,0.00000000,-1.82456958,-0.28208029,0.66175866,-0.63890803,-0.16239318,0.00000000,0.00000000
-1.16825998,-1.93675470,-0.97281724,-0.67345506,-0.11829145,0.00000000,0.00000000,-1.82518399,-0.28342864,0.66116244,-0.63743633,-0.16789539,0.00000000,0.00000000
-1.16980052,-1.93845081,-0.97066134,-0.67125356,-0.13474649,0.00000000,0.00000000,-1.82585549,-0.28450924,0.66057599,-0.63616502,-0.17716883,0.00000000,0.00000000
-1.17136157,-1.94006288,-0.96826929,-0.66933769,-0.14801398,0.00000000,0.00000000,-1.82654774,-0.28540215,0.65999353,-0.63508677,-0.18319324,0.00000000,0.00000000
-1.17301428,-1.94155526,-0.96566153,-0.66771048,-0.15656984,0.00000000,0.00000000,-1.82742465,-0.28601697,0.65936941,-0.63402611,-0.18721952,0.00000000,0.00000000
-1.17476428,-1.94276476,-0.96287668,-0.66636014,-0.16034400,0.00000000,0.00000000,-1.82830429,-0.28631452,0.65876013,-0.63317066,-0.20314901,0.00000000,0.00000000
-1.17652631,-1.94356501,-0.95992678,-0.66522574,-0.16548194,0.00000000,0.00000000,-1.82893097,-0.28630555,0.65824419,-0.63276339,-0.22263496,0.00000000,0.00000000
-1.17827582,-1.94393134,-0.95680147,-0.66422409,-0.17187098,0.00000000,0.00000000,-1.82927287,-0.28591916,0.65784431,-0.63273990,-0.23804694,0.00000000,0.00000000
-1.18003261,-1.94396615,-0.95345610,-0.66331816,-0.17509940,0.00000000,0.00000000,-1.82951605,-0.28524795,0.65748036,-0.63292259,-0.25074154,0.00000000,0.00000000
-1.18187535,-1.94371712,-0.94988811,-0.66247863,-0.17884645,0.00000000,0.00000000,-1.82974267,-0.28443137,0.65709615,-0.63325924,-0.25927186,0.00000000,0.00000000
-1.18389463,-1.94312310,-0.94613588,-0.66162014,-0.18347999,0.00000000,0.00000000,-1.82996333,-0.28340739,0.65670109,-0.63365138,-0.26382613,0.00000000,0.00000000
-1.18605018,-1.94229925,-0.94214934,-0.66064471,-0.19402778,0.00000000,0.00000000,-1.83009970,-0.28234437,0.65627599,-0.63412350,-0.27324167,0.00000000,0.00000000
-1.18826306,-1.94142056,-0.93784517,-0.65944970,-0.20464565,0.00000000,0.00000000,-1.83009720,-0.28143677,0.65578967,-0.63468856,-0.28488702,0.00000000,0.00000000
-1.19063997,-1.94046092,-0.93324804,-0.65799379,-0.21653685,0.00000000,0.00000000,-1.83011234,-0.28047836,0.65522921,-0.63507760,-0.29164892,0.00000000,0.00000000
-1.19328105,-1.93955147,-0.92834735,-0.65644205,-0.22301462,0.00000000,0.00000000,-1.83028197,-0.27936661,0.65456951,-0.63512975,-0.29435372,0.00000000,0.00000000
-1.19615984,-1.93880296,-0.92310423,-0.65488195,-0.21780439,0.00000000,0.00000000,-1.83052182,-0.27809054,0.65383518,-0.63493145,-0.28893217,0.00000000,0.00000000
-1.19907200,-1.93833220,-0.91739041,-0.65326554,-0.21179621,0.00000000,0.00000000,-1.83091593,-0.27683893,0.65295452,-0.63457251,-0.28692666,0.00000000,0.00000000
-1.20196176,-1.93809247,-0.91116792,-0.65167028,-0.20064971,0.00000000,0.00000000,-1.83133042,-0.27555168,0.65198660,-0.63422453,-0.28713775,0.00000000,0.00000000
-1.20484388,-1.93798923,-0.90443259,-0.65013522,-0.18674436,0.00000000,0.00000000,-1.83177221,-0.27425954,0.65092409,-0.63405514,-0.28801355,0.00000000,0.00000000
-1.20768774,-1.93799996,-0.89713877,-0.64867568,-0.17118898,0.00000000,0.00000000,-1.83239079,-0.27304733,0.64969927,-0.63416547,-0.28707746,0.00000000,0.00000000
-1.21052742,-1.93791163,-0.88929719,-0.64731508,-0.15356889,0.00000000,0.00000000,-1.83308756,-0.27157378,0.64841282,-0.63468128,-0.28662643,0.00000000,0.00000000
-1.21349227,-1.93765628,-0.88091654,-0.64620739,-0.13032834,0.00000000,0.00000000,-1.83401060,-0.26992708,0.64699632,-0.63580960,-0.29282063,0.00000000,0.00000000
-1.21669793,-1.93714225,-0.87201118,-0.64553791,-0.10199597,0.00000000,0.00000000,-1.83541632,-0.26815236,0.64534885,-0.63768375,-0.30118078,0.00000000,0.00000000
-1.21990061,-1.93603587,-0.86255795,-0.64541513,-0.07282072,0.00000000,0.00000000,-1.83725131,-0.26632175,0.64347517,-0.64084220,-0.30163479,0.00000000,0.00000000
-1.22267723,-1.93364298,-0.85255802,-0.64571559,-0.04711770,0.00000000,0.00000000,-1.83913112,-0.26464942,0.64145970,-0.64634395,-0.30348250,0.00000000,0.00000000
-1.22472775,-1.92886794,-0.84211928,-0.64618111,-0.02387523,0.00000000,0.00000000,-1.84059000,-0.26192281,0.63969225,-0.65457755,-0.30866691,0.00000000,0.00000000
-1.22613430,-1.92041707,-0.83145612,-0.64661032,-0.01102387,0.00000000,0.00000000,-1.84201896,-0.25570995,0.63850254,-0.66451699,-0.31013748,0.00000000,0.00000000
-1.22740924,-1.90730071,-0.82077217,-0.64684540,-0.00150359,0.00000000,0.00000000,-1.84459770,-0.24374847,0.63784599,-0.67402387,-0.31028634,0.00000000,0.00000000
-1.22872233,-1.88978267,-0.80983275,-0.64655668,0.00709219,0.00000000,0.00000000,-1.84852839,-0.22577082,0.63750190,-0.68166721,-0.31940508,0.00000000,0.00000000
-1.23006094,-1.86811912,-0.79842687,-0.64479762,0.01642931,0.00000000,0.00000000,-1.85337639,-0.20179787,0.63736379,-0.68637031,-0.32429090,0.00000000,0.00000000
-1.23143518,-1.84206462,-0.78657699,-0.64032871,0.02672277,0.00000000,0.00000000,-1.85868967,-0.17089532,0.63753176,-0.68647939,-0.32267600,0.00000000,0.00000000
-1.23284602,-1.81161237,-0.77428222,-0.63197690,0.04829690,0.00000000,0.00000000,-1.86419487,-0.13283606,0.63792205,-0.68040854,-0.31973055,0.00000000,0.00000000
-1.23469675,-1.77744794,-0.76149076,-0.61913669,0.07158780,0.00000000,0.00000000,-1.86989331,-0.08891627,0.63805032,-0.66766584,-0.32000571,0.00000000,0.00000000
-1.23728812,-1.73965704,-0.74825090,-0.60105515,0.10099317,0.00000000,0.00000000,-1.87553501,-0.04000726,0.63767445,-0.64826012,-0.32147598,0.00000000,0.00000000
-1.24029446,-1.69857454,-0.73426670,-0.57731909,0.12806118,0.00000000,0.00000000,-1.88055706,0.01306408,0.63674766,-0.62257862,-0.32570437,0.00000000,0.00000000
-1.24398935,-1.65587819,-0.71910942,-0.54889363,0.15618697,0.00000000,0.00000000,-1.88478649,0.06864275,0.63500333,-0.59163487,-0.33762544,0.00000000,0.00000000
-1.24870718,-1.61279428,-0.70249581,-0.51670122,0.18706709,0.00000000,0.00000000,-1.88850677,0.12524560,0.63214207,-0.55640239,-0.35031500,0.00000000,0.00000000
-1.25437617,-1.57029617,-0.68414390,-0.48143494,0.21645218,0.00000000,0.00000000,-1.89225018,0.18123683,0.62786400,-0.51798475,-0.37244421,0.00000000,0.00000000
-1.26047063,-1.52957070,-0.66366452,-0.44380358,0.24919054,0.00000000,0.00000000,-1.89666522,0.23474431,0.62186241,-0.47774988,-0.40011311,0.00000000,0.00000000
-1.26589763,-1.49067199,-0.64073372,-0.40378159,0.27222207,0.00000000,0.00000000,-1.90231168,0.28571880,0.61411971,-0.43645433,-0.42609069,0.00000000,0.00000000
-1.26913679,-1.45329595,-0.61500615,-0.36118415,0.29502264,0.00000000,0.00000000,-1.91076040,0.33390868,0.60427421,-0.39443260,-0.45161104,0.00000000,0.00000000
-1.26872826,-1.41770029,-0.58620602,-0.31615788,0.32203180,0.00000000,0.00000000,-1.92302442,0.37812158,0.59205478,-0.35223237,-0.46935523,0.00000000,0.00000000
-1.26325142,-1.38447320,-0.55418992,-0.26897630,0.34063971,0.00000000,0.00000000,-1.93942523,0.41760194,0.57752520,-0.31022599,-0.48239842,0.00000000,0.00000000
-1.25145376,-1.35358691,-0.51903874,-0.21960333,0.35742736,0.00000000,0.00000000,-1.96333647,0.45117500,0.55977988,-0.26721317,-0.48297772,0.00000000,0.00000000
-1.23236108,-1.32497776,-0.48101455,-0.16807324,0.37554529,0.00000000,0.00000000,-1.99329853,0.48077652,0.53969139,-0.22329637,-0.47890189,0.00000000,0.00000000
-1.20577776,-1.29914200,-0.44059622,-0.11497393,0.38720360,0.00000000,0.00000000,-2.03058910,0.50278664,0.51704860,-0.17940399,-0.47256836,0.00000000,0.00000000
-1.17213118,-1.27672803,-0.39843988,-0.06115832,0.39135045,0.00000000,0.00000000,-2.07527328,0.51572782,0.49216381,-0.13593888,-0.46398249,0.00000000,0.00000000
-1.13223910,-1.25806177,-0.35530618,-0.00754757,0.39281780,0.00000000,0.00000000,-2.12597370,0.52035075,0.46588388,-0.09313674,-0.45837057,0.00000000,0.00000000
-1.08708000,-1.24271190,-0.31198645,0.04517946,0.38733196,0.00000000,0.00000000,-2.18114686,0.51847905,0.43902788,-0.05098773,-0.45003217,0.00000000,0.00000000
-1.03777027,-1.23033118,-0.26923841,0.09655221,0.38029850,0.00000000,0.00000000,-2.23924589,0.51177871,0.41227496,-0.00968632,-0.44876513,0.00000000,0.00000000
-0.98550248,-1.22060132,-0.22774337,0.14619610,0.37354371,0.00000000,0.00000000,-2.29894972,0.50177127,0.38611993,0.03078926,-0.45160514,0.00000000,0.00000000
-0.93148458,-1.21337378,-0.18807927,0.19374985,0.36768839,0.00000000,0.00000000,-2.35921884,0.48958111,0.36090219,0.07064504,-0.46261513,0.00000000,0.00000000
-0.87678826,-1.20851982,-0.15071627,0.23887219,0.36026156,0.00000000,0.00000000,-2.41936469,0.47605282,0.33686158,0.11034271,-0.46615887,0.00000000,0.00000000
-0.82236457,-1.20653439,-0.11602432,0.28089339,0.34750056,0.00000000,0.00000000,-2.47888732,0.46162087,0.31419611,0.15035240,-0.46240273,0.00000000,0.00000000
-0.76897901,-1.20776701,-0.08427405,0.31907138,0.33246073,0.00000000,0.00000000,-2.53728604,0.44517538,0.29310134,0.19006541,-0.46172091,0.00000000,0.00000000
-0.71727544,-1.21188200,-0.05556261,0.35283259,0.30742586,0.00000000,0.00000000,-2.59358597,0.42387468,0.27361852,0.22674796,-0.46114066,0.00000000,0.00000000
-0.66792428,-1.21847332,-0.02972424,0.38191742,0.27854371,0.00000000,0.00000000,-2.64704108,0.39955074,0.25556740,0.25981054,-0.46313390,0.00000000,0.00000000
-0.62162077,-1.22696793,-0.00633979,0.40650243,0.25287995,0.00000000,0.00000000,-2.69720483,0.37891260,0.23848069,0.29178715,-0.46766931,0.00000000,0.00000000
-0.57892913,-1.23637533,0.01503081,0.42725253,0.21925212,0.00000000,0.00000000,-2.74336219,0.36326510,0.22184813,0.32273018,-0.46718997,0.00000000,0.00000000
-0.54016984,-1.24583900,0.03460964,0.44496369,0.18624067,0.00000000,0.00000000,-2.78504992,0.35175189,0.20530926,0.35191080,-0.46144500,0.00000000,0.00000000
-0.50545204,-1.25497317,0.05239403,0.46020338,0.14903471,0.00000000,0.00000000,-2.82215834,0.34399170,0.18866187,0.37920412,-0.45543978,0.00000000,0.00000000
-0.47451788,-1.26308060,0.06798017,0.47358733,0.11306256,0.00000000,0.00000000,-2.85502625,0.33963916,0.17213289,0.40487516,-0.44667706,0.00000000,0.00000000
-0.44680730,-1.26965308,0.08075241,0.48554611,0.07339852,0.00000000,0.00000000,-2.88421297,0.33788180,0.15632549,0.42912501,-0.44035855,0.00000000,0.00000000
-0.42160696,-1.27446747,0.09020029,0.49636519,0.03794155,0.00000000,0.00000000,-2.91024065,0.33748811,0.14198375,0.45185009,-0.43775189,0.00000000,0.00000000
-0.39820209,-1.27800083,0.09611294,0.50599909,0.00373280,0.00000000,0.00000000,-2.93336153,0.33676490,0.12976797,0.47249594,-0.43413761,0.00000000,0.00000000
-0.37583989,-1.28107095,0.09835596,0.51426083,-0.03075624,0.00000000,0.00000000,-2.95371461,0.33424735,0.12033080,0.49061891,-0.43802050,0.00000000,0.00000000
-0.35407287,-1.28415823,0.09698576,0.52121931,-0.05399158,0.00000000,0.00000000,-2.97125077,0.32947835,0.11398479,0.50624526,-0.44418025,0.00000000,0.00000000
-0.33288559,-1.28747559,0.09235292,0.52711821,-0.07222524,0.00000000,0.00000000,-2.98574686,0.32271379,0.11052636,0.51975441,-0.45763573,0.00000000,0.00000000
-0.31260595,-1.29138720,0.08502489,0.53196549,-0.08868358,0.00000000,0.00000000,-2.99692321,0.31438851,0.10927784,0.53161919,-0.47350386,0.00000000,0.00000000
-0.29366824,-1.29589570,0.07547706,0.53579867,-0.10592575,0.00000000,0.00000000,-3.00462341,0.30528677,0.10944895,0.54253769,-0.49375620,0.00000000,0.00000000
-0.27657506,-1.30095029,0.06418733,0.53863591,-0.11362046,0.00000000,0.00000000,-3.00874400,0.29603261,0.11016544,0.55308741,-0.51203018,0.00000000,0.00000000
-0.26181719,-1.30626869,0.05167232,0.54067713,-0.11804141,0.00000000,0.00000000,-3.00988603,0.28700927,0.11061855,0.56368333,-0.53269678,0.00000000,0.00000000
-0.24977049,-1.31190145,0.03850431,0.54196537,-0.11714131,0.00000000,0.00000000,-3.00999665,0.27802762,0.11013461,0.57430446,-0.55766749,0.00000000,0.00000000
-0.24070160,-1.31838560,0.02523759,0.54220760,-0.11452861,0.00000000,0.00000000,-3.00999999,0.26851887,0.10821538,0.58464342,-0.57727337,0.00000000,0.00000000
-0.23476861,-1.32629526,0.01220938,0.54097199,-0.10993993,0.00000000,0.00000000,-3.00999999,0.25804934,0.10462311,0.59449065,-0.58932483,0.00000000,0.00000000
-0.23211257,-1.33634853,-0.00042685,0.53769922,-0.10682934,0.00000000,0.00000000,-3.00999999,0.24595386,0.09925282,0.60350895,-0.59849751,0.00000000,0.00000000
-0.23293081,-1.34974015,-0.01258890,0.53147161,-0.09932783,0.00000000,0.00000000,-3.00999999,0.23110905,0.09202328,0.61103582,-0.60886842,0.00000000,0.00000000
-0.23757052,-1.36854899,-0.02420208,0.52063459,-0.08589687,0.00000000,0.00000000,-3.00992870,0.21188828,0.08280014,0.61599481,-0.62552571,0.00000000,0.00000000
-0.24579348,-1.39542854,-0.03597807,0.50292528,-0.07050068,0.00000000,0.00000000,-3.00875401,0.18587945,0.07243812,0.61672240,-0.63486010,0.00000000,0.00000000
-0.25698984,-1.43206656,-0.04913609,0.47647199,-0.05920323,0.00000000,0.00000000,-3.00391650,0.15092027,0.06244031,0.61153018,-0.65127814,0.00000000,0.00000000
-0.27053890,-1.47879291,-0.06479940,0.44033334,-0.04580217,0.00000000,0.00000000,-2.99436235,0.10595984,0.05412905,0.59912831,-0.66853613,0.00000000,0.00000000
-0.28545141,-1.53520381,-0.08386980,0.39421311,-0.03634253,0.00000000,0.00000000,-2.98048854,0.05039887,0.04858480,0.57796037,-0.67843378,0.00000000,0.00000000
-0.30048057,-1.60012817,-0.10676939,0.33836591,-0.01948059,0.00000000,0.00000000,-2.96315384,-0.01524287,0.04629291,0.54662627,-0.68951768,0.00000000,0.00000000
-0.31441242,-1.67169559,-0.13337074,0.27353796,0.00236694,0.00000000,0.00000000,-2.94328451,-0.08919565,0.04699286,0.50433844,-0.69441056,0.00000000,0.00000000
-0.32610533,-1.74757314,-0.16318418,0.20097144,0.02868407,0.00000000,0.00000000,-2.92176867,-0.16891468,0.05002132,0.45111030,-0.70171779,0.00000000,0.00000000
-0.33452436,-1.82497907,-0.19553988,0.12242544,0.05440583,0.00000000,0.00000000,-2.89943647,-0.25210327,0.05481906,0.38763842,-0.69708955,0.00000000,0.00000000
-0.33919093,-1.90155220,-0.22965635,0.03964775,0.08459669,0.00000000,0.00000000,-2.87613463,-0.33686090,0.06098009,0.31529397,-0.68932295,0.00000000,0.00000000
-0.33954635,-1.97405088,-0.26475796,-0.04489003,0.11034960,0.00000000,0.00000000,-2.85250735,-0.42000765,0.06828377,0.23698777,-0.68168002,0.00000000,0.00000000
-0.33477494,-2.03829217,-0.30015251,-0.12797810,0.13917275,0.00000000,0.00000000,-2.83047128,-0.49619481,0.07666013,0.15822348,-0.66617352,0.00000000,0.00000000
-0.32485244,-2.08971548,-0.33532113,-0.20619734,0.16794479,0.00000000,0.00000000,-2.80950570,-0.56699514,0.08561597,0.08016371,-0.64655560,0.00000000,0.00000000
-0.30965272,-2.12531304,-0.36982891,-0.27702969,0.19073163,0.00000000,0.00000000,-2.78899765,-0.63410562,0.09462118,0.00291392,-0.62863731,0.00000000,0.00000000
-0.28850561,-2.14684510,-0.40307924,-0.34085125,0.20838417,0.00000000,0.00000000,-2.76908016,-0.69521278,0.10314853,-0.07137035,-0.61193061,0.00000000,0.00000000
-0.26274040,-2.16027021,-0.43462190,-0.40084100,0.22082679,0.00000000,0.00000000,-2.75044417,-0.74862164,0.11068068,-0.14079554,-0.59519422,0.00000000,0.00000000
-0.23189899,-2.16785002,-0.46422032,-0.45589396,0.23847730,0.00000000,0.00000000,-2.73309779,-0.79071856,0.11685495,-0.20220946,-0.57427222,0.00000000,0.00000000
-0.19789214,-2.16987324,-0.49340054,-0.49974903,0.25329715,0.00000000,0.00000000,-2.71788239,-0.82104665,0.12131169,-0.25429997,-0.55763131,0.00000000,0.00000000
-0.16908951,-2.17000008,-0.52612674,-0.52718216,0.26967636,0.00000000,0.00000000,-2.70772910,-0.83582819,0.12364473,-0.29375738,-0.54319978,0.00000000,0.00000000
-0.14917441,-2.16986132,-0.56383723,-0.53837121,0.29136318,0.00000000,0.00000000,-2.70184255,-0.83489919,0.12403803,-0.32023299,-0.52901244,0.00000000,0.00000000
-0.13458520,-2.16767049,-0.60432541,-0.53670609,0.31318828,0.00000000,0.00000000,-2.69700766,-0.82359368,0.12301113,-0.33703026,-0.51879865,0.00000000,0.00000000
-0.12087592,-2.15974164,-0.64445180,-0.52701974,0.33632883,0.00000000,0.00000000,-2.69068313,-0.80879205,0.12101375,-0.34813341,-0.51415414,0.00000000,0.00000000
-0.10576329,-2.14699912,-0.68229455,-0.51296937,0.35698357,0.00000000,0.00000000,-2.68200302,-0.79489225,0.11825752,-0.35606995,-0.50089449,0.00000000,0.00000000
-0.08856372,-2.13140869,-0.71731865,-0.49603975,0.36909768,0.00000000,0.00000000,-2.67233491,-0.78323972,0.11449327,-0.36174184,-0.49196571,0.00000000,0.00000000
-0.06878045,-2.11494064,-0.74925768,-0.47727594,0.37658700,0.00000000,0.00000000,-2.66400552,-0.77511340,0.10921229,-0.36607164,-0.48170680,0.00000000,0.00000000
-0.04625631,-2.09816718,-0.77820367,-0.45713854,0.38338342,0.00000000,0.00000000,-2.65661931,-0.76976335,0.10248181,-0.36879000,-0.48180288,0.00000000,0.00000000
-0.02313049,-2.08252645,-0.80453867,-0.43733555,0.39273059,0.00000000,0.00000000,-2.64944601,-0.76756650,0.09433225,-0.36992791,-0.47551575,0.00000000,0.00000000
-0.00227489,-2.06911826,-0.82880712,-0.41972098,0.40127167,0.00000000,0.00000000,-2.64144850,-0.76919669,0.08482055,-0.36974508,-0.47228891,0.00000000,0.00000000
0.01485657,-2.05747294,-0.85154486,-0.40494999,0.41142875,0.00000000,0.00000000,-2.62900925,-0.77390927,0.07459562,-0.36841589,-0.46978298,0.00000000,0.00000000
0.02718392,-2.04772019,-0.87306482,-0.39396566,0.41237184,0.00000000,0.00000000,-2.60915685,-0.78137130,0.06411564,-0.36626428,-0.47365382,0.00000000,0.00000000
0.03355441,-2.04113030,-0.89343446,-0.38833964,0.40518892,0.00000000,0.00000000,-2.58094454,-0.79222429,0.05331622,-0.36345330,-0.48093790,0.00000000,0.00000000
0.03307745,-2.03951287,-0.91251636,-0.38969007,0.39666370,0.00000000,0.00000000,-2.54461455,-0.80424011,0.04192348,-0.35786927,-0.48452771,0.00000000,0.00000000
0.02491161,-2.04337096,-0.93029487,-0.39869025,0.38285494,0.00000000,0.00000000,-2.50025177,-0.81063592,0.02978512,-0.34466580,-0.49899182,0.00000000,0.00000000
0.01031799,-2.05207658,-0.94656545,-0.41418669,0.35764980,0.00000000,0.00000000,-2.44900370,-0.80996859,0.01650239,-0.32277304,-0.51295084,0.00000000,0.00000000
-0.00818805,-2.06465721,-0.96094346,-0.43406528,0.32696223,0.00000000,0.00000000,-2.39270329,-0.80294061,0.00161470,-0.29235137,-0.52165222,0.00000000,0.00000000
-0.02808964,-2.08047009,-0.97295970,-0.45638224,0.29459655,0.00000000,0.00000000,-2.33687735,-0.78827262,-0.01584069,-0.25311753,-0.53508258,0.00000000,0.00000000
-0.04545801,-2.09921551,-0.98187816,-0.47881156,0.26360795,0.00000000,0.00000000,-2.28570557,-0.76489955,-0.03629220,-0.20535885,-0.55691588,0.00000000,0.00000000
-0.05504984,-2.11985850,-0.98700416,-0.49839270,0.23320439,0.00000000,0.00000000,-2.24022365,-0.73326552,-0.05938682,-0.15028051,-0.57091457,0.00000000,0.00000000
-0.05505686,-2.13977027,-0.98865688,-0.51367468,0.20191492,0.00000000,0.00000000,-2.20027232,-0.69573587,-0.08443809,-0.09020505,-0.58545661,0.00000000,0.00000000
-0.04879589,-2.15718746,-0.98785645,-0.52704287,0.17085832,0.00000000,0.00000000,-2.16685843,-0.65378469,-0.11071312,-0.02691904,-0.60131365,0.00000000,0.00000000
-0.04042561,-2.16729975,-0.98730123,-0.53983372,0.13954316,0.00000000,0.00000000,-2.14340925,-0.60889012,-0.13742100,0.03767547,-0.61265635,0.00000000,0.00000000
-0.03135560,-2.16984463,-0.99030823,-0.54977238,0.10909821,0.00000000,0.00000000,-2.13200903,-0.56745780,-0.16364773,0.09908601,-0.62166160,0.00000000,0.00000000
-0.02197643,-2.17000008,-0.99927342,-0.55416054,0.07235745,0.00000000,0.00000000,-2.13105011,-0.53146738,-0.18856187,0.15626743,-0.62871212,0.00000000,0.00000000
-0.01276966,-2.17000008,-1.01458085,-0.55226487,0.02908612,0.00000000,0.00000000,-2.14084268,-0.50120664,-0.21128823,0.20897976,-0.63527238,0.00000000,0.00000000
-0.00360029,-2.17000008,-1.03502238,-0.54455566,-0.01662722,0.00000000,0.00000000,-2.16162419,-0.47838560,-0.23111291,0.25602576,-0.64279425,0.00000000,0.00000000
0.00636842,-2.17000008,-1.05919266,-0.53140563,-0.06116387,0.00000000,0.00000000,-2.19036627,-0.46284792,-0.24783427,0.29810181,-0.65059686,0.00000000,0.00000000
0.01677267,-2.16994858,-1.08537030,-0.51465189,-0.10064472,0.00000000,0.00000000,-2.22334361,-0.45410714,-0.26156119,0.33616626,-0.66355234,0.00000000,0.00000000
0.02653806,-2.16915703,-1.11174047,-0.49696425,-0.13406400,0.00000000,0.00000000,-2.25686049,-0.45203120,-0.27265739,0.37020904,-0.67159438,0.00000000,0.00000000
0.03401911,-2.16652298,-1.13694978,-0.48118392,-0.17039117,0.00000000,0.00000000,-2.28882217,-0.45432803,-0.28115860,0.40006033,-0.67837930,0.00000000,0.00000000
0.03874930,-2.16286492,-1.16028798,-0.46886569,-0.20453288,0.00000000,0.00000000,-2.31862116,-0.45674756,-0.28663725,0.42618740,-0.67855364,0.00000000,0.00000000
0.04051953,-2.15889907,-1.18166292,-0.46075079,-0.23743820,0.00000000,0.00000000,-2.34552026,-0.45506343,-0.28868681,0.44954723,-0.67960584,0.00000000,0.00000000
0.03883358,-2.15564728,-1.20092511,-0.45767280,-0.27129477,0.00000000,0.00000000,-2.36917496,-0.44940025,-0.28716895,0.46922296,-0.67705983,0.00000000,0.00000000
0.03405197,-2.15322614,-1.21804655,-0.45965305,-0.30224773,0.00000000,0.00000000,-2.38857365,-0.44012511,-0.28221971,0.48467860,-0.67277032,0.00000000,0.00000000
0.02672791,-2.15177083,-1.23297131,-0.46658200,-0.32522067,0.00000000,0.00000000,-2.40296650,-0.42728367,-0.27391356,0.49566802,-0.66204637,0.00000000,0.00000000
0.01715878,-2.15191340,-1.24552143,-0.47861722,-0.34057620,0.00000000,0.00000000,-2.41226292,-0.41148353,-0.26219410,0.50159866,-0.64945477,0.00000000,0.00000000
0.00589569,-2.15491629,-1.25529170,-0.49589443,-0.35248503,0.00000000,0.00000000,-2.41736484,-0.39442328,-0.24675524,0.50124586,-0.63288236,0.00000000,0.00000000
-0.00580376,-2.16001987,-1.26235175,-0.51761448,-0.35932454,0.00000000,0.00000000,-2.41922951,-0.37693503,-0.22717822,0.49407983,-0.61447567,0.00000000,0.00000000
-0.01819410,-2.16409731,-1.26757228,-0.54371834,-0.36180100,0.00000000,0.00000000,-2.41885519,-0.35938933,-0.20300134,0.47992650,-0.59202617,0.00000000,0.00000000
-0.03079784,-2.16730642,-1.27068353,-0.57529384,-0.36525148,0.00000000,0.00000000,-2.41759658,-0.34284431,-0.17374146,0.45814371,-0.57454002,0.00000000,0.00000000
-0.04125527,-2.16939211,-1.27132225,-0.61249322,-0.37370479,0.00000000,0.00000000,-2.41628146,-0.32631788,-0.13905388,0.42933014,-0.55638021,0.00000000,0.00000000
-0.04808506,-2.16996431,-1.26941717,-0.65500224,-0.38332945,0.00000000,0.00000000,-2.41571522,-0.30969375,-0.09876161,0.39359936,-0.53262752,0.00000000,0.00000000
-0.05107199,-2.17000008,-1.26491666,-0.70225561,-0.39539903,0.00000000,0.00000000,-2.41656685,-0.29360831,-0.05288662,0.35071537,-0.51269990,0.00000000,0.00000000
-0.05039781,-2.17000008,-1.25790632,-0.75301683,-0.40498567,0.00000000,0.00000000,-2.41917133,-0.27849820,-0.00166318,0.30071935,-0.48789930,0.00000000,0.00000000
-0.04708386,-2.17000008,-1.24922657,-0.80544376,-0.41090190,0.00000000,0.00000000,-2.42376161,-0.26476258,0.05451575,0.24385029,-0.46693945,0.00000000,0.00000000
-0.04227338,-2.17000008,-1.24016762,-0.85721636,-0.41676128,0.00000000,0.00000000,-2.43077254,-0.25301448,0.11515935,0.18034451,-0.45596096,0.00000000,0.00000000
-0.03575550,-2.17000008,-1.23193061,-0.90522510,-0.42051923,0.00000000,0.00000000,-2.44079494,-0.24396068,0.17965814,0.11047604,-0.44975749,0.00000000,0.00000000
-0.02683296,-2.17000008,-1.22590458,-0.94673634,-0.41902521,0.00000000,0.00000000,-2.45462584,-0.23782542,0.24727552,0.03500170,-0.44734994,0.00000000,0.00000000
-0.01502862,-2.17000008,-1.22320318,-0.98055905,-0.41011232,0.00000000,0.00000000,-2.47319865,-0.23452222,0.31713673,-0.04501217,-0.45213979,0.00000000,0.00000000
-0.00138462,-2.17000008,-1.22379982,-1.00908566,-0.40237376,0.00000000,0.00000000,-2.49725842,-0.23394363,0.38824868,-0.12844154,-0.45455062,0.00000000,0.00000000
0.01361608,-2.17000008,-1.22638571,-1.03593302,-0.39070207,0.00000000,0.00000000,-2.52704072,-0.23568219,0.45958450,-0.21404263,-0.45166594,0.00000000,0.00000000
0.03038973,-2.17000008,-1.22932076,-1.06268907,-0.38470668,0.00000000,0.00000000,-2.56190467,-0.23969205,0.53019661,-0.30101541,-0.45395961,0.00000000,0.00000000
0.04790108,-2.17000008,-1.23166597,-1.08970726,-0.38326624,0.00000000,0.00000000,-2.60042048,-0.24651182,0.59926653,-0.38908243,-0.46156585,0.00000000,0.00000000
0.06341699,-2.17000008,-1.23329377,-1.11741757,-0.37441036,0.00000000,0.00000000,-2.64101505,-0.25678664,0.66604835,-0.47806644,-0.47421858,0.00000000,0.00000000
0.07473723,-2.17000008,-1.23418987,-1.14487541,-0.36285099,0.00000000,0.00000000,-2.68241310,-0.27074164,0.72983044,-0.56744874,-0.48734012,0.00000000,0.00000000
0.08262799,-2.16999626,-1.23373032,-1.16906238,-0.34727100,0.00000000,0.00000000,-2.72356963,-0.28807005,0.78997171,-0.65632915,-0.49910709,0.00000000,0.00000000
0.08757333,-2.16994262,-1.23039079,-1.18948293,-0.32741955,0.00000000,0.00000000,-2.76357460,-0.30832347,0.84587842,-0.74371201,-0.50493741,0.00000000,0.00000000
0.08986542,-2.16982889,-1.22301662,-1.20670342,-0.31282276,0.00000000,0.00000000,-2.80194545,-0.33085838,0.89696378,-0.82838887,-0.51846659,0.00000000,0.00000000
0.08913717,-2.16985226,-1.21143532,-1.22197437,-0.29734853,0.00000000,0.00000000,-2.83812475,-0.35500437,0.94280130,-0.90917426,-0.53744262,0.00000000,0.00000000
0.08508302,-2.16995811,-1.19634283,-1.23659456,-0.27763498,0.00000000,0.00000000,-2.87131119,-0.37994003,0.98330587,-0.98491621,-0.55685604,0.00000000,0.00000000
0.07932109,-2.16999769,-1.17833626,-1.25048518,-0.25690007,0.00000000,0.00000000,-2.90080285,-0.40461978,1.01873267,-1.05444026,-0.58177692,0.00000000,0.00000000
0.07420857,-2.17000008,-1.15767694,-1.26334739,-0.23435545,0.00000000,0.00000000,-2.92629838,-0.42798531,1.04959190,-1.11657512,-0.60793310,0.00000000,0.00000000
0.07059009,-2.17000008,-1.13643420,-1.27454460,-0.21178645,0.00000000,0.00000000,-2.94798779,-0.44899192,1.07664514,-1.17023885,-0.63889939,0.00000000,0.00000000
0.06794861,-2.16999984,-1.11869895,-1.28296351,-0.17844006,0.00000000,0.00000000,-2.96652365,-0.46607333,1.10121083,-1.21429598,-0.66299033,0.00000000,0.00000000
0.06600718,-2.16997337,-1.10637164,-1.29061365,-0.14237504,0.00000000,0.00000000,-2.98233581,-0.47779751,1.12483358,-1.24808061,-0.68537486,0.00000000,0.00000000
0.06593449,-2.16965151,-1.09875357,-1.30036747,-0.10344432,0.00000000,0.00000000,-2.99501252,-0.48362723,1.14865518,-1.27187467,-0.70711291,0.00000000,0.00000000
0.06712918,-2.16916656,-1.09538114,-1.31388283,-0.05838612,0.00000000,0.00000000,-3.00386858,-0.48416951,1.17267418,-1.28658867,-0.72434920,0.00000000,0.00000000
0.06833874,-2.16965055,-1.09564149,-1.32977629,-0.01395644,0.00000000,0.00000000,-3.00868058,-0.48137221,1.19516277,-1.29332876,-0.74494660,0.00000000,0.00000000
0.07116656,-2.16986609,-1.09794354,-1.34392488,0.03055548,0.00000000,0.00000000,-3.00992298,-0.47768405,1.21403754,-1.29378879,-0.76471126,0.00000000,0.00000000
0.07709146,-2.16973162,-1.09816325,-1.35734224,0.06888912,0.00000000,0.00000000,-3.00999999,-0.47481412,1.22864461,-1.29071784,-0.77437961,0.00000000,0.00000000
0.08562462,-2.16988993,-1.09376049,-1.37351823,0.10521772,0.00000000,0.00000000,-3.00999999,-0.47298214,1.24025929,-1.28742266,-0.77943575,0.00000000,0.00000000
0.09507050,-2.16999245,-1.08592319,-1.39265501,0.14446373,0.00000000,0.00000000,-3.00999999,-0.47124636,1.25071716,-1.28580022,-0.77935857,0.00000000,0.00000000
0.10376472,-2.17000008,-1.07697046,-1.41143870,0.17279953,0.00000000,0.00000000,-3.00999999,-0.46906599,1.26069617,-1.28601611,-0.77159518,0.00000000,0.00000000
0.11192763,-2.16997910,-1.06838775,-1.42552161,0.20607170,0.00000000,0.00000000,-3.00999999,-0.46635449,1.27021742,-1.28749478,-0.76182073,0.00000000,0.00000000
0.11834446,-2.16965318,-1.06122673,-1.43428040,0.23800437,0.00000000,0.00000000,-3.00999999,-0.46293771,1.27962804,-1.28983438,-0.75462627,0.00000000,0.00000000
0.12090112,-2.16855860,-1.05558622,-1.43944001,0.27314383,0.00000000,0.00000000,-3.00999999,-0.45867744,1.28948867,-1.29335952,-0.73756397,0.00000000,0.00000000
0.11865325,-2.16730690,-1.05055189,-1.44263971,0.30926046,0.00000000,0.00000000,-3.00999999,-0.45371860,1.30000687,-1.29874086,-0.72099173,0.00000000,0.00000000
0.11110090,-2.16686010,-1.04515088,-1.44567788,0.34224784,0.00000000,0.00000000,-3.00999999,-0.44825298,1.31118417,-1.30645025,-0.69787842,0.00000000,0.00000000
0.09858719,-2.16753912,-1.03834867,-1.45008266,0.36810455,0.00000000,0.00000000,-3.00999999,-0.44235361,1.32308996,-1.31657839,-0.67246479,0.00000000,0.00000000
0.08306899,-2.16896987,-1.02869713,-1.45556223,0.38781524,0.00000000,0.00000000,-3.00999999,-0.43638828,1.33561373,-1.32875884,-0.64874393,0.00000000,0.00000000
0.06558066,-2.16981125,-1.01676667,-1.46100700,0.40614855,0.00000000,0.00000000,-3.00995779,-0.43075928,1.34859538,-1.34214175,-0.63359040,0.00000000,0.00000000
0.04621785,-2.16999006,-1.00397062,-1.46567822,0.43138593,0.00000000,0.00000000,-3.00919223,-0.42604041,1.36151648,-1.35566664,-0.61799896,0.00000000,0.00000000
0.02535160,-2.17000008,-0.99174297,-1.46815038,0.45209712,0.00000000,0.00000000,-3.00520921,-0.42283306,1.37358141,-1.36779153,-0.60303926,0.00000000,0.00000000
0.00289411,-2.17000008,-0.98140061,-1.46794391,0.47009304,0.00000000,0.00000000,-2.99554753,-0.42154133,1.38413417,-1.37674117,-0.59031916,0.00000000,0.00000000
-0.02133031,-2.17000008,-0.97348756,-1.46502781,0.48399428,0.00000000,0.00000000,-2.98107219,-0.42224583,1.39293861,-1.38135183,-0.57682264,0.00000000,0.00000000
-0.04773866,-2.17000008,-0.96696937,-1.46100199,0.49477983,0.00000000,0.00000000,-2.96283388,-0.42538539,1.39952648,-1.38161719,-0.55663800,0.00000000,0.00000000
-0.07681218,-2.17000008,-0.96203154,-1.45696485,0.50862163,0.00000000,0.00000000,-2.94066215,-0.43027547,1.40478480,-1.37779355,-0.54169804,0.00000000,0.00000000
-0.10937312,-2.17000008,-0.95926344,-1.45231473,0.51432371,0.00000000,0.00000000,-2.91403198,-0.43673500,1.40916109,-1.37049830,-0.53296328,0.00000000,0.00000000
-0.14572144,-2.17000008,-0.95906585,-1.44519615,0.52417797,0.00000000,0.00000000,-2.88338828,-0.44535372,1.41218138,-1.35990918,-0.52537823,0.00000000,0.00000000
-0.18487690,-2.17000008,-0.96155381,-1.43437028,0.53578848,0.00000000,0.00000000,-2.85012722,-0.45654714,1.41337454,-1.34544265,-0.51616740,0.00000000,0.00000000
-0.22506407,-2.17000008,-0.96630847,-1.42015529,0.55079073,0.00000000,0.00000000,-2.81482530,-0.47007826,1.41287816,-1.32731700,-0.51748073,0.00000000,0.00000000
-0.26452315,-2.17000008,-0.97306377,-1.40395439,0.57060134,0.00000000,0.00000000,-2.77735043,-0.48511982,1.41126204,-1.30656862,-0.52353448,0.00000000,0.00000000
-0.30177143,-2.17000008,-0.98218995,-1.38723040,0.59613848,0.00000000,0.00000000,-2.73914409,-0.50071615,1.40859175,-1.28296626,-0.52643871,0.00000000,0.00000000
-0.33549264,-2.17000008,-0.99315059,-1.37144649,0.62199515,0.00000000,0.00000000,-2.70207739,-0.51579267,1.40472853,-1.25639546,-0.53323489,0.00000000,0.00000000
-0.36421743,-2.17000008,-1.00612116,-1.35710108,0.64326638,0.00000000,0.00000000,-2.66779089,-0.52954167,1.39930308,-1.22696567,-0.54768658,0.00000000,0.00000000
-0.38547316,-2.17000008,-1.01997423,-1.34486306,0.66207349,0.00000000,0.00000000,-2.63781500,-0.54152089,1.39160073,-1.19385648,-0.56098032,0.00000000,0.00000000
-0.39686486,-2.16997361,-1.03251374,-1.33528066,0.68809867,0.00000000,0.00000000,-2.61286569,-0.55218750,1.38032687,-1.15734494,-0.57372510,0.00000000,0.00000000
-0.39667588,-2.16958237,-1.04225039,-1.32818556,0.71004355,0.00000000,0.00000000,-2.59334946,-0.56207949,1.36430347,-1.11782467,-0.58913416,0.00000000,0.00000000
-0.38560200,-2.16841197,-1.05048823,-1.32222009,0.72898966,0.00000000,0.00000000,-2.57899570,-0.57069010,1.34358621,-1.07511663,-0.60655242,0.00000000,0.00000000
-0.36423853,-2.16651821,-1.05670249,-1.31583583,0.74798715,0.00000000,0.00000000,-2.56874371,-0.57728875,1.31874955,-1.02866828,-0.63068241,0.00000000,0.00000000
-0.33431080,-2.16163373,-1.06125951,-1.30832505,0.77459788,0.00000000,0.00000000,-2.56199098,-0.58312780,1.28899097,-0.97828043,-0.64568782,0.00000000,0.00000000
-0.29741463,-2.15146208,-1.06461453,-1.30103624,0.80616385,0.00000000,0.00000000,-2.55741501,-0.58978456,1.25372088,-0.92558020,-0.65804785,0.00000000,0.00000000
-0.25448111,-2.13578653,-1.06654739,-1.29544139,0.83895242,0.00000000,0.00000000,-2.55469656,-0.59903812,1.21254051,-0.87184125,-0.67397225,0.00000000,0.00000000
-0.20579433,-2.11495066,-1.06744754,-1.29249310,0.87878871,0.00000000,0.00000000,-2.55393577,-0.61209685,1.16571057,-0.81898046,-0.68962884,0.00000000,0.00000000
-0.15172167,-2.08741498,-1.06958616,-1.29300249,0.91585296,0.00000000,0.00000000,-2.55520821,-0.62807328,1.11489046,-0.76942378,-0.70042354,0.00000000,0.00000000
-0.09349348,-2.05311942,-1.07430530,-1.29955542,0.94341993,0.00000000,0.00000000,-2.55944085,-0.64607519,1.06158841,-0.72458124,-0.70822430,0.00000000,0.00000000
-0.03388471,-2.01397038,-1.08210695,-1.31565630,0.97091639,0.00000000,0.00000000,-2.56681466,-0.66569448,1.00697124,-0.68506366,-0.70797414,0.00000000,0.00000000
0.02330537,-1.97188425,-1.09387898,-1.34218287,0.99561888,0.00000000,0.00000000,-2.57548094,-0.68700683,0.95226008,-0.65174025,-0.70300251,0.00000000,0.00000000
0.07846830,-1.92569745,-1.11112797,-1.37381876,1.02372706,0.00000000,0.00000000,-2.58454418,-0.71082568,0.89808983,-0.62493145,-0.69814700,0.00000000,0.00000000
0.13077629,-1.87627447,-1.13448393,-1.40537882,1.05114889,0.00000000,0.00000000,-2.59246111,-0.73689270,0.84538227,-0.60482126,-0.69367778,0.00000000,0.00000000
0.17998131,-1.82566631,-1.16337204,-1.43419611,1.07620573,0.00000000,0.00000000,-2.59699130,-0.76479995,0.79507881,-0.59189218,-0.67860734,0.00000000,0.00000000
0.22630766,-1.77652097,-1.19616985,-1.46079588,1.11339939,0.00000000,0.00000000,-2.59805512,-0.79393589,0.74738908,-0.58565557,-0.66147989,0.00000000,0.00000000
0.26966339,-1.73130310,-1.23130798,-1.48686874,1.15178239,0.00000000,0.00000000,-2.59637737,-0.82327199,0.70230889,-0.58515161,-0.64082825,0.00000000,0.00000000
0.31038469,-1.69200253,-1.26755869,-1.51336610,1.18290341,0.00000000,0.00000000,-2.59252739,-0.85121322,0.65998733,-0.58932436,-0.62588429,0.00000000,0.00000000
0.34844226,-1.66002989,-1.30455506,-1.54082870,1.20637298,0.00000000,0.00000000,-2.58765411,-0.87552011,0.62050819,-0.59665215,-0.60944885,0.00000000,0.00000000
0.38406873,-1.63663948,-1.34173703,-1.56985462,1.22332776,0.00000000,0.00000000,-2.58274889,-0.89354938,0.58404243,-0.60543942,-0.59261912,0.00000000,0.00000000
0.41787016,-1.62216544,-1.37807989,-1.60049808,1.23455024,0.00000000,0.00000000,-2.57750678,-0.90283781,0.55106467,-0.61444533,-0.57438785,0.00000000,0.00000000
0.44953981,-1.61563158,-1.41212130,-1.63166082,1.24765086,0.00000000,0.00000000,-2.57201910,-0.90456700,0.52104068,-0.62404418,-0.55285674,0.00000000,0.00000000
0.47863996,-1.61592400,-1.44254518,-1.66116071,1.26388967,0.00000000,0.00000000,-2.56695771,-0.90183198,0.49284524,-0.63536972,-0.52222651,0.00000000,0.00000000
0.50533432,-1.62240374,-1.46825242,-1.68730831,1.28399861,0.00000000,0.00000000,-2.56292868,-0.89618981,0.46572167,-0.64880437,-0.49662682,0.00000000,0.00000000
0.52961212,-1.63486266,-1.48859525,-1.70957708,1.30457723,0.00000000,0.00000000,-2.56028390,-0.88758808,0.43931857,-0.66402882,-0.47022274,0.00000000,0.00000000
0.55148321,-1.65327883,-1.50328600,-1.72782028,1.32838261,0.00000000,0.00000000,-2.55861115,-0.87497038,0.41382036,-0.68045807,-0.43796527,0.00000000,0.00000000
0.57067692,-1.67736638,-1.51282024,-1.74195468,1.35162938,0.00000000,0.00000000,-2.55716109,-0.85669225,0.38970000,-0.69732839,-0.40054303,0.00000000,0.00000000
0.58651263,-1.70631027,-1.51852262,-1.75210357,1.38193405,0.00000000,0.00000000,-2.55486989,-0.83145022,0.36754364,-0.71424288,-0.36450717,0.00000000,0.00000000
0.59901464,-1.73910999,-1.52146900,-1.75861228,1.40132284,0.00000000,0.00000000,-2.54957151,-0.79832238,0.34839097,-0.73126048,-0.34041896,0.00000000,0.00000000
0.60841137,-1.77411962,-1.52383864,-1.76179409,1.41653132,0.00000000,0.00000000,-2.53895497,-0.75528383,0.33353624,-0.74749255,-0.31984925,0.00000000,0.00000000
0.61561251,-1.80906737,-1.52840507,-1.76197922,1.43311942,0.00000000,0.00000000,-2.51978588,-0.69810468,0.32502502,-0.75919282,-0.29989523,0.00000000,0.00000000
0.62201065,-1.84163606,-1.53643250,-1.75963748,1.44388938,0.00000000,0.00000000,-2.48833084,-0.62119812,0.32510334,-0.75889373,-0.27610373,0.00000000,0.00000000
0.62815696,-1.86978269,-1.54806066,-1.75546110,1.45519483,0.00000000,0.00000000,-2.44630742,-0.52271754,0.33260605,-0.74106967,-0.24936523,0.00000000,0.00000000
0.63364148,-1.89271748,-1.56374717,-1.74995923,1.47205114,0.00000000,0.00000000,-2.39248824,-0.40513784,0.34702829,-0.70590657,-0.22407807,0.00000000,0.00000000
0.63753760,-1.91016412,-1.58332038,-1.74397755,1.49401808,0.00000000,0.00000000,-2.32373166,-0.27231893,0.36861667,-0.65565592,-0.20687230,0.00000000,0.00000000
0.63880736,-1.92241144,-1.60602117,-1.73867154,1.51828074,0.00000000,0.00000000,-2.23761988,-0.12870151,0.39744693,-0.59336168,-0.19138576,0.00000000,0.00000000
0.63684642,-1.93031442,-1.63109767,-1.73462856,1.54045033,0.00000000,0.00000000,-2.13057423,0.01968328,0.43395814,-0.52611476,-0.17435236,0.00000000,0.00000000
0.63129497,-1.93458450,-1.65766931,-1.73202765,1.56478703,0.00000000,0.00000000,-2.00023317,0.16335467,0.47765753,-0.46709201,-0.16393739,0.00000000,0.00000000
0.62231988,-1.93628561,-1.68432689,-1.73067427,1.58750939,0.00000000,0.00000000,-1.85365045,0.29117334,0.52448642,-0.42671338,-0.15719135,0.00000000,0.00000000
0.61028868,-1.93612289,-1.70986092,-1.73003554,1.60699403,0.00000000,0.00000000,-1.69736087,0.39869177,0.57145047,-0.40849340,-0.15365812,0.00000000,0.00000000
0.59570748,-1.93479228,-1.73339415,-1.72937083,1.62178469,0.00000000,0.00000000,-1.53574550,0.48377240,0.61691451,-0.41259849,-0.15674116,0.00000000,0.00000000
0.58043927,-1.93314898,-1.75520980,-1.72611225,1.64258087,0.00000000,0.00000000,-1.37287724,0.54550529,0.65941828,-0.43756548,-0.15475012,0.00000000,0.00000000
0.56609565,-1.93218195,-1.77527046,-1.71815586,1.65640354,0.00000000,0.00000000,-1.21336436,0.58360660,0.69687229,-0.48061061,-0.15356496,0.00000000,0.00000000
0.55298644,-1.93263888,-1.79316628,-1.70479488,1.67025554,0.00000000,0.00000000,-1.06253445,0.59955883,0.72644776,-0.53663141,-0.15414636,0.00000000,0.00000000
0.54080915,-1.93483186,-1.80842626,-1.68599498,1.67722237,0.00000000,0.00000000,-0.92492521,0.59718919,0.74555981,-0.59959650,-0.15445422,0.00000000,0.00000000
0.52905929,-1.93896425,-1.81991327,-1.66223645,1.68632436,0.00000000,0.00000000,-0.80395126,0.58192146,0.75235748,-0.66377896,-0.15769686,0.00000000,0.00000000
0.51663595,-1.94504452,-1.82650232,-1.63458622,1.69212759,0.00000000,0.00000000,-0.70196462,0.56066090,0.74597824,-0.72369909,-0.16276482,0.00000000,0.00000000
0.50238180,-1.95289743,-1.82792425,-1.60393834,1.69295120,0.00000000,0.00000000,-0.61951572,0.54056102,0.72695220,-0.77542299,-0.16530821,0.00000000,0.00000000
0.48639813,-1.96265435,-1.82420921,-1.57011592,1.69577396,0.00000000,0.00000000,-0.55473465,0.52610874,0.69718540,-0.81902122,-0.17369416,0.00000000,0.00000000
0.46919501,-1.97446644,-1.81561697,-1.53269815,1.70034301,0.00000000,0.00000000,-0.50423712,0.52039015,0.65945542,-0.85608017,-0.18526705,0.00000000,0.00000000
0.45111123,-1.98814833,-1.80264068,-1.49145734,1.70292270,0.00000000,0.00000000,-0.46440393,0.52458447,0.61644471,-0.88837206,-0.19691455,0.00000000,0.00000000
0.43212032,-2.00325537,-1.78575015,-1.44648528,1.69414830,0.00000000,0.00000000,-0.43269220,0.53849560,0.56989586,-0.91610748,-0.20406511,0.00000000,0.00000000
0.41218489,-2.01936460,-1.76525593,-1.39792359,1.69614518,0.00000000,0.00000000,-0.40706021,0.56123626,0.52105194,-0.93793321,-0.20504266,0.00000000,0.00000000
0.39084563,-2.03591657,-1.74159265,-1.34655201,1.70085561,0.00000000,0.00000000,-0.38548848,0.59192771,0.47105247,-0.95235127,-0.20602188,0.00000000,0.00000000
0.36738628,-2.05207515,-1.71549225,-1.29385138,1.70122600,0.00000000,0.00000000,-0.36655378,0.62949228,0.42051855,-0.95899552,-0.20261729,0.00000000,0.00000000
0.34160188,-2.06723166,-1.68767989,-1.24083567,1.70213771,0.00000000,0.00000000,-0.34958905,0.67202425,0.36944419,-0.95882839,-0.20276718,0.00000000,0.00000000
0.31422997,-2.08137369,-1.65847218,-1.18867338,1.70409083,0.00000000,0.00000000,-0.33358282,0.71873212,0.31831148,-0.95244169,-0.21054444,0.00000000,0.00000000
0.28817227,-2.09448409,-1.62849855,-1.13882411,1.70038402,0.00000000,0.00000000,-0.31624469,0.76911670,0.26888925,-0.94066179,-0.22209631,0.00000000,0.00000000
0.26127583,-2.10567617,-1.59906733,-1.09563005,1.69931328,0.00000000,0.00000000,-0.29665160,0.82127422,0.22192815,-0.92482245,-0.23359275,0.00000000,0.00000000
0.22941528,-2.11425591,-1.57112861,-1.06232512,1.69003940,0.00000000,0.00000000,-0.27384311,0.87588358,0.17845310,-0.90461642,-0.24829562,0.00000000,0.00000000
0.20368592,-2.12370539,-1.54258168,-1.03135753,1.68497097,0.00000000,0.00000000,-0.24771579,0.93276995,0.13865377,-0.88009369,-0.25915435,0.00000000,0.00000000
0.17877899,-2.13497043,-1.51352692,-1.00408769,1.68164265,0.00000000,0.00000000,-0.21794328,0.99097764,0.10297729,-0.85187137,-0.26568624,0.00000000,0.00000000
0.15034936,-2.14396644,-1.48775554,-0.97788382,1.68304181,0.00000000,0.00000000,-0.18405929,1.05160511,0.07207847,-0.81921947,-0.27285072,0.00000000,0.00000000
0.12208306,-2.15124345,-1.46520877,-0.94756764,1.67694378,0.00000000,0.00000000,-0.14580436,1.11676395,0.04652032,-0.78024393,-0.27923462,0.00000000,0.00000000
0.09634589,-2.15913773,-1.44434571,-0.91128349,1.67088020,0.00000000,0.00000000,-0.10348988,1.18883336,0.02629368,-0.73251206,-0.27986574,0.00000000,0.00000000
0.07386041,-2.16619897,-1.42595387,-0.86969900,1.66350007,0.00000000,0.00000000,-0.05781111,1.26938164,0.01199766,-0.67452216,-0.28846845,0.00000000,0.00000000
0.05514904,-2.16937208,-1.41220403,-0.82558948,1.65992057,0.00000000,0.00000000,-0.01011521,1.35633612,0.00534810,-0.60807484,-0.29821256,0.00000000,0.00000000
0.04164183,-2.16996813,-1.40326846,-0.78127885,1.65761876,0.00000000,0.00000000,0.03725209,1.44534099,0.00704201,-0.53740704,-0.30214486,0.00000000,0.00000000
0.03374997,-2.17000008,-1.39758193,-0.73854619,1.66106582,0.00000000,0.00000000,0.08177288,1.53388000,0.01626904,-0.46609864,-0.29762164,0.00000000,0.00000000
0.03115970,-2.17000008,-1.39468992,-0.69807267,1.66023469,0.00000000,0.00000000,0.12135097,1.62087989,0.03188305,-0.39618173,-0.29788849,0.00000000,0.00000000
0.03359443,-2.16997623,-1.39455342,-0.66000754,1.66110206,0.00000000,0.00000000,0.15413193,1.70545602,0.05301024,-0.32873836,-0.30106470,0.00000000,0.00000000
0.04080686,-2.16962528,-1.39596951,-0.62485832,1.66624522,0.00000000,0.00000000,0.17883976,1.78551376,0.07870955,-0.26501232,-0.30155376,0.00000000,0.00000000
0.05243454,-2.16859770,-1.39706993,-0.59286857,1.66307747,0.00000000,0.00000000,0.19527021,1.85945964,0.10788114,-0.20586777,-0.30016026,0.00000000,0.00000000
0.06696730,-2.16694427,-1.39677787,-0.56340110,1.65053225,0.00000000,0.00000000,0.20417671,1.92554903,0.13945651,-0.15226103,-0.30037579,0.00000000,0.00000000
0.08394708,-2.16362762,-1.39500737,-0.53400254,1.63967335,0.00000000,0.00000000,0.20731935,1.98052263,0.17246073,-0.10578806,-0.29871777,0.00000000,0.00000000
0.10380260,-2.15979981,-1.39113796,-0.50349063,1.63409746,0.00000000,0.00000000,0.20683213,2.02324939,0.20617303,-0.06657427,-0.29693931,0.00000000,0.00000000
0.12489414,-2.15626454,-1.38496077,-0.47300339,1.62655222,0.00000000,0.00000000,0.20437799,2.05397415,0.24014871,-0.03397126,-0.29348660,0.00000000,0.00000000
0.14514609,-2.15337324,-1.37656152,-0.44396144,1.61987948,0.00000000,0.00000000,0.20164125,2.07414222,0.27411604,-0.00668491,-0.29251856,0.00000000,0.00000000
0.16348080,-2.15087938,-1.36622167,-0.41699433,1.62126052,0.00000000,0.00000000,0.19974045,2.08459044,0.30791491,0.01605038,-0.29662767,0.00000000,0.00000000
0.17926845,-2.14848065,-1.35424745,-0.39247918,1.62327027,0.00000000,0.00000000,0.19886471,2.08649707,0.34144673,0.03501543,-0.29454258,0.00000000,0.00000000
0.19143219,-2.14575195,-1.34100270,-0.37105599,1.61866307,0.00000000,0.00000000,0.19889458,2.08172870,0.37462938,0.05123374,-0.28836548,0.00000000,0.00000000
0.19925420,-2.14262652,-1.32675672,-0.35330993,1.61586797,0.00000000,0.00000000,0.19921742,2.07218647,0.40737125,0.06550299,-0.28073415,0.00000000,0.00000000
0.20222129,-2.13912678,-1.31174994,-0.33988953,1.61322749,0.00000000,0.00000000,0.19916970,2.05900311,0.43958887,0.07803516,-0.27062425,0.00000000,0.00000000
0.19954634,-2.13510633,-1.29624748,-0.33160132,1.61178386,0.00000000,0.00000000,0.19859257,2.04316568,0.47122398,0.08900358,-0.26141417,0.00000000,0.00000000
0.19062753,-2.13079500,-1.28039217,-0.32924631,1.60302210,0.00000000,0.00000000,0.19719413,2.02582765,0.50221217,0.09855562,-0.24955770,0.00000000,0.00000000
0.17569935,-2.12677789,-1.26417184,-0.33325377,1.59339273,0.00000000,0.00000000,0.19422181,2.00775504,0.53248507,0.10644008,-0.23475087,0.00000000,0.00000000
0.15556148,-2.12338185,-1.24753797,-0.34360391,1.57634366,0.00000000,0.00000000,0.18893504,1.98903084,0.56200349,0.11208083,-0.21988960,0.00000000,0.00000000
0.13063636,-2.12045693,-1.23049736,-0.36026347,1.56253064,0.00000000,0.00000000,0.18125147,1.97009349,0.59076858,0.11541492,-0.20124324,0.00000000,0.00000000
0.10132416,-2.11810970,-1.21295762,-0.38315749,1.54838753,0.00000000,0.00000000,0.17167401,1.95150042,0.61883026,0.11675881,-0.18570153,0.00000000,0.00000000
0.06860396,-2.11750889,-1.19450533,-0.41195807,1.52682996,0.00000000,0.00000000,0.16091718,1.93420243,0.64624912,0.11685307,-0.16502458,0.00000000,0.00000000
0.03424325,-2.11992955,-1.17453372,-0.44576108,1.51147866,0.00000000,0.00000000,0.14966722,1.91939676,0.67307681,0.11668807,-0.14007023,0.00000000,0.00000000
0.00087124,-2.12604976,-1.15232182,-0.48296398,1.50152922,0.00000000,0.00000000,0.13851659,1.90850353,0.69933581,0.11746059,-0.12122265,0.00000000,0.00000000
-0.02957987,-2.13532257,-1.12735903,-0.52218115,1.49079370,0.00000000,0.00000000,0.12782206,1.90304315,0.72500306,0.12046725,-0.10948060,0.00000000,0.00000000
-0.05629838,-2.14626241,-1.09943151,-0.56280184,1.47397983,0.00000000,0.00000000,0.11837301,1.90272999,0.75014156,0.12646976,-0.09535239,0.00000000,0.00000000
-0.07922761,-2.15769887,-1.06836236,-0.60518706,1.45831025,0.00000000,0.00000000,0.11113834,1.90620589,0.77486390,0.13583539,-0.07904899,0.00000000,0.00000000
-0.09919523,-2.16694403,-1.03501892,-0.64866346,1.44496214,0.00000000,0.00000000,0.10682772,1.91250181,0.79924035,0.14898610,-0.06980215,0.00000000,0.00000000
-0.11861109,-2.16981316,-1.00316715,-0.68956846,1.43877459,0.00000000,0.00000000,0.10358395,1.91987479,0.82321137,0.16481198,-0.05508907,0.00000000,0.00000000
-0.13517560,-2.17000008,-0.97551900,-0.72089899,1.44184768,0.00000000,0.00000000,0.09967966,1.92604327,0.84674793,0.18182661,-0.03420809,0.00000000,0.00000000
-0.14637567,-2.17000008,-0.95231140,-0.73866755,1.44842160,0.00000000,0.00000000,0.09575742,1.93223631,0.86972058,0.20073760,-0.01807948,0.00000000,0.00000000
-0.15299042,-2.17000008,-0.93356115,-0.74244481,1.45613158,0.00000000,0.00000000,0.09180825,1.93993914,0.89187980,0.22143249,-0.00663142,0.00000000,0.00000000
-0.15559831,-2.17000008,-0.91847986,-0.73290712,1.46341228,0.00000000,0.00000000,0.08575252,1.94899476,0.91289920,0.24147992,0.00190332,0.00000000,0.00000000
-0.15416808,-2.17000008,-0.90616125,-0.71072787,1.46992338,0.00000000,0.00000000,0.07541578,1.95755732,0.93262601,0.25811818,0.00969302,0.00000000,0.00000000
-0.14908870,-2.16991782,-0.89608306,-0.67680657,1.47891188,0.00000000,0.00000000,0.06146735,1.96563053,0.95100588,0.27131915,0.02270086,0.00000000,0.00000000
-0.14082487,-2.16848445,-0.88811028,-0.63221467,1.48750091,0.00000000,0.00000000,0.04443473,1.97273111,0.96806246,0.28102314,0.03007141,0.00000000,0.00000000
-0.12892720,-2.16170669,-0.88117284,-0.57901531,1.49762595,0.00000000,0.00000000,0.02519570,1.97878897,0.98383588,0.28754824,0.03408150,0.00000000,0.00000000
-0.11406369,-2.14704871,-0.87431228,-0.52055067,1.50843704,0.00000000,0.00000000,0.00519501,1.98354685,0.99848950,0.29144663,0.03753270,0.00000000,0.00000000
-0.09519368,-2.12725067,-0.86640185,-0.45948467,1.51506150,0.00000000,0.00000000,-0.01431014,1.98678327,1.01219249,0.29323933,0.03802811,0.00000000,0.00000000
-0.07240416,-2.10448027,-0.85738999,-0.39785254,1.52153027,0.00000000,0.00000000,-0.03314980,1.98852825,1.02499628,0.29311490,0.03466034,0.00000000,0.00000000
-0.04764587,-2.08005762,-0.84783614,-0.33795020,1.53157043,0.00000000,0.00000000,-0.05152925,1.98923516,1.03686988,0.29138100,0.02777758,0.00000000,0.00000000
-0.02337854,-2.05444121,-0.83840364,-0.28166729,1.54077423,0.00000000,0.00000000,-0.06970812,1.98949254,1.04776740,0.28843403,0.01472761,0.00000000,0.00000000
-0.00048854,-2.02838588,-0.82934749,-0.22989266,1.55104578,0.00000000,0.00000000,-0.08809901,1.98982334,1.05764246,0.28453323,0.00108338,0.00000000,0.00000000
0.02119477,-2.00339627,-0.82068187,-0.18287621,1.56010580,0.00000000,0.00000000,-0.10692399,1.99063373,1.06649029,0.27989551,-0.01852510,0.00000000,0.00000000
0.04156547,-1.98184192,-0.81243849,-0.14104433,1.56789410,0.00000000,0.00000000,-0.12589079,1.99264586,1.07432044,0.27495807,-0.03807216,0.00000000,0.00000000
0.05821005,-1.96707571,-0.80478805,-0.10652995,1.58413947,0.00000000,0.00000000,-0.14489833,1.99716902,1.08105421,0.27018526,-0.06109895,0.00000000,0.00000000
0.07197619,-1.96070004,-0.79780406,-0.07971031,1.59815264,0.00000000,0.00000000,-0.16346379,2.00419164,1.08681870,0.26586598,-0.08047868,0.00000000,0.00000000
0.08494183,-1.96195948,-0.79160362,-0.05924647,1.60691547,0.00000000,0.00000000,-0.18077770,2.01232433,1.09193397,0.26211596,-0.09497320,0.00000000,0.00000000
0.09566326,-1.96991432,-0.78641534,-0.04518702,1.61380029,0.00000000,0.00000000,-0.19565530,2.02025986,1.09672201,0.25936186,-0.10691860,0.00000000,0.00000000
0.10304563,-1.98404074,-0.78238374,-0.03789432,1.62596536,0.00000000,0.00000000,-0.20715325,2.02698350,1.10144579,0.25808957,-0.11860173,0.00000000,0.00000000
0.10561954,-2.00253487,-0.77962613,-0.03762341,1.64085090,0.00000000,0.00000000,-0.21434526,2.03199005,1.10629392,0.25888962,-0.13406877,0.00000000,0.00000000
0.10160892,-2.02271271,-0.77824402,-0.04440960,1.65560853,0.00000000,0.00000000,-0.21662091,2.03517175,1.11135781,0.26219463,-0.14912529,0.00000000,0.00000000
0.08996941,-2.04308176,-0.77829206,-0.05836893,1.66389728,0.00000000,0.00000000,-0.21417071,2.03691792,1.11657202,0.26800251,-0.16550326,0.00000000,0.00000000
0.07036348,-2.06230450,-0.77980125,-0.07913883,1.66855919,0.00000000,0.00000000,-0.20737369,2.03783751,1.12180173,0.27614665,-0.18896495,0.00000000,0.00000000
0.04286536,-2.07876801,-0.78280318,-0.10591891,1.66753936,0.00000000,0.00000000,-0.19665134,2.03834510,1.12691939,0.28636408,-0.21127564,0.00000000,0.00000000
0.00873962,-2.09190893,-0.78724849,-0.13771783,1.66137064,0.00000000,0.00000000,-0.18326314,2.03789759,1.13186288,0.29762819,-0.23351870,0.00000000,0.00000000
-0.03028322,-2.10396075,-0.79285854,-0.17449228,1.65169096,0.00000000,0.00000000,-0.16836374,2.03600240,1.13656998,0.30898103,-0.25527632,0.00000000,0.00000000
-0.07199618,-2.11603260,-0.79922241,-0.21535651,1.63373828,0.00000000,0.00000000,-0.15305431,2.03267264,1.14090669,0.31959897,-0.27793887,0.00000000,0.00000000
-0.11423323,-2.12933230,-0.80572098,-0.25904292,1.60341120,0.00000000,0.00000000,-0.13808891,2.02864742,1.14464557,0.32903999,-0.30726451,0.00000000,0.00000000
-0.15423119,-2.14459062,-0.81159216,-0.30298671,1.57205713,0.00000000,0.00000000,-0.12337899,2.02530837,1.14751017,0.33757281,-0.33738029,0.00000000,0.00000000
-0.18881750,-2.15731144,-0.81657368,-0.34224513,1.54311860,0.00000000,0.00000000,-0.10861053,2.02308393,1.14942122,0.34531131,-0.36455452,0.00000000,0.00000000
-0.21594243,-2.16539478,-0.82029110,-0.37429997,1.51648080,0.00000000,0.00000000,-0.09417808,2.02139497,1.15043342,0.35172707,-0.38893509,0.00000000,0.00000000
-0.23642386,-2.16910696,-0.82265788,-0.39888805,1.48758483,0.00000000,0.00000000,-0.08033303,2.01990294,1.15059412,0.35638902,-0.41600701,0.00000000,0.00000000
-0.25127545,-2.16995001,-0.82389522,-0.41551024,1.46179736,0.00000000,0.00000000,-0.06757864,2.01856494,1.14989460,0.35885975,-0.43731585,0.00000000,0.00000000
-0.26043916,-2.17000008,-0.82415128,-0.42341435,1.43906486,0.00000000,0.00000000,-0.05616327,2.01748633,1.14833176,0.35908160,-0.46080053,0.00000000,0.00000000
-0.26335967,-2.17000008,-0.82323688,-0.42252553,1.41573405,0.00000000,0.00000000,-0.04555888,2.01703739,1.14592195,0.35780144,-0.48138267,0.00000000,0.00000000
-0.26033786,-2.16998959,-0.82105440,-0.41344789,1.39022839,0.00000000,0.00000000,-0.03596766,2.01678848,1.14277470,0.35500357,-0.49634379,0.00000000,0.00000000
-0.25200409,-2.16980076,-0.81746900,-0.39739585,1.36477685,0.00000000,0.00000000,-0.02798632,2.01669598,1.13890588,0.35031694,-0.50727123,0.00000000,0.00000000
-0.23907356,-2.16885018,-0.81237006,-0.37590268,1.33591950,0.00000000,0.00000000,-0.02208426,2.01703715,1.13429379,0.34356198,-0.51418322,0.00000000,0.00000000
-0.22236349,-2.16679692,-0.80575240,-0.35061845,1.30863321,0.00000000,0.00000000,-0.01843862,2.01810050,1.12895525,0.33490303,-0.50871873,0.00000000,0.00000000
-0.20243151,-2.16458464,-0.79766452,-0.32307813,1.28449523,0.00000000,0.00000000,-0.01740086,2.02017832,1.12287331,0.32446033,-0.50979358,0.00000000,0.00000000
-0.17980683,-2.16316056,-0.78826052,-0.29464370,1.25924182,0.00000000,0.00000000,-0.01832259,2.02312827,1.11621737,0.31295153,-0.50942171,0.00000000,0.00000000
-0.15487370,-2.16255808,-0.77780926,-0.26621470,1.23840582,0.00000000,0.00000000,-0.02083195,2.02602053,1.10927558,0.30100361,-0.51210386,0.00000000,0.00000000
-0.12842542,-2.16294742,-0.76661390,-0.23882796,1.22310126,0.00000000,0.00000000,-0.02528468,2.02845001,1.10217714,0.28883141,-0.50893825,0.00000000,0.00000000
-0.10130301,-2.16507387,-0.75488913,-0.21363899,1.20828509,0.00000000,0.00000000,-0.03137916,2.03090549,1.09495926,0.27698344,-0.49991018,0.00000000,0.00000000
-0.07454219,-2.16778994,-0.74301350,-0.19088787,1.19171917,0.00000000,0.00000000,-0.03840918,2.03317785,1.08780336,0.26585111,-0.48701879,0.00000000,0.00000000
-0.04964193,-2.16951942,-0.73140496,-0.17076796,1.17642236,0.00000000,0.00000000,-0.04561641,2.03480315,1.08093441,0.25568035,-0.48120099,0.00000000,0.00000000
-0.02804491,-2.16997218,-0.72034490,-0.15368326,1.16692626,0.00000000,0.00000000,-0.05219889,2.03563070,1.07453585,0.24674381,-0.47739065,0.00000000,0.00000000
-0.01055913,-2.17000008,-0.70999968,-0.13982311,1.16136718,0.00000000,0.00000000,-0.05752445,2.03531742,1.06878161,0.23916641,-0.47313133,0.00000000,0.00000000
0.00249569,-2.17000008,-0.70045680,-0.12935989,1.15836656,0.00000000,0.00000000,-0.06116440,2.03349662,1.06382108,0.23293068,-0.47402567,0.00000000,0.00000000
0.01124202,-2.17000008,-0.69175225,-0.12236865,1.15136945,0.00000000,0.00000000,-0.06287410,2.03004813,1.05975163,0.22798142,-0.47678432,0.00000000,0.00000000
0.01623136,-2.17000008,-0.68390012,-0.11857504,1.14860857,0.00000000,0.00000000,-0.06277689,2.02510047,1.05658340,0.22420073,-0.47719267,0.00000000,0.00000000
0.01813910,-2.17000008,-0.67690271,-0.11748558,1.15362775,0.00000000,0.00000000,-0.06086763,2.01887035,1.05432391,0.22157535,-0.47476363,0.00000000,0.00000000
0.01758649,-2.17000008,-0.67076182,-0.11842281,1.15977740,0.00000000,0.00000000,-0.05707140,2.01162958,1.05297518,0.22018844,-0.47059947,0.00000000,0.00000000
0.01500996,-2.17000008,-0.66549176,-0.12055105,1.16634834,0.00000000,0.00000000,-0.05150273,2.00409865,1.05246079,0.22021227,-0.46277204,0.00000000,0.00000000
0.01029098,-2.17000008,-0.66111737,-0.12330931,1.17423368,0.00000000,0.00000000,-0.04439358,1.99714959,1.05266571,0.22186063,-0.45721716,0.00000000,0.00000000
0.00279988,-2.17000008,-0.65765649,-0.12666416,1.18132341,0.00000000,0.00000000,-0.03610806,1.99152160,1.05346978,0.22530633,-0.44225290,0.00000000,0.00000000
-0.00815881,-2.17000008,-0.65512246,-0.13072862,1.18567133,0.00000000,0.00000000,-0.02716216,1.98744988,1.05477631,0.23045500,-0.42603940,0.00000000,0.00000000
-0.02231463,-2.17000008,-0.65345937,-0.13539375,1.18436861,0.00000000,0.00000000,-0.01795867,1.98476017,1.05652225,0.23707902,-0.40852204,0.00000000,0.00000000
-0.03826980,-2.17000008,-0.65254533,-0.14010580,1.18439448,0.00000000,0.00000000,-0.00927263,1.98308086,1.05862510,0.24468248,-0.38662151,0.00000000,0.00000000
-0.05510882,-2.17000008,-0.65227115,-0.14456587,1.19027066,0.00000000,0.00000000,-0.00155599,1.98226678,1.06099188,0.25303182,-0.37239820,0.00000000,0.00000000
-0.07195961,-2.17000008,-0.65251267,-0.14853798,1.19190216,0.00000000,0.00000000,0.00490554,1.98229444,1.06353712,0.26202038,-0.35470492,0.00000000,0.00000000
-0.08779894,-2.17000008,-0.65313238,-0.15170443,1.19228876,0.00000000,0.00000000,0.00984828,1.98296571,1.06621659,0.27150789,-0.34810600,0.00000000,0.00000000
-0.10179807,-2.17000008,-0.65399909,-0.15388948,1.19292486,0.00000000,0.00000000,0.01316296,1.98415065,1.06900215,0.28148028,-0.34220797,0.00000000,0.00000000
-0.11357431,-2.17000008,-0.65502149,-0.15507568,1.18774366,0.00000000,0.00000000,0.01507134,1.98571539,1.07188833,0.29215524,-0.33563417,0.00000000,0.00000000
-0.12294666,-2.17000008,-0.65615100,-0.15520227,1.18105161,0.00000000,0.00000000,0.01580244,1.98728824,1.07488620,0.30376124,-0.32823196,0.00000000,0.00000000
-0.12998150,-2.17000008,-0.65738940,-0.15414125,1.16939247,0.00000000,0.00000000,0.01563339,1.98874152,1.07799983,0.31662306,-0.32805219,0.00000000,0.00000000
-0.13492619,-2.17000008,-0.65876639,-0.15179549,1.15413034,0.00000000,0.00000000,0.01503705,1.99005342,1.08127344,0.33119777,-0.33133772,0.00000000,0.00000000
-0.13788614,-2.17000008,-0.66031218,-0.14805287,1.13728154,0.00000000,0.00000000,0.01438767,1.99101281,1.08476102,0.34792387,-0.33595312,0.00000000,0.00000000
-0.13865080,-2.16996002,-0.66203344,-0.14283696,1.12034059,0.00000000,0.00000000,0.01382877,1.99138451,1.08849156,0.36719918,-0.34292784,0.00000000,0.00000000
-0.13686311,-2.16931629,-0.66392863,-0.13616087,1.10578811,0.00000000,0.00000000,0.01327014,1.99103677,1.09246027,0.38934007,-0.34515786,0.00000000,0.00000000
-0.13230909,-2.16685319,-0.66600859,-0.12820376,1.08555317,0.00000000,0.00000000,0.01239462,1.99004531,1.09659898,0.41459200,-0.34069127,0.00000000,0.00000000
-0.12530494,-2.16257191,-0.66832662,-0.11941839,1.06460333,0.00000000,0.00000000,0.01094294,1.98839760,1.10085058,0.44326985,-0.33766899,0.00000000,0.00000000
-0.11692389,-2.15710568,-0.67098933,-0.11057543,1.03623188,0.00000000,0.00000000,0.00876766,1.98576200,1.10523784,0.47569519,-0.32720640,0.00000000,0.00000000
-0.10850902,-2.15108061,-0.67411709,-0.10258423,1.00793993,0.00000000,0.00000000,0.00543111,1.98161256,1.10980201,0.51196492,-0.31182185,0.00000000,0.00000000
-0.10139660,-2.14501905,-0.67781967,-0.09631830,0.98245615,0.00000000,0.00000000,0.00055831,1.97529578,1.11461508,0.55230689,-0.29497278,0.00000000,0.00000000
-0.09663692,-2.13943648,-0.68217450,-0.09256823,0.95014071,0.00000000,0.00000000,-0.00622958,1.96590674,1.11977196,0.59690922,-0.27481452,0.00000000,0.00000000
-0.09479320,-2.13486290,-0.68721288,-0.09193408,0.91661227,0.00000000,0.00000000,-0.01552874,1.95244527,1.12537038,0.64582652,-0.25960121,0.00000000,0.00000000
-0.09570324,-2.13164282,-0.69291466,-0.09457534,0.88139796,0.00000000,0.00000000,-0.02844916,1.93383884,1.13143492,0.69885767,-0.25136513,0.00000000,0.00000000
-0.09892099,-2.13014603,-0.69921833,-0.10048075,0.83974510,0.00000000,0.00000000,-0.04644061,1.90879977,1.13794911,0.75556779,-0.24160543,0.00000000,0.00000000
-0.10411213,-2.13088059,-0.70603222,-0.10973237,0.80169374,0.00000000,0.00000000,-0.07114374,1.87593496,1.14483917,0.81537879,-0.23680283,0.00000000,0.00000000
-0.11065264,-2.13407755,-0.71322811,-0.12218373,0.77171433,0.00000000,0.00000000,-0.10463077,1.83358109,1.15201855,0.87735462,-0.22675948,0.00000000,0.00000000
-0.11777156,-2.13959813,-0.72065371,-0.13737327,0.74499696,0.00000000,0.00000000,-0.14901575,1.77943420,1.15966558,0.94007868,-0.22180766,0.00000000,0.00000000
-0.12456888,-2.14681339,-0.72814733,-0.15449955,0.71707350,0.00000000,0.00000000,-0.20647696,1.71019423,1.16840112,1.00111473,-0.22308950,0.00000000,0.00000000
-0.13029827,-2.15481877,-0.73556036,-0.17263228,0.68292856,0.00000000,0.00000000,-0.27912155,1.62183917,1.17928743,1.05664611,-0.21661302,0.00000000,0.00000000
-0.13473313,-2.16217804,-0.74281788,-0.19077308,0.64789468,0.00000000,0.00000000,-0.36847258,1.51071858,1.19350040,1.10167146,-0.21386090,0.00000000,0.00000000
-0.13775903,-2.16730595,-0.74989301,-0.20797847,0.61764342,0.00000000,0.00000000,-0.47513607,1.37584507,1.21113908,1.13139439,-0.19487110,0.00000000,0.00000000
-0.13934919,-2.16952181,-0.75683117,-0.22325404,0.58441490,0.00000000,0.00000000,-0.59821057,1.21958244,1.23085797,1.14273858,-0.18169519,0.00000000,0.00000000
-0.13975352,-2.16997457,-0.76372480,-0.23582079,0.54464841,0.00000000,0.00000000,-0.73531443,1.04674292,1.25031483,1.13439381,-0.16485527,0.00000000,0.00000000
-0.14091460,-2.17000008,-0.77101904,-0.24576986,0.50955719,0.00000000,0.00000000,-0.88284129,0.86368287,1.26668799,1.10640395,-0.15594402,0.00000000,0.00000000
-0.14530274,-2.17000008,-0.77953625,-0.25357929,0.47834915,0.00000000,0.00000000,-1.03627944,0.67779970,1.27705467,1.05994260,-0.14086597,0.00000000,0.00000000
-0.15174825,-2.17000008,-0.78823501,-0.26438421,0.44703639,0.00000000,0.00000000,-1.19058919,0.49699184,1.27880478,0.99721736,-0.13598645,0.00000000,0.00000000
-0.15724726,-2.17000008,-0.79666543,-0.27855578,0.41249567,0.00000000,0.00000000,-1.34068906,0.32897025,1.27000177,0.92130989,-0.13136864,0.00000000,0.00000000
-0.16086388,-2.17000008,-0.80510277,-0.29515147,0.37974116,0.00000000,0.00000000,-1.48179948,0.18040887,1.24969006,0.83577448,-0.12617362,0.00000000,0.00000000
-0.16381268,-2.17000008,-0.81442606,-0.31325480,0.35007387,0.00000000,0.00000000,-1.60960150,0.05633279,1.21796536,0.74411941,-0.11456352,0.00000000,0.00000000
-0.16785757,-2.17000008,-0.82602847,-0.33100039,0.32495525,0.00000000,0.00000000,-1.72050691,-0.03982854,1.17577672,0.64958245,-0.10240699,0.00000000,0.00000000
-0.17350464,-2.17000008,-0.84093422,-0.34678164,0.30538499,0.00000000,0.00000000,-1.81232452,-0.10558215,1.12462151,0.55552012,-0.09177180,0.00000000,0.00000000
-0.17933764,-2.17000008,-0.85944593,-0.35954666,0.29502502,0.00000000,0.00000000,-1.88471723,-0.13902943,1.06638098,0.46583998,-0.08088674,0.00000000,0.00000000
-0.18222001,-2.17000008,-0.88113213,-0.36858171,0.28971070,0.00000000,0.00000000,-1.93991876,-0.14165495,1.00398886,0.38520509,-0.07153967,0.00000000,0.00000000
-0.18148223,-2.17000008,-0.90462232,-0.37681836,0.28410611,0.00000000,0.00000000,-1.98344254,-0.12284704,0.94217616,0.31781355,-0.06152392,0.00000000,0.00000000
-0.18055841,-2.17000008,-0.92866057,-0.38850701,0.28375918,0.00000000,0.00000000,-2.01995707,-0.09318275,0.88456446,0.26395425,-0.05560862,0.00000000,0.00000000
-0.18028340,-2.17000008,-0.95292878,-0.40211374,0.27838498,0.00000000,0.00000000,-2.05133963,-0.05860443,0.83253229,0.22136503,-0.04576669,0.00000000,0.00000000
-0.17794295,-2.17000008,-0.97723979,-0.41378748,0.27375802,0.00000000,0.00000000,-2.07831764,-0.02170094,0.78636450,0.18756959,-0.03075589,0.00000000,0.00000000
-0.17519434,-2.17000008,-1.00179124,-0.42385900,0.27162328,0.00000000,0.00000000,-2.10169601,0.01563603,0.74610263,0.16047068,-0.00751327,0.00000000,0.00000000
-0.17239588,-2.17000008,-1.02653933,-0.43255058,0.26289576,0.00000000,0.00000000,-2.12239289,0.05249590,0.71166551,0.13858746,0.01830898,0.00000000,0.00000000
-0.16838063,-2.17000008,-1.05088198,-0.43978369,0.25378418,0.00000000,0.00000000,-2.14096975,0.08809483,0.68291843,0.12051726,0.04159127,0.00000000,0.00000000
-0.16246060,-2.16999984,-1.07401490,-0.44600922,0.24699152,0.00000000,0.00000000,-2.15754461,0.12139168,0.65971649,0.10468107,0.06538709,0.00000000,0.00000000
-0.15482041,-2.16999102,-1.09523904,-0.45215660,0.23804648,0.00000000,0.00000000,-2.17207384,0.15137109,0.64191180,0.08960169,0.08929124,0.00000000,0.00000000
-0.14598145,-2.16989517,-1.11431015,-0.45878270,0.23102988,0.00000000,0.00000000,-2.18448019,0.17779493,0.62933230,0.07431702,0.10998321,0.00000000,0.00000000
-0.13555637,-2.16969204,-1.13095260,-0.46592799,0.23098041,0.00000000,0.00000000,-2.19474912,0.20079201,0.62180859,0.05813612,0.13269383,0.00000000,0.00000000
-0.12412469,-2.16968679,-1.14497495,-0.47427455,0.22895920,0.00000000,0.00000000,-2.20279408,0.22019845,0.61918533,0.04022915,0.14489931,0.00000000,0.00000000
-0.11227137,-2.16983128,-1.15641308,-0.48425329,0.22461553,0.00000000,0.00000000,-2.20861435,0.23607965,0.62131453,0.02001411,0.15449630,0.00000000,0.00000000
-0.10044071,-2.16995907,-1.16546798,-0.49602509,0.22849183,0.00000000,0.00000000,-2.21231484,0.24853866,0.62805384,-0.00293900,0.16033988,0.00000000,0.00000000
-0.08957393,-2.16999769,-1.17255557,-0.50996751,0.23478474,0.00000000,0.00000000,-2.21413922,0.25748610,0.63925475,-0.02906981,0.16169383,0.00000000,0.00000000
-0.08090329,-2.17000008,-1.17832720,-0.52663183,0.24000877,0.00000000,0.00000000,-2.21448040,0.26300895,0.65474975,-0.05865514,0.16354068,0.00000000,0.00000000
-0.07479002,-2.17000008,-1.18356895,-0.54611588,0.24808477,0.00000000,0.00000000,-2.21366310,0.26587021,0.67435557,-0.09170782,0.17200567,0.00000000,0.00000000
-0.07053083,-2.17000008,-1.18907058,-0.56805462,0.26033068,0.00000000,0.00000000,-2.21219969,0.26700950,0.69785744,-0.12799266,0.17614761,0.00000000,0.00000000
-0.06791525,-2.17000008,-1.19545436,-0.59251970,0.26959401,0.00000000,0.00000000,-2.21071219,0.26688260,0.72498262,-0.16743840,0.18646406,0.00000000,0.00000000
-0.06686469,-2.17000008,-1.20294416,-0.61977541,0.27745849,0.00000000,0.00000000,-2.20991945,0.26509836,0.75535303,-0.21028952,0.19530919,0.00000000,0.00000000
-0.06686322,-2.17000008,-1.21219492,-0.64975750,0.28377330,0.00000000,0.00000000,-2.21046638,0.26156634,0.78856140,-0.25679770,0.20482467,0.00000000,0.00000000
-0.06688476,-2.17000008,-1.22143400,-0.68339324,0.28829366,0.00000000,0.00000000,-2.21332455,0.25646451,0.82406020,-0.30694285,0.21314034,0.00000000,0.00000000
-0.06594268,-2.17000008,-1.22915232,-0.72124404,0.28735948,0.00000000,0.00000000,-2.22080851,0.24614839,0.86054587,-0.36152700,0.22530754,0.00000000,0.00000000
-0.06414531,-2.17000008,-1.23493636,-0.76194572,0.28710473,0.00000000,0.00000000,-2.23446369,0.22668627,0.89661789,-0.42120582,0.23545626,0.00000000,0.00000000
-0.06200169,-2.17000008,-1.23872316,-0.80374360,0.28116968,0.00000000,0.00000000,-2.25470853,0.19778255,0.93141514,-0.48396319,0.24159552,0.00000000,0.00000000
-0.05944355,-2.17000008,-1.24105883,-0.84530520,0.27390203,0.00000000,0.00000000,-2.28233409,0.16339183,0.96471065,-0.54568923,0.23903638,0.00000000,0.00000000
-0.05635181,-2.17000008,-1.24261367,-0.88583070,0.27471954,0.00000000,0.00000000,-2.31705475,0.12584051,0.99636066,-0.60499156,0.23261862,0.00000000,0.00000000
-0.05327390,-2.17000008,-1.24310446,-0.92524952,0.27394915,0.00000000,0.00000000,-2.35807633,0.08422054,1.02569282,-0.66295958,0.22547588,0.00000000,0.00000000
-0.05080178,-2.16999555,-1.24252188,-0.96268994,0.27280405,0.00000000,0.00000000,-2.40400529,0.03836602,1.05229557,-0.72058868,0.21289279,0.00000000,0.00000000
-0.04835899,-2.16992378,-1.24055362,-0.99570847,0.27588412,0.00000000,0.00000000,-2.45340395,-0.01201947,1.07562387,-0.77881414,0.19700222,0.00000000,0.00000000
-0.04591642,-2.16965103,-1.23675621,-1.02306294,0.27574810,0.00000000,0.00000000,-2.50451279,-0.06644813,1.09541333,-0.83811140,0.17777154,0.00000000,0.00000000
-0.04477324,-2.16920280,-1.23076534,-1.04533410,0.26883072,0.00000000,0.00000000,-2.55575037,-0.12414522,1.11140728,-0.89849651,0.15769169,0.00000000,0.00000000
-0.04567015,-2.16887736,-1.22204208,-1.06312418,0.26929420,0.00000000,0.00000000,-2.60563374,-0.18410924,1.12344027,-0.95964956,0.13554603,0.00000000,0.00000000
-0.04931101,-2.16915894,-1.21021211,-1.07735431,0.27598077,0.00000000,0.00000000,-2.65353084,-0.24531358,1.13119006,-1.02066731,0.11421890,0.00000000,0.00000000
-0.05555200,-2.16976166,-1.19580209,-1.08803988,0.28113902,0.00000000,0.00000000,-2.69958472,-0.30612463,1.13457108,-1.07985151,0.08744346,0.00000000,0.00000000
-0.06290239,-2.16998506,-1.18012607,-1.09380269,0.28484607,0.00000000,0.00000000,-2.74452496,-0.36451474,1.13378239,-1.13505590,0.05888813,0.00000000,0.00000000
-0.07145371,-2.17000008,-1.16419446,-1.09634340,0.28368032,0.00000000,0.00000000,-2.78832197,-0.41838190,1.12966049,-1.18460071,0.03118044,0.00000000,0.00000000
-0.08071669,-2.17000008,-1.14805782,-1.09940529,0.28165290,0.00000000,0.00000000,-2.83026505,-0.46551880,1.12391210,-1.22735381,0.00810824,0.00000000,0.00000000
-0.09012170,-2.17000008,-1.13212323,-1.10640395,0.27941328,0.00000000,0.00000000,-2.87001538,-0.50388509,1.11871850,-1.26238382,-0.00818475,0.00000000,0.00000000
-0.09936184,-2.17000008,-1.11729443,-1.11891460,0.27707547,0.00000000,0.00000000,-2.90681243,-0.53269047,1.11619449,-1.28973305,-0.02760202,0.00000000,0.00000000
-0.10746549,-2.17000008,-1.10387218,-1.13667941,0.27798352,0.00000000,0.00000000,-2.93927908,-0.55279481,1.11798751,-1.31053412,-0.04157882,0.00000000,0.00000000
-0.11449201,-2.17000008,-1.09335566,-1.15767741,0.27992094,0.00000000,0.00000000,-2.96609735,-0.56527174,1.12585044,-1.32598579,-0.05487695,0.00000000,0.00000000
-0.12080998,-2.16999888,-1.08832145,-1.17918217,0.27882734,0.00000000,0.00000000,-2.98626876,-0.57049173,1.14200032,-1.33693564,-0.07070199,0.00000000,0.00000000
-0.12641804,-2.16997337,-1.08927405,-1.19973147,0.28287458,0.00000000,0.00000000,-2.99957609,-0.56900209,1.16721010,-1.34362721,-0.09414487,0.00000000,0.00000000
-0.13079131,-2.16977811,-1.09215021,-1.21969211,0.28581336,0.00000000,0.00000000,-3.00671577,-0.56434399,1.19746566,-1.34618711,-0.12149833,0.00000000,0.00000000
-0.13375838,-2.16934514,-1.09246862,-1.24049449,0.28806692,0.00000000,0.00000000,-3.00941849,-0.55973983,1.22750735,-1.34417975,-0.15110964,0.00000000,0.00000000
-0.13544177,-2.16924882,-1.08866358,-1.26237977,0.29786849,0.00000000,0.00000000,-3.00973368,-0.55618060,1.25457191,-1.33701777,-0.17550175,0.00000000,0.00000000
-0.13565409,-2.16967177,-1.08171093,-1.28371322,0.30704728,0.00000000,0.00000000,-3.00837445,-0.55361849,1.27808237,-1.32474077,-0.19759622,0.00000000,0.00000000
-0.13476872,-2.16992617,-1.07449877,-1.30255246,0.31481966,0.00000000,0.00000000,-3.00447083,-0.55159920,1.29831278,-1.30783486,-0.21573590,0.00000000,0.00000000
-0.13321351,-2.16987991,-1.06936228,-1.31792378,0.32399514,0.00000000,0.00000000,-2.99813437,-0.54992980,1.31514835,-1.28688633,-0.22403853,0.00000000,0.00000000
-0.13077797,-2.16972113,-1.06654012,-1.33040965,0.32944655,0.00000000,0.00000000,-2.99024653,-0.54958069,1.32736981,-1.26268995,-0.23052475,0.00000000,0.00000000
-0.12627545,-2.16967392,-1.06480837,-1.34074736,0.33866823,0.00000000,0.00000000,-2.98141479,-0.55274826,1.33284962,-1.23675919,-0.23778188,0.00000000,0.00000000
-0.11796097,-2.16971517,-1.06317675,-1.34987628,0.34540051,0.00000000,0.00000000,-2.97075272,-0.56060737,1.33077908,-1.21191967,-0.23929363,0.00000000,0.00000000
-0.10463917,-2.16939569,-1.06224453,-1.35844457,0.35711756,0.00000000,0.00000000,-2.95723915,-0.57199037,1.32244742,-1.19036245,-0.23428710,0.00000000,0.00000000
-0.08673710,-2.16695499,-1.06449068,-1.36546350,0.36703917,0.00000000,0.00000000,-2.94178534,-0.58478957,1.30956626,-1.17000616,-0.22629994,0.00000000,0.00000000
-0.06539299,-2.15972042,-1.07140386,-1.37022126,0.37932542,0.00000000,0.00000000,-2.92527366,-0.59713936,1.29347694,-1.14760363,-0.21637315,0.00000000,0.00000000
-0.04186410,-2.14616132,-1.08269966,-1.37230146,0.39102057,0.00000000,0.00000000,-2.90861416,-0.60891706,1.27370417,-1.12101126,-0.20780618,0.00000000,0.00000000
-0.01667462,-2.12685132,-1.09687114,-1.37160146,0.40051219,0.00000000,0.00000000,-2.89188743,-0.62066728,1.24933016,-1.08955073,-0.20291464,0.00000000,0.00000000
0.01019758,-2.10420752,-1.11127603,-1.36892283,0.41118926,0.00000000,0.00000000,-2.87440920,-0.63373893,1.21925426,-1.05369329,-0.19454432,0.00000000,0.00000000
0.03759324,-2.07884765,-1.12575543,-1.36419356,0.42938483,0.00000000,0.00000000,-2.85616803,-0.64866161,1.18321347,-1.01341569,-0.18199347,0.00000000,0.00000000
0.06459151,-2.05146170,-1.14012671,-1.35747707,0.45537394,0.00000000,0.00000000,-2.83664298,-0.66593713,1.14154530,-0.96920276,-0.16982497,0.00000000,0.00000000
0.08960732,-2.02208686,-1.15528715,-1.34967780,0.48765695,0.00000000,0.00000000,-2.81635857,-0.68466032,1.09545457,-0.92051113,-0.16352725,0.00000000,0.00000000
0.11126204,-1.99130368,-1.17163682,-1.34249377,0.51993155,0.00000000,0.00000000,-2.79554820,-0.70386231,1.04632008,-0.86742055,-0.15724330,0.00000000,0.00000000
0.13034473,-1.95812011,-1.19014668,-1.33559930,0.55172831,0.00000000,0.00000000,-2.77432227,-0.72311687,0.99550015,-0.81155437,-0.14474279,0.00000000,0.00000000
0.15008880,-1.92267954,-1.21006346,-1.33004749,0.57965958,0.00000000,0.00000000,-2.75166512,-0.74461269,0.94348347,-0.75869173,-0.13068114,0.00000000,0.00000000
0.17447552,-1.88540065,-1.23041320,-1.32823718,0.61071056,0.00000000,0.00000000,-2.72872043,-0.76732147,0.89166480,-0.71280098,-0.11417460,0.00000000,0.00000000
0.20415032,-1.84793186,-1.25050104,-1.33194697,0.64523667,0.00000000,0.00000000,-2.70735836,-0.79252470,0.83999974,-0.67523283,-0.10020747,0.00000000,0.00000000
0.23735723,-1.81068885,-1.27165341,-1.34323633,0.67560667,0.00000000,0.00000000,-2.68776083,-0.81736159,0.78999078,-0.64467549,-0.08349476,0.00000000,0.00000000
0.27353606,-1.77421832,-1.29461718,-1.36278856,0.70290285,0.00000000,0.00000000,-2.66992116,-0.83941567,0.74275839,-0.61961037,-0.06451656,0.00000000,0.00000000
0.31223765,-1.74042320,-1.31888366,-1.38820589,0.72771651,0.00000000,0.00000000,-2.65360808,-0.85881740,0.69841951,-0.59950554,-0.04784937,0.00000000,0.00000000
0.35093009,-1.70982254,-1.34575748,-1.41545737,0.74999422,0.00000000,0.00000000,-2.63890433,-0.87750500,0.65629047,-0.58460045,-0.03716689,0.00000000,0.00000000
0.38920811,-1.68325531,-1.37526798,-1.44048095,0.76955408,0.00000000,0.00000000,-2.62588573,-0.89666408,0.61584026,-0.57483131,-0.03082801,0.00000000,0.00000000
0.42650521,-1.66141105,-1.40742981,-1.46244764,0.79396701,0.00000000,0.00000000,-2.61471558,-0.91568583,0.57695949,-0.56934249,-0.02723070,0.00000000,0.00000000
0.46177751,-1.64501309,-1.44190800,-1.48249710,0.81280214,0.00000000,0.00000000,-2.60523725,-0.93395483,0.53962487,-0.56745434,-0.02503192,0.00000000,0.00000000
0.49481246,-1.63463593,-1.47794247,-1.50148451,0.83163166,0.00000000,0.00000000,-2.59701109,-0.95084161,0.50393707,-0.56862319,-0.02333664,0.00000000,0.00000000
0.52604675,-1.63060737,-1.51448607,-1.52002096,0.85328257,0.00000000,0.00000000,-2.58952618,-0.96596348,0.47002929,-0.57253021,-0.02333957,0.00000000,0.00000000
0.55615795,-1.63282144,-1.55052781,-1.53864801,0.87910998,0.00000000,0.00000000,-2.58240175,-0.97869402,0.43802926,-0.57870865,-0.03373912,0.00000000,0.00000000
0.58629102,-1.64081824,-1.58473504,-1.55811155,0.89383668,0.00000000,0.00000000,-2.57498288,-0.98793221,0.40822783,-0.58654344,-0.04255244,0.00000000,0.00000000
0.61724573,-1.65226078,-1.61620736,-1.57879102,0.90189916,0.00000000,0.00000000,-2.56669879,-0.99245131,0.38088748,-0.59537584,-0.05115230,0.00000000,0.00000000
0.64768988,-1.66507936,-1.64431143,-1.60004902,0.90672565,0.00000000,0.00000000,-2.55820274,-0.99344724,0.35540158,-0.60558176,-0.06080018,0.00000000,0.00000000
0.67600948,-1.67923689,-1.66851401,-1.62114930,0.90588886,0.00000000,0.00000000,-2.55044937,-0.99198586,0.33099812,-0.61740398,-0.06686495,0.00000000,0.00000000
0.70133305,-1.69480181,-1.68824804,-1.64170516,0.90493381,0.00000000,0.00000000,-2.54393649,-0.98882532,0.30708134,-0.63106734,-0.07384932,0.00000000,0.00000000
0.72291112,-1.71181023,-1.70332682,-1.66153967,0.89981383,0.00000000,0.00000000,-2.53891611,-0.98370975,0.28331783,-0.64632404,-0.07584216,0.00000000,0.00000000
0.74013460,-1.73016417,-1.71379411,-1.68073189,0.89111578,0.00000000,0.00000000,-2.53518987,-0.97582638,0.25965956,-0.66272980,-0.07916123,0.00000000,0.00000000
0.75265908,-1.74959683,-1.71959198,-1.69945252,0.88004059,0.00000000,0.00000000,-2.53211021,-0.96460497,0.23625165,-0.68008500,-0.08081826,0.00000000,0.00000000
0.76027811,-1.76989007,-1.72078073,-1.71772027,0.86688423,0.00000000,0.00000000,-2.52861309,-0.94944769,0.21352188,-0.69822878,-0.08133000,0.00000000,0.00000000
0.76293617,-1.79086125,-1.71790361,-1.73492694,0.85147840,0.00000000,0.00000000,-2.52334142,-0.92961562,0.19220494,-0.71690303,-0.08358367,0.00000000,0.00000000
0.76047081,-1.81228828,-1.71153963,-1.75020111,0.84423733,0.00000000,0.00000000,-2.51586556,-0.90533864,0.17263772,-0.73618293,-0.08502758,0.00000000,0.00000000
0.75374466,-1.83451593,-1.70204484,-1.76336181,0.84136152,0.00000000,0.00000000,-2.50560188,-0.87474263,0.15550789,-0.75470144,-0.09507509,0.00000000,0.00000000
0.74550807,-1.85833526,-1.68942249,-1.77455711,0.83553433,0.00000000,0.00000000,-2.48987460,-0.83423668,0.14268824,-0.77016169,-0.10116050,0.00000000,0.00000000
0.73984319,-1.88481462,-1.67379463,-1.78336036,0.82932252,0.00000000,0.00000000,-2.46431088,-0.77992988,0.13674417,-0.77979165,-0.10733132,0.00000000,0.00000000
0.73872298,-1.91408122,-1.65701699,-1.78836560,0.82251710,0.00000000,0.00000000,-2.42472720,-0.70821291,0.13976517,-0.77926320,-0.10957209,0.00000000,0.00000000
0.74215895,-1.94444358,-1.64235640,-1.78811789,0.82673866,0.00000000,0.00000000,-2.37108898,-0.61300540,0.15159465,-0.76104170,-0.11777446,0.00000000,0.00000000
0.74941564,-1.97355592,-1.63225484,-1.78226256,0.82929105,0.00000000,0.00000000,-2.30435801,-0.49393180,0.17091016,-0.72281891,-0.12056297,0.00000000,0.00000000
0.75913763,-1.99948251,-1.62859714,-1.77151072,0.83123726,0.00000000,0.00000000,-2.22487068,-0.35322952,0.19641607,-0.66542161,-0.12668709,0.00000000,0.00000000
0.76955163,-2.02088261,-1.63217533,-1.75725079,0.83304006,0.00000000,0.00000000,-2.13317895,-0.19503424,0.22684485,-0.59137011,-0.12358730,0.00000000,0.00000000
0.77781314,-2.03742719,-1.64071572,-1.74227905,0.83247268,0.00000000,0.00000000,-2.02738380,-0.02983989,0.26176563,-0.50989008,-0.11375616,0.00000000,0.00000000
0.78035200,-2.04893184,-1.65076900,-1.73005080,0.84220695,0.00000000,0.00000000,-1.90111244,0.12628572,0.30236048,-0.43879673,-0.10373880,0.00000000,0.00000000
0.77616304,-2.05567312,-1.66003561,-1.72089815,0.85692269,0.00000000,0.00000000,-1.75992596,0.26024920,0.34638694,-0.38971472,-0.09323578,0.00000000,0.00000000
0.76641190,-2.05845714,-1.66823316,-1.71289778,0.87818134,0.00000000,0.00000000,-1.60934973,0.37029389,0.39252275,-0.36365676,-0.08128938,0.00000000,0.00000000
0.75234735,-2.05789447,-1.67610788,-1.70426071,0.89266932,0.00000000,0.00000000,-1.45365977,0.45612165,0.43985420,-0.35947254,-0.06213683,0.00000000,0.00000000
0.73406971,-2.05432725,-1.68387890,-1.69459486,0.91748196,0.00000000,0.00000000,-1.29850805,0.51642138,0.48657483,-0.37492502,-0.04689140,0.00000000,0.00000000
0.71063018,-2.04792929,-1.69144678,-1.68490458,0.95377308,0.00000000,0.00000000,-1.14971745,0.55199420,0.53047633,-0.40536547,-0.03274323,0.00000000,0.00000000
0.68203962,-2.03872728,-1.69898772,-1.67518735,0.98991936,0.00000000,0.00000000,-1.01175869,0.56658006,0.56969267,-0.44480726,-0.01669955,0.00000000,0.00000000
0.64869618,-2.02702641,-1.70614302,-1.66524577,1.03122377,0.00000000,0.00000000,-0.88774425,0.56546360,0.60290146,-0.48742360,-0.00051622,0.00000000,0.00000000
0.61056423,-2.01349235,-1.71185958,-1.65559638,1.07241476,0.00000000,0.00000000,-0.77995557,0.55396420,0.62926561,-0.52840912,0.02411327,0.00000000,0.00000000
0.56853336,-1.99933207,-1.71453440,-1.64595544,1.12354255,0.00000000,0.00000000,-0.69007784,0.53726292,0.64845383,-0.56374741,0.04358521,0.00000000,0.00000000
0.52338183,-1.98583174,-1.71275139,-1.63624740,1.17853665,0.00000000,0.00000000,-0.61924553,0.52044135,0.66064394,-0.58985990,0.06911750,0.00000000,0.00000000
0.47549132,-1.97402477,-1.70555890,-1.62694466,1.23968494,0.00000000,0.00000000,-0.56792843,0.50742334,0.66637176,-0.60427707,0.08562919,0.00000000,0.00000000
0.42574620,-1.96506262,-1.69193435,-1.61865127,1.29492188,0.00000000,0.00000000,-0.53534830,0.50009131,0.66665626,-0.60665596,0.10656331,0.00000000,0.00000000
0.37613916,-1.95917070,-1.67277849,-1.61282873,1.35323846,0.00000000,0.00000000,-0.51863855,0.49760064,0.66321582,-0.60025179,0.13958436,0.00000000,0.00000000
0.33062851,-1.95595658,-1.65022528,-1.61185849,1.40695763,0.00000000,0.00000000,-0.51430559,0.49962944,0.65800428,-0.58887559,0.16376463,0.00000000,0.00000000
0.29211012,-1.95561755,-1.62463748,-1.61645734,1.45659328,0.00000000,0.00000000,-0.52015990,0.50602973,0.65217471,-0.57519847,0.19306988,0.00000000,0.00000000
0.26261482,-1.95695829,-1.59837377,-1.62397563,1.50589013,0.00000000,0.00000000,-0.53419459,0.51598126,0.64658618,-0.56128508,0.22052120,0.00000000,0.00000000
0.24060842,-1.95866764,-1.57387710,-1.63126624,1.55256414,0.00000000,0.00000000,-0.55734605,0.52861464,0.64054102,-0.54683059,0.25404570,0.00000000,0.00000000
0.22214940,-1.96033502,-1.55227196,-1.63531780,1.59996223,0.00000000,0.00000000,-0.59335256,0.54226708,0.63176489,-0.53028518,0.28280151,0.00000000,0.00000000
0.20582077,-1.96282995,-1.53252041,-1.63313961,1.64104795,0.00000000,0.00000000,-0.64608586,0.55560815,0.61792642,-0.50980240,0.32489395,0.00000000,0.00000000
0.19054559,-1.96706748,-1.51346743,-1.62472749,1.68118405,0.00000000,0.00000000,-0.71775609,0.57004970,0.59787422,-0.48273557,0.37074482,0.00000000,0.00000000
0.17674570,-1.97301507,-1.49542069,-1.60926914,1.72056770,0.00000000,0.00000000,-0.80802321,0.58569926,0.57178956,-0.44878805,0.41492274,0.00000000,0.00000000
0.16483210,-1.98042786,-1.47922301,-1.58587468,1.76218700,0.00000000,0.00000000,-0.91566873,0.60083419,0.54028583,-0.40921730,0.45284685,0.00000000,0.00000000
0.15481588,-1.98930538,-1.46512949,-1.55415201,1.80913067,0.00000000,0.00000000,-1.03934300,0.61276585,0.50407475,-0.36563382,0.48699307,0.00000000,0.00000000
0.14663480,-1.99935853,-1.45363593,-1.51364648,1.84857738,0.00000000,0.00000000,-1.17751288,0.61862779,0.46398816,-0.31958693,0.51888537,0.00000000,0.00000000
0.14050935,-2.01041222,-1.44461226,-1.46373105,1.88834238,0.00000000,0.00000000,-1.32855523,0.61462981,0.42090270,-0.27330297,0.55309242,0.00000000,0.00000000
0.13670051,-2.02236962,-1.43712747,-1.40376472,1.91783464,0.00000000,0.00000000,-1.49077094,0.59605718,0.37573740,-0.23006587,0.58734566,0.00000000,0.00000000
0.13528109,-2.03515649,-1.42987704,-1.33326638,1.95890033,0.00000000,0.00000000,-1.66231048,0.55807662,0.32946998,-0.19414696,0.61476892,0.00000000,0.00000000
0.13563831,-2.04832244,-1.42157149,-1.25227010,1.99394906,0.00000000,0.00000000,-1.84058380,0.49633709,0.28319618,-0.17068745,0.64807135,0.00000000,0.00000000
0.13646817,-2.06105971,-1.41093016,-1.16163218,2.02761078,0.00000000,0.00000000,-2.01956511,0.40984574,0.23856838,-0.16444060,0.67917699,0.00000000,0.00000000
0.13809034,-2.07250714,-1.39693034,-1.06199515,2.05947113,0.00000000,0.00000000,-2.18822980,0.30501345,0.19790865,-0.17674758,0.70646977,0.00000000,0.00000000
0.14230105,-2.08086228,-1.37992978,-0.95356345,2.09150887,0.00000000,0.00000000,-2.33782291,0.18985303,0.16263430,-0.20571691,0.73336405,0.00000000,0.00000000
0.14830129,-2.08611178,-1.36005104,-0.84189767,2.12324452,0.00000000,0.00000000,-2.46294475,0.07146771,0.13350083,-0.24782917,0.75684619,0.00000000,0.00000000
0.15400916,-2.08952975,-1.33706009,-0.73837537,2.15552282,0.00000000,0.00000000,-2.56057358,-0.04359274,0.11103549,-0.29915258,0.77894193,0.00000000,0.00000000
0.15928282,-2.08956170,-1.31216216,-0.64634585,2.18892503,0.00000000,0.00000000,-2.62940764,-0.15122850,0.09559835,-0.35713294,0.79390931,0.00000000,0.00000000
0.16402163,-2.08553839,-1.28619921,-0.56572634,2.21924973,0.00000000,0.00000000,-2.66943884,-0.24949233,0.08735346,-0.42050031,0.81543618,0.00000000,0.00000000
0.16892576,-2.08032417,-1.25857770,-0.49624336,2.25403047,0.00000000,0.00000000,-2.68225241,-0.33760995,0.08605346,-0.48861974,0.83654839,0.00000000,0.00000000
0.17436613,-2.07715535,-1.22865367,-0.43669552,2.28217506,0.00000000,0.00000000,-2.67208362,-0.41534737,0.09064093,-0.56122500,0.84660929,0.00000000,0.00000000
0.17871176,-2.07514429,-1.19718623,-0.38442865,2.31069040,0.00000000,0.00000000,-2.64460468,-0.48324239,0.09939642,-0.63854444,0.85962015,0.00000000,0.00000000
0.18525326,-2.07452178,-1.16420937,-0.33537284,2.33720398,0.00000000,0.00000000,-2.60576844,-0.54226977,0.11016165,-0.72102797,0.87623477,0.00000000,0.00000000
0.19416286,-2.07555914,-1.12998724,-0.28914431,2.35779047,0.00000000,0.00000000,-2.56073833,-0.59237581,0.12058284,-0.80837435,0.88428175,0.00000000,0.00000000
0.20483495,-2.07816482,-1.09491646,-0.24612387,2.38405228,0.00000000,0.00000000,-2.51392841,-0.63228476,0.12804841,-0.89914745,0.88519210,0.00000000,0.00000000
0.21560623,-2.08309197,-1.05929518,-0.20730783,2.40656781,0.00000000,0.00000000,-2.46861625,-0.65854341,0.13028280,-0.98788518,0.88638270,0.00000000,0.00000000
0.22348306,-2.09103322,-1.02349484,-0.17419493,2.42923260,0.00000000,0.00000000,-2.42745018,-0.66584337,0.12519431,-1.06331813,0.87795949,0.00000000,0.00000000
0.22542645,-2.10177422,-0.98796117,-0.14802867,2.44724154,0.00000000,0.00000000,-2.39105058,-0.65507710,0.11097856,-1.12255716,0.86295617,0.00000000,0.00000000
0.21972908,-2.11413097,-0.95309186,-0.12916364,2.46382713,0.00000000,0.00000000,-2.35880995,-0.62775540,0.08636438,-1.16633868,0.84976751,0.00000000,0.00000000
0.20519678,-2.12712884,-0.91917181,-0.11786342,2.48009109,0.00000000,0.00000000,-2.33043432,-0.58469826,0.05003030,-1.19548655,0.83890027,0.00000000,0.00000000
0.18104589,-2.13992977,-0.88639575,-0.11430274,2.49867725,0.00000000,0.00000000,-2.30649781,-0.52612406,0.00031617,-1.21087909,0.82806492,0.00000000,0.00000000
0.14684980,-2.15172482,-0.85489738,-0.11845087,2.52152848,0.00000000,0.00000000,-2.28819323,-0.45117995,-0.06453828,-1.21328592,0.82217020,0.00000000,0.00000000
0.10416501,-2.16168261,-0.82469881,-0.12935923,2.53685260,0.00000000,0.00000000,-2.27365208,-0.35919756,-0.14361548,-1.20703936,0.81478792,0.00000000,0.00000000
0.05857149,-2.16809845,-0.79570717,-0.14361702,2.54612494,0.00000000,0.00000000,-2.25036621,-0.25046211,-0.22809750,-1.20137203,0.80842084,0.00000000,0.00000000
0.01315769,-2.16988707,-0.76816005,-0.15698610,2.54557252,0.00000000,0.00000000,-2.20384407,-0.12070658,-0.30842540,-1.19458723,0.80586320,0.00000000,0.00000000
-0.03303953,-2.17000008,-0.74264818,-0.16603534,2.54769325,0.00000000,0.00000000,-2.12692285,0.03392044,-0.38016823,-1.18110991,0.78972507,0.00000000,0.00000000
-0.08399700,-2.16994119,-0.71969318,-0.17092003,2.54763508,0.00000000,0.00000000,-2.01795602,0.21413910,-0.44183591,-1.15697265,0.77196813,0.00000000,0.00000000
-0.13916199,-2.16901350,-0.69896936,-0.17300005,2.54847932,0.00000000,0.00000000,-1.87848675,0.41766819,-0.49274254,-1.11984861,0.76097059,0.00000000,0.00000000
-0.19544835,-2.16570544,-0.67963904,-0.17406826,2.54704881,0.00000000,0.00000000,-1.71268606,0.63910615,-0.53233373,-1.06923866,0.75047886,0.00000000,0.00000000
-0.24923182,-2.16073489,-0.66085202,-0.17526738,2.54580832,0.00000000,0.00000000,-1.52717900,0.87054807,-0.56015408,-1.00646651,0.74157071,0.00000000,0.00000000
-0.29825133,-2.15499926,-0.64217138,-0.17622696,2.53456593,0.00000000,0.00000000,-1.33050585,1.10262752,-0.57598358,-0.93439561,0.73551762,0.00000000,0.00000000
-0.34074348,-2.14780831,-0.62345594,-0.17537947,2.52464294,0.00000000,0.00000000,-1.13216567,1.32574737,-0.57999402,-0.85692400,0.72931147,0.00000000,0.00000000
-0.37480819,-2.13823867,-0.60461336,-0.17113815,2.51170921,0.00000000,0.00000000,-0.94146740,1.53094816,-0.57280958,-0.77844876,0.72270179,0.00000000,0.00000000
-0.39890346,-2.12664008,-0.58553350,-0.16285864,2.50292921,0.00000000,0.00000000,-0.76650000,1.71067405,-0.55549651,-0.70326579,0.70939445,0.00000000,0.00000000
-0.41256672,-2.11368608,-0.56621706,-0.15069313,2.49707341,0.00000000,0.00000000,-0.61345077,1.85938311,-0.52942532,-0.63498729,0.70175147,0.00000000,0.00000000
-0.41631305,-2.09956050,-0.54681265,-0.13514669,2.48635769,0.00000000,0.00000000,-0.48618850,1.97393835,-0.49603498,-0.57613176,0.68817234,0.00000000,0.00000000
-0.41107437,-2.08464813,-0.52751344,-0.11707282,2.47938251,0.00000000,0.00000000,-0.38572502,2.05415940,-0.45659786,-0.52782840,0.66841072,0.00000000,0.00000000
-0.39807382,-2.06954098,-0.50853407,-0.09755341,2.48404789,0.00000000,0.00000000,-0.31001583,2.10389376,-0.41217944,-0.48925382,0.64800358,0.00000000,0.00000000
-0.37843499,-2.05599475,-0.49004450,-0.07816244,2.47923899,0.00000000,0.00000000,-0.25433609,2.13083959,-0.36420605,-0.45735508,0.63045686,0.00000000,0.00000000
-0.35348776,-2.04665399,-0.47218257,-0.06088488,2.47449374,0.00000000,0.00000000,-0.21260676,2.14488888,-0.31484640,-0.42751148,0.60685802,0.00000000,0.00000000
-0.32489580,-2.04330921,-0.45507452,-0.04723023,2.46481824,0.00000000,0.00000000,-0.17987768,2.15385485,-0.26592854,-0.39590082,0.58756673,0.00000000,0.00000000
-0.29456219,-2.04647255,-0.43882903,-0.03802048,2.46570897,0.00000000,0.00000000,-0.15298682,2.16094518,-0.21840355,-0.36090139,0.56685245,0.00000000,0.00000000
-0.26346871,-2.05562019,-0.42349574,-0.03310501,2.46868873,0.00000000,0.00000000,-0.13053145,2.16631937,-0.17260140,-0.32227921,0.55183297,0.00000000,0.00000000
-0.23213957,-2.06971526,-0.40907970,-0.03190500,2.46615005,0.00000000,0.00000000,-0.11199571,2.16923118,-0.12865788,-0.28056678,0.52914703,0.00000000,0.00000000
-0.20110644,-2.08713341,-0.39556512,-0.03359845,2.45553088,0.00000000,0.00000000,-0.09714814,2.16995573,-0.08670159,-0.23726794,0.50554168,0.00000000,0.00000000
-0.17115009,-2.10600948,-0.38292649,-0.03737410,2.44253302,0.00000000,0.00000000,-0.08563408,2.17000008,-0.04693912,-0.19444568,0.48152146,0.00000000,0.00000000
-0.14267570,-2.12501025,-0.37111828,-0.04273317,2.43050098,0.00000000,0.00000000,-0.07724188,2.17000008,-0.00958971,-0.15413406,0.45718190,0.00000000,0.00000000
-0.11635274,-2.14287710,-0.36010644,-0.04937961,2.42638612,0.00000000,0.00000000,-0.07165567,2.17000008,0.02514951,-0.11826584,0.42927289,0.00000000,0.00000000
-0.09401157,-2.15701938,-0.34991226,-0.05659558,2.42838168,0.00000000,0.00000000,-0.06780887,2.17000008,0.05708832,-0.08863373,0.39985794,0.00000000,0.00000000
-0.07620671,-2.16591263,-0.34052184,-0.06400702,2.42680812,0.00000000,0.00000000,-0.06494784,2.17000008,0.08616313,-0.06630939,0.37600654,0.00000000,0.00000000
-0.06289700,-2.16934729,-0.33192489,-0.07075169,2.41661453,0.00000000,0.00000000,-0.06297995,2.17000008,0.11243786,-0.05187200,0.35760283,0.00000000,0.00000000
-0.05484742,-2.16996717,-0.32417277,-0.07522097,2.41372514,0.00000000,0.00000000,-0.06168085,2.17000008,0.13603480,-0.04563643,0.33472735,0.00000000,0.00000000
-0.05294176,-2.17000008,-0.31730923,-0.07644540,2.41104078,0.00000000,0.00000000,-0.06019448,2.17000008,0.15710559,-0.04692024,0.31265572,0.00000000,0.00000000
-0.05714344,-2.17000008,-0.31132117,-0.07393542,2.40871739,0.00000000,0.00000000,-0.05796595,2.16998935,0.17584810,-0.05409762,0.28814456,0.00000000,0.00000000
-0.06661881,-2.16999817,-0.30613947,-0.06767562,2.41481423,0.00000000,0.00000000,-0.05475023,2.16974187,0.19249843,-0.06488978,0.25785384,0.00000000,0.00000000
-0.08063141,-2.16989303,-0.30167791,-0.05861854,2.41931581,0.00000000,0.00000000,-0.05027812,2.16788554,0.20731534,-0.07670015,0.22891752,0.00000000,0.00000000
-0.09861647,-2.16856956,-0.29785401,-0.04831218,2.42865396,0.00000000,0.00000000,-0.04433357,2.16236925,0.22056669,-0.08719919,0.20392257,0.00000000,0.00000000
-0.11966737,-2.16394067,-0.29459259,-0.03813157,2.43191195,0.00000000,0.00000000,-0.03715480,2.15392733,0.23252073,-0.09516158,0.18247901,0.00000000,0.00000000
-0.14292417,-2.15684390,-0.29184180,-0.02907761,2.43263459,0.00000000,0.00000000,-0.02924363,2.14396834,0.24342772,-0.10020382,0.15553239,0.00000000,0.00000000
-0.16785070,-2.14934421,-0.28957120,-0.02205702,2.43227363,0.00000000,0.00000000,-0.02088188,2.13302207,0.25348276,-0.10244857,0.13005044,0.00000000,0.00000000
-0.19450665,-2.14308238,-0.28776580,-0.01787871,2.43111277,0.00000000,0.00000000,-0.01223069,2.12047076,0.26282233,-0.10269975,0.10736237,0.00000000,0.00000000
-0.22398093,-2.14041400,-0.28641611,-0.01804920,2.42078137,0.00000000,0.00000000,-0.00290907,2.10611939,0.27152944,-0.10161345,0.09158947,0.00000000,0.00000000
-0.25485432,-2.14240098,-0.28547600,-0.02302211,2.41548347,0.00000000,0.00000000,0.00760627,2.09160924,0.27968690,-0.09889154,0.07523090,0.00000000,0.00000000
-0.28081968,-2.14689565,-0.28482288,-0.03064265,2.40609241,0.00000000,0.00000000,0.01892445,2.07810712,0.28740934,-0.09453907,0.06941029,0.00000000,0.00000000
-0.30409768,-2.15259552,-0.28438529,-0.04060367,2.40093780,0.00000000,0.00000000,0.03199776,2.06636238,0.29471642,-0.08850378,0.05527324,0.00000000,0.00000000
-0.32420847,-2.15915370,-0.28402907,-0.05256509,2.39371324,0.00000000,0.00000000,0.04567171,2.05668020,0.30171549,-0.08121606,0.04611340,0.00000000,0.00000000
-0.33957225,-2.16500616,-0.28359705,-0.06522381,2.38341475,0.00000000,0.00000000,0.05875880,2.04892612,0.30848849,-0.07312477,0.03101964,0.00000000,0.00000000
-0.34999710,-2.16876841,-0.28294629,-0.07762533,2.38117552,0.00000000,0.00000000,0.07108025,2.04294705,0.31504571,-0.06436138,0.01618249,0.00000000,0.00000000
-0.35560331,-2.16989398,-0.28195351,-0.08878278,2.38372946,0.00000000,0.00000000,0.08223093,2.03820348,0.32138959,-0.05532764,0.00136624,0.00000000,0.00000000
-0.35681561,-2.16999769,-0.28053313,-0.09762146,2.39224696,0.00000000,0.00000000,0.09192736,2.03359509,0.32750323,-0.04681031,-0.01473504,0.00000000,0.00000000
-0.35360262,-2.17000008,-0.27860102,-0.10328842,2.39645267,0.00000000,0.00000000,0.09978989,2.02859330,0.33337492,-0.03935859,-0.03047673,0.00000000,0.00000000
-0.34553128,-2.17000008,-0.27607623,-0.10530895,2.40040183,0.00000000,0.00000000,0.10556083,2.02324128,0.33899763,-0.03316437,-0.04925966,0.00000000,0.00000000
-0.33232152,-2.17000008,-0.27292010,-0.10346466,2.40618539,0.00000000,0.00000000,0.10918286,2.01779962,0.34436652,-0.02817883,-0.06510283,0.00000000,0.00000000
-0.31395912,-2.17000008,-0.26915115,-0.09757570,2.40893388,0.00000000,0.00000000,0.11086068,2.01250792,0.34947959,-0.02427566,-0.08174647,0.00000000,0.00000000
-0.29060945,-2.17000008,-0.26482871,-0.08782770,2.42264223,0.00000000,0.00000000,0.11121760,2.00761294,0.35433596,-0.02122304,-0.10011669,0.00000000,0.00000000
-0.26238376,-2.17000008,-0.26004010,-0.07466907,2.43314242,0.00000000,0.00000000,0.11079665,2.00329280,0.35894242,-0.01883498,-0.11530723,0.00000000,0.00000000
-0.22960167,-2.17000008,-0.25490749,-0.05886889,2.44651294,0.00000000,0.00000000,0.11010069,1.99971437,0.36331126,-0.01693647,-0.13335033,0.00000000,0.00000000
-0.19292715,-2.17000008,-0.24958020,-0.04148248,2.45164514,0.00000000,0.00000000,0.10951442,1.99707687,0.36745879,-0.01534877,-0.14521272,0.00000000,0.00000000
-0.15343168,-2.17000008,-0.24421987,-0.02372557,2.44896173,0.00000000,0.00000000,0.10938675,1.99561465,0.37140307,-0.01385985,-0.15729912,0.00000000,0.00000000
-0.11233830,-2.17000008,-0.23897177,-0.00660474,2.44320631,0.00000000,0.00000000,0.10985520,1.99544334,0.37516302,-0.01234642,-0.16862078,0.00000000,0.00000000
-0.07132991,-2.17000008,-0.23395321,0.00880198,2.43643904,0.00000000,0.00000000,0.11111933,1.99662006,0.37875611,-0.01068538,-0.18167950,0.00000000,0.00000000
-0.03182823,-2.17000008,-0.22923802,0.02103368,2.43710375,0.00000000,0.00000000,0.11316197,1.99931371,0.38219947,-0.00873924,-0.19663158,0.00000000,0.00000000
0.00498887,-2.17000008,-0.22485642,0.02964481,2.43844438,0.00000000,0.00000000,0.11560319,2.00344658,0.38550970,-0.00657745,-0.20485112,0.00000000,0.00000000
0.03764636,-2.17000008,-0.22079909,0.03449825,2.44274378,0.00000000,0.00000000,0.11856240,2.00895810,0.38869926,-0.00418073,-0.20662738,0.00000000,0.00000000
0.06453261,-2.17000008,-0.21702534,0.03561630,2.44250441,0.00000000,0.00000000,0.12236747,2.01545620,0.39177728,-0.00166672,-0.21619523,0.00000000,0.00000000
0.08493532,-2.17000008,-0.21350206,0.03298471,2.44723892,0.00000000,0.00000000,0.12688236,2.02270627,0.39475256,0.00085579,-0.22253965,0.00000000,0.00000000
0.09887589,-2.17000008,-0.21021159,0.02679024,2.45157313,0.00000000,0.00000000,0.13183363,2.03056049,0.39763248,0.00332265,-0.22837725,0.00000000,0.00000000
0.10652748,-2.17000008,-0.20714407,0.01748037,2.45688057,0.00000000,0.00000000,0.13703838,2.03907347,0.40042204,0.00578985,-0.23128194,0.00000000,0.00000000
0.10834169,-2.17000008,-0.20429944,0.00573475,2.46015239,0.00000000,0.00000000,0.14230989,2.04818773,0.40312427,0.00826873,-0.23123191,0.00000000,0.00000000
0.10478345,-2.17000008,-0.20168386,-0.00749811,2.46764421,0.00000000,0.00000000,0.14751852,2.05769300,0.40574089,0.01072795,-0.22572729,0.00000000,0.00000000
0.09584020,-2.17000008,-0.19930655,-0.02125346,2.48146677,0.00000000,0.00000000,0.15280813,2.06736970,0.40827289,0.01317239,-0.21763848,0.00000000,0.00000000
0.08202320,-2.17000008,-0.19717249,-0.03424980,2.49043369,0.00000000,0.00000000,0.15795700,2.07701945,0.41071695,0.01550819,-0.20973901,0.00000000,0.00000000
0.06430418,-2.17000008,-0.19527213,-0.04503687,2.50287485,0.00000000,0.00000000,0.16253677,2.08653545,0.41306666,0.01765248,-0.19741695,0.00000000,0.00000000
0.04350404,-2.17000008,-0.19358391,-0.05245731,2.51032901,0.00000000,0.00000000,0.16622351,2.09582806,0.41531482,0.01952368,-0.18431844,0.00000000,0.00000000
