isaac-sim2real/sage/motion_files/wr75s/amass/0-Eyes_Japan_Dataset_hamada_gesture_etc-34-peace-hamada_poses_idx46.txt
l_joint1,l_joint2,l_joint3,l_joint4,l_joint5,l_joint6,l_joint7,r_joint1,r_joint2,r_joint3,r_joint4,r_joint5,r_joint6,r_joint7
-2.39317489,-0.55987877,-0.12096199,-0.47701055,0.17282169,0.00000000,0.00000000,-1.69450152,0.66575760,0.27439252,-0.40837267,0.02156598,0.00000000,0.00000000
-2.39288044,-0.55956417,-0.12115900,-0.47681779,0.18970990,0.00000000,0.00000000,-1.69489765,0.66502595,0.27356496,-0.40878338,0.03302715,0.00000000,0.00000000
-2.39226627,-0.55940741,-0.12174266,-0.47662568,0.20626074,0.00000000,0.00000000,-1.69509065,0.66428864,0.27235043,-0.40940955,0.04819922,0.00000000,0.00000000
-2.39127755,-0.55971181,-0.12284234,-0.47654933,0.21945417,0.00000000,0.00000000,-1.69460177,0.66407877,0.27106541,-0.41015044,0.06574062,0.00000000,0.00000000
-2.38989282,-0.56045657,-0.12448752,-0.47659388,0.23638886,0.00000000,0.00000000,-1.69322431,0.66465241,0.26984146,-0.41095841,0.08584812,0.00000000,0.00000000
-2.38815045,-0.56145185,-0.12666444,-0.47670650,0.25438499,0.00000000,0.00000000,-1.69098878,0.66597921,0.26864856,-0.41183785,0.10746374,0.00000000,0.00000000
-2.38610291,-0.56251913,-0.12934016,-0.47682992,0.27124581,0.00000000,0.00000000,-1.68803251,0.66791642,0.26738456,-0.41280916,0.13037741,0.00000000,0.00000000
-2.38377070,-0.56354916,-0.13248236,-0.47693801,0.28648189,0.00000000,0.00000000,-1.68448675,0.67043608,0.26595512,-0.41383499,0.15415396,0.00000000,0.00000000
-2.38115358,-0.56445229,-0.13605903,-0.47699964,0.29913363,0.00000000,0.00000000,-1.68047261,0.67357570,0.26427358,-0.41483811,0.17314185,0.00000000,0.00000000
-2.37825084,-0.56514251,-0.14003685,-0.47694114,0.30997208,0.00000000,0.00000000,-1.67613530,0.67731249,0.26223454,-0.41574299,0.19175750,0.00000000,0.00000000
-2.37507463,-0.56558311,-0.14439389,-0.47669905,0.31936985,0.00000000,0.00000000,-1.67164648,0.68152726,0.25971046,-0.41651085,0.21016611,0.00000000,0.00000000
-2.37163901,-0.56581956,-0.14912181,-0.47627407,0.32977879,0.00000000,0.00000000,-1.66714013,0.68607932,0.25659767,-0.41716167,0.22731492,0.00000000,0.00000000
-2.36794019,-0.56599402,-0.15420020,-0.47573206,0.33903840,0.00000000,0.00000000,-1.66267252,0.69083005,0.25284442,-0.41777989,0.24675792,0.00000000,0.00000000
-2.36396599,-0.56625110,-0.15956977,-0.47517177,0.35075301,0.00000000,0.00000000,-1.65828693,0.69558293,0.24840470,-0.41851196,0.27057904,0.00000000,0.00000000
-2.35971212,-0.56663275,-0.16512664,-0.47466087,0.35826340,0.00000000,0.00000000,-1.65408325,0.70004028,0.24318491,-0.41954347,0.29188159,0.00000000,0.00000000
-2.35519338,-0.56705385,-0.17074738,-0.47417909,0.36526874,0.00000000,0.00000000,-1.65020525,0.70384961,0.23705074,-0.42106530,0.31515554,0.00000000,0.00000000
-2.35043097,-0.56736070,-0.17631197,-0.47362840,0.36529055,0.00000000,0.00000000,-1.64677203,0.70669812,0.22987750,-0.42324626,0.34000576,0.00000000,0.00000000
-2.34542704,-0.56739551,-0.18171999,-0.47287437,0.36452267,0.00000000,0.00000000,-1.64381552,0.70845902,0.22159730,-0.42614824,0.36886534,0.00000000,0.00000000
-2.34018087,-0.56708056,-0.18693995,-0.47180903,0.36492726,0.00000000,0.00000000,-1.64125443,0.70918620,0.21222042,-0.42972991,0.39224404,0.00000000,0.00000000
-2.33469605,-0.56644994,-0.19204128,-0.47040975,0.36899835,0.00000000,0.00000000,-1.63889444,0.70908844,0.20183703,-0.43389380,0.41307577,0.00000000,0.00000000
-2.32893968,-0.56554234,-0.19716758,-0.46873012,0.37248686,0.00000000,0.00000000,-1.63647044,0.70863593,0.19058912,-0.43844038,0.44122404,0.00000000,0.00000000
-2.32283545,-0.56447625,-0.20248137,-0.46688399,0.37116665,0.00000000,0.00000000,-1.63371122,0.70836973,0.17862146,-0.44316727,0.47116852,0.00000000,0.00000000
-2.31628323,-0.56353551,-0.20810844,-0.46501651,0.36561427,0.00000000,0.00000000,-1.63038516,0.70858383,0.16604608,-0.44803947,0.50798273,0.00000000,0.00000000
-2.30915284,-0.56305826,-0.21410625,-0.46326634,0.35563615,0.00000000,0.00000000,-1.62629282,0.70936573,0.15295021,-0.45314032,0.54831284,0.00000000,0.00000000
-2.30130005,-0.56324393,-0.22049531,-0.46170133,0.34336680,0.00000000,0.00000000,-1.62123370,0.71085429,0.13942543,-0.45849672,0.59060818,0.00000000,0.00000000
-2.29263115,-0.56406099,-0.22730574,-0.46025372,0.32622471,0.00000000,0.00000000,-1.61506116,0.71322584,0.12552725,-0.46408030,0.62959164,0.00000000,0.00000000
-2.28311992,-0.56543034,-0.23457114,-0.45878255,0.30433357,0.00000000,0.00000000,-1.60774004,0.71644545,0.11122768,-0.46994582,0.66179943,0.00000000,0.00000000
-2.27275872,-0.56730688,-0.24228710,-0.45717725,0.28788885,0.00000000,0.00000000,-1.59932578,0.72027266,0.09643106,-0.47624433,0.68993819,0.00000000,0.00000000
-2.26152515,-0.56951690,-0.25039706,-0.45535675,0.27318898,0.00000000,0.00000000,-1.58994091,0.72450697,0.08099193,-0.48310995,0.71431613,0.00000000,0.00000000
-2.24937510,-0.57183599,-0.25884017,-0.45324108,0.26264280,0.00000000,0.00000000,-1.57969952,0.72909963,0.06477328,-0.49059242,0.73632491,0.00000000,0.00000000
-2.23624945,-0.57419205,-0.26759505,-0.45075458,0.25588745,0.00000000,0.00000000,-1.56862140,0.73406059,0.04771716,-0.49871027,0.76587319,0.00000000,0.00000000
-2.22207499,-0.57665801,-0.27667156,-0.44784492,0.25370562,0.00000000,0.00000000,-1.55662656,0.73939192,0.02985230,-0.50749147,0.79177612,0.00000000,0.00000000
-2.20675492,-0.57934332,-0.28609139,-0.44448832,0.25334567,0.00000000,0.00000000,-1.54355693,0.74520195,0.01128113,-0.51688915,0.81829768,0.00000000,0.00000000
-2.19017458,-0.58237255,-0.29588491,-0.44068417,0.24728912,0.00000000,0.00000000,-1.52921033,0.75170600,-0.00784562,-0.52677089,0.84263295,0.00000000,0.00000000
-2.17223406,-0.58598465,-0.30607471,-0.43645507,0.24050587,0.00000000,0.00000000,-1.51337385,0.75891161,-0.02735280,-0.53710592,0.86683476,0.00000000,0.00000000
-2.15284157,-0.59042025,-0.31667438,-0.43181309,0.23952563,0.00000000,0.00000000,-1.49579310,0.76675844,-0.04701036,-0.54786855,0.89324063,0.00000000,0.00000000
-2.13190389,-0.59575939,-0.32767573,-0.42670250,0.24140468,0.00000000,0.00000000,-1.47627723,0.77534199,-0.06662814,-0.55890226,0.92437297,0.00000000,0.00000000
-2.10933852,-0.60201216,-0.33904251,-0.42101413,0.24909379,0.00000000,0.00000000,-1.45482373,0.78477818,-0.08617706,-0.57003331,0.96325582,0.00000000,0.00000000
-2.08508372,-0.60922223,-0.35076708,-0.41463166,0.25911003,0.00000000,0.00000000,-1.43154562,0.79518121,-0.10572433,-0.58110720,1.00514364,0.00000000,0.00000000
-2.05910540,-0.61745280,-0.36289847,-0.40748745,0.27235061,0.00000000,0.00000000,-1.40650713,0.80672139,-0.12527254,-0.59192455,1.05394340,0.00000000,0.00000000
-2.03140473,-0.62677729,-0.37551585,-0.39958042,0.28503361,0.00000000,0.00000000,-1.37967443,0.81951678,-0.14470163,-0.60228497,1.10437822,0.00000000,0.00000000
-2.00202608,-0.63726300,-0.38870662,-0.39095122,0.30146351,0.00000000,0.00000000,-1.35101521,0.83358991,-0.16386396,-0.61202461,1.15885758,0.00000000,0.00000000
-1.97106647,-0.64895511,-0.40257883,-0.38170171,0.31401232,0.00000000,0.00000000,-1.32049596,0.84890211,-0.18257193,-0.62098551,1.20823479,0.00000000,0.00000000
-1.93867910,-0.66187572,-0.41726965,-0.37203208,0.33480030,0.00000000,0.00000000,-1.28801453,0.86534172,-0.20051329,-0.62900257,1.25842333,0.00000000,0.00000000
-1.90506101,-0.67603838,-0.43291956,-0.36221331,0.35604149,0.00000000,0.00000000,-1.25344849,0.88265669,-0.21729760,-0.63595992,1.30282831,0.00000000,0.00000000
-1.87044024,-0.69137049,-0.44963855,-0.35251030,0.38223708,0.00000000,0.00000000,-1.21669376,0.90045619,-0.23249835,-0.64179868,1.34798348,0.00000000,0.00000000
-1.83506453,-0.70771027,-0.46749166,-0.34315646,0.40809309,0.00000000,0.00000000,-1.17780411,0.91838145,-0.24584205,-0.64646906,1.39199066,0.00000000,0.00000000
-1.79918408,-0.72484529,-0.48649156,-0.33432245,0.43473071,0.00000000,0.00000000,-1.13700056,0.93613869,-0.25725582,-0.64994305,1.43801939,0.00000000,0.00000000
-1.76304722,-0.74253649,-0.50661600,-0.32612988,0.45872822,0.00000000,0.00000000,-1.09458745,0.95348722,-0.26678497,-0.65221322,1.48597133,0.00000000,0.00000000
-1.72689068,-0.76056021,-0.52781832,-0.31869754,0.48647735,0.00000000,0.00000000,-1.05086482,0.97017419,-0.27448562,-0.65330422,1.53159153,0.00000000,0.00000000
-1.69092262,-0.77872771,-0.55002069,-0.31215161,0.51244819,0.00000000,0.00000000,-1.00610352,0.98592860,-0.28039891,-0.65326726,1.57112169,0.00000000,0.00000000
-1.65531290,-0.79684913,-0.57311851,-0.30660737,0.54181206,0.00000000,0.00000000,-0.96057647,1.00059795,-0.28461251,-0.65211391,1.60888445,0.00000000,0.00000000
-1.62018120,-0.81475973,-0.59698129,-0.30216157,0.57226330,0.00000000,0.00000000,-0.91455585,1.01418531,-0.28727123,-0.64980400,1.63892663,0.00000000,0.00000000
-1.58559477,-0.83231699,-0.62146091,-0.29889670,0.59990275,0.00000000,0.00000000,-0.86825955,1.02678871,-0.28848505,-0.64626157,1.66531539,0.00000000,0.00000000
-1.55159748,-0.84933603,-0.64642328,-0.29687917,0.62938643,0.00000000,0.00000000,-0.82177383,1.03837967,-0.28816408,-0.64143652,1.69376540,0.00000000,0.00000000
-1.51822019,-0.86555403,-0.67176032,-0.29613405,0.66560543,0.00000000,0.00000000,-0.77503884,1.04871559,-0.28597605,-0.63533598,1.72253263,0.00000000,0.00000000
-1.48543894,-0.88069719,-0.69735867,-0.29662839,0.70217890,0.00000000,0.00000000,-0.72788948,1.05752969,-0.28145394,-0.62795937,1.75419354,0.00000000,0.00000000
-1.45312631,-0.89461458,-0.72306556,-0.29830736,0.73880774,0.00000000,0.00000000,-0.68007535,1.06473339,-0.27409980,-0.61921406,1.78456926,0.00000000,0.00000000
-1.42100883,-0.90753949,-0.74865597,-0.30118304,0.77149677,0.00000000,0.00000000,-0.63123077,1.07047439,-0.26343372,-0.60890329,1.81872392,0.00000000,0.00000000
-1.38864732,-0.92033738,-0.77380598,-0.30541903,0.80372459,0.00000000,0.00000000,-0.58084321,1.07514453,-0.24901336,-0.59672499,1.84608459,0.00000000,0.00000000
-1.35543644,-0.93450505,-0.79808497,-0.31133518,0.82758504,0.00000000,0.00000000,-0.52829432,1.07947850,-0.23045903,-0.58218968,1.87535322,0.00000000,0.00000000
-1.32060182,-0.95209521,-0.82095051,-0.31938937,0.85250020,0.00000000,0.00000000,-0.47296712,1.08470356,-0.20752257,-0.56450433,1.90447152,0.00000000,0.00000000
-1.28325987,-0.97556967,-0.84177780,-0.33018953,0.87717175,0.00000000,0.00000000,-0.41439554,1.09256482,-0.18017338,-0.54257166,1.93223596,0.00000000,0.00000000
-1.24240112,-1.00731122,-0.85988986,-0.34419456,0.90386385,0.00000000,0.00000000,-0.35241181,1.10580420,-0.14855643,-0.51484972,1.96036649,0.00000000,0.00000000
-1.19687903,-1.04900885,-0.87459427,-0.36121759,0.92506993,0.00000000,0.00000000,-0.28719369,1.12820268,-0.11280575,-0.47941223,1.98758817,0.00000000,0.00000000
-1.14599216,-1.10102892,-0.88545334,-0.38050830,0.94292599,0.00000000,0.00000000,-0.21921957,1.16206908,-0.07292879,-0.43509954,2.00524759,0.00000000,0.00000000
-1.08940971,-1.16284013,-0.89224827,-0.40096486,0.95595020,0.00000000,0.00000000,-0.14938127,1.20801926,-0.02891677,-0.38182342,2.02212548,0.00000000,0.00000000
-1.02727425,-1.23344934,-0.89498270,-0.42145333,0.97049898,0.00000000,0.00000000,-0.07907535,1.26496899,0.01903847,-0.32056421,2.03400612,0.00000000,0.00000000
-0.96052325,-1.31122184,-0.89399785,-0.44098741,0.98463172,0.00000000,0.00000000,-0.01018294,1.33029389,0.07041263,-0.25313506,2.04101300,0.00000000,0.00000000
-0.89099717,-1.39352727,-0.89004272,-0.45870799,0.99797636,0.00000000,0.00000000,0.05504413,1.40059400,0.12436482,-0.18185562,2.04715395,0.00000000,0.00000000
-0.82129639,-1.47687852,-0.88421267,-0.47387472,1.00513613,0.00000000,0.00000000,0.11422174,1.47245288,0.17982823,-0.10932218,2.04962420,0.00000000,0.00000000
-0.75419950,-1.55775428,-0.87766802,-0.48594180,1.00875950,0.00000000,0.00000000,0.16514091,1.54288816,0.23562942,-0.03818300,2.05626202,0.00000000,0.00000000
-0.69157821,-1.63368094,-0.87117553,-0.49455032,1.00723803,0.00000000,0.00000000,0.20608182,1.60970199,0.29061738,0.02918278,2.06450129,0.00000000,0.00000000
-0.63350004,-1.70357382,-0.86483920,-0.49929458,1.00559914,0.00000000,0.00000000,0.23609588,1.67177963,0.34377614,0.09100185,2.07872701,0.00000000,0.00000000
-0.57847804,-1.76713812,-0.85829210,-0.49959373,1.00406837,0.00000000,0.00000000,0.25512624,1.72896004,0.39430186,0.14622748,2.08875179,0.00000000,0.00000000
-0.52478635,-1.82445824,-0.85108441,-0.49508879,1.00213683,0.00000000,0.00000000,0.26384467,1.78144217,0.44163591,0.19435430,2.09659600,0.00000000,0.00000000
-0.47115445,-1.87581670,-0.84287953,-0.48575896,1.00124037,0.00000000,0.00000000,0.26342392,1.82947087,0.48545346,0.23526159,2.10082126,0.00000000,0.00000000
-0.41680005,-1.92151546,-0.83349389,-0.47170064,0.99991113,0.00000000,0.00000000,0.25538775,1.87340426,0.52562487,0.26920149,2.10638642,0.00000000,0.00000000
-0.36162677,-1.96159291,-0.82297856,-0.45303279,0.99717754,0.00000000,0.00000000,0.24148665,1.91369772,0.56217331,0.29675129,2.10955024,0.00000000,0.00000000
-0.30609763,-1.99579632,-0.81157959,-0.42989790,0.99536580,0.00000000,0.00000000,0.22368427,1.95078719,0.59525567,0.31872696,2.11602974,0.00000000,0.00000000
-0.25082541,-2.02399111,-0.79956603,-0.40258709,0.99367112,0.00000000,0.00000000,0.20408688,1.98517251,0.62512296,0.33614099,2.12081242,0.00000000,0.00000000
-0.19637831,-2.04645705,-0.78713471,-0.37169528,0.99111724,0.00000000,0.00000000,0.18457188,2.01756763,0.65202433,0.35008544,2.12502861,0.00000000,0.00000000
-0.14337413,-2.06383729,-0.77443957,-0.33815986,0.99498403,0.00000000,0.00000000,0.16650994,2.04873061,0.67616045,0.36148906,2.12629962,0.00000000,0.00000000
-0.09287878,-2.07710552,-0.76165468,-0.30331817,0.99433619,0.00000000,0.00000000,0.15108886,2.07906771,0.69777668,0.37097433,2.12532353,0.00000000,0.00000000
-0.04654520,-2.08733130,-0.74901074,-0.26871797,0.99147630,0.00000000,0.00000000,0.13978931,2.10807633,0.71733254,0.37873477,2.12635994,0.00000000,0.00000000
-0.00620609,-2.09555864,-0.73673588,-0.23581167,0.99007434,0.00000000,0.00000000,0.13427822,2.13402295,0.73556471,0.38439575,2.12257791,0.00000000,0.00000000
0.02673134,-2.10238385,-0.72502661,-0.20555156,0.98985064,0.00000000,0.00000000,0.13499358,2.15398669,0.75326633,0.38670078,2.12350392,0.00000000,0.00000000
0.05194092,-2.10758519,-0.71402520,-0.17806831,0.98845559,0.00000000,0.00000000,0.14005795,2.16547251,0.77084869,0.38428241,2.12062168,0.00000000,0.00000000
0.07018916,-2.11067748,-0.70379114,-0.15298435,0.98782504,0.00000000,0.00000000,0.14754556,2.16935587,0.78837967,0.37765905,2.11728096,0.00000000,0.00000000
0.08245723,-2.11188602,-0.69432575,-0.13020574,0.99223292,0.00000000,0.00000000,0.15636481,2.16992402,0.80574381,0.36882651,2.11533928,0.00000000,0.00000000
0.08938107,-2.11165118,-0.68565345,-0.10989113,0.99232817,0.00000000,0.00000000,0.16659319,2.16922426,0.82284665,0.36028633,2.11176133,0.00000000,0.00000000
0.09127428,-2.10994434,-0.67784673,-0.09210428,0.99214810,0.00000000,0.00000000,0.17738871,2.16643286,0.83958387,0.35297623,2.11018634,0.00000000,0.00000000
0.08814041,-2.10705519,-0.67097777,-0.07718448,0.99233460,0.00000000,0.00000000,0.18772925,2.16172361,0.85578072,0.34748355,2.10610056,0.00000000,0.00000000
0.07990555,-2.10374713,-0.66509765,-0.06568064,0.99225444,0.00000000,0.00000000,0.19720182,2.15631247,0.87126637,0.34465730,2.10157943,0.00000000,0.00000000
0.06661653,-2.10106587,-0.66023630,-0.05818315,0.99352384,0.00000000,0.00000000,0.20544317,2.15156579,0.88580567,0.34524685,2.09823346,0.00000000,0.00000000
0.04859965,-2.10019279,-0.65640056,-0.05525283,0.99768883,0.00000000,0.00000000,0.21175706,2.14872241,0.89905691,0.34970936,2.09331512,0.00000000,0.00000000
0.02649472,-2.10200143,-0.65357488,-0.05722464,1.00305414,0.00000000,0.00000000,0.21538787,2.14853787,0.91065985,0.35828254,2.09193015,0.00000000,0.00000000
0.00098659,-2.10659671,-0.65173042,-0.06403393,1.00691700,0.00000000,0.00000000,0.21591869,2.15145135,0.92029506,0.37122366,2.08880401,0.00000000,0.00000000
-0.02738980,-2.11333346,-0.65082586,-0.07518815,1.01037097,0.00000000,0.00000000,0.21284473,2.15736532,0.92774749,0.38825497,2.08976650,0.00000000,0.00000000
-0.05830737,-2.12165141,-0.65079546,-0.09008396,1.01936877,0.00000000,0.00000000,0.20605095,2.16413546,0.93328154,0.40785274,2.08611703,0.00000000,0.00000000
-0.09224126,-2.13169861,-0.65156591,-0.10848041,1.03228021,0.00000000,0.00000000,0.19887500,2.16867828,0.93792391,0.42896602,2.08025026,0.00000000,0.00000000
-0.12913670,-2.14237285,-0.65306711,-0.12916169,1.04934287,0.00000000,0.00000000,0.19468099,2.16992188,0.94290817,0.44997364,2.07356429,0.00000000,0.00000000
-0.16648625,-2.15079117,-0.65516502,-0.14928854,1.06761599,0.00000000,0.00000000,0.19389571,2.17000008,0.94908977,0.46880591,2.06126904,0.00000000,0.00000000
-0.20274918,-2.15564108,-0.65772831,-0.16757941,1.08711278,0.00000000,0.00000000,0.19401111,2.17000008,0.95628327,0.48365664,2.05691719,0.00000000,0.00000000
-0.23804305,-2.15828991,-0.66060883,-0.18495543,1.10478294,0.00000000,0.00000000,0.19168772,2.17000008,0.96369064,0.49349669,2.05445457,0.00000000,0.00000000
-0.27200541,-2.16044855,-0.66358167,-0.20240617,1.11986971,0.00000000,0.00000000,0.18498343,2.17000008,0.97050548,0.49823940,2.05597305,0.00000000,0.00000000
-0.30399647,-2.16320562,-0.66640908,-0.22052635,1.12922740,0.00000000,0.00000000,0.17342959,2.17000008,0.97606558,0.49822986,2.05695486,0.00000000,0.00000000
-0.33316842,-2.16676474,-0.66888636,-0.23939693,1.14248109,0.00000000,0.00000000,0.15918668,2.17000008,0.98064554,0.49412617,2.05571365,0.00000000,0.00000000
-0.35893065,-2.16927624,-0.67101717,-0.25805679,1.15810180,0.00000000,0.00000000,0.14626664,2.17000008,0.98491317,0.48736739,2.05208015,0.00000000,0.00000000
-0.38033757,-2.16995764,-0.67278892,-0.27518535,1.17257571,0.00000000,0.00000000,0.13544928,2.16994762,0.98894167,0.47818395,2.04739261,0.00000000,0.00000000
-0.39585620,-2.17000008,-0.67402923,-0.28960574,1.18730521,0.00000000,0.00000000,0.12487584,2.16911602,0.99219286,0.46593484,2.04736137,0.00000000,0.00000000
-0.40404916,-2.17000008,-0.67444050,-0.30078143,1.20327497,0.00000000,0.00000000,0.11289836,2.16605973,0.99399972,0.45043442,2.05468035,0.00000000,0.00000000
-0.40415317,-2.17000008,-0.67379087,-0.30857825,1.22421420,0.00000000,0.00000000,0.09868062,2.16121578,0.99387479,0.43199658,2.05863810,0.00000000,0.00000000
-0.39602196,-2.17000008,-0.67195910,-0.31310132,1.24886751,0.00000000,0.00000000,0.08217818,2.15569901,0.99164027,0.41128129,2.05937266,0.00000000,0.00000000
-0.38021648,-2.17000008,-0.66890037,-0.31503770,1.27105486,0.00000000,0.00000000,0.06405903,2.14995027,0.98743242,0.38932863,2.06305647,0.00000000,0.00000000
-0.35795122,-2.17000008,-0.66466278,-0.31557804,1.28790200,0.00000000,0.00000000,0.04557219,2.14389849,0.98158979,0.36765870,2.06939435,0.00000000,0.00000000
-0.33050263,-2.17000008,-0.65934867,-0.31587875,1.30915630,0.00000000,0.00000000,0.02861332,2.13766909,0.97450042,0.34831768,2.07458782,0.00000000,0.00000000
-0.29906741,-2.17000008,-0.65304971,-0.31704396,1.32935846,0.00000000,0.00000000,0.01556693,2.13137579,0.96658945,0.33331093,2.08039308,0.00000000,0.00000000
-0.26548818,-2.17000008,-0.64599729,-0.32024950,1.35254014,0.00000000,0.00000000,0.00800027,2.12420011,0.95829362,0.32336071,2.08340311,0.00000000,0.00000000
-0.23237313,-2.17000008,-0.63857007,-0.32690802,1.37835979,0.00000000,0.00000000,0.00600326,2.11506510,0.94987738,0.31791693,2.08338833,0.00000000,0.00000000
-0.20148928,-2.17000008,-0.63099074,-0.33802107,1.40638292,0.00000000,0.00000000,0.00849864,2.10385275,0.94129610,0.31590244,2.08078074,0.00000000,0.00000000
-0.17354611,-2.17000008,-0.62352645,-0.35274088,1.43556798,0.00000000,0.00000000,0.01417158,2.09111667,0.93236130,0.31634477,2.07950854,0.00000000,0.00000000
-0.15059379,-2.17000008,-0.61719280,-0.36830464,1.46665490,0.00000000,0.00000000,0.02177893,2.07658815,0.92300135,0.31822756,2.07382941,0.00000000,0.00000000
-0.13510264,-2.17000008,-0.61296922,-0.38307995,1.50435948,0.00000000,0.00000000,0.02993103,2.06029320,0.91307473,0.32092479,2.07099557,0.00000000,0.00000000
-0.12723747,-2.17000008,-0.61107582,-0.39627668,1.54565489,0.00000000,0.00000000,0.03778286,2.04379964,0.90228277,0.32505304,2.07044649,0.00000000,0.00000000
-0.12404805,-2.17000008,-0.61062604,-0.40778288,1.57959211,0.00000000,0.00000000,0.04598948,2.02907848,0.89046323,0.33213025,2.07113791,0.00000000,0.00000000
-0.12263796,-2.17000008,-0.61053342,-0.41789404,1.61872602,0.00000000,0.00000000,0.05521748,2.01708698,0.87761438,0.34312037,2.06459928,0.00000000,0.00000000
-0.12167721,-2.17000008,-0.61016542,-0.42687634,1.66035688,0.00000000,0.00000000,0.06585532,2.00768042,0.86386138,0.35844597,2.05268741,0.00000000,0.00000000
-0.12095636,-2.17000008,-0.60932583,-0.43486553,1.69240630,0.00000000,0.00000000,0.07838619,1.99944544,0.84951043,0.37819529,2.04174852,0.00000000,0.00000000
-0.12130336,-2.17000008,-0.60812491,-0.44225058,1.72452331,0.00000000,0.00000000,0.09332378,1.99009573,0.83496028,0.40222874,2.02669120,0.00000000,0.00000000
-0.12423041,-2.17000008,-0.60672075,-0.45010701,1.75660884,0.00000000,0.00000000,0.11116464,1.97692931,0.82061678,0.43025428,2.01160836,0.00000000,0.00000000
-0.13015743,-2.17000008,-0.60510302,-0.45926034,1.78668797,0.00000000,0.00000000,0.13109908,1.95641625,0.80674684,0.46088955,2.00338888,0.00000000,0.00000000
-0.13871919,-2.17000008,-0.60389191,-0.46807727,1.80882764,0.00000000,0.00000000,0.14910708,1.92009866,0.79388916,0.48790663,1.99007082,0.00000000,0.00000000
-0.15044583,-2.17000008,-0.60432386,-0.47410890,1.82909667,0.00000000,0.00000000,0.15832643,1.85518825,0.78279072,0.50013411,1.97480202,0.00000000,0.00000000
-0.16406542,-2.17000008,-0.60586566,-0.47967461,1.84829390,0.00000000,0.00000000,0.15163054,1.76104546,0.77177685,0.49380469,1.95409286,0.00000000,0.00000000
-0.17954674,-2.17000008,-0.60839242,-0.48590961,1.87294459,0.00000000,0.00000000,0.12585159,1.63999093,0.75950795,0.46924311,1.93223357,0.00000000,0.00000000
-0.19650713,-2.17000008,-0.61218768,-0.49082729,1.89885688,0.00000000,0.00000000,0.08032831,1.49410760,0.74535966,0.42747769,1.90828085,0.00000000,0.00000000
-0.21392088,-2.17000008,-0.61753005,-0.49127966,1.92055762,0.00000000,0.00000000,0.01587570,1.32659948,0.72897667,0.37025225,1.88296568,0.00000000,0.00000000
-0.23042402,-2.17000008,-0.62451446,-0.48474440,1.93836498,0.00000000,0.00000000,-0.06502516,1.14187574,0.71031308,0.30004904,1.85900509,0.00000000,0.00000000
-0.24433196,-2.17000008,-0.63271481,-0.47094163,1.96164596,0.00000000,0.00000000,-0.15822235,0.94557005,0.68963665,0.22001749,1.83325887,0.00000000,0.00000000
-0.25458565,-2.17000008,-0.64138150,-0.45207298,1.98455799,0.00000000,0.00000000,-0.25817871,0.74429166,0.66751742,0.13382486,1.81232512,0.00000000,0.00000000
-0.26081845,-2.17000008,-0.64994061,-0.43045905,2.01035595,0.00000000,0.00000000,-0.35863197,0.54507953,0.64480150,0.04543215,1.79020703,0.00000000,0.00000000
-0.26373717,-2.17000008,-0.65841615,-0.40736878,2.02838254,0.00000000,0.00000000,-0.45351702,0.35473180,0.62252682,-0.04119432,1.77248549,0.00000000,0.00000000
-0.26414660,-2.16999412,-0.66691321,-0.38381016,2.04671836,0.00000000,0.00000000,-0.53787178,0.17919518,0.60178137,-0.12236350,1.75792515,0.00000000,0.00000000
-0.26180106,-2.16980481,-0.67524242,-0.36061221,2.07043409,0.00000000,0.00000000,-0.60846013,0.02329303,0.58353442,-0.19484961,1.73831272,0.00000000,0.00000000
-0.25557894,-2.16793346,-0.68313509,-0.33782697,2.08818936,0.00000000,0.00000000,-0.66406614,-0.10915884,0.56848741,-0.25605276,1.72599483,0.00000000,0.00000000
-0.24413203,-2.16172695,-0.69036651,-0.31489405,2.10490346,0.00000000,0.00000000,-0.70580906,-0.21545969,0.55696696,-0.30441839,1.71186745,0.00000000,0.00000000
-0.22751020,-2.15258574,-0.69672561,-0.29233062,2.12059522,0.00000000,0.00000000,-0.73685229,-0.29561448,0.54890174,-0.34034491,1.69418061,0.00000000,0.00000000
-0.20784241,-2.14473271,-0.70208234,-0.27223715,2.13840508,0.00000000,0.00000000,-0.76048344,-0.35383043,0.54388875,-0.36618814,1.67805207,0.00000000,0.00000000
-0.18698992,-2.14079714,-0.70646089,-0.25592363,2.15567970,0.00000000,0.00000000,-0.77953392,-0.39542100,0.54129732,-0.38412488,1.65916228,0.00000000,0.00000000
-0.16511708,-2.14046383,-0.70999396,-0.24275248,2.17453146,0.00000000,0.00000000,-0.79606497,-0.42403007,0.54056871,-0.39548132,1.63865459,0.00000000,0.00000000
-0.14246078,-2.14242053,-0.71291685,-0.23183781,2.19303608,0.00000000,0.00000000,-0.81077337,-0.44259492,0.54128438,-0.40175235,1.62194002,0.00000000,0.00000000
-0.12032723,-2.14594388,-0.71551359,-0.22327356,2.20672607,0.00000000,0.00000000,-0.82392156,-0.45384166,0.54297817,-0.40447706,1.60910583,0.00000000,0.00000000
-0.10033984,-2.15068841,-0.71805078,-0.21760006,2.21551275,0.00000000,0.00000000,-0.83567792,-0.45980620,0.54521966,-0.40483192,1.59572697,0.00000000,0.00000000
-0.08353794,-2.15610600,-0.72073716,-0.21500501,2.22325635,0.00000000,0.00000000,-0.84581226,-0.46180892,0.54777002,-0.40369502,1.57912958,0.00000000,0.00000000
-0.07035818,-2.16146994,-0.72372061,-0.21531187,2.22792053,0.00000000,0.00000000,-0.85396457,-0.46087426,0.55051178,-0.40177602,1.56382585,0.00000000,0.00000000
-0.06110939,-2.16605163,-0.72711730,-0.21830609,2.23049998,0.00000000,0.00000000,-0.86010516,-0.45788896,0.55332524,-0.39956036,1.55401456,0.00000000,0.00000000
-0.05590406,-2.16900730,-0.73101288,-0.22370411,2.24165344,0.00000000,0.00000000,-0.86432618,-0.45349795,0.55609745,-0.39734218,1.54684544,0.00000000,0.00000000
-0.05467876,-2.16990805,-0.73547280,-0.23113576,2.25248837,0.00000000,0.00000000,-0.86679077,-0.44804630,0.55872083,-0.39522314,1.54169655,0.00000000,0.00000000
-0.05745871,-2.16999769,-0.74053621,-0.24043034,2.25965858,0.00000000,0.00000000,-0.86793363,-0.44163382,0.56106138,-0.39311537,1.53141022,0.00000000,0.00000000
-0.06395128,-2.17000008,-0.74615633,-0.25148150,2.26529503,0.00000000,0.00000000,-0.86799085,-0.43434349,0.56303191,-0.39103073,1.52621484,0.00000000,0.00000000
-0.07332057,-2.16995454,-0.75220162,-0.26390097,2.27623272,0.00000000,0.00000000,-0.86667550,-0.42658931,0.56462353,-0.38929829,1.52018368,0.00000000,0.00000000
-0.08475091,-2.16923404,-0.75850999,-0.27717939,2.29138255,0.00000000,0.00000000,-0.86374396,-0.41888741,0.56583488,-0.38827178,1.51359248,0.00000000,0.00000000
-0.09761128,-2.16660857,-0.76489210,-0.29082367,2.30844831,0.00000000,0.00000000,-0.85945690,-0.41151449,0.56661797,-0.38803324,1.51328635,0.00000000,0.00000000
-0.11129377,-2.16238570,-0.77112877,-0.30431330,2.32527137,0.00000000,0.00000000,-0.85440153,-0.40463933,0.56687266,-0.38848707,1.51543283,0.00000000,0.00000000
-0.12504399,-2.15720105,-0.77698559,-0.31698254,2.33548260,0.00000000,0.00000000,-0.84925479,-0.39827332,0.56648391,-0.38942432,1.51667249,0.00000000,0.00000000
-0.13813184,-2.15156651,-0.78222996,-0.32818052,2.34646559,0.00000000,0.00000000,-0.84456861,-0.39227673,0.56536818,-0.39060062,1.51430714,0.00000000,0.00000000
-0.15009621,-2.14605808,-0.78665364,-0.33756980,2.35930181,0.00000000,0.00000000,-0.84050298,-0.38649374,0.56351864,-0.39186704,1.51085103,0.00000000,0.00000000
-0.16039334,-2.14126849,-0.79003787,-0.34507096,2.36751819,0.00000000,0.00000000,-0.83683246,-0.38066712,0.56102520,-0.39313000,1.51128471,0.00000000,0.00000000
-0.16843666,-2.13785458,-0.79215521,-0.35082388,2.37131262,0.00000000,0.00000000,-0.83321494,-0.37436941,0.55802262,-0.39423883,1.50707734,0.00000000,0.00000000
-0.17399023,-2.13626170,-0.79286844,-0.35509452,2.36955452,0.00000000,0.00000000,-0.82921565,-0.36708888,0.55466533,-0.39502370,1.50059116,0.00000000,0.00000000
-0.17749318,-2.13653779,-0.79221010,-0.35826066,2.36726785,0.00000000,0.00000000,-0.82445729,-0.35828590,0.55110240,-0.39529738,1.49134684,0.00000000,0.00000000
-0.17984016,-2.13857675,-0.79031706,-0.36084452,2.35954452,0.00000000,0.00000000,-0.81871271,-0.34728190,0.54747772,-0.39476258,1.48064983,0.00000000,0.00000000
-0.18171813,-2.14225268,-0.78730810,-0.36332691,2.35332322,0.00000000,0.00000000,-0.81156081,-0.33303982,0.54401004,-0.39297453,1.46957231,0.00000000,0.00000000
-0.18341516,-2.14745355,-0.78324443,-0.36606988,2.35266757,0.00000000,0.00000000,-0.80222994,-0.31398344,0.54103547,-0.38931963,1.45324790,0.00000000,0.00000000
-0.18499576,-2.15393233,-0.77817434,-0.36932608,2.34710240,0.00000000,0.00000000,-0.78970689,-0.28780645,0.53900152,-0.38290828,1.43892097,0.00000000,0.00000000
-0.18614888,-2.16097856,-0.77216154,-0.37315422,2.33835816,0.00000000,0.00000000,-0.77294123,-0.25106123,0.53845626,-0.37220615,1.43061531,0.00000000,0.00000000
-0.18570994,-2.16681528,-0.76529211,-0.37725702,2.33313775,0.00000000,0.00000000,-0.75038928,-0.19904207,0.54007965,-0.35464889,1.42069125,0.00000000,0.00000000
-0.18224128,-2.16945243,-0.75778413,-0.38110080,2.32998347,0.00000000,0.00000000,-0.71866101,-0.12735586,0.54469359,-0.32713282,1.41319025,0.00000000,0.00000000
-0.17568986,-2.16997147,-0.75007856,-0.38455120,2.31925678,0.00000000,0.00000000,-0.67344820,-0.03391407,0.55303431,-0.28756922,1.40961671,0.00000000,0.00000000
-0.16735721,-2.17000008,-0.74279803,-0.38768262,2.30892920,0.00000000,0.00000000,-0.61295742,0.08154263,0.56535816,-0.23574999,1.40434432,0.00000000,0.00000000
-0.15778950,-2.17000008,-0.73642200,-0.39008889,2.29759574,0.00000000,0.00000000,-0.53763741,0.21813749,0.58141029,-0.17270906,1.39220488,0.00000000,0.00000000
-0.14705658,-2.17000008,-0.73129630,-0.39131483,2.28389549,0.00000000,0.00000000,-0.44932309,0.37388539,0.60058087,-0.10015385,1.37860179,0.00000000,0.00000000
-0.13584682,-2.17000008,-0.72789133,-0.39109212,2.27924156,0.00000000,0.00000000,-0.35109752,0.54565024,0.62203413,-0.02034410,1.36761904,0.00000000,0.00000000
-0.12526740,-2.17000008,-0.72676593,-0.38917464,2.27348375,0.00000000,0.00000000,-0.24717361,0.72923809,0.64481437,0.06392168,1.36707509,0.00000000,0.00000000
-0.11617552,-2.17000008,-0.72829348,-0.38545009,2.26223993,0.00000000,0.00000000,-0.14266042,0.91947144,0.66794729,0.14935812,1.36576259,0.00000000,0.00000000
-0.10916737,-2.17000008,-0.73255235,-0.38022867,2.24482989,0.00000000,0.00000000,-0.04316007,1.11034966,0.69054061,0.23232563,1.36288702,0.00000000,0.00000000
-0.10478435,-2.17000008,-0.73938459,-0.37428892,2.23214412,0.00000000,0.00000000,0.04579223,1.29545498,0.71187055,0.30904087,1.36366129,0.00000000,0.00000000
-0.10345212,-2.17000008,-0.74845505,-0.36871344,2.22454357,0.00000000,0.00000000,0.11932085,1.46853471,0.73144239,0.37587273,1.37027383,0.00000000,0.00000000
-0.10542746,-2.16999006,-0.75930858,-0.36475623,2.21825123,0.00000000,0.00000000,0.17367873,1.62412405,0.74900568,0.42968178,1.36458218,0.00000000,0.00000000
-0.11052127,-2.16978669,-0.77135760,-0.36372024,2.20802212,0.00000000,0.00000000,0.20637330,1.75804973,0.76450664,0.46806502,1.36032236,0.00000000,0.00000000
-0.11781919,-2.16841316,-0.78398508,-0.36638406,2.19210958,0.00000000,0.00000000,0.21590173,1.86761749,0.77799636,0.48942187,1.35615373,0.00000000,0.00000000
-0.12553476,-2.16355419,-0.79678524,-0.37185892,2.17326927,0.00000000,0.00000000,0.20233710,1.95098639,0.78983861,0.49294740,1.34694123,0.00000000,0.00000000
-0.13112220,-2.15370083,-0.80944186,-0.37732562,2.15827966,0.00000000,0.00000000,0.17023414,2.00907063,0.80087674,0.48072812,1.33843744,0.00000000,0.00000000
-0.13370383,-2.14207983,-0.82120734,-0.38162282,2.14658141,0.00000000,0.00000000,0.12953949,2.05068994,0.81152701,0.46121883,1.33211792,0.00000000,0.00000000
-0.13517427,-2.13302159,-0.83157414,-0.38594577,2.13500929,0.00000000,0.00000000,0.08956025,2.08297682,0.82235283,0.44231695,1.33286440,0.00000000,0.00000000
-0.13490283,-2.12690401,-0.84029812,-0.38972554,2.12197447,0.00000000,0.00000000,0.05322307,2.10697174,0.83374614,0.42483160,1.32881439,0.00000000,0.00000000
-0.13194138,-2.12315726,-0.84726864,-0.39224619,2.11201239,0.00000000,0.00000000,0.02247461,2.12052131,0.84647304,0.40715376,1.32506633,0.00000000,0.00000000
-0.12690002,-2.12146831,-0.85261303,-0.39371029,2.10238862,0.00000000,0.00000000,-0.00076463,2.12265253,0.86107063,0.38881320,1.31936288,0.00000000,0.00000000
-0.12108800,-2.12162614,-0.85658121,-0.39483398,2.09834862,0.00000000,0.00000000,-0.01657925,2.11611962,0.87708110,0.37090603,1.32247758,0.00000000,0.00000000
-0.11558422,-2.12361002,-0.85936821,-0.39643916,2.09811234,0.00000000,0.00000000,-0.02521215,2.10692000,0.89348567,0.35687196,1.32886326,0.00000000,0.00000000
-0.11091953,-2.12743497,-0.86107397,-0.39908826,2.10128856,0.00000000,0.00000000,-0.02574812,2.09754300,0.91004044,0.34905320,1.33491218,0.00000000,0.00000000
-0.10724828,-2.13295507,-0.86175489,-0.40296796,2.09701777,0.00000000,0.00000000,-0.01841073,2.08869243,0.92661631,0.34816813,1.34380949,0.00000000,0.00000000
-0.10447297,-2.13977456,-0.86145490,-0.40787354,2.08805037,0.00000000,0.00000000,-0.00424477,2.08140016,0.94288945,0.35439768,1.35242295,0.00000000,0.00000000
-0.10233649,-2.14694786,-0.86027688,-0.41315883,2.07859015,0.00000000,0.00000000,0.01504243,2.07628369,0.95849138,0.36717334,1.36088264,0.00000000,0.00000000
-0.10042594,-2.15353179,-0.85829043,-0.41807264,2.06732178,0.00000000,0.00000000,0.03751858,2.07337379,0.97308856,0.38542193,1.36798525,0.00000000,0.00000000
-0.09831764,-2.15903544,-0.85547769,-0.42208898,2.05355740,0.00000000,0.00000000,0.06154513,2.07252383,0.98637354,0.40805233,1.37445140,0.00000000,0.00000000
-0.09575585,-2.16329098,-0.85178882,-0.42496532,2.03355598,0.00000000,0.00000000,0.08557053,2.07369447,0.99798191,0.43395826,1.38427627,0.00000000,0.00000000
-0.09279900,-2.16640234,-0.84717906,-0.42678300,2.01225185,0.00000000,0.00000000,0.10805558,2.07699513,1.00747037,0.46198362,1.39303374,0.00000000,0.00000000
-0.08960170,-2.16857290,-0.84160310,-0.42774326,1.98726380,0.00000000,0.00000000,0.12724841,2.08220172,1.01440573,0.49059245,1.40324819,0.00000000,0.00000000
-0.08693889,-2.16969657,-0.83539832,-0.42761329,1.96594584,0.00000000,0.00000000,0.14160357,2.08718181,1.01886284,0.51731354,1.41893923,0.00000000,0.00000000
-0.08821949,-2.16984248,-0.82964182,-0.42652562,1.94661367,0.00000000,0.00000000,0.15157782,2.08973813,1.02127826,0.54095554,1.43426299,0.00000000,0.00000000
-0.09474602,-2.16965437,-0.82426167,-0.42583671,1.92115569,0.00000000,0.00000000,0.15737034,2.09198427,1.02098131,0.56328756,1.44493139,0.00000000,0.00000000
-0.10064351,-2.16984677,-0.81768101,-0.42479369,1.89645207,0.00000000,0.00000000,0.15916017,2.09388614,1.01792991,0.58497345,1.45258117,0.00000000,0.00000000
-0.10430396,-2.16994309,-0.80971539,-0.42276821,1.87805355,0.00000000,0.00000000,0.15760858,2.09323716,1.01280761,0.60595489,1.45844996,0.00000000,0.00000000
-0.10648555,-2.16989517,-0.80071837,-0.41970608,1.86520922,0.00000000,0.00000000,0.15368493,2.08901215,1.00602138,0.62715656,1.46170413,0.00000000,0.00000000
-0.10910238,-2.16995716,-0.79080480,-0.41691050,1.85538840,0.00000000,0.00000000,0.14833561,2.08234358,0.99734497,0.65033799,1.46349061,0.00000000,0.00000000
-0.11396991,-2.16999722,-0.78076440,-0.41404906,1.84000814,0.00000000,0.00000000,0.14119013,2.06703043,0.98855984,0.67174220,1.46546876,0.00000000,0.00000000
-0.12099050,-2.17000008,-0.77081543,-0.41124541,1.82523656,0.00000000,0.00000000,0.13000022,2.03743148,0.98083037,0.68742716,1.47604990,0.00000000,0.00000000
-0.12654661,-2.17000008,-0.76015306,-0.40939787,1.81517339,0.00000000,0.00000000,0.11088736,1.98490024,0.97592372,0.69055867,1.47864676,0.00000000,0.00000000
-0.13015130,-2.17000008,-0.74927026,-0.40809566,1.81412315,0.00000000,0.00000000,0.07710805,1.90371025,0.97391582,0.67603636,1.48389423,0.00000000,0.00000000
-0.13296218,-2.17000008,-0.73878312,-0.40741742,1.81738222,0.00000000,0.00000000,0.02376056,1.79374051,0.97352934,0.64258850,1.49387074,0.00000000,0.00000000
-0.13596737,-2.17000008,-0.72907776,-0.40764126,1.81378341,0.00000000,0.00000000,-0.05158219,1.65716624,0.97352105,0.59043294,1.50202501,0.00000000,0.00000000
-0.13982326,-2.17000008,-0.72052515,-0.40866390,1.80738664,0.00000000,0.00000000,-0.14953673,1.49739861,0.97289550,0.52037656,1.51471031,0.00000000,0.00000000
-0.14452891,-2.17000008,-0.71342045,-0.40996781,1.79814959,0.00000000,0.00000000,-0.26864439,1.31905711,0.97095084,0.43389687,1.52473879,0.00000000,0.00000000
-0.14951801,-2.17000008,-0.70791590,-0.41092461,1.79219627,0.00000000,0.00000000,-0.40532479,1.12781358,0.96736723,0.33322784,1.54393482,0.00000000,0.00000000
-0.15414436,-2.17000008,-0.70402819,-0.41117686,1.78186333,0.00000000,0.00000000,-0.55424708,0.93015409,0.96227568,0.22132346,1.56616712,0.00000000,0.00000000
-0.15801132,-2.17000008,-0.70167053,-0.41073653,1.77081501,0.00000000,0.00000000,-0.70900565,0.73292720,0.95630103,0.10165410,1.58927369,0.00000000,0.00000000
-0.16107775,-2.17000008,-0.70067829,-0.40993431,1.75976145,0.00000000,0.00000000,-0.86298567,0.54273552,0.95052880,-0.02212258,1.60990572,0.00000000,0.00000000
-0.16346979,-2.17000008,-0.70076990,-0.40938795,1.74868274,0.00000000,0.00000000,-1.01023555,0.36534488,0.94637078,-0.14650233,1.62440634,0.00000000,0.00000000
-0.16516332,-2.17000008,-0.70150495,-0.40992522,1.73819888,0.00000000,0.00000000,-1.14613378,0.20524625,0.94535923,-0.26838949,1.63598788,0.00000000,0.00000000
-0.16602100,-2.17000008,-0.70242316,-0.41229197,1.73160148,0.00000000,0.00000000,-1.26773381,0.06543330,0.94892043,-0.38520604,1.64523149,0.00000000,0.00000000
-0.16609885,-2.17000008,-0.70327872,-0.41681603,1.73023999,0.00000000,0.00000000,-1.37381363,-0.05262325,0.95816284,-0.49486768,1.65144348,0.00000000,0.00000000
-0.16548882,-2.17000008,-0.70413518,-0.42301965,1.73475659,0.00000000,0.00000000,-1.46469188,-0.14885642,0.97370392,-0.59571779,1.65816617,0.00000000,0.00000000
-0.16426846,-2.17000008,-0.70539194,-0.42953911,1.73846078,0.00000000,0.00000000,-1.54189610,-0.22446012,0.99553412,-0.68650508,1.66505432,0.00000000,0.00000000
-0.16222729,-2.17000008,-0.70749307,-0.43466607,1.73904526,0.00000000,0.00000000,-1.60775685,-0.28172430,1.02293634,-0.76644194,1.67780483,0.00000000,0.00000000
-0.15829074,-2.17000008,-0.71042949,-0.43713385,1.74270856,0.00000000,0.00000000,-1.66494799,-0.32352835,1.05458748,-0.83532530,1.68706989,0.00000000,0.00000000
-0.15255563,-2.17000008,-0.71413922,-0.43695533,1.74469662,0.00000000,0.00000000,-1.71605003,-0.35278845,1.08882594,-0.89369690,1.69603455,0.00000000,0.00000000
-0.14602442,-2.17000008,-0.71869421,-0.43457380,1.75164914,0.00000000,0.00000000,-1.76290393,-0.37241748,1.12398911,-0.94301319,1.70513678,0.00000000,0.00000000
-0.13889031,-2.17000008,-0.72405052,-0.42985815,1.75349247,0.00000000,0.00000000,-1.80611587,-0.38513553,1.15879750,-0.98535246,1.71235979,0.00000000,0.00000000
-0.13166210,-2.17000008,-0.73023617,-0.42290288,1.75467169,0.00000000,0.00000000,-1.84553337,-0.39309317,1.19242489,-1.02259755,1.71565247,0.00000000,0.00000000
-0.12495451,-2.17000008,-0.73720443,-0.41434193,1.75768971,0.00000000,0.00000000,-1.88094878,-0.39765769,1.22438812,-1.05596399,1.72178161,0.00000000,0.00000000
-0.11885744,-2.17000008,-0.74478352,-0.40472013,1.75352407,0.00000000,0.00000000,-1.91232538,-0.39955476,1.25443220,-1.08617127,1.72425628,0.00000000,0.00000000
-0.11329611,-2.17000008,-0.75281471,-0.39431587,1.74729741,0.00000000,0.00000000,-1.93984115,-0.39926511,1.28234172,-1.11377025,1.72499061,0.00000000,0.00000000
-0.10835054,-2.17000008,-0.76118976,-0.38329411,1.74239194,0.00000000,0.00000000,-1.96391273,-0.39731637,1.30780816,-1.13929784,1.72447991,0.00000000,0.00000000
-0.10410347,-2.17000008,-0.76979172,-0.37180021,1.72940159,0.00000000,0.00000000,-1.98505497,-0.39422721,1.33055413,-1.16326642,1.71797645,0.00000000,0.00000000
-0.10050367,-2.16996264,-0.77844214,-0.36017483,1.71706688,0.00000000,0.00000000,-2.00361633,-0.39038441,1.35052896,-1.18615234,1.70995712,0.00000000,0.00000000
-0.09741373,-2.16938400,-0.78686333,-0.34921193,1.70340788,0.00000000,0.00000000,-2.01985884,-0.38612473,1.36785245,-1.20830476,1.69855237,0.00000000,0.00000000
-0.09479648,-2.16746330,-0.79471874,-0.34008232,1.69266582,0.00000000,0.00000000,-2.03419280,-0.38178846,1.38264799,-1.22982287,1.69117403,0.00000000,0.00000000
-0.09276020,-2.16504288,-0.80177343,-0.33374864,1.68066788,0.00000000,0.00000000,-2.04709315,-0.37767044,1.39501536,-1.25065005,1.68000686,0.00000000,0.00000000
-0.09141141,-2.16303468,-0.80795431,-0.33056298,1.66636646,0.00000000,0.00000000,-2.05886960,-0.37400180,1.40507984,-1.27078521,1.66171825,0.00000000,0.00000000
-0.09070558,-2.16181326,-0.81323260,-0.33044279,1.65255988,0.00000000,0.00000000,-2.06971097,-0.37093091,1.41300464,-1.29026616,1.63897419,0.00000000,0.00000000
-0.09048325,-2.16163492,-0.81755507,-0.33310169,1.63284707,0.00000000,0.00000000,-2.07969570,-0.36853310,1.41900957,-1.30912721,1.61977243,0.00000000,0.00000000
-0.09071016,-2.16238880,-0.82091993,-0.33809265,1.61822617,0.00000000,0.00000000,-2.08869433,-0.36679476,1.42340028,-1.32744658,1.60093796,0.00000000,0.00000000
-0.09159563,-2.16357136,-0.82340211,-0.34496322,1.60912204,0.00000000,0.00000000,-2.09657264,-0.36558154,1.42655063,-1.34518600,1.58076406,0.00000000,0.00000000
-0.09327635,-2.16499209,-0.82500952,-0.35346895,1.60264409,0.00000000,0.00000000,-2.10342979,-0.36470035,1.42883325,-1.36201501,1.55301344,0.00000000,0.00000000
-0.09559861,-2.16683531,-0.82564151,-0.36347997,1.59764409,0.00000000,0.00000000,-2.10957289,-0.36406204,1.43047464,-1.37740958,1.52659369,0.00000000,0.00000000
-0.09822106,-2.16876411,-0.82522565,-0.37464294,1.59379077,0.00000000,0.00000000,-2.11534476,-0.36368430,1.43156004,-1.39085293,1.50105214,0.00000000,0.00000000
-0.10092420,-2.16977167,-0.82384521,-0.38628313,1.58794188,0.00000000,0.00000000,-2.12101150,-0.36359644,1.43217683,-1.40194941,1.47700763,0.00000000,0.00000000
-0.10376561,-2.16998768,-0.82164079,-0.39791712,1.58053458,0.00000000,0.00000000,-2.12686968,-0.36381337,1.43242347,-1.41037822,1.45675409,0.00000000,0.00000000
-0.10638119,-2.17000008,-0.81868887,-0.40901634,1.57507288,0.00000000,0.00000000,-2.13344407,-0.36430565,1.43236899,-1.41578090,1.43399644,0.00000000,0.00000000
-0.10812829,-2.17000008,-0.81556666,-0.41770285,1.55900347,0.00000000,0.00000000,-2.14141846,-0.36497509,1.43202245,-1.41785276,1.41734254,0.00000000,0.00000000
-0.11028097,-2.17000008,-0.81350034,-0.42253825,1.54075491,0.00000000,0.00000000,-2.15100121,-0.36546305,1.43158448,-1.41672504,1.40071213,0.00000000,0.00000000
-0.11249258,-2.17000008,-0.81200898,-0.42502299,1.52330399,0.00000000,0.00000000,-2.16130185,-0.36533707,1.43152750,-1.41340959,1.37988710,0.00000000,0.00000000
-0.11576198,-2.17000008,-0.81102622,-0.42651656,1.50693154,0.00000000,0.00000000,-2.17109942,-0.36493507,1.43166268,-1.40950477,1.35167062,0.00000000,0.00000000
-0.11895477,-2.17000008,-0.81032693,-0.42686227,1.49668753,0.00000000,0.00000000,-2.17974758,-0.36502829,1.43129146,-1.40627360,1.32904148,0.00000000,0.00000000
-0.12066379,-2.17000008,-0.80956811,-0.42581546,1.49147975,0.00000000,0.00000000,-2.18664861,-0.36565796,1.43050945,-1.40441930,1.30657411,0.00000000,0.00000000
-0.12048049,-2.17000008,-0.80866629,-0.42328840,1.48354530,0.00000000,0.00000000,-2.19174933,-0.36641493,1.42978644,-1.40379870,1.27878320,0.00000000,0.00000000
-0.11853915,-2.17000008,-0.80759501,-0.41953889,1.47440028,0.00000000,0.00000000,-2.19562864,-0.36711350,1.42918611,-1.40380192,1.25132787,0.00000000,0.00000000
-0.11535609,-2.17000008,-0.80643821,-0.41489199,1.46649969,0.00000000,0.00000000,-2.19861817,-0.36762068,1.42869961,-1.40409553,1.22903967,0.00000000,0.00000000
-0.11177704,-2.17000008,-0.80556643,-0.40928462,1.45474148,0.00000000,0.00000000,-2.20063710,-0.36769822,1.42850924,-1.40465987,1.20780635,0.00000000,0.00000000
-0.10840914,-2.17000008,-0.80524886,-0.40267262,1.44344199,0.00000000,0.00000000,-2.20163584,-0.36720860,1.42876637,-1.40548587,1.18375504,0.00000000,0.00000000
-0.10550179,-2.17000008,-0.80546486,-0.39537492,1.43248546,0.00000000,0.00000000,-2.20193553,-0.36619508,1.42945421,-1.40631759,1.16287088,0.00000000,0.00000000
-0.10324022,-2.17000008,-0.80607992,-0.38796690,1.42232382,0.00000000,0.00000000,-2.20194983,-0.36475113,1.43053508,-1.40683603,1.14459598,0.00000000,0.00000000
-0.10139860,-2.17000008,-0.80684352,-0.38095155,1.41877341,0.00000000,0.00000000,-2.20194626,-0.36298692,1.43196332,-1.40687239,1.13148034,0.00000000,0.00000000
-0.09965166,-2.17000008,-0.80748165,-0.37482190,1.41138697,0.00000000,0.00000000,-2.20201063,-0.36109897,1.43357348,-1.40649056,1.11932147,0.00000000,0.00000000
-0.09834193,-2.17000008,-0.80793452,-0.37013918,1.40943265,0.00000000,0.00000000,-2.20201659,-0.35926458,1.43519688,-1.40594220,1.10884476,0.00000000,0.00000000
-0.09779248,-2.17000008,-0.80820107,-0.36721301,1.40600371,0.00000000,0.00000000,-2.20191574,-0.35758683,1.43674684,-1.40535522,1.09840119,0.00000000,0.00000000
-0.09735752,-2.17000008,-0.80804592,-0.36596489,1.39953005,0.00000000,0.00000000,-2.20177484,-0.35617983,1.43815553,-1.40474391,1.08619416,0.00000000,0.00000000
-0.09697025,-2.17000008,-0.80752432,-0.36594823,1.38816381,0.00000000,0.00000000,-2.20161080,-0.35510147,1.43934464,-1.40415490,1.08268392,0.00000000,0.00000000
-0.09720801,-2.17000008,-0.80688274,-0.36685053,1.38027585,0.00000000,0.00000000,-2.20135641,-0.35436234,1.44023848,-1.40369201,1.08255589,0.00000000,0.00000000
-0.09783901,-2.17000008,-0.80598092,-0.36883712,1.38225818,0.00000000,0.00000000,-2.20112038,-0.35402477,1.44074094,-1.40331340,1.07972801,0.00000000,0.00000000
-0.09853052,-2.17000008,-0.80471832,-0.37189537,1.38278222,0.00000000,0.00000000,-2.20105577,-0.35409185,1.44080138,-1.40291286,1.07645965,0.00000000,0.00000000
-0.09963976,-2.17000008,-0.80340534,-0.37546697,1.37698722,0.00000000,0.00000000,-2.20097613,-0.35440132,1.44050765,-1.40262139,1.07297528,0.00000000,0.00000000
-0.10138491,-2.17000008,-0.80225199,-0.37919950,1.36871815,0.00000000,0.00000000,-2.20069814,-0.35482103,1.43993676,-1.40257788,1.07044184,0.00000000,0.00000000
-0.10335786,-2.17000008,-0.80118817,-0.38297546,1.35945356,0.00000000,0.00000000,-2.20017099,-0.35527170,1.43919885,-1.40279269,1.06768274,0.00000000,0.00000000
-0.10517273,-2.17000008,-0.80015653,-0.38665205,1.34634674,0.00000000,0.00000000,-2.19942284,-0.35570565,1.43840408,-1.40320575,1.06509840,0.00000000,0.00000000
-0.10691154,-2.17000008,-0.79928493,-0.38999394,1.33385217,0.00000000,0.00000000,-2.19841886,-0.35608199,1.43764484,-1.40382051,1.06184161,0.00000000,0.00000000
-0.10875347,-2.17000008,-0.79873866,-0.39270452,1.32464516,0.00000000,0.00000000,-2.19710684,-0.35633051,1.43703771,-1.40463448,1.06196618,0.00000000,0.00000000
-0.11058613,-2.17000008,-0.79852152,-0.39458892,1.31295192,0.00000000,0.00000000,-2.19559050,-0.35645571,1.43660629,-1.40554190,1.06908464,0.00000000,0.00000000
-0.11201537,-2.17000008,-0.79844266,-0.39574793,1.30882943,0.00000000,0.00000000,-2.19413733,-0.35657221,1.43625975,-1.40635276,1.06975472,0.00000000,0.00000000
-0.11292576,-2.17000008,-0.79846805,-0.39615917,1.30859673,0.00000000,0.00000000,-2.19297004,-0.35668266,1.43600392,-1.40686429,1.07371032,0.00000000,0.00000000
-0.11357445,-2.17000008,-0.79875743,-0.39559239,1.30826986,0.00000000,0.00000000,-2.19216585,-0.35667038,1.43596470,-1.40693426,1.08053863,0.00000000,0.00000000
-0.11405969,-2.17000008,-0.79930204,-0.39411113,1.31307673,0.00000000,0.00000000,-2.19167018,-0.35652220,1.43619049,-1.40659010,1.09913695,0.00000000,0.00000000
-0.11431839,-2.17000008,-0.79993522,-0.39207560,1.31297445,0.00000000,0.00000000,-2.19135022,-0.35634559,1.43661726,-1.40600014,1.11018932,0.00000000,0.00000000
-0.11416169,-2.17000008,-0.80045313,-0.38981903,1.31527114,0.00000000,0.00000000,-2.19111705,-0.35628855,1.43710947,-1.40532863,1.12545788,0.00000000,0.00000000
-0.11336071,-2.17000008,-0.80070442,-0.38751352,1.31705296,0.00000000,0.00000000,-2.19083452,-0.35638726,1.43758202,-1.40474665,1.14302135,0.00000000,0.00000000
-0.11200032,-2.17000008,-0.80069101,-0.38525647,1.32160223,0.00000000,0.00000000,-2.19042969,-0.35654238,1.43804598,-1.40429592,1.16151381,0.00000000,0.00000000
-0.11053249,-2.17000008,-0.80053711,-0.38317689,1.32473648,0.00000000,0.00000000,-2.18996096,-0.35666382,1.43851578,-1.40388179,1.17346013,0.00000000,0.00000000
-0.10894790,-2.17000008,-0.80018944,-0.38141477,1.33340740,0.00000000,0.00000000,-2.18950415,-0.35676798,1.43894279,-1.40343845,1.18278968,0.00000000,0.00000000
-0.10677362,-2.17000008,-0.79943150,-0.38006982,1.34601748,0.00000000,0.00000000,-2.18913317,-0.35695899,1.43922114,-1.40295124,1.19260371,0.00000000,0.00000000
-0.10453619,-2.17000008,-0.79847354,-0.37905338,1.36005270,0.00000000,0.00000000,-2.18887973,-0.35719731,1.43935919,-1.40237808,1.20223224,0.00000000,0.00000000
-0.10294253,-2.17000008,-0.79761964,-0.37821755,1.37026310,0.00000000,0.00000000,-2.18880081,-0.35737169,1.43943214,-1.40161777,1.21251559,0.00000000,0.00000000
-0.10190663,-2.17000008,-0.79684222,-0.37758633,1.37773073,0.00000000,0.00000000,-2.18883419,-0.35751092,1.43946898,-1.40073204,1.22397494,0.00000000,0.00000000
-0.10130332,-2.17000008,-0.79607826,-0.37726349,1.39245069,0.00000000,0.00000000,-2.18876362,-0.35774702,1.43944979,-1.39996016,1.23688114,0.00000000,0.00000000
-0.10122201,-2.17000008,-0.79536271,-0.37729275,1.40403402,0.00000000,0.00000000,-2.18849444,-0.35811004,1.43940032,-1.39938116,1.24339998,0.00000000,0.00000000
-0.10165846,-2.17000008,-0.79469973,-0.37766951,1.41027117,0.00000000,0.00000000,-2.18813777,-0.35863569,1.43926501,-1.39890933,1.24997032,0.00000000,0.00000000
-0.10248028,-2.17000008,-0.79404843,-0.37838158,1.41543138,0.00000000,0.00000000,-2.18780947,-0.35935882,1.43895531,-1.39847374,1.26482928,0.00000000,0.00000000
-0.10340100,-2.17000008,-0.79330850,-0.37944460,1.42586172,0.00000000,0.00000000,-2.18756175,-0.36028770,1.43843269,-1.39804816,1.27403593,0.00000000,0.00000000
-0.10437445,-2.17000008,-0.79250228,-0.38072982,1.43181837,0.00000000,0.00000000,-2.18739820,-0.36142674,1.43769205,-1.39764130,1.28568351,0.00000000,0.00000000
-0.10567652,-2.17000008,-0.79183149,-0.38191420,1.43407893,0.00000000,0.00000000,-2.18724656,-0.36264586,1.43687809,-1.39725149,1.29972816,0.00000000,0.00000000
-0.10739238,-2.17000008,-0.79142636,-0.38267964,1.44314897,0.00000000,0.00000000,-2.18698645,-0.36376089,1.43620908,-1.39689147,1.31596732,0.00000000,0.00000000
-0.10932852,-2.17000008,-0.79121083,-0.38295886,1.45649791,0.00000000,0.00000000,-2.18663955,-0.36479238,1.43568468,-1.39655662,1.33033669,0.00000000,0.00000000
-0.11106090,-2.17000008,-0.79096144,-0.38285294,1.46831191,0.00000000,0.00000000,-2.18648791,-0.36586839,1.43515873,-1.39607310,1.34496212,0.00000000,0.00000000
-0.11206070,-2.17000008,-0.79043400,-0.38249746,1.48440146,0.00000000,0.00000000,-2.18675756,-0.36703613,1.43456829,-1.39527476,1.35467529,0.00000000,0.00000000
-0.11239836,-2.17000008,-0.78962386,-0.38199297,1.50294209,0.00000000,0.00000000,-2.18756604,-0.36831483,1.43384707,-1.39407969,1.36444330,0.00000000,0.00000000
-0.11259701,-2.17000008,-0.78870100,-0.38137928,1.52131772,0.00000000,0.00000000,-2.18893957,-0.36972976,1.43292689,-1.39248347,1.37667274,0.00000000,0.00000000
-0.11277087,-2.17000008,-0.78769547,-0.38075420,1.53749979,0.00000000,0.00000000,-2.19048572,-0.37124905,1.43193901,-1.39079404,1.38499677,0.00000000,0.00000000
-0.11278871,-2.17000008,-0.78657043,-0.38018104,1.54883599,0.00000000,0.00000000,-2.19148493,-0.37279740,1.43115366,-1.38956940,1.39045513,0.00000000,0.00000000
-0.11261520,-2.17000008,-0.78533190,-0.37955660,1.56165993,0.00000000,0.00000000,-2.19154286,-0.37438032,1.43064201,-1.38913190,1.39364374,0.00000000,0.00000000
-0.11207223,-2.17000008,-0.78388965,-0.37880671,1.56709993,0.00000000,0.00000000,-2.19083047,-0.37612778,1.43018198,-1.38937104,1.39405417,0.00000000,0.00000000
-0.11096922,-2.17000008,-0.78217733,-0.37786359,1.57290637,0.00000000,0.00000000,-2.18963718,-0.37806642,1.42960954,-1.38999927,1.39387918,0.00000000,0.00000000
-0.10971168,-2.17000008,-0.78043920,-0.37655085,1.57731175,0.00000000,0.00000000,-2.18814898,-0.37994611,1.42902780,-1.39063311,1.39009440,0.00000000,0.00000000
-0.10901084,-2.17000008,-0.77898401,-0.37483048,1.58390200,0.00000000,0.00000000,-2.18644547,-0.38158914,1.42852068,-1.39099932,1.39331567,0.00000000,0.00000000
-0.10884079,-2.17000008,-0.77772129,-0.37291983,1.58915627,0.00000000,0.00000000,-2.18515706,-0.38306367,1.42792666,-1.39048147,1.39448428,0.00000000,0.00000000
-0.10840219,-2.17000008,-0.77623683,-0.37116635,1.59613848,0.00000000,0.00000000,-2.18506384,-0.38450786,1.42706728,-1.38840330,1.39825511,0.00000000,0.00000000
-0.10758591,-2.17000008,-0.77445924,-0.36973372,1.60566866,0.00000000,0.00000000,-2.18630314,-0.38586205,1.42600882,-1.38460708,1.39685202,0.00000000,0.00000000
-0.10711651,-2.17000008,-0.77269107,-0.36860564,1.61136532,0.00000000,0.00000000,-2.18822479,-0.38697949,1.42494631,-1.37963223,1.39406848,0.00000000,0.00000000
-0.10718037,-2.17000008,-0.77105057,-0.36774975,1.61874509,0.00000000,0.00000000,-2.18976998,-0.38787046,1.42401946,-1.37448919,1.39252758,0.00000000,0.00000000
-0.10755447,-2.17000008,-0.76947224,-0.36721152,1.63072765,0.00000000,0.00000000,-2.19020963,-0.38874802,1.42313397,-1.37005830,1.39407837,0.00000000,0.00000000
-0.10817544,-2.17000008,-0.76788509,-0.36715987,1.64538932,0.00000000,0.00000000,-2.18960285,-0.38991168,1.42196822,-1.36658525,1.39168310,0.00000000,0.00000000
-0.10899092,-2.17000008,-0.76626712,-0.36760050,1.66404641,0.00000000,0.00000000,-2.18837380,-0.39141944,1.42036927,-1.36377811,1.38537836,0.00000000,0.00000000
-0.10983685,-2.17000008,-0.76464546,-0.36828783,1.67618251,0.00000000,0.00000000,-2.18685412,-0.39310682,1.41838837,-1.36124623,1.38098204,0.00000000,0.00000000
-0.11052950,-2.17000008,-0.76305854,-0.36890802,1.67932057,0.00000000,0.00000000,-2.18514585,-0.39474738,1.41615641,-1.35874176,1.37507176,0.00000000,0.00000000
-0.11108227,-2.17000008,-0.76155537,-0.36926705,1.67922461,0.00000000,0.00000000,-2.18320680,-0.39623606,1.41368651,-1.35619593,1.36936152,0.00000000,0.00000000
-0.11179495,-2.17000008,-0.76023442,-0.36928609,1.68363917,0.00000000,0.00000000,-2.18084121,-0.39761221,1.41086543,-1.35373926,1.36588764,0.00000000,0.00000000
-0.11295951,-2.17000008,-0.75917715,-0.36896336,1.68817937,0.00000000,0.00000000,-2.17742467,-0.39888793,1.40774417,-1.35180533,1.35759330,0.00000000,0.00000000
-0.11427285,-2.17000008,-0.75820339,-0.36854225,1.69227052,0.00000000,0.00000000,-2.17234707,-0.40012598,1.40443110,-1.35076761,1.35022962,0.00000000,0.00000000
-0.11496430,-2.17000008,-0.75694537,-0.36840397,1.69842863,0.00000000,0.00000000,-2.16561699,-0.40137291,1.40100145,-1.35037303,1.34304345,0.00000000,0.00000000
-0.11509340,-2.17000008,-0.75543344,-0.36851689,1.70405436,0.00000000,0.00000000,-2.15807152,-0.40241182,1.39751625,-1.34949648,1.32365000,0.00000000,0.00000000
-0.11542838,-2.17000008,-0.75404632,-0.36845323,1.70155108,0.00000000,0.00000000,-2.15101099,-0.40280581,1.39398563,-1.34659946,1.30247247,0.00000000,0.00000000
-0.11600561,-2.17000008,-0.75283366,-0.36809206,1.69686985,0.00000000,0.00000000,-2.14541531,-0.40222636,1.39034545,-1.34063256,1.28743196,0.00000000,0.00000000
-0.11645436,-2.17000008,-0.75161481,-0.36758769,1.69682872,0.00000000,0.00000000,-2.14139795,-0.40062362,1.38642752,-1.33157086,1.27460706,0.00000000,0.00000000
-0.11712614,-2.17000008,-0.75049669,-0.36684096,1.69379592,0.00000000,0.00000000,-2.13814163,-0.39816278,1.38198805,-1.32039189,1.26842260,0.00000000,0.00000000
-0.11831193,-2.17000008,-0.74952364,-0.36590585,1.69144762,0.00000000,0.00000000,-2.13425875,-0.39524916,1.37668467,-1.30868983,1.26151347,0.00000000,0.00000000
-0.11978064,-2.17000008,-0.74850696,-0.36512509,1.69104528,0.00000000,0.00000000,-2.12873983,-0.39231664,1.37011611,-1.29766893,1.25385177,0.00000000,0.00000000
-0.12106052,-2.17000008,-0.74722713,-0.36472976,1.68902147,0.00000000,0.00000000,-2.12154102,-0.38950455,1.36198616,-1.28740668,1.24151647,0.00000000,0.00000000
-0.12176607,-2.17000008,-0.74556088,-0.36470163,1.69172168,0.00000000,0.00000000,-2.11320949,-0.38671532,1.35206735,-1.27722538,1.22872102,0.00000000,0.00000000
-0.12179339,-2.17000008,-0.74354649,-0.36472967,1.69120800,0.00000000,0.00000000,-2.10418057,-0.38375962,1.34014857,-1.26642954,1.22273886,0.00000000,0.00000000
-0.12106691,-2.17000008,-0.74118876,-0.36461872,1.69395757,0.00000000,0.00000000,-2.09436464,-0.38057721,1.32597077,-1.25480402,1.22091079,0.00000000,0.00000000
-0.11971846,-2.17000008,-0.73849630,-0.36440277,1.70014167,0.00000000,0.00000000,-2.08333778,-0.37727243,1.30918443,-1.24247372,1.22037935,0.00000000,0.00000000
-0.11812989,-2.17000008,-0.73557699,-0.36407053,1.69995034,0.00000000,0.00000000,-2.07063174,-0.37386659,1.28949153,-1.22949123,1.21855915,0.00000000,0.00000000
-0.11671528,-2.17000008,-0.73258644,-0.36346903,1.70159554,0.00000000,0.00000000,-2.05596948,-0.37017882,1.26669979,-1.21553159,1.21408868,0.00000000,0.00000000
-0.11568734,-2.17000008,-0.72959286,-0.36251521,1.70284426,0.00000000,0.00000000,-2.03928089,-0.36589399,1.24067676,-1.19991040,1.20312047,0.00000000,0.00000000
-0.11509166,-2.17000008,-0.72656107,-0.36135674,1.70155656,0.00000000,0.00000000,-2.02044129,-0.36058009,1.21140897,-1.18180168,1.19023478,0.00000000,0.00000000
-0.11497127,-2.17000008,-0.72342569,-0.36027700,1.69988036,0.00000000,0.00000000,-1.99919045,-0.35376394,1.17899024,-1.16039729,1.18206418,0.00000000,0.00000000
-0.11550891,-2.17000008,-0.72015679,-0.35953945,1.70412326,0.00000000,0.00000000,-1.97526872,-0.34498551,1.14355707,-1.13491881,1.17815173,0.00000000,0.00000000
-0.11697836,-2.17000008,-0.71675611,-0.35934043,1.70404816,0.00000000,0.00000000,-1.94849575,-0.33374038,1.10529697,-1.10458410,1.17674816,0.00000000,0.00000000
-0.11962611,-2.17000008,-0.71321791,-0.35988897,1.70456111,0.00000000,0.00000000,-1.91880667,-0.31940091,1.06447399,-1.06857979,1.17759192,0.00000000,0.00000000
-0.12346973,-2.17000008,-0.70950830,-0.36136243,1.70305002,0.00000000,0.00000000,-1.88609695,-0.30105758,1.02154720,-1.02606058,1.17773116,0.00000000,0.00000000
-0.12819368,-2.17000008,-0.70555091,-0.36394897,1.69633925,0.00000000,0.00000000,-1.84996593,-0.27740249,0.97729039,-0.97619396,1.18040442,0.00000000,0.00000000
-0.13359256,-2.17000008,-0.70124900,-0.36830705,1.69584465,0.00000000,0.00000000,-1.80951405,-0.24673398,0.93281245,-0.91823381,1.17923379,0.00000000,0.00000000
-0.13987912,-2.17000008,-0.69664639,-0.37518570,1.70112360,0.00000000,0.00000000,-1.76301527,-0.20678233,0.88966221,-0.85159940,1.17439902,0.00000000,0.00000000
-0.14666964,-2.17000008,-0.69196218,-0.38410687,1.70893896,0.00000000,0.00000000,-1.70752895,-0.15441881,0.84993845,-0.77599847,1.17038274,0.00000000,0.00000000
-0.15281412,-2.17000008,-0.68745065,-0.39366871,1.72012258,0.00000000,0.00000000,-1.63885117,-0.08564596,0.81612617,-0.69160509,1.16680932,0.00000000,0.00000000
-0.15788689,-2.17000008,-0.68327177,-0.40342093,1.73473167,0.00000000,0.00000000,-1.55251384,0.00368287,0.79042661,-0.59910202,1.17167687,0.00000000,0.00000000
-0.16217527,-2.17000008,-0.67946839,-0.41394258,1.74676394,0.00000000,0.00000000,-1.44561660,0.11609238,0.77381760,-0.49959934,1.17663634,0.00000000,0.00000000
-0.16564082,-2.17000008,-0.67619687,-0.42513493,1.76034224,0.00000000,0.00000000,-1.31784523,0.25154105,0.76589978,-0.39449942,1.17692316,0.00000000,0.00000000
-0.16792543,-2.17000008,-0.67380941,-0.43596581,1.77426219,0.00000000,0.00000000,-1.17142451,0.40779123,0.76539922,-0.28549775,1.18503618,0.00000000,0.00000000
-0.16852425,-2.17000008,-0.67268991,-0.44510552,1.79158235,0.00000000,0.00000000,-1.01071489,0.58088464,0.77064615,-0.17475511,1.19413745,0.00000000,0.00000000
-0.16669090,-2.17000008,-0.67309123,-0.45128268,1.80869401,0.00000000,0.00000000,-0.84174711,0.76544172,0.77988315,-0.06500757,1.20186162,0.00000000,0.00000000
-0.16191390,-2.17000008,-0.67521203,-0.45358905,1.82626545,0.00000000,0.00000000,-0.67163354,0.95506197,0.79148006,0.04054003,1.20843816,0.00000000,0.00000000
-0.15436199,-2.17000008,-0.67930156,-0.45163152,1.84450448,0.00000000,0.00000000,-0.50780839,1.14288616,0.80409127,0.13849699,1.21380281,0.00000000,0.00000000
-0.14452216,-2.17000008,-0.68554831,-0.44540909,1.85866463,0.00000000,0.00000000,-0.35721219,1.32221508,0.81674314,0.22562665,1.21809959,0.00000000,0.00000000
-0.13321787,-2.17000008,-0.69406778,-0.43536702,1.87224209,0.00000000,0.00000000,-0.22560801,1.48703241,0.82883954,0.29913235,1.22291994,0.00000000,0.00000000
-0.12159782,-2.17000008,-0.70488209,-0.42251784,1.88700378,0.00000000,0.00000000,-0.11716320,1.63238358,0.84009778,0.35684502,1.22742426,0.00000000,0.00000000
-0.11063673,-2.16994619,-0.71781266,-0.40828985,1.90352380,0.00000000,0.00000000,-0.03436746,1.75464475,0.85043681,0.39729574,1.23211193,0.00000000,0.00000000
-0.10072902,-2.16897106,-0.73247266,-0.39413598,1.91945076,0.00000000,0.00000000,0.02165137,1.85170496,0.85983491,0.41965023,1.23649096,0.00000000,0.00000000
-0.09171253,-2.16400385,-0.74835438,-0.38119796,1.93227494,0.00000000,0.00000000,0.05107509,1.92283261,0.86831641,0.42362046,1.23285961,0.00000000,0.00000000
-0.08310954,-2.15368891,-0.76467043,-0.37072524,1.94603491,0.00000000,0.00000000,0.05760456,1.97119427,0.87586069,0.41160899,1.22865367,0.00000000,0.00000000
-0.07405155,-2.14434695,-0.78003365,-0.36444908,1.96398830,0.00000000,0.00000000,0.05016915,2.00689292,0.88213968,0.39162344,1.21744108,0.00000000,0.00000000
-0.06522805,-2.14015174,-0.79390049,-0.36237964,1.98326826,0.00000000,0.00000000,0.03772765,2.03563976,0.88764983,0.37064505,1.20651352,0.00000000,0.00000000
-0.05748636,-2.13845634,-0.80680889,-0.36252430,2.00365901,0.00000000,0.00000000,0.02550451,2.05899715,0.89296103,0.35168672,1.19954097,0.00000000,0.00000000
-0.05105187,-2.13779545,-0.81902677,-0.36390206,2.02084637,0.00000000,0.00000000,0.01590174,2.07698703,0.89845693,0.33538383,1.19351530,0.00000000,0.00000000
-0.04648067,-2.13846993,-0.83060503,-0.36674294,2.03246808,0.00000000,0.00000000,0.01053223,2.09049559,0.90427959,0.32249436,1.19105291,0.00000000,0.00000000
-0.04423755,-2.14003706,-0.84169888,-0.37107667,2.04105854,0.00000000,0.00000000,0.01047641,2.10042858,0.91048318,0.31378329,1.18527877,0.00000000,0.00000000
-0.04431225,-2.14191556,-0.85240000,-0.37672803,2.05348349,0.00000000,0.00000000,0.01649960,2.10740662,0.91709572,0.30981031,1.18055272,0.00000000,0.00000000
-0.04724159,-2.14595723,-0.86247128,-0.38474926,2.05987453,0.00000000,0.00000000,0.02961527,2.11330867,0.92395663,0.31170496,1.17421556,0.00000000,0.00000000
-0.05282643,-2.14947200,-0.87230957,-0.39375567,2.06624007,0.00000000,0.00000000,0.04711854,2.11688495,0.93089795,0.31749719,1.17150259,0.00000000,0.00000000
-0.05961041,-2.15284252,-0.88157874,-0.40318856,2.07315207,0.00000000,0.00000000,0.06664423,2.11884379,0.93749166,0.32594070,1.17060339,0.00000000,0.00000000
-0.06621419,-2.15621114,-0.89000148,-0.41248551,2.07717037,0.00000000,0.00000000,0.08638698,2.11913538,0.94349265,0.33559740,1.17254686,0.00000000,0.00000000
-0.07341594,-2.15852141,-0.89784622,-0.42161289,2.08512878,0.00000000,0.00000000,0.10541132,2.11722279,0.94883072,0.34542671,1.17627943,0.00000000,0.00000000
-0.08244164,-2.16087365,-0.90504634,-0.43178993,2.09199739,0.00000000,0.00000000,0.12351349,2.11606169,0.95292085,0.35628673,1.17949390,0.00000000,0.00000000
-0.08794962,-2.16408062,-0.91056454,-0.44111648,2.09141302,0.00000000,0.00000000,0.13996720,2.11718035,0.95529449,0.36748672,1.18288422,0.00000000,0.00000000
-0.08982509,-2.16773987,-0.91440159,-0.44926825,2.08406901,0.00000000,0.00000000,0.15401123,2.11815476,0.95616668,0.37676641,1.17814136,0.00000000,0.00000000
-0.09070114,-2.16960859,-0.91738302,-0.45623022,2.08193111,0.00000000,0.00000000,0.16244368,2.11712718,0.95534956,0.38107100,1.17247653,0.00000000,0.00000000
-0.09362379,-2.16997957,-0.91996735,-0.46340153,2.07978535,0.00000000,0.00000000,0.16811547,2.11498308,0.95302373,0.38225552,1.16348064,0.00000000,0.00000000
-0.09964807,-2.17000008,-0.92215735,-0.47165260,2.07996631,0.00000000,0.00000000,0.17445005,2.11148787,0.94967759,0.38213733,1.15398312,0.00000000,0.00000000
-0.10241233,-2.17000008,-0.92312002,-0.47752726,2.07917476,0.00000000,0.00000000,0.17861338,2.10780597,0.94467437,0.38025656,1.14852452,0.00000000,0.00000000
-0.10062130,-2.17000008,-0.92311931,-0.47946465,2.07788849,0.00000000,0.00000000,0.18166858,2.10308003,0.93829799,0.37664670,1.14035118,0.00000000,0.00000000
-0.09576973,-2.16994882,-0.92270571,-0.47754839,2.07825613,0.00000000,0.00000000,0.18123795,2.09759283,0.93019795,0.36999482,1.13363218,0.00000000,0.00000000
-0.09278592,-2.16919160,-0.92242914,-0.47430670,2.08037782,0.00000000,0.00000000,0.17550837,2.09143138,0.92013764,0.36014545,1.12213981,0.00000000,0.00000000
-0.09024449,-2.16707492,-0.92244893,-0.46844655,2.08203197,0.00000000,0.00000000,0.16684018,2.08102775,0.90907460,0.34685263,1.10802305,0.00000000,0.00000000
-0.08570907,-2.16514254,-0.92126530,-0.46106160,2.08053708,0.00000000,0.00000000,0.15764332,2.07291937,0.89631426,0.33463651,1.10130477,0.00000000,0.00000000
-0.07957270,-2.16320539,-0.91862875,-0.45305371,2.07641339,0.00000000,0.00000000,0.15000965,2.06769490,0.88207597,0.32514015,1.10000741,0.00000000,0.00000000
-0.07273398,-2.16127920,-0.91473168,-0.44486260,2.06694531,0.00000000,0.00000000,0.14440599,2.06453848,0.86659586,0.31837910,1.09723639,0.00000000,0.00000000
-0.06519484,-2.15953588,-0.90957338,-0.43651325,2.05816245,0.00000000,0.00000000,0.14070015,2.06329536,0.84990656,0.31434563,1.09228909,0.00000000,0.00000000
-0.05721124,-2.15716505,-0.90337628,-0.42766461,2.05094934,0.00000000,0.00000000,0.13909011,2.06172895,0.83235252,0.31209859,1.08839631,0.00000000,0.00000000
-0.05301179,-2.15383744,-0.89687204,-0.41992921,2.04162121,0.00000000,0.00000000,0.14011019,2.05757618,0.81429571,0.31057370,1.08189106,0.00000000,0.00000000
-0.05335895,-2.15037560,-0.89003485,-0.41409758,2.03176379,0.00000000,0.00000000,0.14267163,2.04932237,0.79576987,0.30827260,1.08415437,0.00000000,0.00000000
-0.05594656,-2.15148735,-0.88165617,-0.41140217,2.01788378,0.00000000,0.00000000,0.14477301,2.03680277,0.77647060,0.30310795,1.08334804,0.00000000,0.00000000
-0.05987512,-2.15686107,-0.87171221,-0.41147336,2.00055933,0.00000000,0.00000000,0.14153130,2.01599240,0.75618607,0.29066426,1.08279812,0.00000000,0.00000000
-0.06449164,-2.16313267,-0.86078984,-0.41286626,1.99133193,0.00000000,0.00000000,0.12584461,1.98147154,0.73460281,0.26591569,1.08132684,0.00000000,0.00000000
-0.06926101,-2.16764641,-0.84932202,-0.41482458,1.98255038,0.00000000,0.00000000,0.09320030,1.92960417,0.71161503,0.22629911,1.07652915,0.00000000,0.00000000
-0.07463185,-2.16958332,-0.83761036,-0.41776961,1.97406888,0.00000000,0.00000000,0.04164490,1.85834098,0.68741775,0.17138572,1.07567000,0.00000000,0.00000000
-0.08099783,-2.16997766,-0.82597411,-0.42202181,1.96680474,0.00000000,0.00000000,-0.02987618,1.76659739,0.66240954,0.10174812,1.06798100,0.00000000,0.00000000
-0.08811788,-2.17000008,-0.81482148,-0.42731702,1.96195364,0.00000000,0.00000000,-0.12183825,1.65439153,0.63715827,0.01859774,1.06267607,0.00000000,0.00000000
-0.09581425,-2.17000008,-0.80474436,-0.43326321,1.96453154,0.00000000,0.00000000,-0.23366320,1.52320099,0.61240441,-0.07624184,1.05686545,0.00000000,0.00000000
-0.10402566,-2.17000008,-0.79628301,-0.43959686,1.97152030,0.00000000,0.00000000,-0.36320397,1.37604225,0.58906585,-0.18032995,1.04649794,0.00000000,0.00000000
-0.11236066,-2.17000008,-0.78970605,-0.44614369,1.97785354,0.00000000,0.00000000,-0.50666571,1.21719790,0.56822801,-0.29070899,1.03018129,0.00000000,0.00000000
-0.12023859,-2.17000008,-0.78503358,-0.45282114,1.97999310,0.00000000,0.00000000,-0.65897506,1.05176187,0.55110711,-0.40413156,1.01364625,0.00000000,0.00000000
-0.12704328,-2.17000008,-0.78210956,-0.45953324,1.98830295,0.00000000,0.00000000,-0.81438595,0.88513374,0.53899181,-0.51734841,1.00080371,0.00000000,0.00000000
-0.13228618,-2.17000008,-0.78069943,-0.46611032,2.00042224,0.00000000,0.00000000,-0.96712732,0.72253072,0.53317130,-0.62739116,0.99136090,0.00000000,0.00000000
-0.13558437,-2.17000008,-0.78052479,-0.47225767,2.01147294,0.00000000,0.00000000,-1.11196458,0.56859934,0.53485608,-0.73177189,0.97780144,0.00000000,0.00000000
-0.13685106,-2.17000008,-0.78137070,-0.47758865,2.02048707,0.00000000,0.00000000,-1.24462473,0.42714167,0.54508644,-0.82856518,0.96433705,0.00000000,0.00000000
-0.13675612,-2.17000008,-0.78325921,-0.48189151,2.02921963,0.00000000,0.00000000,-1.36210978,0.30094570,0.56460857,-0.91637808,0.95255589,0.00000000,0.00000000
-0.13637331,-2.17000008,-0.78629631,-0.48525468,2.04177856,0.00000000,0.00000000,-1.46294904,0.19170181,0.59369034,-0.99423575,0.94500387,0.00000000,0.00000000
-0.13679518,-2.17000008,-0.79041600,-0.48816273,2.05378270,0.00000000,0.00000000,-1.54735494,0.09995586,0.63189924,-1.06146431,0.93438441,0.00000000,0.00000000
-0.13649146,-2.17000008,-0.79483140,-0.49025813,2.06450224,0.00000000,0.00000000,-1.61713684,0.02511954,0.67794812,-1.11766374,0.92155790,0.00000000,0.00000000
-0.13254881,-2.17000008,-0.79895872,-0.48923475,2.07183790,0.00000000,0.00000000,-1.67521322,-0.03429653,0.72980356,-1.16277301,0.90934741,0.00000000,0.00000000
-0.13013297,-2.17000008,-0.80412424,-0.48576933,2.07451749,0.00000000,0.00000000,-1.72475433,-0.08019661,0.78515005,-1.19716370,0.90284652,0.00000000,0.00000000
-0.12895423,-2.17000008,-0.80932277,-0.48172799,2.07571173,0.00000000,0.00000000,-1.76842129,-0.11470592,0.84181660,-1.22181928,0.90332675,0.00000000,0.00000000
-0.12818021,-2.17000008,-0.81441051,-0.47667402,2.07714057,0.00000000,0.00000000,-1.80785251,-0.14038852,0.89793712,-1.23862898,0.89132142,0.00000000,0.00000000
-0.12405163,-2.17000008,-0.81936860,-0.46729475,2.07909966,0.00000000,0.00000000,-1.84355617,-0.16013402,0.95200282,-1.25031900,0.88156778,0.00000000,0.00000000
-0.11634900,-2.17000008,-0.82362849,-0.45496726,2.08384371,0.00000000,0.00000000,-1.87542331,-0.17653538,1.00283980,-1.25969470,0.87445122,0.00000000,0.00000000
-0.10663641,-2.17000008,-0.82760364,-0.44062972,2.09003377,0.00000000,0.00000000,-1.90346837,-0.19126375,1.04959679,-1.26865697,0.86562085,0.00000000,0.00000000
-0.09648739,-2.17000008,-0.83196694,-0.42451674,2.09762907,0.00000000,0.00000000,-1.92806435,-0.20483495,1.09190392,-1.27783012,0.86173773,0.00000000,0.00000000
-0.08687024,-2.17000008,-0.83664185,-0.40777224,2.10797024,0.00000000,0.00000000,-1.94963515,-0.21723719,1.12970889,-1.28724480,0.85694194,0.00000000,0.00000000
-0.07806488,-2.16997910,-0.84134406,-0.39118189,2.12196136,0.00000000,0.00000000,-1.96865416,-0.22832103,1.16307616,-1.29673135,0.85029322,0.00000000,0.00000000
-0.07013632,-2.16964841,-0.84582651,-0.37521306,2.13500690,0.00000000,0.00000000,-1.98560107,-0.23797889,1.19213903,-1.30609858,0.84680557,0.00000000,0.00000000
-0.06296962,-2.16842532,-0.84978908,-0.36047572,2.15428376,0.00000000,0.00000000,-2.00085306,-0.24619958,1.21716273,-1.31521940,0.84031922,0.00000000,0.00000000
-0.05674182,-2.16648960,-0.85307562,-0.34759775,2.17080951,0.00000000,0.00000000,-2.01471686,-0.25317201,1.23843718,-1.32409990,0.83892095,0.00000000,0.00000000
-0.05188021,-2.16438293,-0.85573113,-0.33685291,2.18977213,0.00000000,0.00000000,-2.02745962,-0.25919566,1.25625241,-1.33280838,0.83191752,0.00000000,0.00000000
-0.04867638,-2.16246390,-0.85783494,-0.32829809,2.20253086,0.00000000,0.00000000,-2.03925586,-0.26445401,1.27101958,-1.34135509,0.82559937,0.00000000,0.00000000
-0.04730729,-2.16091990,-0.85945684,-0.32203442,2.21511531,0.00000000,0.00000000,-2.05016303,-0.26903385,1.28320312,-1.34975994,0.82125813,0.00000000,0.00000000
-0.04796288,-2.15981603,-0.86066848,-0.31827918,2.23468637,0.00000000,0.00000000,-2.06020880,-0.27302355,1.29313755,-1.35809994,0.81224006,0.00000000,0.00000000
-0.05072305,-2.15915871,-0.86151552,-0.31721699,2.24405384,0.00000000,0.00000000,-2.06940722,-0.27654561,1.30098987,-1.36651576,0.80499512,0.00000000,0.00000000
-0.05540784,-2.15920472,-0.86195338,-0.31900188,2.25096369,0.00000000,0.00000000,-2.07768750,-0.27976087,1.30689883,-1.37522137,0.80569041,0.00000000,0.00000000
-0.06168757,-2.16026998,-0.86189085,-0.32372761,2.26194763,0.00000000,0.00000000,-2.08493853,-0.28284913,1.31102324,-1.38445449,0.81478673,0.00000000,0.00000000
-0.06918035,-2.16218615,-0.86127883,-0.33123952,2.27449489,0.00000000,0.00000000,-2.09088778,-0.28600478,1.31355417,-1.39458621,0.82402086,0.00000000,0.00000000
-0.07738490,-2.16461515,-0.86005825,-0.34123763,2.28086996,0.00000000,0.00000000,-2.09496522,-0.28946427,1.31474364,-1.40623665,0.83594131,0.00000000,0.00000000
-0.08572492,-2.16724682,-0.85813785,-0.35338798,2.28113031,0.00000000,0.00000000,-2.09662557,-0.29351342,1.31480610,-1.41997814,0.84514928,0.00000000,0.00000000
-0.09350653,-2.16932583,-0.85545301,-0.36715350,2.28485584,0.00000000,0.00000000,-2.09581637,-0.29832670,1.31393981,-1.43576181,0.86225599,0.00000000,0.00000000
-0.10017133,-2.16995907,-0.85211158,-0.38171998,2.28915238,0.00000000,0.00000000,-2.09317732,-0.30374113,1.31244135,-1.45257628,0.87958872,0.00000000,0.00000000
-0.10556827,-2.17000008,-0.84842658,-0.39618599,2.29148126,0.00000000,0.00000000,-2.08996248,-0.30927175,1.31064844,-1.46865082,0.90388298,0.00000000,0.00000000
-0.10975257,-2.17000008,-0.84477931,-0.40973189,2.29432225,0.00000000,0.00000000,-2.08771610,-0.31426632,1.30890679,-1.48197544,0.92242253,0.00000000,0.00000000
-0.11286890,-2.17000008,-0.84161240,-0.42153591,2.29473114,0.00000000,0.00000000,-2.08787084,-0.31809205,1.30752552,-1.49083567,0.93962014,0.00000000,0.00000000
-0.11504038,-2.17000008,-0.83934546,-0.43086496,2.29638004,0.00000000,0.00000000,-2.09137321,-0.32021078,1.30680668,-1.49418235,0.95381266,0.00000000,0.00000000
-0.11618828,-2.17000008,-0.83815420,-0.43741584,2.29872727,0.00000000,0.00000000,-2.09835196,-0.32031751,1.30707240,-1.49189627,0.96353519,0.00000000,0.00000000
-0.11634411,-2.17000008,-0.83809221,-0.44121087,2.30813694,0.00000000,0.00000000,-2.10803509,-0.31848678,1.30854654,-1.48486078,0.96967030,0.00000000,0.00000000
-0.11560106,-2.17000008,-0.83919173,-0.44225633,2.31807518,0.00000000,0.00000000,-2.11887670,-0.31507850,1.31135166,-1.47480726,0.97580427,0.00000000,0.00000000
-0.11387608,-2.17000008,-0.84139878,-0.44050589,2.32900023,0.00000000,0.00000000,-2.12883234,-0.31065801,1.31553972,-1.46407866,0.98965222,0.00000000,0.00000000
-0.11107826,-2.17000008,-0.84458864,-0.43603092,2.34016418,0.00000000,0.00000000,-2.13642907,-0.30594736,1.32080948,-1.45470834,0.99565393,0.00000000,0.00000000
-0.10729305,-2.17000008,-0.84860760,-0.42916280,2.35455036,0.00000000,0.00000000,-2.14148521,-0.30152619,1.32656229,-1.44745421,1.00096333,0.00000000,0.00000000
-0.10271310,-2.17000008,-0.85329431,-0.42040440,2.36956501,0.00000000,0.00000000,-2.14444327,-0.29760474,1.33233011,-1.44213700,1.00792253,0.00000000,0.00000000
-0.09756333,-2.17000008,-0.85845143,-0.41035172,2.38404727,0.00000000,0.00000000,-2.14585447,-0.29409358,1.33787394,-1.43823564,1.00990522,0.00000000,0.00000000
-0.09228107,-2.17000008,-0.86391062,-0.39968693,2.39173126,0.00000000,0.00000000,-2.14641094,-0.29096407,1.34289932,-1.43516827,1.01678908,0.00000000,0.00000000
-0.08745971,-2.16996598,-0.86957079,-0.38907820,2.39329553,0.00000000,0.00000000,-2.14659190,-0.28822544,1.34718895,-1.43259346,1.01454794,0.00000000,0.00000000
-0.08351695,-2.16942477,-0.87534755,-0.37903187,2.39766788,0.00000000,0.00000000,-2.14652896,-0.28575093,1.35076272,-1.43040633,1.01013148,0.00000000,0.00000000
-0.08045431,-2.16744781,-0.88103086,-0.37004304,2.39878869,0.00000000,0.00000000,-2.14625096,-0.28341466,1.35372150,-1.42858088,1.00234520,0.00000000,0.00000000
-0.07814891,-2.16440511,-0.88636369,-0.36259696,2.40136147,0.00000000,0.00000000,-2.14592505,-0.28121454,1.35607827,-1.42701209,0.98893631,0.00000000,0.00000000
-0.07662290,-2.16133428,-0.89121395,-0.35694095,2.40252328,0.00000000,0.00000000,-2.14579773,-0.27923423,1.35779095,-1.42553818,0.97919589,0.00000000,0.00000000
-0.07595772,-2.15892792,-0.89554268,-0.35318050,2.41364765,0.00000000,0.00000000,-2.14583302,-0.27755740,1.35892928,-1.42422032,0.97020346,0.00000000,0.00000000
-0.07635463,-2.15702200,-0.89944911,-0.35116729,2.42208862,0.00000000,0.00000000,-2.14570498,-0.27627340,1.35963607,-1.42338347,0.96084648,0.00000000,0.00000000
-0.07802075,-2.15544462,-0.90302032,-0.35072151,2.42278934,0.00000000,0.00000000,-2.14532304,-0.27550939,1.35995173,-1.42317772,0.95389783,0.00000000,0.00000000
-0.08097170,-2.15428519,-0.90626681,-0.35173035,2.42644882,0.00000000,0.00000000,-2.14487314,-0.27534384,1.35986829,-1.42348123,0.94475234,0.00000000,0.00000000
-0.08498598,-2.15367699,-0.90914983,-0.35407934,2.42765212,0.00000000,0.00000000,-2.14446187,-0.27581143,1.35939753,-1.42421710,0.93312770,0.00000000,0.00000000
-0.08966946,-2.15391421,-0.91156769,-0.35769621,2.42863059,0.00000000,0.00000000,-2.14416075,-0.27689543,1.35861206,-1.42528474,0.91486865,0.00000000,0.00000000
-0.09466533,-2.15512443,-0.91343826,-0.36246458,2.42879009,0.00000000,0.00000000,-2.14414191,-0.27849051,1.35766077,-1.42641699,0.89825386,0.00000000,0.00000000
-0.09968930,-2.15721560,-0.91471601,-0.36820650,2.42976832,0.00000000,0.00000000,-2.14456391,-0.28051397,1.35663462,-1.42740047,0.87637055,0.00000000,0.00000000
-0.10450384,-2.15985203,-0.91539472,-0.37467521,2.43237233,0.00000000,0.00000000,-2.14544296,-0.28292328,1.35554469,-1.42820859,0.85728198,0.00000000,0.00000000
-0.10886762,-2.16280127,-0.91544271,-0.38164207,2.43041706,0.00000000,0.00000000,-2.14671874,-0.28565636,1.35442162,-1.42887151,0.83613634,0.00000000,0.00000000
-0.11233613,-2.16611481,-0.91474748,-0.38886958,2.42588282,0.00000000,0.00000000,-2.14825034,-0.28864667,1.35330677,-1.42950070,0.81562191,0.00000000,0.00000000
-0.11465926,-2.16884255,-0.91338611,-0.39583808,2.42252493,0.00000000,0.00000000,-2.14987683,-0.29180908,1.35222137,-1.43023539,0.79066962,0.00000000,0.00000000
-0.11590430,-2.16985464,-0.91157913,-0.40200090,2.41326618,0.00000000,0.00000000,-2.15164208,-0.29499981,1.35119402,-1.43099070,0.77051824,0.00000000,0.00000000
-0.11607265,-2.16999412,-0.90946114,-0.40704820,2.40841794,0.00000000,0.00000000,-2.15362668,-0.29805675,1.35026753,-1.43163180,0.75232297,0.00000000,0.00000000
-0.11523598,-2.17000008,-0.90721434,-0.41069919,2.40104413,0.00000000,0.00000000,-2.15565944,-0.30082488,1.34953821,-1.43225217,0.74057359,0.00000000,0.00000000
-0.11349802,-2.17000008,-0.90506464,-0.41261053,2.39455914,0.00000000,0.00000000,-2.15742373,-0.30317700,1.34914529,-1.43308938,0.72944140,0.00000000,0.00000000
-0.11099014,-2.17000008,-0.90317857,-0.41260988,2.38152695,0.00000000,0.00000000,-2.15883899,-0.30507463,1.34910274,-1.43422830,0.71461725,0.00000000,0.00000000
-0.10801299,-2.17000008,-0.90168583,-0.41075784,2.37472725,0.00000000,0.00000000,-2.16001368,-0.30656707,1.34931123,-1.43562639,0.70116931,0.00000000,0.00000000
-0.10497985,-2.17000008,-0.90069163,-0.40724966,2.36274123,0.00000000,0.00000000,-2.16099524,-0.30774516,1.34967303,-1.43729758,0.68840730,0.00000000,0.00000000
-0.10195594,-2.17000008,-0.90015858,-0.40230238,2.35409594,0.00000000,0.00000000,-2.16177082,-0.30870757,1.35011578,-1.43929815,0.68007547,0.00000000,0.00000000
-0.09863394,-2.17000008,-0.89995807,-0.39598671,2.34467721,0.00000000,0.00000000,-2.16231179,-0.30952975,1.35063553,-1.44166219,0.67279041,0.00000000,0.00000000
-0.09493366,-2.17000008,-0.89999962,-0.38851258,2.33647180,0.00000000,0.00000000,-2.16263485,-0.31024027,1.35128486,-1.44435132,0.66095412,0.00000000,0.00000000
-0.09167968,-2.17000008,-0.90035629,-0.38065207,2.32432699,0.00000000,0.00000000,-2.16290784,-0.31092697,1.35196769,-1.44725621,0.64571470,0.00000000,0.00000000
-0.08990820,-2.16999984,-0.90121579,-0.37310606,2.31876326,0.00000000,0.00000000,-2.16308975,-0.31164572,1.35266066,-1.45042968,0.62689763,0.00000000,0.00000000
-0.08960659,-2.16997933,-0.90254742,-0.36607337,2.31772923,0.00000000,0.00000000,-2.16310167,-0.31239665,1.35345554,-1.45388377,0.61239344,0.00000000,0.00000000
-0.09007614,-2.16966152,-0.90406543,-0.35975334,2.31717277,0.00000000,0.00000000,-2.16302276,-0.31317791,1.35439777,-1.45747566,0.60293645,0.00000000,0.00000000
-0.09104895,-2.16845512,-0.90553820,-0.35460252,2.31825399,0.00000000,0.00000000,-2.16288042,-0.31403458,1.35542929,-1.46115661,0.59946954,0.00000000,0.00000000
-0.09263568,-2.16657448,-0.90692002,-0.35083038,2.31900597,0.00000000,0.00000000,-2.16277885,-0.31501368,1.35643399,-1.46482837,0.59634715,0.00000000,0.00000000
-0.09422114,-2.16528702,-0.90795970,-0.34838963,2.32867622,0.00000000,0.00000000,-2.16291809,-0.31613189,1.35736358,-1.46827984,0.59342378,0.00000000,0.00000000
-0.09519921,-2.16570997,-0.90841490,-0.34722716,2.33813620,0.00000000,0.00000000,-2.16343403,-0.31736910,1.35825944,-1.47133875,0.59304649,0.00000000,0.00000000
-0.09618920,-2.16666698,-0.90858197,-0.34715185,2.35567975,0.00000000,0.00000000,-2.16437173,-0.31860152,1.35920250,-1.47388566,0.59753424,0.00000000,0.00000000
-0.09804965,-2.16652179,-0.90885651,-0.34797469,2.37462807,0.00000000,0.00000000,-2.16569543,-0.31969649,1.36025012,-1.47589016,0.59876448,0.00000000,0.00000000
-0.10020189,-2.16600847,-0.90904051,-0.34968856,2.39370155,0.00000000,0.00000000,-2.16729403,-0.32061633,1.36143637,-1.47743893,0.59342021,0.00000000,0.00000000
-0.10171029,-2.16641283,-0.90878642,-0.35233033,2.41395998,0.00000000,0.00000000,-2.16905761,-0.32136682,1.36279058,-1.47862577,0.58737689,0.00000000,0.00000000
-0.10243087,-2.16761661,-0.90807492,-0.35582313,2.43633437,0.00000000,0.00000000,-2.17107153,-0.32191321,1.36432493,-1.47932971,0.57710570,0.00000000,0.00000000
-0.10239997,-2.16901922,-0.90697259,-0.35999596,2.45918155,0.00000000,0.00000000,-2.17352557,-0.32220867,1.36605501,-1.47931385,0.56472528,0.00000000,0.00000000
-0.10172753,-2.16980815,-0.90562427,-0.36446321,2.48574185,0.00000000,0.00000000,-2.17643023,-0.32227030,1.36796820,-1.47855449,0.55653095,0.00000000,0.00000000
-0.10068402,-2.16998959,-0.90422714,-0.36884522,2.51709294,0.00000000,0.00000000,-2.17963982,-0.32215977,1.36998141,-1.47723663,0.53753370,0.00000000,0.00000000
-0.09939539,-2.17000008,-0.90292025,-0.37282836,2.55517697,0.00000000,0.00000000,-2.18297768,-0.32189253,1.37199521,-1.47558963,0.51483130,0.00000000,0.00000000
-0.09797720,-2.17000008,-0.90197974,-0.37577093,2.59588408,0.00000000,0.00000000,-2.18630433,-0.32144225,1.37390947,-1.47381020,0.49087617,0.00000000,0.00000000
-0.09676582,-2.17000008,-0.90175825,-0.37708530,2.63755178,0.00000000,0.00000000,-2.18958521,-0.32077101,1.37561321,-1.47200024,0.46765968,0.00000000,0.00000000
-0.09596474,-2.17000008,-0.90234357,-0.37679070,2.67816162,0.00000000,0.00000000,-2.19259334,-0.31973124,1.37724519,-1.47033083,0.44434130,0.00000000,0.00000000
-0.09551241,-2.17000008,-0.90379202,-0.37475908,2.71586871,0.00000000,0.00000000,-2.19514275,-0.31829467,1.37895143,-1.46897840,0.42340389,0.00000000,0.00000000
-0.09511987,-2.17000008,-0.90570307,-0.37168896,2.75693250,0.00000000,0.00000000,-2.19705153,-0.31650093,1.38087249,-1.46819150,0.40053454,0.00000000,0.00000000
-0.09496284,-2.16999817,-0.90783459,-0.36830091,2.79605842,0.00000000,0.00000000,-2.19873691,-0.31478101,1.38250685,-1.46807468,0.38551161,0.00000000,0.00000000
-0.09519130,-2.16994786,-0.91016978,-0.36477739,2.83662367,0.00000000,0.00000000,-2.20045662,-0.31344610,1.38349843,-1.46887648,0.37526587,0.00000000,0.00000000
-0.09555937,-2.16950893,-0.91259593,-0.36129743,2.87440968,0.00000000,0.00000000,-2.20198894,-0.31255943,1.38391089,-1.47104442,0.35805809,0.00000000,0.00000000
-0.09565436,-2.16829777,-0.91489398,-0.35820460,2.87979317,0.00000000,0.00000000,-2.20291591,-0.31228533,1.38367450,-1.47526598,0.34359092,0.00000000,0.00000000
-0.09539026,-2.16692710,-0.91692519,-0.35579592,2.87979317,0.00000000,0.00000000,-2.20255208,-0.31316528,1.38223469,-1.48276305,0.33183613,0.00000000,0.00000000
-0.09493300,-2.16578889,-0.91867346,-0.35415781,2.87979317,0.00000000,0.00000000,-2.19935703,-0.31561750,1.37938929,-1.49508893,0.31703246,0.00000000,0.00000000
-0.09440678,-2.16509223,-0.92012888,-0.35328206,2.87979317,0.00000000,0.00000000,-2.19268584,-0.31959686,1.37536156,-1.51214337,0.30260897,0.00000000,0.00000000
-0.09386381,-2.16498804,-0.92127913,-0.35314032,2.87979317,0.00000000,0.00000000,-2.18408871,-0.32483548,1.37022519,-1.53149688,0.29242861,0.00000000,0.00000000
-0.09322205,-2.16530848,-0.92214626,-0.35365158,2.87979317,0.00000000,0.00000000,-2.17566800,-0.33071026,1.36446345,-1.55000758,0.28538054,0.00000000,0.00000000
-0.09219857,-2.16591978,-0.92271382,-0.35474390,2.87979317,0.00000000,0.00000000,-2.16873288,-0.33642706,1.35905516,-1.56519651,0.27981365,0.00000000,0.00000000
-0.09054614,-2.16692185,-0.92291975,-0.35640657,2.87979317,0.00000000,0.00000000,-2.16391659,-0.34136543,1.35497653,-1.57546568,0.26605669,0.00000000,0.00000000
-0.08825945,-2.16831636,-0.92273551,-0.35870782,2.87979317,0.00000000,0.00000000,-2.16161108,-0.34511903,1.35288358,-1.57993102,0.25170401,0.00000000,0.00000000
-0.08585050,-2.16957426,-0.92233169,-0.36177406,2.87979317,0.00000000,0.00000000,-2.16198206,-0.34741914,1.35309136,-1.57842636,0.24016903,0.00000000,0.00000000
-0.08458066,-2.16997385,-0.92220604,-0.36561275,2.87979317,0.00000000,0.00000000,-2.16481233,-0.34823993,1.35552990,-1.57155061,0.23115677,0.00000000,0.00000000
-0.08497722,-2.17000008,-0.92256701,-0.37010065,2.87979317,0.00000000,0.00000000,-2.16943312,-0.34788752,1.35976171,-1.56062996,0.21832880,0.00000000,0.00000000
-0.08657593,-2.17000008,-0.92328429,-0.37490895,2.87979317,0.00000000,0.00000000,-2.17466092,-0.34692287,1.36518586,-1.54761910,0.20203631,0.00000000,0.00000000
-0.08867545,-2.17000008,-0.92417735,-0.37965509,2.87979317,0.00000000,0.00000000,-2.17906523,-0.34599259,1.37121558,-1.53468871,0.18953814,0.00000000,0.00000000
-0.09048249,-2.17000008,-0.92499751,-0.38412145,2.87979317,0.00000000,0.00000000,-2.18170381,-0.34557620,1.37733626,-1.52338266,0.18217731,0.00000000,0.00000000
-0.09159496,-2.17000008,-0.92559284,-0.38823280,2.87979317,0.00000000,0.00000000,-2.18256378,-0.34583065,1.38315415,-1.51411510,0.17692500,0.00000000,0.00000000
-0.09199022,-2.17000008,-0.92597145,-0.39187211,2.87979317,0.00000000,0.00000000,-2.18224692,-0.34668791,1.38841450,-1.50663996,0.17694305,0.00000000,0.00000000
-0.09190077,-2.17000008,-0.92625123,-0.39492178,2.87979317,0.00000000,0.00000000,-2.18159938,-0.34807551,1.39283323,-1.50066650,0.18183321,0.00000000,0.00000000
-0.09194034,-2.17000008,-0.92662716,-0.39744177,2.87979317,0.00000000,0.00000000,-2.18140602,-0.35000733,1.39605677,-1.49604595,0.18499359,0.00000000,0.00000000
-0.09242768,-2.17000008,-0.92720264,-0.39938655,2.87979317,0.00000000,0.00000000,-2.18197322,-0.35235643,1.39806819,-1.49258983,0.19275902,0.00000000,0.00000000
-0.09289517,-2.17000008,-0.92786252,-0.40042472,2.87979317,0.00000000,0.00000000,-2.18316317,-0.35476458,1.39930153,-1.48987234,0.20501609,0.00000000,0.00000000
-0.09287155,-2.17000008,-0.92843151,-0.40036428,2.87979317,0.00000000,0.00000000,-2.18462658,-0.35691780,1.40028083,-1.48752725,0.21927783,0.00000000,0.00000000
-0.09228995,-2.17000008,-0.92879045,-0.39933416,2.87979317,0.00000000,0.00000000,-2.18599129,-0.35875198,1.40131891,-1.48550212,0.23671603,0.00000000,0.00000000
-0.09128135,-2.17000008,-0.92887306,-0.39751223,2.87979317,0.00000000,0.00000000,-2.18714404,-0.36030692,1.40252268,-1.48375499,0.25291535,0.00000000,0.00000000
-0.09006296,-2.17000008,-0.92866552,-0.39499748,2.87979317,0.00000000,0.00000000,-2.18816471,-0.36152050,1.40398872,-1.48210502,0.26672399,0.00000000,0.00000000
-0.08881061,-2.17000008,-0.92812961,-0.39194390,2.87979317,0.00000000,0.00000000,-2.18914485,-0.36233100,1.40576839,-1.48040032,0.28009444,0.00000000,0.00000000
-0.08759318,-2.16998935,-0.92716706,-0.38860580,2.87979317,0.00000000,0.00000000,-2.19012189,-0.36281541,1.40778661,-1.47863173,0.28411403,0.00000000,0.00000000
-0.08650042,-2.16982460,-0.92572975,-0.38518223,2.87979317,0.00000000,0.00000000,-2.19116139,-0.36308727,1.40990829,-1.47679031,0.28718179,0.00000000,0.00000000
-0.08571158,-2.16929507,-0.92385077,-0.38180694,2.87979317,0.00000000,0.00000000,-2.19230223,-0.36317071,1.41208315,-1.47484350,0.28902411,0.00000000,0.00000000
-0.08525076,-2.16876578,-0.92146611,-0.37877354,2.87979317,0.00000000,0.00000000,-2.19340992,-0.36305806,1.41436481,-1.47289312,0.28592944,0.00000000,0.00000000
-0.08517660,-2.16859102,-0.91854018,-0.37636772,2.87979317,0.00000000,0.00000000,-2.19435310,-0.36280239,1.41677511,-1.47106194,0.27903593,0.00000000,0.00000000
-0.08560797,-2.16859937,-0.91513282,-0.37469396,2.87979317,0.00000000,0.00000000,-2.19513535,-0.36253241,1.41922212,-1.46938562,0.26717511,0.00000000,0.00000000
-0.08631973,-2.16897511,-0.91118002,-0.37388059,2.87979317,0.00000000,0.00000000,-2.19583321,-0.36237288,1.42157197,-1.46783555,0.25951725,0.00000000,0.00000000
-0.08695088,-2.16969919,-0.90661800,-0.37394202,2.87979317,0.00000000,0.00000000,-2.19645858,-0.36236364,1.42377341,-1.46640766,0.25571856,0.00000000,0.00000000
-0.08746529,-2.16998100,-0.90162444,-0.37452078,2.87979317,0.00000000,0.00000000,-2.19691706,-0.36258706,1.42572224,-1.46523726,0.24810663,0.00000000,0.00000000
-0.08797219,-2.17000008,-0.89640117,-0.37526280,2.87979317,0.00000000,0.00000000,-2.19728851,-0.36320108,1.42718506,-1.46434999,0.24670300,0.00000000,0.00000000
-0.08834951,-2.17000008,-0.89100081,-0.37603453,2.87979317,0.00000000,0.00000000,-2.19764757,-0.36432105,1.42797661,-1.46375501,0.24787474,0.00000000,0.00000000
-0.08848222,-2.17000008,-0.88545382,-0.37685114,2.87979317,0.00000000,0.00000000,-2.19795561,-0.36590138,1.42811012,-1.46347463,0.24790616,0.00000000,0.00000000
-0.08859143,-2.17000008,-0.87990272,-0.37776706,2.87979317,0.00000000,0.00000000,-2.19831538,-0.36782935,1.42764008,-1.46335971,0.24573851,0.00000000,0.00000000
-0.08875951,-2.17000008,-0.87447572,-0.37874994,2.87979317,0.00000000,0.00000000,-2.19877243,-0.36998582,1.42666638,-1.46329916,0.23676494,0.00000000,0.00000000
-0.08915880,-2.17000008,-0.86940944,-0.37961724,2.87979317,0.00000000,0.00000000,-2.19910645,-0.37220973,1.42539775,-1.46339500,0.22819281,0.00000000,0.00000000
-0.09017985,-2.17000008,-0.86504632,-0.38007468,2.87273645,0.00000000,0.00000000,-2.19899273,-0.37432870,1.42406297,-1.46385157,0.22026443,0.00000000,0.00000000
-0.09200239,-2.17000008,-0.86152303,-0.37999460,2.85823441,0.00000000,0.00000000,-2.19831324,-0.37631336,1.42269778,-1.46479583,0.20854157,0.00000000,0.00000000
-0.09425977,-2.17000008,-0.85860693,-0.37952530,2.84207559,0.00000000,0.00000000,-2.19722342,-0.37836185,1.42105389,-1.46626997,0.19544315,0.00000000,0.00000000
-0.09589826,-2.17000008,-0.85576558,-0.37884951,2.82999372,0.00000000,0.00000000,-2.19599152,-0.38065082,1.41894877,-1.46816146,0.17820525,0.00000000,0.00000000
-0.09623668,-2.17000008,-0.85267675,-0.37803948,2.81290770,0.00000000,0.00000000,-2.19485569,-0.38305071,1.41654420,-1.47012389,0.15967514,0.00000000,0.00000000
-0.09599345,-2.17000008,-0.84962738,-0.37710539,2.79698229,0.00000000,0.00000000,-2.19391990,-0.38528928,1.41408741,-1.47186017,0.14128587,0.00000000,0.00000000
-0.09611071,-2.17000008,-0.84700149,-0.37605292,2.78286767,0.00000000,0.00000000,-2.19300079,-0.38719523,1.41175950,-1.47343254,0.12401029,0.00000000,0.00000000
-0.09687401,-2.17000008,-0.84488535,-0.37497213,2.76864409,0.00000000,0.00000000,-2.19190836,-0.38874075,1.40964150,-1.47499847,0.11300214,0.00000000,0.00000000
-0.09809093,-2.17000008,-0.84314972,-0.37406853,2.75688314,0.00000000,0.00000000,-2.19059801,-0.38991037,1.40778410,-1.47658432,0.10032921,0.00000000,0.00000000
-0.09936829,-2.17000008,-0.84160632,-0.37354630,2.74240756,0.00000000,0.00000000,-2.18914819,-0.39067835,1.40620327,-1.47809672,0.08456980,0.00000000,0.00000000
-0.10044415,-2.17000008,-0.84014463,-0.37349212,2.73109937,0.00000000,0.00000000,-2.18767118,-0.39103475,1.40486288,-1.47942340,0.06387870,0.00000000,0.00000000
-0.10115293,-2.17000008,-0.83870226,-0.37385100,2.72354531,0.00000000,0.00000000,-2.18633199,-0.39100426,1.40368044,-1.48042655,0.04178597,0.00000000,0.00000000
-0.10157648,-2.17000008,-0.83732635,-0.37446091,2.71011472,0.00000000,0.00000000,-2.18531609,-0.39064670,1.40254450,-1.48096645,0.01816439,0.00000000,0.00000000
-0.10192627,-2.17000008,-0.83612227,-0.37517023,2.69271636,0.00000000,0.00000000,-2.18466663,-0.39001682,1.40142620,-1.48101413,-0.00378320,0.00000000,0.00000000
-0.10222199,-2.17000008,-0.83511096,-0.37590083,2.67080736,0.00000000,0.00000000,-2.18437147,-0.38917801,1.40035927,-1.48058438,-0.02390496,0.00000000,0.00000000
-0.10244723,-2.17000008,-0.83429295,-0.37658888,2.64778686,0.00000000,0.00000000,-2.18452358,-0.38821673,1.39932907,-1.47961652,-0.04656675,0.00000000,0.00000000
-0.10262538,-2.17000008,-0.83369261,-0.37713048,2.62543464,0.00000000,0.00000000,-2.18505025,-0.38722229,1.39831483,-1.47821569,-0.06495950,0.00000000,0.00000000
-0.10277873,-2.17000008,-0.83333260,-0.37740830,2.61321759,0.00000000,0.00000000,-2.18566608,-0.38633284,1.39725423,-1.47671914,-0.08214220,0.00000000,0.00000000
-0.10281058,-2.17000008,-0.83317512,-0.37733930,2.59748745,0.00000000,0.00000000,-2.18621850,-0.38570359,1.39602971,-1.47534883,-0.09973150,0.00000000,0.00000000
-0.10252345,-2.17000008,-0.83315504,-0.37681115,2.57913208,0.00000000,0.00000000,-2.18647861,-0.38537759,1.39464426,-1.47433019,-0.11553030,0.00000000,0.00000000
-0.10194042,-2.17000008,-0.83328712,-0.37571737,2.56012917,0.00000000,0.00000000,-2.18633676,-0.38526422,1.39318240,-1.47369325,-0.13593161,0.00000000,0.00000000
-0.10141182,-2.17000008,-0.83364147,-0.37413612,2.53964257,0.00000000,0.00000000,-2.18583751,-0.38524601,1.39172769,-1.47330844,-0.15811177,0.00000000,0.00000000
-0.10135683,-2.17000008,-0.83422410,-0.37240133,2.51857972,0.00000000,0.00000000,-2.18512487,-0.38525078,1.39028835,-1.47300458,-0.17772786,0.00000000,0.00000000
-0.10188443,-2.17000008,-0.83489579,-0.37094104,2.50091124,0.00000000,0.00000000,-2.18435645,-0.38524476,1.38884449,-1.47262955,-0.20481704,0.00000000,0.00000000
-0.10262347,-2.17000008,-0.83539939,-0.37002391,2.48358107,0.00000000,0.00000000,-2.18360734,-0.38516113,1.38748872,-1.47206926,-0.22843346,0.00000000,0.00000000
-0.10311987,-2.17000008,-0.83553511,-0.36970770,2.46273088,0.00000000,0.00000000,-2.18295717,-0.38488945,1.38637674,-1.47116172,-0.25063685,0.00000000,0.00000000
-0.10341677,-2.17000008,-0.83530521,-0.37006915,2.43839097,0.00000000,0.00000000,-2.18241167,-0.38436669,1.38558280,-1.46984220,-0.27314156,0.00000000,0.00000000
-0.10385311,-2.17000008,-0.83480257,-0.37125516,2.41230869,0.00000000,0.00000000,-2.18186998,-0.38359123,1.38508141,-1.46819270,-0.29400936,0.00000000,0.00000000
-0.10459093,-2.17000008,-0.83408386,-0.37326553,2.38730741,0.00000000,0.00000000,-2.18123317,-0.38262993,1.38476443,-1.46633828,-0.31238818,0.00000000,0.00000000
-0.10550351,-2.17000008,-0.83315188,-0.37588611,2.36137843,0.00000000,0.00000000,-2.18044496,-0.38163480,1.38447011,-1.46438706,-0.33205500,0.00000000,0.00000000
-0.10631911,-2.17000008,-0.83199757,-0.37874782,2.33271217,0.00000000,0.00000000,-2.17951131,-0.38078547,1.38403451,-1.46238804,-0.34380257,0.00000000,0.00000000
-0.10706519,-2.17000008,-0.83077097,-0.38141397,2.30895066,0.00000000,0.00000000,-2.17835879,-0.38016292,1.38337326,-1.46041763,-0.34972709,0.00000000,0.00000000
-0.10773061,-2.17000008,-0.82961971,-0.38357356,2.28295326,0.00000000,0.00000000,-2.17678046,-0.37971595,1.38249934,-1.45861673,-0.35487479,0.00000000,0.00000000
-0.10821382,-2.17000008,-0.82859236,-0.38512433,2.25857687,0.00000000,0.00000000,-2.17469287,-0.37932375,1.38142836,-1.45699263,-0.35844260,0.00000000,0.00000000
-0.10856596,-2.17000008,-0.82773447,-0.38606495,2.23511028,0.00000000,0.00000000,-2.17228150,-0.37887737,1.38009965,-1.45532680,-0.36371675,0.00000000,0.00000000
-0.10885453,-2.17000008,-0.82708472,-0.38637748,2.20869112,0.00000000,0.00000000,-2.16971707,-0.37825659,1.37853849,-1.45337987,-0.36881346,0.00000000,0.00000000
-0.10898031,-2.17000008,-0.82662612,-0.38600653,2.17869425,0.00000000,0.00000000,-2.16705179,-0.37734023,1.37685549,-1.45098805,-0.37649599,0.00000000,0.00000000
-0.10874840,-2.17000008,-0.82628572,-0.38490340,2.14659190,0.00000000,0.00000000,-2.16431022,-0.37607485,1.37509620,-1.44804668,-0.37961516,0.00000000,0.00000000
-0.10814250,-2.17000008,-0.82603902,-0.38297734,2.11336589,0.00000000,0.00000000,-2.16148496,-0.37447166,1.37325239,-1.44451725,-0.37708968,0.00000000,0.00000000
-0.10749333,-2.17000008,-0.82591009,-0.38030913,2.08230042,0.00000000,0.00000000,-2.15842795,-0.37254834,1.37133682,-1.44049752,-0.37541461,0.00000000,0.00000000
-0.10732034,-2.17000008,-0.82588947,-0.37725821,2.05829048,0.00000000,0.00000000,-2.15502071,-0.37034270,1.36930740,-1.43609130,-0.37234476,0.00000000,0.00000000
-0.10789819,-2.17000008,-0.82583433,-0.37432340,2.03658628,0.00000000,0.00000000,-2.15124202,-0.36805144,1.36688721,-1.43144703,-0.36996824,0.00000000,0.00000000
-0.10891820,-2.17000008,-0.82550830,-0.37177360,2.01783872,0.00000000,0.00000000,-2.14706826,-0.36580175,1.36381042,-1.42669404,-0.36983973,0.00000000,0.00000000
-0.10964711,-2.17000008,-0.82464170,-0.36969724,2.00007463,0.00000000,0.00000000,-2.14248681,-0.36352062,1.35998499,-1.42181528,-0.36932224,0.00000000,0.00000000
-0.11008449,-2.17000008,-0.82322329,-0.36815277,1.98076630,0.00000000,0.00000000,-2.13759232,-0.36116049,1.35523260,-1.41670346,-0.36401764,0.00000000,0.00000000
-0.11077416,-2.17000008,-0.82141727,-0.36717173,1.95839846,0.00000000,0.00000000,-2.13240290,-0.35870245,1.34935451,-1.41131568,-0.35764441,0.00000000,0.00000000
-0.11177702,-2.17000008,-0.81926650,-0.36667886,1.93683732,0.00000000,0.00000000,-2.12678838,-0.35600543,1.34232366,-1.40565789,-0.35337970,0.00000000,0.00000000
-0.11288555,-2.17000008,-0.81675851,-0.36651543,1.92200434,0.00000000,0.00000000,-2.12051368,-0.35287443,1.33416235,-1.39980078,-0.34868294,0.00000000,0.00000000
-0.11395607,-2.17000008,-0.81388474,-0.36657327,1.90558195,0.00000000,0.00000000,-2.11351061,-0.34916613,1.32469773,-1.39372802,-0.33813769,0.00000000,0.00000000
-0.11490589,-2.17000008,-0.81065744,-0.36677793,1.88892674,0.00000000,0.00000000,-2.10576344,-0.34473291,1.31364095,-1.38739729,-0.31991261,0.00000000,0.00000000
-0.11571458,-2.17000008,-0.80712730,-0.36706775,1.87880814,0.00000000,0.00000000,-2.09719014,-0.33936661,1.30068064,-1.38079679,-0.30194449,0.00000000,0.00000000
-0.11649664,-2.17000008,-0.80338353,-0.36736289,1.86926365,0.00000000,0.00000000,-2.08768511,-0.33285922,1.28545821,-1.37392199,-0.28523970,0.00000000,0.00000000
-0.11738715,-2.17000008,-0.79950798,-0.36752310,1.85345936,0.00000000,0.00000000,-2.07711196,-0.32501072,1.26758349,-1.36677206,-0.26220819,0.00000000,0.00000000
-0.11839253,-2.17000008,-0.79553270,-0.36739221,1.83004475,0.00000000,0.00000000,-2.06526756,-0.31559697,1.24668455,-1.35935259,-0.23500155,0.00000000,0.00000000
-0.11937503,-2.17000008,-0.79143977,-0.36686862,1.80721211,0.00000000,0.00000000,-2.05187941,-0.30437168,1.22242129,-1.35167074,-0.21446362,0.00000000,0.00000000
-0.12020884,-2.17000008,-0.78719920,-0.36592421,1.78761995,0.00000000,0.00000000,-2.03667140,-0.29111516,1.19442737,-1.34370184,-0.19645752,0.00000000,0.00000000
-0.12094362,-2.17000008,-0.78281224,-0.36456338,1.77306080,0.00000000,0.00000000,-2.01935029,-0.27563056,1.16234100,-1.33537602,-0.17757840,0.00000000,0.00000000
-0.12166979,-2.17000008,-0.77826965,-0.36280745,1.75940645,0.00000000,0.00000000,-1.99952567,-0.25778589,1.12586069,-1.32664323,-0.15865467,0.00000000,0.00000000
-0.12235555,-2.17000008,-0.77349621,-0.36072609,1.74373627,0.00000000,0.00000000,-1.97678339,-0.23753044,1.08476937,-1.31744814,-0.14000264,0.00000000,0.00000000
-0.12308080,-2.17000008,-0.76841980,-0.35842979,1.73372710,0.00000000,0.00000000,-1.95073307,-0.21487951,1.03895020,-1.30770135,-0.12543476,0.00000000,0.00000000
-0.12414196,-2.17000008,-0.76301187,-0.35607138,1.72226584,0.00000000,0.00000000,-1.92094743,-0.18989284,0.98843056,-1.29730165,-0.11218392,0.00000000,0.00000000
-0.12564768,-2.17000008,-0.75717825,-0.35390222,1.71220541,0.00000000,0.00000000,-1.88684738,-0.16257840,0.93350214,-1.28611815,-0.09652613,0.00000000,0.00000000
-0.12737527,-2.17000008,-0.75073594,-0.35230240,1.69921160,0.00000000,0.00000000,-1.84766793,-0.13267459,0.87483186,-1.27377725,-0.08348425,0.00000000,0.00000000
