isaac-sim2real/sage/motion_files/wr75s/amass/0-Eyes_Japan_Dataset_hamada_accident-12-twist foot-hamada_poses_idx55.txt
l_joint1,l_joint2,l_joint3,l_joint4,l_joint5,l_joint6,l_joint7,r_joint1,r_joint2,r_joint3,r_joint4,r_joint5,r_joint6,r_joint7
-2.60645843,-0.45237422,0.14165200,-0.49057105,-0.14302206,0.00000000,0.00000000,-1.66654265,0.77424908,0.12876196,-0.34431145,-0.10621704,0.00000000,0.00000000
-2.60591006,-0.45334390,0.14191845,-0.49093878,-0.15798377,0.00000000,0.00000000,-1.66664386,0.77348125,0.12788536,-0.34475809,-0.11483958,0.00000000,0.00000000
-2.60483503,-0.45472509,0.14241174,-0.49138778,-0.16862200,0.00000000,0.00000000,-1.66676128,0.77223933,0.12624757,-0.34551573,-0.12727968,0.00000000,0.00000000
-2.60320854,-0.45620361,0.14308402,-0.49177873,-0.17666313,0.00000000,0.00000000,-1.66675782,0.77084023,0.12395068,-0.34645113,-0.13682331,0.00000000,0.00000000
-2.60099792,-0.45772114,0.14388376,-0.49213064,-0.18822084,0.00000000,0.00000000,-1.66646802,0.76960278,0.12111904,-0.34743637,-0.14844045,0.00000000,0.00000000
-2.59817433,-0.45926869,0.14479366,-0.49247620,-0.19764441,0.00000000,0.00000000,-1.66573501,0.76873440,0.11786342,-0.34840891,-0.16145675,0.00000000,0.00000000
-2.59471107,-0.46080053,0.14586121,-0.49279666,-0.20979139,0.00000000,0.00000000,-1.66443110,0.76822770,0.11426567,-0.34942469,-0.17635763,0.00000000,0.00000000
-2.59057832,-0.46222660,0.14717485,-0.49304566,-0.22248805,0.00000000,0.00000000,-1.66247666,0.76795131,0.11036176,-0.35061044,-0.19184065,0.00000000,0.00000000
-2.58574128,-0.46340260,0.14879562,-0.49317291,-0.23800950,0.00000000,0.00000000,-1.65986800,0.76785523,0.10611734,-0.35205525,-0.20384490,0.00000000,0.00000000
-2.58015919,-0.46420372,0.15073384,-0.49315232,-0.25725117,0.00000000,0.00000000,-1.65666616,0.76800364,0.10143717,-0.35378465,-0.21601395,0.00000000,0.00000000
-2.57377982,-0.46464941,0.15299216,-0.49301979,-0.28214407,0.00000000,0.00000000,-1.65294230,0.76843125,0.09621407,-0.35582155,-0.22681470,0.00000000,0.00000000
-2.56653428,-0.46486974,0.15558718,-0.49284169,-0.30733302,0.00000000,0.00000000,-1.64874780,0.76911080,0.09035750,-0.35820019,-0.23614918,0.00000000,0.00000000
-2.55834270,-0.46494600,0.15851898,-0.49263340,-0.33246025,0.00000000,0.00000000,-1.64413261,0.77006918,0.08377633,-0.36091530,-0.24214464,0.00000000,0.00000000
-2.54912257,-0.46491301,0.16176672,-0.49236497,-0.35786217,0.00000000,0.00000000,-1.63915098,0.77138430,0.07637303,-0.36393243,-0.24795642,0.00000000,0.00000000
-2.53879452,-0.46489373,0.16533050,-0.49204132,-0.38675147,0.00000000,0.00000000,-1.63382471,0.77304447,0.06807885,-0.36726546,-0.25430048,0.00000000,0.00000000
-2.52728653,-0.46503541,0.16924554,-0.49168187,-0.41472438,0.00000000,0.00000000,-1.62811196,0.77495921,0.05888304,-0.37097672,-0.25967869,0.00000000,0.00000000
-2.51452947,-0.46529648,0.17354167,-0.49120530,-0.44300207,0.00000000,0.00000000,-1.62192118,0.77714729,0.04882112,-0.37508270,-0.26085216,0.00000000,0.00000000
-2.50044417,-0.46548930,0.17821556,-0.49043021,-0.46870109,0.00000000,0.00000000,-1.61513948,0.77976322,0.03795051,-0.37953085,-0.25903076,0.00000000,0.00000000
-2.48494029,-0.46559107,0.18323827,-0.48922884,-0.50138599,0.00000000,0.00000000,-1.60763907,0.78291351,0.02634650,-0.38428006,-0.25382590,0.00000000,0.00000000
-2.46791792,-0.46588501,0.18855618,-0.48761484,-0.53029877,0.00000000,0.00000000,-1.59926546,0.78658599,0.01411607,-0.38933352,-0.24587448,0.00000000,0.00000000
-2.44927669,-0.46675411,0.19408646,-0.48565987,-0.56154931,0.00000000,0.00000000,-1.58982980,0.79078680,0.00140930,-0.39467293,-0.23788878,0.00000000,0.00000000
-2.42890978,-0.46851906,0.19972597,-0.48341826,-0.59235954,0.00000000,0.00000000,-1.57911694,0.79560745,-0.01158554,-0.40022761,-0.23429547,0.00000000,0.00000000
-2.40671730,-0.47154385,0.20535453,-0.48096627,-0.62033987,0.00000000,0.00000000,-1.56691658,0.80110866,-0.02466933,-0.40593708,-0.22605275,0.00000000,0.00000000
-2.38261580,-0.47630271,0.21083139,-0.47842112,-0.64536721,0.00000000,0.00000000,-1.55307043,0.80725235,-0.03767821,-0.41179347,-0.22098073,0.00000000,0.00000000
-2.35656071,-0.48289421,0.21611100,-0.47576988,-0.66658950,0.00000000,0.00000000,-1.53758585,0.81396812,-0.05061224,-0.41787723,-0.21952964,0.00000000,0.00000000
-2.32855058,-0.49063221,0.22136028,-0.47274703,-0.69039387,0.00000000,0.00000000,-1.52069414,0.82120895,-0.06370708,-0.42438000,-0.22176577,0.00000000,0.00000000
-2.29858279,-0.49933901,0.22660965,-0.46927226,-0.70979267,0.00000000,0.00000000,-1.50248694,0.82898694,-0.07703810,-0.43134046,-0.22375736,0.00000000,0.00000000
-2.26666021,-0.50906098,0.23183429,-0.46533403,-0.73238736,0.00000000,0.00000000,-1.48298085,0.83731908,-0.09058803,-0.43872577,-0.23119672,0.00000000,0.00000000
-2.23279905,-0.51971865,0.23702976,-0.46085685,-0.75613976,0.00000000,0.00000000,-1.46218705,0.84622025,-0.10431789,-0.44649088,-0.23573989,0.00000000,0.00000000
-2.19703364,-0.53127354,0.24214388,-0.45575613,-0.77879238,0.00000000,0.00000000,-1.44006073,0.85568130,-0.11810066,-0.45454714,-0.23658077,0.00000000,0.00000000
-2.15941596,-0.54371595,0.24708414,-0.44994405,-0.79420966,0.00000000,0.00000000,-1.41653144,0.86568403,-0.13174887,-0.46275648,-0.24192163,0.00000000,0.00000000
-2.12002921,-0.55707890,0.25170183,-0.44334149,-0.81135952,0.00000000,0.00000000,-1.39152288,0.87624222,-0.14503336,-0.47092381,-0.24564089,0.00000000,0.00000000
-2.07900000,-0.57141811,0.25577614,-0.43586287,-0.83449101,0.00000000,0.00000000,-1.36494732,0.88742310,-0.15766644,-0.47879493,-0.24917813,0.00000000,0.00000000
-2.03649330,-0.58674943,0.25903630,-0.42738193,-0.85719329,0.00000000,0.00000000,-1.33671010,0.89928699,-0.16929950,-0.48611358,-0.25111675,0.00000000,0.00000000
-1.99271381,-0.60304826,0.26119846,-0.41772985,-0.88306886,0.00000000,0.00000000,-1.30674553,0.91178304,-0.17957549,-0.49271408,-0.25711548,0.00000000,0.00000000
-1.94789946,-0.62029308,0.26200551,-0.40673858,-0.90562624,0.00000000,0.00000000,-1.27508020,0.92472899,-0.18823454,-0.49855325,-0.25952730,0.00000000,0.00000000
-1.90231645,-0.63847971,0.26127177,-0.39430615,-0.92921221,0.00000000,0.00000000,-1.24187589,0.93789887,-0.19520475,-0.50365299,-0.26004395,0.00000000,0.00000000
-1.85624230,-0.65760761,0.25891000,-0.38043329,-0.95300144,0.00000000,0.00000000,-1.20740664,0.95109552,-0.20059544,-0.50804633,-0.26899701,0.00000000,0.00000000
-1.80995154,-0.67763484,0.25492701,-0.36518306,-0.97055453,0.00000000,0.00000000,-1.17199063,0.96416903,-0.20461008,-0.51176739,-0.27793607,0.00000000,0.00000000
-1.76370144,-0.69841701,0.24940634,-0.34860599,-0.98477131,0.00000000,0.00000000,-1.13593638,0.97703141,-0.20746517,-0.51483959,-0.28997049,0.00000000,0.00000000
-1.71772516,-0.71970266,0.24249305,-0.33072826,-0.99355930,0.00000000,0.00000000,-1.09952819,0.98965627,-0.20935498,-0.51724613,-0.30323154,0.00000000,0.00000000
-1.67223287,-0.74121976,0.23437113,-0.31160992,-1.00230491,0.00000000,0.00000000,-1.06302309,1.00199068,-0.21042819,-0.51894635,-0.31618950,0.00000000,0.00000000
-1.62741768,-0.76273412,0.22523513,-0.29136431,-1.00946116,0.00000000,0.00000000,-1.02663708,1.01383853,-0.21075162,-0.51994199,-0.32734653,0.00000000,0.00000000
-1.58345592,-0.78401041,0.21527508,-0.27010643,-1.01822865,0.00000000,0.00000000,-0.99053705,1.02484798,-0.21030289,-0.52032053,-0.33287084,0.00000000,0.00000000
-1.54049742,-0.80475587,0.20468195,-0.24791355,-1.02227545,0.00000000,0.00000000,-0.95485556,1.03462517,-0.20902103,-0.52021962,-0.34362537,0.00000000,0.00000000
-1.49864435,-0.82464176,0.19365871,-0.22484970,-1.01615977,0.00000000,0.00000000,-0.91971189,1.04286730,-0.20687672,-0.51974595,-0.35379940,0.00000000,0.00000000
-1.45793533,-0.84338957,0.18242133,-0.20101461,-1.01055944,0.00000000,0.00000000,-0.88521218,1.04943871,-0.20391306,-0.51892495,-0.36602321,0.00000000,0.00000000
-1.41834056,-0.86085862,0.17118861,-0.17657636,-1.00627768,0.00000000,0.00000000,-0.85142952,1.05437613,-0.20024624,-0.51771766,-0.38100016,0.00000000,0.00000000
-1.37976837,-0.87708938,0.16016631,-0.15178813,-1.00011408,0.00000000,0.00000000,-0.81837940,1.05784190,-0.19603407,-0.51608109,-0.40005606,0.00000000,0.00000000
-1.34208035,-0.89228582,0.14953129,-0.12697963,-0.99388433,0.00000000,0.00000000,-0.78600413,1.06005740,-0.19142133,-0.51400411,-0.41711196,0.00000000,0.00000000
-1.30511451,-0.90669882,0.13941756,-0.10248178,-0.99289149,0.00000000,0.00000000,-0.75417358,1.06125867,-0.18647230,-0.51147336,-0.42588109,0.00000000,0.00000000
-1.26871896,-0.92045224,0.12990625,-0.07850732,-0.99012607,0.00000000,0.00000000,-0.72270352,1.06168127,-0.18112029,-0.50840974,-0.43405777,0.00000000,0.00000000
-1.23277473,-0.93348598,0.12102384,-0.05511428,-0.99599320,0.00000000,0.00000000,-0.69136947,1.06154060,-0.17516385,-0.50465220,-0.43982291,0.00000000,0.00000000
-1.19719636,-0.94567782,0.11275011,-0.03228603,-0.99800581,0.00000000,0.00000000,-0.65989757,1.06099200,-0.16829140,-0.49999946,-0.44811830,0.00000000,0.00000000
-1.16190839,-0.95700544,0.10502885,-0.01002474,-0.99810940,0.00000000,0.00000000,-0.62795508,1.06009161,-0.16010314,-0.49425331,-0.45345169,0.00000000,0.00000000
-1.12682056,-0.96759117,0.09777270,0.01162597,-1.00211668,0.00000000,0.00000000,-0.59516597,1.05880868,-0.15012567,-0.48722056,-0.45657608,0.00000000,0.00000000
-1.09182608,-0.97765106,0.09086213,0.03258595,-1.01130319,0.00000000,0.00000000,-0.56113368,1.05712140,-0.13783063,-0.47867534,-0.45871893,0.00000000,0.00000000
-1.05681121,-0.98745608,0.08414496,0.05272407,-1.01932096,0.00000000,0.00000000,-0.52545661,1.05510545,-0.12266040,-0.46833810,-0.47048774,0.00000000,0.00000000
-1.02166533,-0.99732780,0.07743926,0.07186180,-1.02532947,0.00000000,0.00000000,-0.48776007,1.05292642,-0.10406714,-0.45590866,-0.47763941,0.00000000,0.00000000
-0.98627853,-1.00765753,0.07053721,0.08980424,-1.03080630,0.00000000,0.00000000,-0.44774494,1.05083930,-0.08157220,-0.44109043,-0.47843325,0.00000000,0.00000000
-0.95052826,-1.01898062,0.06320804,0.10632548,-1.03962314,0.00000000,0.00000000,-0.40522274,1.04941463,-0.05483574,-0.42349330,-0.48054922,0.00000000,0.00000000
-0.91425598,-1.03209007,0.05520093,0.12109194,-1.04767525,0.00000000,0.00000000,-0.36012903,1.04996002,-0.02369445,-0.40243238,-0.48693773,0.00000000,0.00000000
-0.87725246,-1.04809976,0.04625464,0.13360868,-1.05273390,0.00000000,0.00000000,-0.31253853,1.05475569,0.01186627,-0.37682664,-0.49753153,0.00000000,0.00000000
-0.83927506,-1.06839216,0.03612338,0.14324458,-1.05508292,0.00000000,0.00000000,-0.26270249,1.06667256,0.05176820,-0.34542722,-0.50510442,0.00000000,0.00000000
-0.80009228,-1.09443533,0.02461484,0.14931166,-1.06069088,0.00000000,0.00000000,-0.21112251,1.08830822,0.09584865,-0.30729449,-0.51357085,0.00000000,0.00000000
-0.75952291,-1.12752986,0.01162462,0.15116216,-1.06295836,0.00000000,0.00000000,-0.15864965,1.12126625,0.14381365,-0.26215366,-0.52501631,0.00000000,0.00000000
-0.71746802,-1.16849005,-0.00284328,0.14831644,-1.05813694,0.00000000,0.00000000,-0.10656919,1.16594124,0.19519283,-0.21043648,-0.53014660,0.00000000,0.00000000
-0.67396563,-1.21735716,-0.01867088,0.14059520,-1.05668259,0.00000000,0.00000000,-0.05661632,1.22162557,0.24932437,-0.15313415,-0.53666520,0.00000000,0.00000000
-0.62926400,-1.27344370,-0.03563948,0.12816516,-1.04838264,0.00000000,0.00000000,-0.01085622,1.28687143,0.30536631,-0.09158962,-0.53789759,0.00000000,0.00000000
-0.58385891,-1.33545184,-0.05346784,0.11155785,-1.04604709,0.00000000,0.00000000,0.02857161,1.35990489,0.36233371,-0.02731554,-0.53856522,0.00000000,0.00000000
-0.53837323,-1.40136766,-0.07187297,0.09179460,-1.04711509,0.00000000,0.00000000,0.05978321,1.43905914,0.41916451,0.03816934,-0.54130375,0.00000000,0.00000000
-0.49340308,-1.46834350,-0.09061224,0.07047605,-1.04668057,0.00000000,0.00000000,0.08145026,1.52292454,0.47481474,0.10344459,-0.54378045,0.00000000,0.00000000
-0.44978964,-1.53338075,-0.10947463,0.04935714,-1.04495132,0.00000000,0.00000000,0.09287856,1.60975575,0.52838016,0.16700864,-0.55026329,0.00000000,0.00000000
-0.40907007,-1.59439886,-0.12827680,0.02962970,-1.04453230,0.00000000,0.00000000,0.09401195,1.69670010,0.57923800,0.22703083,-0.55476892,0.00000000,0.00000000
-0.37317672,-1.65035379,-0.14689794,0.01175682,-1.04816496,0.00000000,0.00000000,0.08573455,1.78003442,0.62718415,0.28166229,-0.56369853,0.00000000,0.00000000
-0.34386760,-1.70123637,-0.16528939,-0.00457257,-1.04594088,0.00000000,0.00000000,0.06994325,1.85606825,0.67245716,0.32958329,-0.57422614,0.00000000,0.00000000
-0.32259390,-1.74821138,-0.18345256,-0.02056865,-1.03849244,0.00000000,0.00000000,0.04915577,1.92195725,0.71560359,0.37026510,-0.57617158,0.00000000,0.00000000
-0.31063747,-1.79338944,-0.20142025,-0.03819686,-1.03205955,0.00000000,0.00000000,0.02619281,1.97576523,0.75734293,0.40380120,-0.57950068,0.00000000,0.00000000
-0.30887848,-1.83876300,-0.21924223,-0.05934126,-1.02665591,0.00000000,0.00000000,0.00392996,2.01620460,0.79845947,0.43060830,-0.58052266,0.00000000,0.00000000
-0.31713715,-1.88510621,-0.23694645,-0.08477128,-1.01631212,0.00000000,0.00000000,-0.01569926,2.04289770,0.83948880,0.45111573,-0.58485931,0.00000000,0.00000000
-0.33383378,-1.93235111,-0.25446969,-0.11414053,-1.00814259,0.00000000,0.00000000,-0.03274409,2.05692148,0.88034797,0.46555057,-0.58918810,0.00000000,0.00000000
-0.35656762,-1.98072875,-0.27162173,-0.14684810,-0.99153483,0.00000000,0.00000000,-0.04839687,2.06083441,0.92041558,0.47428676,-0.59357178,0.00000000,0.00000000
-0.38355121,-2.02930450,-0.28820670,-0.18167919,-0.97827566,0.00000000,0.00000000,-0.06312193,2.05818319,0.95893276,0.47848353,-0.59546280,0.00000000,0.00000000
-0.41354069,-2.07443047,-0.30407000,-0.21614027,-0.96843332,0.00000000,0.00000000,-0.07644436,2.05261874,0.99521983,0.47988409,-0.59442919,0.00000000,0.00000000
-0.44435552,-2.11348557,-0.31891212,-0.24836890,-0.96247023,0.00000000,0.00000000,-0.08762222,2.04687643,1.02880359,0.48011148,-0.59449416,0.00000000,0.00000000
-0.47592804,-2.14426351,-0.33273801,-0.27698448,-0.94785082,0.00000000,0.00000000,-0.09570006,2.04222131,1.05956924,0.48036879,-0.59207731,0.00000000,0.00000000
-0.50789922,-2.16321135,-0.34559292,-0.29979944,-0.93753439,0.00000000,0.00000000,-0.10053331,2.03873396,1.08757198,0.48106563,-0.58738500,0.00000000,0.00000000
-0.53708732,-2.16923523,-0.35712242,-0.31362751,-0.93054378,0.00000000,0.00000000,-0.10297297,2.03587651,1.11291063,0.48200724,-0.59149557,0.00000000,0.00000000
-0.56234962,-2.16997099,-0.36729869,-0.31607008,-0.92879683,0.00000000,0.00000000,-0.10438403,2.03313136,1.13566160,0.48289129,-0.59765482,0.00000000,0.00000000
-0.58490628,-2.17000008,-0.37634313,-0.30793029,-0.92599946,0.00000000,0.00000000,-0.10583675,2.03065443,1.15580773,0.48382363,-0.59941834,0.00000000,0.00000000
-0.60224879,-2.17000008,-0.38360950,-0.29261488,-0.91651654,0.00000000,0.00000000,-0.10722888,2.02845883,1.17349648,0.48517144,-0.60012490,0.00000000,0.00000000
-0.60905242,-2.17000008,-0.38794681,-0.27368706,-0.90413040,0.00000000,0.00000000,-0.10797478,2.02672315,1.18886459,0.48734224,-0.59550625,0.00000000,0.00000000
-0.60496545,-2.16999793,-0.38940722,-0.25300342,-0.89526272,0.00000000,0.00000000,-0.10769139,2.02627754,1.20184505,0.49079534,-0.58667237,0.00000000,0.00000000
-0.59036171,-2.16996956,-0.38826588,-0.23167911,-0.88425291,0.00000000,0.00000000,-0.10626034,2.02822542,1.21225154,0.49601108,-0.57696837,0.00000000,0.00000000
-0.56468320,-2.16992545,-0.38464731,-0.21035729,-0.87859082,0.00000000,0.00000000,-0.10383047,2.03284621,1.22005749,0.50308293,-0.56676066,0.00000000,0.00000000
-0.53037953,-2.16996956,-0.37906718,-0.18933663,-0.87880886,0.00000000,0.00000000,-0.10118075,2.03952718,1.22539222,0.51143068,-0.55807406,0.00000000,0.00000000
-0.49538255,-2.16996861,-0.37269711,-0.16864088,-0.87843794,0.00000000,0.00000000,-0.09837949,2.04760861,1.22849572,0.52089816,-0.54845613,0.00000000,0.00000000
-0.46150962,-2.16946983,-0.36594337,-0.14691509,-0.88786030,0.00000000,0.00000000,-0.09505140,2.05502701,1.23007596,0.53087699,-0.54088712,0.00000000,0.00000000
-0.42639810,-2.16730785,-0.35870025,-0.12301308,-0.89758444,0.00000000,0.00000000,-0.08952712,2.06064367,1.23070264,0.54101861,-0.53492230,0.00000000,0.00000000
-0.38726893,-2.16388464,-0.35080525,-0.09816558,-0.90284008,0.00000000,0.00000000,-0.08001738,2.06380177,1.23081803,0.55083132,-0.53495812,0.00000000,0.00000000
-0.34285125,-2.16239285,-0.34228650,-0.07491558,-0.91470104,0.00000000,0.00000000,-0.06712335,2.06425881,1.23048663,0.55885375,-0.54386526,0.00000000,0.00000000
-0.29338917,-2.16382313,-0.33335143,-0.05465959,-0.92204428,0.00000000,0.00000000,-0.05309360,2.06201649,1.22953951,0.56308895,-0.55450326,0.00000000,0.00000000
-0.24158546,-2.16685438,-0.32428578,-0.03788276,-0.93118834,0.00000000,0.00000000,-0.04002094,2.05762482,1.22769034,0.56205028,-0.56309479,0.00000000,0.00000000
-0.19247892,-2.16926146,-0.31535202,-0.02461630,-0.94388193,0.00000000,0.00000000,-0.02886236,2.05175900,1.22478676,0.55516076,-0.56950992,0.00000000,0.00000000
-0.15042938,-2.16995597,-0.30669799,-0.01434670,-0.95772201,0.00000000,0.00000000,-0.01936948,2.04436278,1.22104657,0.54258597,-0.57826596,0.00000000,0.00000000
-0.11736190,-2.17000008,-0.29837197,-0.00613651,-0.96757144,0.00000000,0.00000000,-0.01109938,2.03503633,1.21675313,0.52498704,-0.59592313,0.00000000,0.00000000
-0.09356211,-2.17000008,-0.29038307,0.00064223,-0.97861612,0.00000000,0.00000000,-0.00468488,2.02439618,1.21168673,0.50343376,-0.60451716,0.00000000,0.00000000
-0.07854116,-2.17000008,-0.28273526,0.00610826,-0.98548532,0.00000000,0.00000000,-0.00017623,2.01423645,1.20531702,0.47977850,-0.61235929,0.00000000,0.00000000
-0.07116258,-2.17000008,-0.27543807,0.01063651,-0.99305713,0.00000000,0.00000000,0.00283942,2.00610566,1.19725764,0.45512414,-0.62321329,0.00000000,0.00000000
-0.07005420,-2.16997576,-0.26851007,0.01473839,-1.00488734,0.00000000,0.00000000,0.00416126,2.00194192,1.18705606,0.42983845,-0.63426262,0.00000000,0.00000000
-0.07369383,-2.16952538,-0.26197702,0.01903468,-1.02035296,0.00000000,0.00000000,0.00392175,2.00356436,1.17441738,0.40456909,-0.64486384,0.00000000,0.00000000
-0.08086310,-2.16701841,-0.25586739,0.02407046,-1.03739202,0.00000000,0.00000000,0.00364109,2.01163697,1.15950096,0.38068163,-0.65164149,0.00000000,0.00000000
-0.08961368,-2.16028762,-0.25022611,0.03046908,-1.05548251,0.00000000,0.00000000,0.00509592,2.02459764,1.14296675,0.35928807,-0.66253489,0.00000000,0.00000000
-0.09707348,-2.14930487,-0.24514024,0.03871689,-1.07155097,0.00000000,0.00000000,0.00975446,2.04016089,1.12555850,0.34108070,-0.67549109,0.00000000,0.00000000
-0.10066652,-2.13645744,-0.24074203,0.04800835,-1.09203339,0.00000000,0.00000000,0.01858266,2.05644155,1.10785675,0.32646897,-0.68983334,0.00000000,0.00000000
-0.09942067,-2.12490273,-0.23716255,0.05642399,-1.10831869,0.00000000,0.00000000,0.03139344,2.07173467,1.09027398,0.31510785,-0.69960195,0.00000000,0.00000000
-0.09290052,-2.11631060,-0.23451753,0.06263961,-1.12411737,0.00000000,0.00000000,0.04645378,2.08540940,1.07289791,0.30606237,-0.70563400,0.00000000,0.00000000
-0.08141412,-2.11137533,-0.23287596,0.06577893,-1.13627028,0.00000000,0.00000000,0.06210025,2.09734321,1.05573010,0.29838410,-0.71520865,0.00000000,0.00000000
-0.06634273,-2.11049461,-0.23223025,0.06505101,-1.14788234,0.00000000,0.00000000,0.07892575,2.10660911,1.03906238,0.29155698,-0.73108369,0.00000000,0.00000000
-0.05033213,-2.11379886,-0.23248453,0.05981750,-1.16084850,0.00000000,0.00000000,0.09905690,2.11376810,1.02307820,0.28626662,-0.74765241,0.00000000,0.00000000
-0.03667947,-2.12094235,-0.23349316,0.04968579,-1.17648661,0.00000000,0.00000000,0.12450548,2.12043262,1.00781274,0.28355113,-0.76656765,0.00000000,0.00000000
-0.02883796,-2.13117123,-0.23510274,0.03440981,-1.18812835,0.00000000,0.00000000,0.15522958,2.12810707,0.99317551,0.28359446,-0.78728783,0.00000000,0.00000000
-0.02756740,-2.14297748,-0.23723212,0.01447819,-1.19499981,0.00000000,0.00000000,0.18426234,2.13666701,0.97870827,0.28342795,-0.80802608,0.00000000,0.00000000
-0.02968123,-2.15418196,-0.23985359,-0.00870384,-1.19618618,0.00000000,0.00000000,0.20462662,2.14529490,0.96408784,0.28100246,-0.82795519,0.00000000,0.00000000
-0.03200863,-2.16280246,-0.24289788,-0.03388618,-1.19712842,0.00000000,0.00000000,0.21687186,2.15401268,0.94961458,0.27752605,-0.85341483,0.00000000,0.00000000
-0.03405603,-2.16789246,-0.24627738,-0.06081740,-1.19514453,0.00000000,0.00000000,0.22369012,2.16118836,0.93597209,0.27360055,-0.87676591,0.00000000,0.00000000
-0.03678157,-2.16968966,-0.24995635,-0.08898207,-1.18800771,0.00000000,0.00000000,0.22702976,2.16635656,0.92352128,0.26952872,-0.89950424,0.00000000,0.00000000
-0.04064581,-2.16998529,-0.25396615,-0.11572685,-1.17826235,0.00000000,0.00000000,0.22734369,2.16922092,0.91242808,0.26498532,-0.92512161,0.00000000,0.00000000
-0.04512031,-2.17000008,-0.25835127,-0.13747317,-1.16147757,0.00000000,0.00000000,0.22427638,2.16995478,0.90287745,0.25913644,-0.94900066,0.00000000,0.00000000
-0.04999150,-2.17000008,-0.26317769,-0.15152684,-1.14283824,0.00000000,0.00000000,0.21802524,2.17000008,0.89503920,0.25152859,-0.97089875,0.00000000,0.00000000
-0.05540567,-2.17000008,-0.26852837,-0.15586337,-1.12253189,0.00000000,0.00000000,0.20897272,2.17000008,0.88899732,0.24202025,-0.99547207,0.00000000,0.00000000
-0.06158004,-2.17000008,-0.27440605,-0.15070359,-1.10320699,0.00000000,0.00000000,0.19726035,2.16997719,0.88463658,0.23078132,-1.01863015,0.00000000,0.00000000
-0.06845872,-2.17000008,-0.28072190,-0.13805789,-1.07900846,0.00000000,0.00000000,0.18311517,2.16960788,0.88174284,0.21841532,-1.04139757,0.00000000,0.00000000
-0.07516349,-2.16999483,-0.28729120,-0.12098756,-1.05989861,0.00000000,0.00000000,0.16716237,2.16817451,0.88012546,0.20602822,-1.06468296,0.00000000,0.00000000
-0.08012482,-2.16990256,-0.29390678,-0.10263588,-1.04780841,0.00000000,0.00000000,0.15063418,2.16582704,0.87971842,0.19509618,-1.08660471,0.00000000,0.00000000
-0.08199907,-2.16943717,-0.30046248,-0.08511985,-1.03862524,0.00000000,0.00000000,0.13514802,2.16356611,0.88058215,0.18716064,-1.11460030,0.00000000,0.00000000
-0.08013134,-2.16822839,-0.30697927,-0.06922258,-1.03177953,0.00000000,0.00000000,0.12207921,2.16215849,0.88281316,0.18346897,-1.14290106,0.00000000,0.00000000
-0.07442617,-2.16577888,-0.31355476,-0.05474842,-1.02553439,0.00000000,0.00000000,0.11226875,2.16181278,0.88648868,0.18475971,-1.17486632,0.00000000,0.00000000
-0.06536651,-2.16138935,-0.32031491,-0.04125439,-1.01805806,0.00000000,0.00000000,0.10619216,2.16227055,0.89165878,0.19128473,-1.20966125,0.00000000,0.00000000
-0.05450307,-2.15514731,-0.32739320,-0.02900925,-1.00995648,0.00000000,0.00000000,0.10450099,2.16323614,0.89834392,0.20317611,-1.24645722,0.00000000,0.00000000
-0.04327562,-2.14730072,-0.33489609,-0.01845405,-1.00060964,0.00000000,0.00000000,0.10699826,2.16459489,0.90645021,0.22014910,-1.27922022,0.00000000,0.00000000
-0.03235202,-2.13833666,-0.34289429,-0.01006956,-0.98633397,0.00000000,0.00000000,0.11265232,2.16612101,0.91579944,0.24151225,-1.31080461,0.00000000,0.00000000
-0.02173363,-2.12915707,-0.35143337,-0.00439487,-0.96869415,0.00000000,0.00000000,0.12048690,2.16736579,0.92619932,0.26662701,-1.34095442,0.00000000,0.00000000
-0.01157627,-2.12082219,-0.36054397,-0.00198555,-0.94735312,0.00000000,0.00000000,0.13013920,2.16844702,0.93738049,0.29543006,-1.36880827,0.00000000,0.00000000
-0.00304440,-2.11401772,-0.37024328,-0.00330290,-0.93009049,0.00000000,0.00000000,0.14007470,2.16957378,0.94887948,0.32692695,-1.39121079,0.00000000,0.00000000
0.00165702,-2.10896444,-0.38053617,-0.00868419,-0.90445155,0.00000000,0.00000000,0.14739165,2.16997337,0.96024925,0.35783371,-1.41292036,0.00000000,0.00000000
0.00056610,-2.10593605,-0.39142397,-0.01835893,-0.88260674,0.00000000,0.00000000,0.15227023,2.17000008,0.97128934,0.38613534,-1.43082774,0.00000000,0.00000000
-0.00718770,-2.10612965,-0.40290686,-0.03279668,-0.86061656,0.00000000,0.00000000,0.15486959,2.17000008,0.98169291,0.41089916,-1.44365096,0.00000000,0.00000000
-0.02138466,-2.11104369,-0.41497031,-0.05248037,-0.83992290,0.00000000,0.00000000,0.15348303,2.16999578,0.99106973,0.43070138,-1.45444453,0.00000000,0.00000000
-0.04108076,-2.11984277,-0.42758700,-0.07670839,-0.81702483,0.00000000,0.00000000,0.14689885,2.16989064,0.99927378,0.44420090,-1.45926547,0.00000000,0.00000000
-0.06655311,-2.13183093,-0.44078070,-0.10557992,-0.79531801,0.00000000,0.00000000,0.13504507,2.16903925,1.00617087,0.45085958,-1.46812868,0.00000000,0.00000000
-0.09848374,-2.14486527,-0.45466110,-0.13871969,-0.77779692,0.00000000,0.00000000,0.11907227,2.16668177,1.01149499,0.45125437,-1.47909355,0.00000000,0.00000000
-0.13620290,-2.15683222,-0.46927315,-0.17535296,-0.76135576,0.00000000,0.00000000,0.10090300,2.16395259,1.01502681,0.44662943,-1.49031365,0.00000000,0.00000000
-0.17867026,-2.16547394,-0.48462534,-0.21428299,-0.74097824,0.00000000,0.00000000,0.08257332,2.16187334,1.01680458,0.43825433,-1.49724436,0.00000000,0.00000000
-0.22537908,-2.16921377,-0.50077957,-0.25372350,-0.71936285,0.00000000,0.00000000,0.06526339,2.16034770,1.01704240,0.42691973,-1.50496221,0.00000000,0.00000000
-0.27539521,-2.16995859,-0.51773822,-0.29156360,-0.69977838,0.00000000,0.00000000,0.04898347,2.15874553,1.01595688,0.41296282,-1.51019788,0.00000000,0.00000000
-0.32699695,-2.17000008,-0.53532904,-0.32602927,-0.68139267,0.00000000,0.00000000,0.03351583,2.15659094,1.01375341,0.39691105,-1.51674426,0.00000000,0.00000000
-0.37794206,-2.17000008,-0.55322129,-0.35576147,-0.67610294,0.00000000,0.00000000,0.01900516,2.15335178,1.01074398,0.37962145,-1.52151680,0.00000000,0.00000000
-0.42558065,-2.17000008,-0.57092100,-0.37961817,-0.66960216,0.00000000,0.00000000,0.00527759,2.14914751,1.00711644,0.36217153,-1.52361071,0.00000000,0.00000000
-0.46681929,-2.17000008,-0.58767092,-0.39698520,-0.66328090,0.00000000,0.00000000,-0.00743340,2.14682603,1.00259733,0.34683272,-1.52374578,0.00000000,0.00000000
-0.49926156,-2.17000008,-0.60283875,-0.40747941,-0.65884423,0.00000000,0.00000000,-0.01803262,2.14610767,0.99753129,0.33469275,-1.52305245,0.00000000,0.00000000
-0.52097058,-2.17000008,-0.61580485,-0.41140589,-0.65787089,0.00000000,0.00000000,-0.02489552,2.14610267,0.99234778,0.32636610,-1.52239215,0.00000000,0.00000000
-0.53041613,-2.17000008,-0.62601769,-0.40954021,-0.65276599,0.00000000,0.00000000,-0.02736072,2.14703608,0.98709047,0.32214713,-1.51410198,0.00000000,0.00000000
-0.52678758,-2.17000008,-0.63309532,-0.40298107,-0.64224124,0.00000000,0.00000000,-0.02552637,2.14977598,0.98154867,0.32193109,-1.50262332,0.00000000,0.00000000
-0.50971532,-2.17000008,-0.63682276,-0.39280468,-0.62465739,0.00000000,0.00000000,-0.01905816,2.15428710,0.97567612,0.32528791,-1.48764598,0.00000000,0.00000000
-0.47963697,-2.17000008,-0.63733017,-0.37981063,-0.60535562,0.00000000,0.00000000,-0.00743554,2.15920472,0.96968156,0.33147460,-1.47354424,0.00000000,0.00000000
-0.43841645,-2.17000008,-0.63518941,-0.36469468,-0.58965069,0.00000000,0.00000000,0.00833740,2.16349697,0.96361637,0.33924398,-1.45349717,0.00000000,0.00000000
-0.38980719,-2.17000008,-0.63135320,-0.34847346,-0.57572651,0.00000000,0.00000000,0.02665370,2.16705585,0.95738846,0.34743068,-1.43855882,0.00000000,0.00000000
-0.33873940,-2.17000008,-0.62699080,-0.33213171,-0.56185836,0.00000000,0.00000000,0.04664274,2.16930628,0.95117140,0.35511056,-1.42246246,0.00000000,0.00000000
-0.28859261,-2.17000008,-0.62303358,-0.31564158,-0.55070573,0.00000000,0.00000000,0.06822740,2.16950321,0.94540185,0.36163723,-1.41108334,0.00000000,0.00000000
-0.23936976,-2.16994572,-0.61972582,-0.29828894,-0.53853625,0.00000000,0.00000000,0.09101774,2.16769218,0.94013733,0.36683524,-1.39936256,0.00000000,0.00000000
-0.18894868,-2.16915751,-0.61678606,-0.27956426,-0.53121853,0.00000000,0.00000000,0.11336777,2.16427159,0.93483043,0.37041920,-1.38331401,0.00000000,0.00000000
-0.13561521,-2.16719174,-0.61387217,-0.25955227,-0.52753633,0.00000000,0.00000000,0.13287923,2.16102505,0.92871803,0.37174034,-1.36475992,0.00000000,0.00000000
-0.08039151,-2.16699290,-0.61090690,-0.23911598,-0.51535070,0.00000000,0.00000000,0.14723602,2.16063929,0.92102176,0.37053883,-1.35150063,0.00000000,0.00000000
-0.02796487,-2.16892624,-0.60842526,-0.21858549,-0.50832665,0.00000000,0.00000000,0.15720011,2.16392732,0.91179335,0.36777636,-1.33915210,0.00000000,0.00000000
0.01666990,-2.16937423,-0.60706556,-0.19844672,-0.50170511,0.00000000,0.00000000,0.16742207,2.16671848,0.90255201,0.36502773,-1.32401073,0.00000000,0.00000000
0.05286336,-2.16844177,-0.60664111,-0.18069091,-0.49343124,0.00000000,0.00000000,0.17773485,2.16844320,0.89358437,0.36308166,-1.30587280,0.00000000,0.00000000
0.08228847,-2.16708469,-0.60681856,-0.16628805,-0.48472929,0.00000000,0.00000000,0.18604212,2.16960335,0.88471144,0.36191988,-1.29256523,0.00000000,0.00000000
0.10576471,-2.16577005,-0.60750014,-0.15550138,-0.47780550,0.00000000,0.00000000,0.19090608,2.16993761,0.87596118,0.36100236,-1.28127885,0.00000000,0.00000000
0.12285789,-2.16443586,-0.60874504,-0.14848565,-0.47121921,0.00000000,0.00000000,0.19201539,2.16949081,0.86743325,0.36000806,-1.26392233,0.00000000,0.00000000
0.13223273,-2.16247702,-0.61069870,-0.14531612,-0.46926516,0.00000000,0.00000000,0.18959694,2.16770315,0.85907209,0.35898089,-1.24353397,0.00000000,0.00000000
0.13228370,-2.15924597,-0.61352026,-0.14607105,-0.46965718,0.00000000,0.00000000,0.18328691,2.16504622,0.85043401,0.35814676,-1.21703863,0.00000000,0.00000000
0.12231597,-2.15471029,-0.61727518,-0.15086886,-0.47630763,0.00000000,0.00000000,0.17201991,2.16307545,0.84077710,0.35787538,-1.18983698,0.00000000,0.00000000
0.10244505,-2.14951420,-0.62194061,-0.15997593,-0.48261586,0.00000000,0.00000000,0.15706375,2.16308236,0.82972693,0.35965809,-1.16298032,0.00000000,0.00000000
0.07208236,-2.14309382,-0.62761754,-0.17325822,-0.48751161,0.00000000,0.00000000,0.14329413,2.16558409,0.81759495,0.36624470,-1.13710225,0.00000000,0.00000000
0.03147001,-2.13382697,-0.63440418,-0.18967348,-0.49399137,0.00000000,0.00000000,0.13203946,2.16881156,0.80469537,0.37721100,-1.10899866,0.00000000,0.00000000
-0.01773078,-2.12227440,-0.64214361,-0.20910352,-0.49852747,0.00000000,0.00000000,0.12391497,2.16992569,0.79207700,0.38939834,-1.08558285,0.00000000,0.00000000
-0.07222016,-2.10737753,-0.65065944,-0.23047481,-0.50551140,0.00000000,0.00000000,0.11913770,2.17000008,0.78085649,0.39927158,-1.05801582,0.00000000,0.00000000
-0.13015854,-2.08873224,-0.65991098,-0.25297847,-0.51010424,0.00000000,0.00000000,0.11576370,2.16995907,0.77099335,0.40458119,-1.02867472,0.00000000,0.00000000
-0.19006647,-2.06837559,-0.66969353,-0.27670479,-0.51303607,0.00000000,0.00000000,0.11282675,2.16929150,0.76201874,0.40495080,-1.00358593,0.00000000,0.00000000
-0.25024235,-2.04723263,-0.67983210,-0.30112982,-0.51854926,0.00000000,0.00000000,0.11038947,2.16661835,0.75301999,0.40250218,-0.97494185,0.00000000,0.00000000
-0.30864328,-2.02504873,-0.69015318,-0.32513872,-0.53238922,0.00000000,0.00000000,0.11091091,2.16164136,0.74357224,0.40048805,-0.94784105,0.00000000,0.00000000
-0.36240226,-2.00200796,-0.70023978,-0.34756547,-0.54176402,0.00000000,0.00000000,0.11654340,2.15475273,0.73371679,0.40077296,-0.92369455,0.00000000,0.00000000
-0.40833655,-1.97878957,-0.70947003,-0.36734229,-0.55122471,0.00000000,0.00000000,0.12691732,2.14591193,0.72340888,0.40370563,-0.90626270,0.00000000,0.00000000
-0.44323888,-1.95595288,-0.71712506,-0.38330603,-0.56336302,0.00000000,0.00000000,0.14088131,2.13504243,0.71269810,0.40955329,-0.88549858,0.00000000,0.00000000
-0.46406159,-1.93372965,-0.72246987,-0.39419043,-0.57003105,0.00000000,0.00000000,0.15800816,2.12240863,0.70196688,0.41919079,-0.86702043,0.00000000,0.00000000
-0.46872979,-1.91215861,-0.72492999,-0.39902627,-0.57539845,0.00000000,0.00000000,0.17817248,2.10874224,0.69172055,0.43372983,-0.84347451,0.00000000,0.00000000
-0.45641682,-1.89183164,-0.72411412,-0.39755937,-0.57991076,0.00000000,0.00000000,0.20048083,2.09503078,0.68225318,0.45354229,-0.82088047,0.00000000,0.00000000
-0.42707801,-1.87462699,-0.71968734,-0.39036155,-0.58711374,0.00000000,0.00000000,0.22344470,2.08244228,0.67362535,0.47771367,-0.79783744,0.00000000,0.00000000
-0.38127285,-1.86312354,-0.71143150,-0.37856215,-0.59603977,0.00000000,0.00000000,0.24574392,2.07176375,0.66579497,0.50447577,-0.77255428,0.00000000,0.00000000
-0.32107246,-1.85959101,-0.69951445,-0.36394989,-0.59829879,0.00000000,0.00000000,0.26611087,2.06310678,0.65850532,0.53189337,-0.75251031,0.00000000,0.00000000
-0.25158870,-1.86435771,-0.68491709,-0.34894341,-0.59915119,0.00000000,0.00000000,0.28333056,2.05598760,0.65116888,0.55830628,-0.73500413,0.00000000,0.00000000
-0.17999335,-1.87495530,-0.66929156,-0.33554727,-0.60469204,0.00000000,0.00000000,0.29713562,2.04882002,0.64329332,0.58250368,-0.71801859,0.00000000,0.00000000
-0.11221152,-1.88800883,-0.65410799,-0.32467440,-0.60859716,0.00000000,0.00000000,0.30833703,2.03906512,0.63500249,0.60365266,-0.70458657,0.00000000,0.00000000
-0.05111886,-1.90120196,-0.64015657,-0.31639636,-0.60904050,0.00000000,0.00000000,0.31779096,2.02457786,0.62715197,0.62131709,-0.69420201,0.00000000,0.00000000
0.00288796,-1.91378701,-0.62765568,-0.31045383,-0.61195970,0.00000000,0.00000000,0.32600647,2.00655055,0.62106353,0.63539833,-0.69108367,0.00000000,0.00000000
0.04991193,-1.92644489,-0.61660624,-0.30684641,-0.61880058,0.00000000,0.00000000,0.33424881,1.98930013,0.61788636,0.64517170,-0.68446082,0.00000000,0.00000000
0.09037229,-1.93967748,-0.60696441,-0.30410230,-0.62259275,0.00000000,0.00000000,0.34338155,1.97344327,0.61794847,0.64939320,-0.67811501,0.00000000,0.00000000
0.12441573,-1.95265901,-0.59880632,-0.29822657,-0.62530166,0.00000000,0.00000000,0.35249838,1.95979416,0.62054521,0.64747596,-0.67760044,0.00000000,0.00000000
0.15128283,-1.96844757,-0.59188056,-0.28907576,-0.62352824,0.00000000,0.00000000,0.36012247,1.95020163,0.62458652,0.63946146,-0.68218791,0.00000000,0.00000000
0.16902287,-1.98946059,-0.58604825,-0.27798155,-0.62121773,0.00000000,0.00000000,0.36497092,1.94709873,0.62887013,0.62598616,-0.68476892,0.00000000,0.00000000
0.17475872,-2.01507044,-0.58137786,-0.26679698,-0.61414737,0.00000000,0.00000000,0.36616322,1.95293093,0.63219500,0.60793704,-0.67993939,0.00000000,0.00000000
0.16602255,-2.04175830,-0.57813877,-0.25868982,-0.61130095,0.00000000,0.00000000,0.36277401,1.96746361,0.63375962,0.58487654,-0.67101121,0.00000000,0.00000000
0.14167863,-2.06583953,-0.57696903,-0.25662613,-0.61276388,0.00000000,0.00000000,0.35135663,1.98735368,0.63268650,0.55424637,-0.66479743,0.00000000,0.00000000
0.10218611,-2.08540630,-0.57834142,-0.26136893,-0.60802311,0.00000000,0.00000000,0.32898119,2.01151943,0.62790823,0.51665920,-0.65647137,0.00000000,0.00000000
0.05068779,-2.09909201,-0.58222347,-0.27121559,-0.60148358,0.00000000,0.00000000,0.29948622,2.04089999,0.61991787,0.47868514,-0.64191228,0.00000000,0.00000000
-0.00864142,-2.10536122,-0.58827901,-0.28301024,-0.58960444,0.00000000,0.00000000,0.26798776,2.07166815,0.61047941,0.44250447,-0.63016915,0.00000000,0.00000000
-0.07272164,-2.10302973,-0.59614229,-0.29360628,-0.58205062,0.00000000,0.00000000,0.23661251,2.09981680,0.60067797,0.40766719,-0.62252873,0.00000000,0.00000000
-0.13909815,-2.09347057,-0.60523289,-0.30161259,-0.57686561,0.00000000,0.00000000,0.20724447,2.12308311,0.59120417,0.37425309,-0.61243308,0.00000000,0.00000000
-0.20598643,-2.08206129,-0.61465269,-0.30898854,-0.57090193,0.00000000,0.00000000,0.18284675,2.14030075,0.58274794,0.34292212,-0.60488492,0.00000000,0.00000000
-0.27140316,-2.07086492,-0.62378329,-0.31687799,-0.56394482,0.00000000,0.00000000,0.16594116,2.15079665,0.57580364,0.31416553,-0.59718287,0.00000000,0.00000000
-0.33077076,-2.06023550,-0.63175374,-0.32435530,-0.56047297,0.00000000,0.00000000,0.15682988,2.15455222,0.57040161,0.28793094,-0.59171730,0.00000000,0.00000000
-0.37888795,-2.05132842,-0.63747895,-0.33008748,-0.55710953,0.00000000,0.00000000,0.15315355,2.15203023,0.56611860,0.26342031,-0.57873833,0.00000000,0.00000000
-0.41194150,-2.04535675,-0.64006782,-0.33295986,-0.55021340,0.00000000,0.00000000,0.15176798,2.14435554,0.56236303,0.23975073,-0.56643450,0.00000000,0.00000000
-0.42868334,-2.04359984,-0.63903219,-0.33277291,-0.54307002,0.00000000,0.00000000,0.15112454,2.13383484,0.55867136,0.21710111,-0.55508471,0.00000000,0.00000000
-0.42737955,-2.04745054,-0.63382500,-0.32898021,-0.53353602,0.00000000,0.00000000,0.15084609,2.12344408,0.55472112,0.19653831,-0.54075587,0.00000000,0.00000000
-0.40771872,-2.05568433,-0.62451345,-0.32014170,-0.52453727,0.00000000,0.00000000,0.15081058,2.11585045,0.55030680,0.17926493,-0.52242911,0.00000000,0.00000000
-0.37275946,-2.06623268,-0.61188316,-0.30589631,-0.50900215,0.00000000,0.00000000,0.15106168,2.11189055,0.54541099,0.16569366,-0.50877541,0.00000000,0.00000000
-0.32716826,-2.07743406,-0.59694988,-0.28684628,-0.49656105,0.00000000,0.00000000,0.15207523,2.11084628,0.54017538,0.15553039,-0.49891654,0.00000000,0.00000000
-0.27714238,-2.08805370,-0.58088464,-0.26443690,-0.48552260,0.00000000,0.00000000,0.15495743,2.11161923,0.53482306,0.14838167,-0.48785618,0.00000000,0.00000000
-0.22829376,-2.09736300,-0.56466055,-0.24039085,-0.47031990,0.00000000,0.00000000,0.16032952,2.11337686,0.52952570,0.14374916,-0.47325459,0.00000000,0.00000000
-0.18355162,-2.10503745,-0.54878318,-0.21591125,-0.45531771,0.00000000,0.00000000,0.16798854,2.11553001,0.52438229,0.14097226,-0.46058485,0.00000000,0.00000000
-0.14339818,-2.11116171,-0.53338510,-0.19165184,-0.44144660,0.00000000,0.00000000,0.17723568,2.11770797,0.51944971,0.13940476,-0.44174147,0.00000000,0.00000000
-0.10689938,-2.11634588,-0.51841426,-0.16806084,-0.42998272,0.00000000,0.00000000,0.18686208,2.11967087,0.51473886,0.13841845,-0.42689160,0.00000000,0.00000000
-0.07268984,-2.12153649,-0.50379252,-0.14557108,-0.42151025,0.00000000,0.00000000,0.19519140,2.12100577,0.51021779,0.13723572,-0.40971979,0.00000000,0.00000000
-0.04034220,-2.12736726,-0.48956683,-0.12464987,-0.40899801,0.00000000,0.00000000,0.20067829,2.12129569,0.50583506,0.13515089,-0.38945496,0.00000000,0.00000000
-0.01143854,-2.13337064,-0.47597727,-0.10567620,-0.39831367,0.00000000,0.00000000,0.20245834,2.12087607,0.50151956,0.13208017,-0.37635201,0.00000000,0.00000000
0.01140245,-2.13870144,-0.46331292,-0.08907457,-0.38579640,0.00000000,0.00000000,0.19984896,2.12103057,0.49714786,0.12854500,-0.36284906,0.00000000,0.00000000
0.02655102,-2.14354658,-0.45173728,-0.07556134,-0.37657198,0.00000000,0.00000000,0.19194399,2.12298059,0.49258009,0.12502944,-0.34943667,0.00000000,0.00000000
0.03328658,-2.14774418,-0.44134796,-0.06539559,-0.36558661,0.00000000,0.00000000,0.17868982,2.12701440,0.48779178,0.12177738,-0.33983383,0.00000000,0.00000000
0.03060166,-2.15052295,-0.43223980,-0.05846336,-0.35907167,0.00000000,0.00000000,0.16111141,2.13280559,0.48288634,0.11897089,-0.33703464,0.00000000,0.00000000
0.01783805,-2.15014625,-0.42447069,-0.05380230,-0.34920341,0.00000000,0.00000000,0.14043239,2.13943315,0.47802770,0.11648468,-0.34036562,0.00000000,0.00000000
-0.00500322,-2.14676046,-0.41801390,-0.05109770,-0.33017549,0.00000000,0.00000000,0.11774475,2.14554906,0.47339612,0.11390726,-0.34448197,0.00000000,0.00000000
-0.03731042,-2.14179134,-0.41280046,-0.05056502,-0.30824941,0.00000000,0.00000000,0.09381900,2.15004373,0.46913338,0.11086816,-0.34723827,0.00000000,0.00000000
-0.07793082,-2.13692665,-0.40875441,-0.05257207,-0.29121622,0.00000000,0.00000000,0.06878081,2.15318274,0.46527219,0.10756233,-0.34767666,0.00000000,0.00000000
-0.12475044,-2.13401890,-0.40577957,-0.05752912,-0.27624652,0.00000000,0.00000000,0.04284317,2.15600944,0.46179765,0.10459276,-0.34541488,0.00000000,0.00000000
-0.17448440,-2.13419724,-0.40374935,-0.06528787,-0.25999382,0.00000000,0.00000000,0.01830604,2.15847158,0.45882866,0.10245149,-0.33374932,0.00000000,0.00000000
-0.22367527,-2.13700700,-0.40253127,-0.07479631,-0.24899426,0.00000000,0.00000000,-0.00095880,2.15976024,0.45659202,0.10155326,-0.31961995,0.00000000,0.00000000
-0.26998445,-2.14106989,-0.40202230,-0.08472478,-0.23245476,0.00000000,0.00000000,-0.01330921,2.15978789,0.45517933,0.10208732,-0.30870819,0.00000000,0.00000000
-0.31230283,-2.14531970,-0.40215030,-0.09421275,-0.21149530,0.00000000,0.00000000,-0.01947999,2.15907621,0.45454055,0.10399322,-0.30099908,0.00000000,0.00000000
-0.35006419,-2.14933419,-0.40284726,-0.10291719,-0.19465685,0.00000000,0.00000000,-0.02080546,2.15812445,0.45459494,0.10710654,-0.29432902,0.00000000,0.00000000
-0.38245958,-2.15306258,-0.40401110,-0.11064187,-0.17669944,0.00000000,0.00000000,-0.01850378,2.15727544,0.45527363,0.11125742,-0.29409361,0.00000000,0.00000000
-0.40818572,-2.15653920,-0.40549424,-0.11709886,-0.16149493,0.00000000,0.00000000,-0.01357731,2.15679741,0.45651883,0.11631566,-0.29407254,0.00000000,0.00000000
-0.42575967,-2.15979218,-0.40713191,-0.12196687,-0.14435127,0.00000000,0.00000000,-0.00677396,2.15660501,0.45829058,0.12203442,-0.29198319,0.00000000,0.00000000
-0.43385980,-2.16285634,-0.40877518,-0.12502301,-0.12283086,0.00000000,0.00000000,0.00143109,2.15610814,0.46057737,0.12795797,-0.29162717,0.00000000,0.00000000
-0.43153000,-2.16571832,-0.41031113,-0.12616810,-0.10173502,0.00000000,0.00000000,0.01082626,2.15472484,0.46338710,0.13366237,-0.29812506,0.00000000,0.00000000
-0.41882735,-2.16813564,-0.41171840,-0.12545969,-0.07824443,0.00000000,0.00000000,0.02145758,2.15236020,0.46673039,0.13898754,-0.29803216,0.00000000,0.00000000
-0.39778137,-2.16959095,-0.41315448,-0.12316173,-0.04859461,0.00000000,0.00000000,0.03350225,2.14918423,0.47061157,0.14392743,-0.29971379,0.00000000,0.00000000
-0.37190044,-2.16997623,-0.41492954,-0.11955378,-0.02106044,0.00000000,0.00000000,0.04697659,2.14515924,0.47501847,0.14838916,-0.30563617,0.00000000,0.00000000
-0.34414774,-2.17000008,-0.41733709,-0.11469392,0.00227406,0.00000000,0.00000000,0.06156172,2.14023042,0.47990394,0.15228876,-0.31547427,0.00000000,0.00000000
-0.31593141,-2.17000008,-0.42054874,-0.10848592,0.02480305,0.00000000,0.00000000,0.07675079,2.13480711,0.48518524,0.15577492,-0.32146564,0.00000000,0.00000000
-0.28744060,-2.17000008,-0.42462674,-0.10083910,0.04527558,0.00000000,0.00000000,0.09207595,2.12962079,0.49077615,0.15913647,-0.32827574,0.00000000,0.00000000
-0.25801939,-2.16996837,-0.42955530,-0.09173099,0.06747913,0.00000000,0.00000000,0.10722417,2.12525964,0.49662665,0.16258782,-0.33546859,0.00000000,0.00000000
-0.22630119,-2.16942692,-0.43525702,-0.08121434,0.09201786,0.00000000,0.00000000,0.12193519,2.12200904,0.50272787,0.16621663,-0.34300721,0.00000000,0.00000000
-0.19093511,-2.16696072,-0.44164008,-0.06953847,0.11127280,0.00000000,0.00000000,0.13566466,2.12002039,0.50907618,0.17002858,-0.35165954,0.00000000,0.00000000
-0.15266135,-2.16160035,-0.44869599,-0.05749764,0.12830593,0.00000000,0.00000000,0.14768521,2.11927772,0.51567566,0.17398265,-0.35748905,0.00000000,0.00000000
-0.11546508,-2.15374947,-0.45653397,-0.04648732,0.13852045,0.00000000,0.00000000,0.15818316,2.11942267,0.52263236,0.17821769,-0.36020076,0.00000000,0.00000000
-0.08316011,-2.14442563,-0.46524537,-0.03790915,0.14978464,0.00000000,0.00000000,0.16831787,2.11994076,0.53014052,0.18313071,-0.35928056,0.00000000,0.00000000
-0.05646552,-2.13516402,-0.47482377,-0.03268136,0.15909784,0.00000000,0.00000000,0.17853405,2.12017345,0.53832692,0.18883453,-0.35917121,0.00000000,0.00000000
-0.03456993,-2.12624598,-0.48524335,-0.03062326,0.17217918,0.00000000,0.00000000,0.18799958,2.11934519,0.54719001,0.19496170,-0.35779810,0.00000000,0.00000000
-0.01613840,-2.11804461,-0.49647236,-0.03149615,0.18095709,0.00000000,0.00000000,0.19507994,2.11742067,0.55658793,0.20122673,-0.35433152,0.00000000,0.00000000
-0.00000781,-2.11141515,-0.50847614,-0.03541235,0.18603842,0.00000000,0.00000000,0.19842385,2.11458063,0.56636769,0.20749559,-0.35314903,0.00000000,0.00000000
0.01318965,-2.10519409,-0.52127075,-0.04193309,0.18158096,0.00000000,0.00000000,0.19759017,2.11136150,0.57641238,0.21403165,-0.35136306,0.00000000,0.00000000
0.02166395,-2.09835625,-0.53489554,-0.05102313,0.18655547,0.00000000,0.00000000,0.19189773,2.10930157,0.58647156,0.22147460,-0.35560307,0.00000000,0.00000000
0.02398613,-2.09181547,-0.54936337,-0.06359436,0.19080280,0.00000000,0.00000000,0.18087310,2.10994434,0.59626448,0.23055173,-0.36088493,0.00000000,0.00000000
0.01873545,-2.08586383,-0.56471103,-0.08036368,0.19430400,0.00000000,0.00000000,0.16758168,2.11283159,0.60599208,0.24215257,-0.37273201,0.00000000,0.00000000
0.00333417,-2.07887745,-0.58108085,-0.10152666,0.20126639,0.00000000,0.00000000,0.15600261,2.11830950,0.61590004,0.25773406,-0.38314721,0.00000000,0.00000000
-0.02394086,-2.07018924,-0.59857547,-0.12750496,0.21232232,0.00000000,0.00000000,0.14576839,2.12544703,0.62586963,0.27612826,-0.39295751,0.00000000,0.00000000
-0.06204106,-2.06109977,-0.61706680,-0.15869391,0.22574259,0.00000000,0.00000000,0.13573380,2.13169527,0.63588476,0.29469585,-0.39877409,0.00000000,0.00000000
-0.10818056,-2.05290103,-0.63623238,-0.19469833,0.23828264,0.00000000,0.00000000,0.12517214,2.13544488,0.64592731,0.31192112,-0.39466280,0.00000000,0.00000000
-0.15944861,-2.04788542,-0.65554345,-0.23531422,0.25113988,0.00000000,0.00000000,0.11228673,2.13565540,0.65569741,0.32617104,-0.38602322,0.00000000,0.00000000
-0.21145362,-2.04878020,-0.67408383,-0.27975395,0.26395151,0.00000000,0.00000000,0.09471637,2.13364124,0.66442531,0.33653566,-0.38103232,0.00000000,0.00000000
-0.25852153,-2.05756235,-0.69059151,-0.32621586,0.27547336,0.00000000,0.00000000,0.07209702,2.13146877,0.67153174,0.34336761,-0.37792104,0.00000000,0.00000000
-0.29590899,-2.07454872,-0.70388097,-0.37241167,0.27912945,0.00000000,0.00000000,0.04799091,2.12802076,0.67752469,0.34702456,-0.37333292,0.00000000,0.00000000
-0.32199505,-2.09547281,-0.71378487,-0.41485634,0.28529656,0.00000000,0.00000000,0.02705588,2.12170982,0.68325222,0.34807485,-0.36428890,0.00000000,0.00000000
-0.33890912,-2.11416054,-0.72125649,-0.45036906,0.29086292,0.00000000,0.00000000,0.01088375,2.11350536,0.68880510,0.34731391,-0.35947421,0.00000000,0.00000000
-0.34865993,-2.12828040,-0.72686541,-0.47778800,0.29018679,0.00000000,0.00000000,-0.00108209,2.10549974,0.69382066,0.34549940,-0.35474366,0.00000000,0.00000000
-0.35211846,-2.13767505,-0.73070109,-0.49685538,0.28995457,0.00000000,0.00000000,-0.00938628,2.09874988,0.69812852,0.34308881,-0.34918264,0.00000000,0.00000000
-0.35005099,-2.14302492,-0.73271722,-0.50787812,0.28518608,0.00000000,0.00000000,-0.01404662,2.09248543,0.70196241,0.33989999,-0.34496191,0.00000000,0.00000000
-0.34392256,-2.14533401,-0.73298061,-0.51172692,0.28073761,0.00000000,0.00000000,-0.01506354,2.08469415,0.70580256,0.33508334,-0.33810750,0.00000000,0.00000000
-0.33562562,-2.14542770,-0.73169285,-0.50949824,0.27914310,0.00000000,0.00000000,-0.01307437,2.07312393,0.71010524,0.32740721,-0.33226371,0.00000000,0.00000000
-0.32642096,-2.14413857,-0.72892201,-0.50222325,0.28163597,0.00000000,0.00000000,-0.00930226,2.05746078,0.71499056,0.31648481,-0.31606552,0.00000000,0.00000000
-0.31718710,-2.14229846,-0.72468257,-0.49092165,0.28129712,0.00000000,0.00000000,-0.00501408,2.03969932,0.72027355,0.30339643,-0.30132031,0.00000000,0.00000000
-0.30957937,-2.14000940,-0.71935403,-0.47661662,0.28428969,0.00000000,0.00000000,-0.00052089,2.02217126,0.72583425,0.29011953,-0.28645459,0.00000000,0.00000000
-0.30559209,-2.13648462,-0.71361113,-0.46002975,0.28517330,0.00000000,0.00000000,0.00460889,2.00619578,0.73167819,0.27838099,-0.26729414,0.00000000,0.00000000
-0.30592898,-2.13110280,-0.70784873,-0.44146442,0.28874496,0.00000000,0.00000000,0.01032368,1.99266398,0.73766834,0.26903027,-0.24618384,0.00000000,0.00000000
-0.30960050,-2.12389731,-0.70200187,-0.42087170,0.29447719,0.00000000,0.00000000,0.01632248,1.98222756,0.74356812,0.26223269,-0.22581629,0.00000000,0.00000000
-0.31484026,-2.11559510,-0.69572854,-0.39813080,0.30306831,0.00000000,0.00000000,0.02305441,1.97532403,0.74924123,0.25816110,-0.20679221,0.00000000,0.00000000
-0.32032296,-2.10676432,-0.68878889,-0.37314448,0.31099004,0.00000000,0.00000000,0.03146569,1.97271717,0.75461537,0.25743902,-0.18862730,0.00000000,0.00000000
-0.32408991,-2.09847665,-0.68076658,-0.34597102,0.31918579,0.00000000,0.00000000,0.04228608,1.97567296,0.75958329,0.26102844,-0.16881251,0.00000000,0.00000000
-0.32391289,-2.09227443,-0.67117625,-0.31710353,0.32622033,0.00000000,0.00000000,0.05657995,1.98424208,0.76421809,0.26948744,-0.14022942,0.00000000,0.00000000
-0.31732062,-2.08802319,-0.65980202,-0.28671771,0.33676186,0.00000000,0.00000000,0.07514567,1.99556494,0.76887733,0.28172296,-0.10822263,0.00000000,0.00000000
-0.30314109,-2.08652925,-0.64661562,-0.25632489,0.34745878,0.00000000,0.00000000,0.09682928,2.00747275,0.77363932,0.29619935,-0.07048766,0.00000000,0.00000000
-0.28348053,-2.08867908,-0.63208377,-0.22810821,0.35489413,0.00000000,0.00000000,0.12068912,2.01974106,0.77840728,0.31252846,-0.02996318,0.00000000,0.00000000
-0.26071444,-2.09325886,-0.61687887,-0.20264381,0.35939440,0.00000000,0.00000000,0.14604223,2.03275824,0.78300959,0.33058164,0.01101114,0.00000000,0.00000000
-0.23666015,-2.09871960,-0.60154718,-0.17986058,0.36759540,0.00000000,0.00000000,0.17090169,2.04654074,0.78708100,0.34907815,0.04776378,0.00000000,0.00000000
-0.21264113,-2.10364628,-0.58648103,-0.15944263,0.37491223,0.00000000,0.00000000,0.19190626,2.06036091,0.79012942,0.36563072,0.08705587,0.00000000,0.00000000
-0.19016166,-2.10690641,-0.57199407,-0.14111775,0.37954408,0.00000000,0.00000000,0.20718570,2.07411861,0.79182088,0.37891847,0.12035181,0.00000000,0.00000000
-0.17089711,-2.10813498,-0.55831599,-0.12490633,0.38160378,0.00000000,0.00000000,0.21741405,2.08802772,0.79219306,0.38892257,0.14198408,0.00000000,0.00000000
-0.15581267,-2.10792589,-0.54554307,-0.11101399,0.38298690,0.00000000,0.00000000,0.22431208,2.10159588,0.79154998,0.39565465,0.16269904,0.00000000,0.00000000
-0.14527079,-2.10727763,-0.53368878,-0.09965710,0.38649830,0.00000000,0.00000000,0.22904079,2.11404109,0.79014564,0.39864486,0.18159349,0.00000000,0.00000000
-0.13981639,-2.10654449,-0.52277470,-0.09079610,0.38997310,0.00000000,0.00000000,0.23199201,2.12523937,0.78804797,0.39744446,0.20153809,0.00000000,0.00000000
-0.14006668,-2.10558176,-0.51282567,-0.08421749,0.39525545,0.00000000,0.00000000,0.23312050,2.13467956,0.78540081,0.39138523,0.21966569,0.00000000,0.00000000
-0.14558764,-2.10513091,-0.50378716,-0.08002719,0.40139893,0.00000000,0.00000000,0.23159051,2.14043856,0.78252268,0.37906352,0.23932345,0.00000000,0.00000000
-0.15451109,-2.10724163,-0.49550486,-0.07884312,0.40121609,0.00000000,0.00000000,0.22619501,2.14268970,0.77940303,0.36052796,0.26087448,0.00000000,0.00000000
-0.16470081,-2.11354661,-0.48780692,-0.08122587,0.40351388,0.00000000,0.00000000,0.21768856,2.14560151,0.77579045,0.33957174,0.28895602,0.00000000,0.00000000
-0.17432231,-2.12342429,-0.48055640,-0.08683003,0.40391499,0.00000000,0.00000000,0.20820169,2.14750218,0.77255887,0.31794307,0.31869897,0.00000000,0.00000000
-0.18238147,-2.13601470,-0.47363338,-0.09548924,0.40667948,0.00000000,0.00000000,0.19884382,2.14677048,0.77034444,0.29626402,0.35222030,0.00000000,0.00000000
-0.18783902,-2.14986563,-0.46691772,-0.10653624,0.41027042,0.00000000,0.00000000,0.18992656,2.14423943,0.76922935,0.27558434,0.38219887,0.00000000,0.00000000
-0.18908466,-2.16157198,-0.46030575,-0.11768068,0.41583592,0.00000000,0.00000000,0.18223555,2.14177561,0.76914769,0.25751403,0.41348779,0.00000000,0.00000000
-0.18625386,-2.16820526,-0.45380521,-0.12671660,0.41509667,0.00000000,0.00000000,0.17617433,2.14112496,0.76992536,0.24338961,0.44069040,0.00000000,0.00000000
-0.18075755,-2.16989613,-0.44753653,-0.13178974,0.41476828,0.00000000,0.00000000,0.17141868,2.14273381,0.77139115,0.23355421,0.46991575,0.00000000,0.00000000
-0.17391098,-2.17000008,-0.44163480,-0.13155697,0.41339439,0.00000000,0.00000000,0.16759974,2.14571142,0.77349555,0.22753623,0.49807981,0.00000000,0.00000000
-0.16670544,-2.16991353,-0.43620032,-0.12552629,0.41977653,0.00000000,0.00000000,0.16498955,2.14899540,0.77631772,0.22481702,0.52481747,0.00000000,0.00000000
-0.15937042,-2.16855741,-0.43119967,-0.11488058,0.42562580,0.00000000,0.00000000,0.16427909,2.15192270,0.78001112,0.22509700,0.54390013,0.00000000,0.00000000
-0.15123270,-2.16379380,-0.42649272,-0.10194626,0.42861378,0.00000000,0.00000000,0.16608743,2.15417457,0.78473502,0.22824381,0.56294107,0.00000000,0.00000000
-0.14168628,-2.15680933,-0.42200050,-0.08863059,0.43309072,0.00000000,0.00000000,0.17062718,2.15558672,0.79058427,0.23420429,0.58409339,0.00000000,0.00000000
-0.13084492,-2.14932275,-0.41775796,-0.07594636,0.43532899,0.00000000,0.00000000,0.17753179,2.15635204,0.79750353,0.24305101,0.60557860,0.00000000,0.00000000
-0.11940312,-2.14231491,-0.41385487,-0.06453395,0.43454680,0.00000000,0.00000000,0.18560602,2.15704417,0.80523843,0.25482771,0.62052411,0.00000000,0.00000000
-0.10824500,-2.13630939,-0.41038775,-0.05485088,0.43208799,0.00000000,0.00000000,0.19300219,2.15831494,0.81339127,0.26936263,0.62689304,0.00000000,0.00000000
-0.09754055,-2.13065147,-0.40743285,-0.04655784,0.42856899,0.00000000,0.00000000,0.19786011,2.16022635,0.82158619,0.28612649,0.62898564,0.00000000,0.00000000
-0.08697110,-2.12414479,-0.40504709,-0.03889247,0.42129365,0.00000000,0.00000000,0.19891328,2.16190934,0.82960171,0.30424204,0.62879473,0.00000000,0.00000000
-0.07813207,-2.11694551,-0.40329868,-0.03232016,0.42370594,0.00000000,0.00000000,0.19679809,2.16363358,0.83730531,0.32359052,0.62877995,0.00000000,0.00000000
-0.07418599,-2.11132002,-0.40224513,-0.02882439,0.42808941,0.00000000,0.00000000,0.19358139,2.16672349,0.84473908,0.34395593,0.62439412,0.00000000,0.00000000
-0.07657856,-2.10910439,-0.40190443,-0.02971796,0.42982918,0.00000000,0.00000000,0.18947078,2.16924429,0.85241681,0.36218435,0.62687075,0.00000000,0.00000000
-0.08458979,-2.10966587,-0.40226990,-0.03440387,0.42997998,0.00000000,0.00000000,0.18355086,2.16995525,0.86068565,0.37586486,0.62702036,0.00000000,0.00000000
-0.09750980,-2.11169839,-0.40333432,-0.04186896,0.43102306,0.00000000,0.00000000,0.17521921,2.17000008,0.86940789,0.38487548,0.63229406,0.00000000,0.00000000
-0.11536802,-2.11449361,-0.40509814,-0.05156911,0.44037384,0.00000000,0.00000000,0.16431597,2.17000008,0.87827176,0.39000171,0.64340955,0.00000000,0.00000000
-0.13830793,-2.11802387,-0.40755868,-0.06339227,0.44163996,0.00000000,0.00000000,0.15070713,2.17000008,0.88703012,0.39177889,0.65346271,0.00000000,0.00000000
-0.16589519,-2.12264585,-0.41068801,-0.07741176,0.43502474,0.00000000,0.00000000,0.13406657,2.17000008,0.89560133,0.39008316,0.66660362,0.00000000,0.00000000
-0.19717465,-2.12881470,-0.41442451,-0.09376146,0.41998610,0.00000000,0.00000000,0.11424400,2.17000008,0.90399802,0.38466144,0.67991281,0.00000000,0.00000000
-0.23125261,-2.13685560,-0.41868800,-0.11260171,0.40556028,0.00000000,0.00000000,0.09195982,2.16999483,0.91221172,0.37597060,0.69588304,0.00000000,0.00000000
-0.26764277,-2.14649081,-0.42340827,-0.13386047,0.38990891,0.00000000,0.00000000,0.06919975,2.16991949,0.92016017,0.36559513,0.70859981,0.00000000,0.00000000
-0.30564120,-2.15631223,-0.42850867,-0.15674047,0.37922427,0.00000000,0.00000000,0.04864135,2.16970444,0.92770708,0.35575506,0.72326386,0.00000000,0.00000000
-0.34336480,-2.16426706,-0.43382928,-0.17974716,0.37244239,0.00000000,0.00000000,0.03225060,2.16950059,0.93477076,0.34800106,0.73795414,0.00000000,0.00000000
-0.37903240,-2.16877127,-0.43918970,-0.20154487,0.36933199,0.00000000,0.00000000,0.02058571,2.16928577,0.94134063,0.34272349,0.75111687,0.00000000,0.00000000
-0.41155010,-2.16992855,-0.44444758,-0.22113161,0.36811200,0.00000000,0.00000000,0.01283473,2.16896582,0.94732857,0.33955196,0.76366556,0.00000000,0.00000000
-0.44007409,-2.17000008,-0.44947344,-0.23774844,0.36237261,0.00000000,0.00000000,0.00761725,2.16837478,0.95261216,0.33784628,0.77044654,0.00000000,0.00000000
-0.46385324,-2.17000008,-0.45412597,-0.25105527,0.35211751,0.00000000,0.00000000,0.00400819,2.16724610,0.95716047,0.33717474,0.77408594,0.00000000,0.00000000
-0.48235995,-2.17000008,-0.45827341,-0.26115137,0.34415263,0.00000000,0.00000000,0.00182818,2.16539025,0.96103585,0.33750445,0.77113324,0.00000000,0.00000000
-0.49535680,-2.17000008,-0.46182841,-0.26834410,0.33978844,0.00000000,0.00000000,0.00114671,2.16286683,0.96428931,0.33896065,0.76904160,0.00000000,0.00000000
-0.50281692,-2.17000008,-0.46475443,-0.27295721,0.33994785,0.00000000,0.00000000,0.00179286,2.15994787,0.96688581,0.34148166,0.76940888,0.00000000,0.00000000
-0.50469071,-2.17000008,-0.46703392,-0.27527255,0.33559769,0.00000000,0.00000000,0.00329717,2.15692210,0.96872723,0.34470293,0.77058077,0.00000000,0.00000000
-0.50065976,-2.17000008,-0.46862689,-0.27552542,0.33051276,0.00000000,0.00000000,0.00505859,2.15406299,0.96970111,0.34812555,0.78096479,0.00000000,0.00000000
-0.49010870,-2.17000008,-0.46946383,-0.27388227,0.32472175,0.00000000,0.00000000,0.00644593,2.15178490,0.96968317,0.35137385,0.79236543,0.00000000,0.00000000
-0.47236615,-2.17000008,-0.46947724,-0.27044007,0.31001976,0.00000000,0.00000000,0.00696796,2.15060210,0.96856320,0.35436228,0.80165249,0.00000000,0.00000000
-0.44692412,-2.17000008,-0.46862766,-0.26524401,0.29672736,0.00000000,0.00000000,0.00686195,2.15068865,0.96639276,0.35743946,0.81052762,0.00000000,0.00000000
-0.41341835,-2.17000008,-0.46691030,-0.25816298,0.28627625,0.00000000,0.00000000,0.00756673,2.15143681,0.96353370,0.36138651,0.82056558,0.00000000,0.00000000
-0.37182185,-2.17000008,-0.46439725,-0.24876532,0.28190494,0.00000000,0.00000000,0.01043204,2.15179324,0.96045250,0.36665112,0.83132827,0.00000000,0.00000000
-0.32432786,-2.17000008,-0.46144617,-0.23699568,0.28180701,0.00000000,0.00000000,0.01603645,2.15119696,0.95747679,0.37309375,0.84749562,0.00000000,0.00000000
-0.27584478,-2.17000008,-0.45870316,-0.22375877,0.27960619,0.00000000,0.00000000,0.02605605,2.14889479,0.95515728,0.38079721,0.86334372,0.00000000,0.00000000
-0.22857717,-2.17000008,-0.45644107,-0.20951977,0.27261305,0.00000000,0.00000000,0.04210126,2.14397216,0.95407629,0.38974029,0.87845969,0.00000000,0.00000000
-0.18163729,-2.17000008,-0.45455718,-0.19409788,0.26308176,0.00000000,0.00000000,0.06407968,2.13729954,0.95423150,0.39992508,0.89781934,0.00000000,0.00000000
-0.13367787,-2.17000008,-0.45287538,-0.17762868,0.24897327,0.00000000,0.00000000,0.09036895,2.13087893,0.95511174,0.41111812,0.91009140,0.00000000,0.00000000
-0.08387064,-2.17000008,-0.45123330,-0.16110282,0.23697363,0.00000000,0.00000000,0.11791973,2.12655902,0.95590621,0.42209327,0.92603683,0.00000000,0.00000000
-0.03150076,-2.17000008,-0.44953874,-0.14495564,0.22882406,0.00000000,0.00000000,0.14251557,2.12507200,0.95577407,0.43043718,0.93909210,0.00000000,0.00000000
0.02130141,-2.16997409,-0.44804725,-0.12836613,0.21742305,0.00000000,0.00000000,0.16303907,2.12575126,0.95465118,0.43500784,0.94895136,0.00000000,0.00000000
0.06662885,-2.16958070,-0.44736630,-0.11246997,0.21467268,0.00000000,0.00000000,0.18289405,2.12712264,0.95343459,0.43711990,0.96105909,0.00000000,0.00000000
0.10055859,-2.16833806,-0.44766402,-0.09972543,0.21356209,0.00000000,0.00000000,0.20224978,2.12864470,0.95241940,0.43775758,0.97126478,0.00000000,0.00000000
0.12530077,-2.16700387,-0.44876993,-0.09053464,0.21908624,0.00000000,0.00000000,0.21748479,2.13097835,0.95107812,0.43751273,0.98339248,0.00000000,0.00000000
0.14337401,-2.16636324,-0.45055541,-0.08469213,0.22428864,0.00000000,0.00000000,0.22720712,2.13278127,0.94963151,0.43648121,0.99423194,0.00000000,0.00000000
0.15546153,-2.16683912,-0.45299959,-0.08234078,0.22208694,0.00000000,0.00000000,0.23077098,2.13348603,0.94818503,0.43478766,1.00858796,0.00000000,0.00000000
0.16072556,-2.16826057,-0.45615560,-0.08373424,0.21818653,0.00000000,0.00000000,0.22829801,2.13334942,0.94669545,0.43288910,1.01701164,0.00000000,0.00000000
0.15681782,-2.16957188,-0.46019214,-0.08828066,0.21323529,0.00000000,0.00000000,0.22063832,2.13357854,0.94491905,0.43167388,1.02712989,0.00000000,0.00000000
0.14154813,-2.16997433,-0.46532828,-0.09464042,0.20877169,0.00000000,0.00000000,0.20808558,2.13590765,0.94229352,0.43203744,1.03673828,0.00000000,0.00000000
0.11564557,-2.17000008,-0.47151849,-0.10468794,0.20441647,0.00000000,0.00000000,0.18921471,2.14116669,0.93809766,0.43409812,1.04241633,0.00000000,0.00000000
0.08089480,-2.17000008,-0.47873482,-0.11814355,0.20308584,0.00000000,0.00000000,0.16187195,2.14916348,0.93169695,0.43732753,1.05336094,0.00000000,0.00000000
0.03761918,-2.17000008,-0.48707706,-0.13376375,0.20099837,0.00000000,0.00000000,0.12812036,2.15863204,0.92344773,0.44197765,1.06276262,0.00000000,0.00000000
-0.01583887,-2.17000008,-0.49673212,-0.15134670,0.19444625,0.00000000,0.00000000,0.09578366,2.16590309,0.91549200,0.44884622,1.07497036,0.00000000,0.00000000
-0.07844443,-2.16996408,-0.50766104,-0.17022233,0.19163424,0.00000000,0.00000000,0.06776008,2.16923523,0.90963227,0.45660371,1.08936906,0.00000000,0.00000000
-0.14670825,-2.16941118,-0.51954842,-0.18965344,0.18156919,0.00000000,0.00000000,0.04427161,2.16995811,0.90756071,0.46273658,1.10576224,0.00000000,0.00000000
-0.21658906,-2.16762543,-0.53189141,-0.20948054,0.17291583,0.00000000,0.00000000,0.02465861,2.17000008,0.91034192,0.46518520,1.12106586,0.00000000,0.00000000
-0.28446519,-2.16595650,-0.54409850,-0.23000354,0.16586100,0.00000000,0.00000000,0.00752734,2.17000008,0.91773182,0.46335277,1.13348663,0.00000000,0.00000000
-0.34718597,-2.16631007,-0.55558771,-0.25130436,0.16150320,0.00000000,0.00000000,-0.00837100,2.17000008,0.92819542,0.45839161,1.14469671,0.00000000,0.00000000
-0.40172660,-2.16822600,-0.56592381,-0.27225137,0.16215247,0.00000000,0.00000000,-0.02271536,2.17000008,0.93986011,0.45271656,1.14706528,0.00000000,0.00000000
-0.44589654,-2.16962194,-0.57492447,-0.29100925,0.16462208,0.00000000,0.00000000,-0.03271514,2.16995668,0.95232719,0.44826531,1.15073872,0.00000000,0.00000000
-0.47917667,-2.16997862,-0.58260858,-0.30646282,0.17063415,0.00000000,0.00000000,-0.03744435,2.16923165,0.96560276,0.44534564,1.15807700,0.00000000,0.00000000
-0.50139159,-2.17000008,-0.58899593,-0.31799641,0.17107806,0.00000000,0.00000000,-0.03857297,2.16615510,0.97925824,0.44333926,1.16768086,0.00000000,0.00000000
-0.51220572,-2.17000008,-0.59403431,-0.32538205,0.16749386,0.00000000,0.00000000,-0.03799514,2.16071653,0.99262947,0.44195923,1.17119730,0.00000000,0.00000000
-0.51134616,-2.17000008,-0.59763587,-0.32887241,0.16655889,0.00000000,0.00000000,-0.03693059,2.15534306,1.00491846,0.44167995,1.17313623,0.00000000,0.00000000
-0.49919575,-2.17000008,-0.59990287,-0.32867604,0.15934443,0.00000000,0.00000000,-0.03640407,2.15066934,1.01582372,0.44206467,1.17416239,0.00000000,0.00000000
-0.47623035,-2.17000008,-0.60098666,-0.32504237,0.15540135,0.00000000,0.00000000,-0.03721777,2.14690495,1.02516007,0.44263598,1.17059827,0.00000000,0.00000000
-0.44261175,-2.17000008,-0.60095954,-0.31836414,0.16175683,0.00000000,0.00000000,-0.03893097,2.14497805,1.03275347,0.44410664,1.17291725,0.00000000,0.00000000
-0.39836475,-2.17000008,-0.59982616,-0.30916500,0.16078377,0.00000000,0.00000000,-0.04038518,2.14529014,1.03862715,0.44741556,1.17176998,0.00000000,0.00000000
-0.34410149,-2.17000008,-0.59764254,-0.29818714,0.15744075,0.00000000,0.00000000,-0.04146146,2.14725018,1.04286361,0.45193803,1.17035854,0.00000000,0.00000000
-0.28360665,-2.17000008,-0.59494585,-0.28688127,0.15145627,0.00000000,0.00000000,-0.04245219,2.14961529,1.04568470,0.45635262,1.17175329,0.00000000,0.00000000
-0.22369333,-2.17000008,-0.59275585,-0.27716717,0.14392327,0.00000000,0.00000000,-0.04080469,2.15040541,1.04801786,0.46082169,1.17587698,0.00000000,0.00000000
-0.16694935,-2.17000008,-0.59166735,-0.26851979,0.14319484,0.00000000,0.00000000,-0.03493088,2.14767480,1.05077338,0.46506318,1.18089426,0.00000000,0.00000000
-0.11345962,-2.17000008,-0.59197372,-0.25912827,0.14815196,0.00000000,0.00000000,-0.02529229,2.14138246,1.05414593,0.46848571,1.18776166,0.00000000,0.00000000
-0.06235493,-2.17000008,-0.59367073,-0.24765606,0.15070990,0.00000000,0.00000000,-0.01354112,2.13323188,1.05765200,0.47079292,1.19515300,0.00000000,0.00000000
-0.01155384,-2.17000008,-0.59630060,-0.23415919,0.15539920,0.00000000,0.00000000,-0.00206660,2.12565303,1.06042325,0.47191784,1.19896340,0.00000000,0.00000000
0.03920384,-2.17000008,-0.59942675,-0.22064021,0.15554428,0.00000000,0.00000000,0.00714884,2.12078166,1.06168509,0.47207990,1.20601225,0.00000000,0.00000000
0.08432245,-2.17000008,-0.60342443,-0.21007776,0.15063995,0.00000000,0.00000000,0.01494375,2.11828613,1.06169963,0.47202778,1.20533228,0.00000000,0.00000000
0.11973087,-2.17000008,-0.60868275,-0.20347615,0.14292634,0.00000000,0.00000000,0.02274449,2.11490679,1.06160164,0.47171906,1.20433784,0.00000000,0.00000000
0.14698070,-2.16999960,-0.61503279,-0.19973017,0.13574746,0.00000000,0.00000000,0.02880266,2.10975313,1.06158817,0.47067970,1.20327556,0.00000000,0.00000000
0.16639729,-2.16998839,-0.62248456,-0.19771911,0.12993926,0.00000000,0.00000000,0.03244449,2.10272932,1.06181979,0.46939507,1.20097339,0.00000000,0.00000000
0.17996837,-2.16986489,-0.63067293,-0.19743392,0.12550306,0.00000000,0.00000000,0.03303070,2.09480381,1.06211424,0.46789402,1.19846570,0.00000000,0.00000000
0.18527807,-2.16922355,-0.63975906,-0.19990125,0.12217094,0.00000000,0.00000000,0.03019225,2.08704519,1.06220853,0.46579540,1.19373286,0.00000000,0.00000000
0.18005146,-2.16657948,-0.65007371,-0.20517121,0.12198264,0.00000000,0.00000000,0.02346116,2.08138824,1.06152606,0.46317512,1.18760741,0.00000000,0.00000000
0.16737008,-2.16074467,-0.66140485,-0.21179809,0.12367144,0.00000000,0.00000000,0.01229515,2.08021951,1.05926526,0.46070373,1.17529678,0.00000000,0.00000000
0.15048125,-2.15461802,-0.67320782,-0.22017176,0.11544481,0.00000000,0.00000000,-0.00199741,2.08446264,1.05515742,0.45952871,1.16357696,0.00000000,0.00000000
0.12485109,-2.14829230,-0.68591672,-0.23196246,0.10400204,0.00000000,0.00000000,-0.01709361,2.09360671,1.04945159,0.46048942,1.15008450,0.00000000,0.00000000
0.09015494,-2.14077973,-0.69963712,-0.24662505,0.09163897,0.00000000,0.00000000,-0.03185016,2.10603619,1.04263425,0.46333519,1.13417447,0.00000000,0.00000000
0.04885065,-2.13050175,-0.71426278,-0.26259330,0.07785688,0.00000000,0.00000000,-0.04530129,2.11874771,1.03560805,0.46727848,1.12710261,0.00000000,0.00000000
0.00301904,-2.11878109,-0.72946054,-0.28050900,0.06555143,0.00000000,0.00000000,-0.05742188,2.12907887,1.02901089,0.47114095,1.11701238,0.00000000,0.00000000
-0.04548821,-2.10851073,-0.74473572,-0.30164248,0.04855905,0.00000000,0.00000000,-0.06867934,2.13668156,1.02266955,0.47427866,1.10364807,0.00000000,0.00000000
-0.09332072,-2.09976697,-0.75963563,-0.32502207,0.03618832,0.00000000,0.00000000,-0.07738025,2.14270163,1.01622760,0.47765306,1.08440173,0.00000000,0.00000000
-0.13591862,-2.09077144,-0.77368230,-0.34815517,0.02683337,0.00000000,0.00000000,-0.08103584,2.14730191,1.00972140,0.48219711,1.06494486,0.00000000,0.00000000
-0.16968925,-2.08029318,-0.78639162,-0.36910459,0.02081703,0.00000000,0.00000000,-0.07967806,2.14926863,1.00332713,0.48705375,1.04287755,0.00000000,0.00000000
-0.19375680,-2.06834531,-0.79743487,-0.38765144,0.01966325,0.00000000,0.00000000,-0.07435693,2.14752054,0.99722940,0.49096912,1.01725793,0.00000000,0.00000000
-0.20854460,-2.05628157,-0.80641067,-0.40463182,0.01789122,0.00000000,0.00000000,-0.06524780,2.14184737,0.99162310,0.49344349,0.99820286,0.00000000,0.00000000
-0.21231410,-2.04397917,-0.81277883,-0.41848254,0.01267217,0.00000000,0.00000000,-0.05212280,2.13306117,0.98646736,0.49446368,0.97478640,0.00000000,0.00000000
-0.20320672,-2.03063059,-0.81613624,-0.42623049,0.00795422,0.00000000,0.00000000,-0.03527655,2.12238622,0.98144656,0.49397430,0.95306015,0.00000000,0.00000000
-0.18103673,-2.01747322,-0.81609762,-0.42723054,0.00540416,0.00000000,0.00000000,-0.01687055,2.11099529,0.97592324,0.49136561,0.93251354,0.00000000,0.00000000
-0.14649343,-2.00522399,-0.81263316,-0.42165440,0.00629276,0.00000000,0.00000000,-0.00039629,2.10071659,0.96887475,0.48611569,0.91607058,0.00000000,0.00000000
-0.10411096,-1.99460506,-0.80649120,-0.41147354,0.00923061,0.00000000,0.00000000,0.01227581,2.09391356,0.95939559,0.47915125,0.89774454,0.00000000,0.00000000
-0.06103992,-1.98507369,-0.79914218,-0.39958149,0.00534866,0.00000000,0.00000000,0.02168754,2.09152317,0.94733787,0.47242001,0.87922794,0.00000000,0.00000000
-0.02261754,-1.97479117,-0.79192114,-0.38768768,-0.00240826,0.00000000,0.00000000,0.02926315,2.09198260,0.93336093,0.46728694,0.86192948,0.00000000,0.00000000
0.00843831,-1.96307731,-0.78545016,-0.37671021,-0.00550530,0.00000000,0.00000000,0.03650461,2.09338284,0.91831481,0.46433008,0.83726305,0.00000000,0.00000000
0.03113388,-1.95034468,-0.77984965,-0.36678809,-0.00495250,0.00000000,0.00000000,0.04458651,2.09554124,0.90270150,0.46344963,0.80998790,0.00000000,0.00000000
0.04569782,-1.93659496,-0.77512658,-0.35693872,-0.00087110,0.00000000,0.00000000,0.05286756,2.09738302,0.88694227,0.46238536,0.78445482,0.00000000,0.00000000
0.05206820,-1.92141247,-0.77147275,-0.34611607,0.00552953,0.00000000,0.00000000,0.06086593,2.09717441,0.87161046,0.45914900,0.76418674,0.00000000,0.00000000
0.05076602,-1.90627599,-0.76879829,-0.33405685,0.01255659,0.00000000,0.00000000,0.06889652,2.09524250,0.85697812,0.45347002,0.74789423,0.00000000,0.00000000
0.04161611,-1.89376354,-0.76701164,-0.32189620,0.02205383,0.00000000,0.00000000,0.07632286,2.09326744,0.84285462,0.44566482,0.73131055,0.00000000,0.00000000
0.02215086,-1.88603723,-0.76643354,-0.31303933,0.03510421,0.00000000,0.00000000,0.08150904,2.09252882,0.82886207,0.43627489,0.71963197,0.00000000,0.00000000
-0.00245453,-1.88661337,-0.76601124,-0.30908406,0.05449665,0.00000000,0.00000000,0.08304939,2.09274268,0.81489712,0.42587790,0.70734626,0.00000000,0.00000000
-0.03128107,-1.89506900,-0.76572633,-0.31053811,0.07295845,0.00000000,0.00000000,0.08183084,2.09429026,0.80115831,0.41589165,0.70311826,0.00000000,0.00000000
-0.06548364,-1.91041636,-0.76582235,-0.31810379,0.08261961,0.00000000,0.00000000,0.08167528,2.09790683,0.78829587,0.40824178,0.70167005,0.00000000,0.00000000
-0.10389659,-1.93162870,-0.76610583,-0.33155668,0.09641196,0.00000000,0.00000000,0.08354920,2.10402441,0.77668369,0.40328267,0.70673907,0.00000000,0.00000000
-0.14370343,-1.95698476,-0.76615989,-0.34958738,0.11582452,0.00000000,0.00000000,0.08438472,2.11292648,0.76603371,0.39946923,0.70907593,0.00000000,0.00000000
-0.18166223,-1.98517966,-0.76542097,-0.37065291,0.14356638,0.00000000,0.00000000,0.08093011,2.12411761,0.75586390,0.39446053,0.71068770,0.00000000,0.00000000
-0.21523438,-2.01596141,-0.76329952,-0.39369255,0.17439917,0.00000000,0.00000000,0.07382114,2.13547325,0.74629056,0.38645765,0.71394342,0.00000000,0.00000000
-0.24352148,-2.05002713,-0.75933045,-0.41849732,0.20708102,0.00000000,0.00000000,0.06734706,2.14370728,0.73813188,0.37462896,0.71564597,0.00000000,0.00000000
-0.26529929,-2.08623171,-0.75329483,-0.44311565,0.23641805,0.00000000,0.00000000,0.06395139,2.14613008,0.73185939,0.35793313,0.71807265,0.00000000,0.00000000
-0.27727309,-2.11793852,-0.74556941,-0.46052891,0.26541442,0.00000000,0.00000000,0.06262029,2.14126539,0.72722858,0.33483067,0.72602183,0.00000000,0.00000000
-0.27778220,-2.14364815,-0.73598528,-0.46663550,0.29297218,0.00000000,0.00000000,0.06167707,2.13154578,0.72340631,0.30650896,0.73636752,0.00000000,0.00000000
-0.26690188,-2.16072130,-0.72489053,-0.45955375,0.32102737,0.00000000,0.00000000,0.06142632,2.12506843,0.71927065,0.27956337,0.74499917,0.00000000,0.00000000
-0.24560276,-2.16827202,-0.71256602,-0.43941593,0.34777394,0.00000000,0.00000000,0.05973382,2.12267971,0.71440446,0.25552419,0.76233524,0.00000000,0.00000000
-0.21593317,-2.16983628,-0.69924110,-0.40822685,0.37264460,0.00000000,0.00000000,0.05713454,2.12405133,0.70896959,0.23533516,0.78296953,0.00000000,0.00000000
-0.18131775,-2.16882801,-0.68553573,-0.36935547,0.39661691,0.00000000,0.00000000,0.05432962,2.12811232,0.70325804,0.21910475,0.80187523,0.00000000,0.00000000
-0.14485478,-2.16465092,-0.67165619,-0.32746309,0.42058751,0.00000000,0.00000000,0.05163839,2.13213611,0.69768649,0.20553698,0.82229096,0.00000000,0.00000000
-0.10967934,-2.15760374,-0.65786076,-0.28650093,0.44575340,0.00000000,0.00000000,0.04998635,2.13340282,0.69272006,0.19319695,0.84283698,0.00000000,0.00000000
-0.07781836,-2.14893889,-0.64442825,-0.24868074,0.47226453,0.00000000,0.00000000,0.05014109,2.13068199,0.68864942,0.18119210,0.86425459,0.00000000,0.00000000
-0.05046683,-2.13971472,-0.63153213,-0.21527700,0.49530369,0.00000000,0.00000000,0.05222711,2.12475204,0.68550825,0.16952498,0.88091701,0.00000000,0.00000000
-0.02864837,-2.13133764,-0.61926419,-0.18727638,0.51397663,0.00000000,0.00000000,0.05630592,2.11750937,0.68321031,0.15905555,0.89836115,0.00000000,0.00000000
-0.01224488,-2.12476683,-0.60762221,-0.16478240,0.53771752,0.00000000,0.00000000,0.06266104,2.11028123,0.68169940,0.15080726,0.91914737,0.00000000,0.00000000
-0.00103655,-2.12061667,-0.59661472,-0.14761524,0.55716693,0.00000000,0.00000000,0.07139216,2.10343838,0.68093878,0.14548191,0.93618679,0.00000000,0.00000000
0.00474806,-2.11950827,-0.58627093,-0.13566284,0.57443845,0.00000000,0.00000000,0.08201963,2.09768891,0.68081033,0.14370003,0.96001726,0.00000000,0.00000000
0.00553006,-2.12054110,-0.57662100,-0.12777822,0.59395325,0.00000000,0.00000000,0.09354536,2.09489679,0.68108928,0.14625630,0.98985994,0.00000000,0.00000000
0.00204599,-2.12228441,-0.56768751,-0.12260611,0.61810130,0.00000000,0.00000000,0.10498827,2.09717011,0.68152976,0.15384550,1.02043748,0.00000000,0.00000000
-0.00598276,-2.12373781,-0.55954528,-0.11950856,0.64007920,0.00000000,0.00000000,0.11604803,2.10472679,0.68202353,0.16625351,1.05136263,0.00000000,0.00000000
-0.01782945,-2.12424040,-0.55219531,-0.11768803,0.66252434,0.00000000,0.00000000,0.12620887,2.11514950,0.68258119,0.18174411,1.08118188,0.00000000,0.00000000
-0.03207752,-2.12404752,-0.54555243,-0.11665452,0.68049014,0.00000000,0.00000000,0.13372345,2.12685251,0.68305576,0.19869505,1.11383915,0.00000000,0.00000000
-0.05005349,-2.12324142,-0.53968894,-0.11703413,0.69828868,0.00000000,0.00000000,0.13897496,2.13904071,0.68345267,0.21692725,1.14616001,0.00000000,0.00000000
-0.07253683,-2.12228251,-0.53462803,-0.11936508,0.71087831,0.00000000,0.00000000,0.14360406,2.15100336,0.68395060,0.23699273,1.18114018,0.00000000,0.00000000
-0.09845375,-2.12172341,-0.53028029,-0.12350922,0.72749484,0.00000000,0.00000000,0.14861850,2.16108775,0.68480116,0.25863373,1.21363354,0.00000000,0.00000000
-0.12602453,-2.12156010,-0.52652639,-0.12871203,0.74269170,0.00000000,0.00000000,0.15369450,2.16765070,0.68617672,0.28025925,1.24411356,0.00000000,0.00000000
-0.15378678,-2.12204385,-0.52325112,-0.13444819,0.75255901,0.00000000,0.00000000,0.15696959,2.16975307,0.68815339,0.29863262,1.26482499,0.00000000,0.00000000
-0.18064877,-2.12375760,-0.52035224,-0.14055549,0.76971340,0.00000000,0.00000000,0.15667666,2.16999149,0.69058239,0.31155396,1.28772652,0.00000000,0.00000000
-0.20551611,-2.12676501,-0.51775497,-0.14669168,0.77866834,0.00000000,0.00000000,0.15271319,2.17000008,0.69326115,0.31880757,1.31300318,0.00000000,0.00000000
-0.22723022,-2.13013124,-0.51542562,-0.15207611,0.78688008,0.00000000,0.00000000,0.14686869,2.17000008,0.69607282,0.32170248,1.33639336,0.00000000,0.00000000
-0.24503878,-2.13255095,-0.51337248,-0.15593785,0.79645765,0.00000000,0.00000000,0.14226753,2.17000008,0.69902951,0.32237458,1.35726726,0.00000000,0.00000000
-0.25851884,-2.13340998,-0.51158708,-0.15798900,0.80425262,0.00000000,0.00000000,0.14126901,2.16996861,0.70217896,0.32229048,1.38061595,0.00000000,0.00000000
-0.26688153,-2.13299680,-0.50997984,-0.15829320,0.81852156,0.00000000,0.00000000,0.14399032,2.16946220,0.70539981,0.32172877,1.40077364,0.00000000,0.00000000
-0.26912531,-2.13209867,-0.50840926,-0.15708971,0.83128870,0.00000000,0.00000000,0.14914735,2.16752386,0.70839924,0.32048860,1.42667985,0.00000000,0.00000000
-0.26455021,-2.13155603,-0.50674272,-0.15470818,0.83875930,0.00000000,0.00000000,0.15555537,2.16419506,0.71088606,0.31847721,1.45820570,0.00000000,0.00000000
-0.25311366,-2.13195753,-0.50490707,-0.15149994,0.84351259,0.00000000,0.00000000,0.16294640,2.16006541,0.71272641,0.31583270,1.48215461,0.00000000,0.00000000
-0.23563853,-2.13353586,-0.50292265,-0.14782391,0.85324848,0.00000000,0.00000000,0.17169398,2.15547967,0.71394813,0.31275272,1.50205994,0.00000000,0.00000000
-0.21339022,-2.13627028,-0.50087190,-0.14396727,0.86479801,0.00000000,0.00000000,0.18164797,2.15044022,0.71457708,0.30913889,1.52373326,0.00000000,0.00000000
-0.18733738,-2.13989878,-0.49883527,-0.13996275,0.87838519,0.00000000,0.00000000,0.19158237,2.14499521,0.71450943,0.30455083,1.54232132,0.00000000,0.00000000
-0.15828136,-2.14397383,-0.49689037,-0.13571219,0.88955116,0.00000000,0.00000000,0.20029069,2.13949037,0.71363342,0.29866108,1.55820942,0.00000000,0.00000000
-0.12668867,-2.14819860,-0.49508786,-0.13117474,0.89034289,0.00000000,0.00000000,0.20676383,2.13441515,0.71187186,0.29126215,1.57397294,0.00000000,0.00000000
-0.09279182,-2.15270686,-0.49345312,-0.12657605,0.89507616,0.00000000,0.00000000,0.20964371,2.13022423,0.70911252,0.28206652,1.58727098,0.00000000,0.00000000
-0.05761744,-2.15777969,-0.49206609,-0.12252154,0.89967281,0.00000000,0.00000000,0.20781162,2.12758684,0.70523632,0.27118212,1.60307229,0.00000000,0.00000000
-0.02369164,-2.16312265,-0.49112263,-0.11972068,0.90471679,0.00000000,0.00000000,0.20205873,2.12760472,0.70030844,0.26003695,1.61624181,0.00000000,0.00000000
0.00592404,-2.16744947,-0.49087435,-0.11841295,0.91164905,0.00000000,0.00000000,0.19482042,2.13055825,0.69467276,0.25069156,1.62954867,0.00000000,0.00000000
0.02944485,-2.16952467,-0.49149597,-0.11807925,0.92258650,0.00000000,0.00000000,0.18757451,2.13516450,0.68869025,0.24406078,1.64075470,0.00000000,0.00000000
0.04634155,-2.16993809,-0.49305648,-0.11801052,0.92931849,0.00000000,0.00000000,0.18093061,2.14013529,0.68260449,0.24041559,1.64979577,0.00000000,0.00000000
0.05673086,-2.16935897,-0.49553898,-0.11794086,0.92787921,0.00000000,0.00000000,0.17579561,2.14469266,0.67666531,0.24016385,1.65741444,0.00000000,0.00000000
0.06156115,-2.16677356,-0.49887145,-0.11763722,0.92804927,0.00000000,0.00000000,0.17290042,2.14943123,0.67099828,0.24429651,1.66299891,0.00000000,0.00000000
0.06058207,-2.16156960,-0.50307035,-0.11743288,0.92296785,0.00000000,0.00000000,0.17302470,2.15352058,0.66584510,0.25328964,1.66416299,0.00000000,0.00000000
0.05413614,-2.15450621,-0.50810772,-0.11798219,0.92133766,0.00000000,0.00000000,0.17434697,2.15722036,0.66096145,0.26697627,1.66411889,0.00000000,0.00000000
0.04213772,-2.14669394,-0.51397163,-0.12028110,0.91647351,0.00000000,0.00000000,0.17408492,2.16162086,0.65579855,0.28474265,1.65772390,0.00000000,0.00000000
0.02291031,-2.13850927,-0.52076548,-0.12530313,0.91387248,0.00000000,0.00000000,0.17235771,2.16602612,0.65032601,0.30568472,1.64957416,0.00000000,0.00000000
-0.00454176,-2.12960172,-0.52857077,-0.13325995,0.90765935,0.00000000,0.00000000,0.17108826,2.16907263,0.64500111,0.32854000,1.63948834,0.00000000,0.00000000
-0.03965455,-2.11945844,-0.53736567,-0.14374118,0.90229100,0.00000000,0.00000000,0.17156601,2.16994452,0.64053226,0.35049483,1.63262999,0.00000000,0.00000000
-0.08118175,-2.10830569,-0.54702979,-0.15652695,0.90246564,0.00000000,0.00000000,0.17326631,2.17000008,0.63741219,0.36786810,1.63073468,0.00000000,0.00000000
-0.12792484,-2.09741378,-0.55736077,-0.17196780,0.89822221,0.00000000,0.00000000,0.17522082,2.16997933,0.63580137,0.37800747,1.62422359,0.00000000,0.00000000
-0.17846766,-2.08846164,-0.56806606,-0.19055180,0.89834869,0.00000000,0.00000000,0.17676562,2.16960597,0.63568211,0.37952846,1.61628449,0.00000000,0.00000000
-0.23073401,-2.08298302,-0.57873595,-0.21245238,0.90324622,0.00000000,0.00000000,0.17515066,2.16775179,0.63631552,0.37189689,1.60988748,0.00000000,0.00000000
-0.28193089,-2.08262563,-0.58879405,-0.23758912,0.90845060,0.00000000,0.00000000,0.16506475,2.16453505,0.63576674,0.35708383,1.60394108,0.00000000,0.00000000
-0.32820329,-2.08879709,-0.59745795,-0.26530150,0.92082506,0.00000000,0.00000000,0.14732604,2.16293216,0.63328308,0.33970517,1.59824276,0.00000000,0.00000000
-0.36573556,-2.10116839,-0.60399067,-0.29402384,0.92921984,0.00000000,0.00000000,0.12774634,2.16255069,0.62962890,0.32300591,1.58999920,0.00000000,0.00000000
-0.39289942,-2.11767960,-0.60804158,-0.32211322,0.93954486,0.00000000,0.00000000,0.10913511,2.16223097,0.62526619,0.30779979,1.57131410,0.00000000,0.00000000
-0.40986896,-2.13569951,-0.60960764,-0.34810203,0.95477128,0.00000000,0.00000000,0.09148488,2.16256785,0.62012905,0.29424056,1.54725266,0.00000000,0.00000000
-0.41697800,-2.15134645,-0.60895646,-0.36929548,0.96674150,0.00000000,0.00000000,0.07496324,2.16387177,0.61427206,0.28226882,1.52865720,0.00000000,0.00000000
-0.41464913,-2.16246700,-0.60629153,-0.38331375,0.97474462,0.00000000,0.00000000,0.06051904,2.16570187,0.60799509,0.27176958,1.51665258,0.00000000,0.00000000
-0.40388399,-2.16840339,-0.60182834,-0.38882068,0.98308456,0.00000000,0.00000000,0.04942455,2.16777945,0.60171616,0.26296833,1.50640035,0.00000000,0.00000000
-0.38690528,-2.16982365,-0.59603500,-0.38547054,0.98779440,0.00000000,0.00000000,0.04266160,2.16945505,0.59597927,0.25573289,1.49583948,0.00000000,0.00000000
-0.36700642,-2.16915846,-0.58955181,-0.37412089,0.99373734,0.00000000,0.00000000,0.03960674,2.16993070,0.59131891,0.24826398,1.48363566,0.00000000,0.00000000
-0.34732485,-2.16714692,-0.58282620,-0.35675532,0.99978977,0.00000000,0.00000000,0.04016678,2.16928196,0.58816910,0.23937443,1.46851563,0.00000000,0.00000000
-0.33114430,-2.16528416,-0.57617569,-0.33642912,1.00197852,0.00000000,0.00000000,0.04458344,2.16546559,0.58672506,0.22906178,1.45874155,0.00000000,0.00000000
-0.32106403,-2.16380167,-0.56994063,-0.31558579,1.00421250,0.00000000,0.00000000,0.05147514,2.15578270,0.58676267,0.21761319,1.44274867,0.00000000,0.00000000
-0.31720927,-2.16142011,-0.56420702,-0.29500163,1.00160408,0.00000000,0.00000000,0.05836213,2.14166355,0.58782130,0.20525059,1.42996466,0.00000000,0.00000000
-0.31800470,-2.15750074,-0.55877554,-0.27484262,0.99849349,0.00000000,0.00000000,0.06375714,2.12567902,0.58953422,0.19242005,1.40972447,0.00000000,0.00000000
-0.32113728,-2.15235376,-0.55332929,-0.25496244,0.98574358,0.00000000,0.00000000,0.06774772,2.10941792,0.59172726,0.17975742,1.38842070,0.00000000,0.00000000
-0.32443130,-2.14589190,-0.54766542,-0.23462556,0.97399914,0.00000000,0.00000000,0.07099564,2.09420395,0.59427732,0.16809691,1.36587989,0.00000000,0.00000000
-0.32680187,-2.13754034,-0.54178178,-0.21324895,0.96536219,0.00000000,0.00000000,0.07413334,2.08169389,0.59704608,0.15852225,1.34892976,0.00000000,0.00000000
-0.32786700,-2.12812066,-0.53566116,-0.19148640,0.95452291,0.00000000,0.00000000,0.07837025,2.07292986,0.60000277,0.15201889,1.33130300,0.00000000,0.00000000
-0.32713324,-2.11954641,-0.52922553,-0.17068169,0.95246387,0.00000000,0.00000000,0.08535082,2.06769323,0.60323763,0.14901869,1.31985164,0.00000000,0.00000000
-0.32352865,-2.11340928,-0.52239960,-0.15178451,0.94569945,0.00000000,0.00000000,0.09608478,2.06516600,0.60682648,0.14932460,1.30770969,0.00000000,0.00000000
-0.31583726,-2.11019897,-0.51518101,-0.13495871,0.94000483,0.00000000,0.00000000,0.11060750,2.06449962,0.61076921,0.15231600,1.30046105,0.00000000,0.00000000
-0.30334252,-2.10975385,-0.50764596,-0.12002581,0.93334562,0.00000000,0.00000000,0.12857740,2.06486535,0.61503494,0.15726395,1.29657221,0.00000000,0.00000000
-0.28597021,-2.11215806,-0.49990448,-0.10705604,0.92626023,0.00000000,0.00000000,0.14950421,2.06596327,0.61955357,0.16373694,1.28925753,0.00000000,0.00000000
-0.26431909,-2.11752486,-0.49209523,-0.09632985,0.92698413,0.00000000,0.00000000,0.17201041,2.06842446,0.62412274,0.17156298,1.28191710,0.00000000,0.00000000
-0.23973277,-2.12532425,-0.48439562,-0.08806978,0.92942613,0.00000000,0.00000000,0.19349165,2.07279468,0.62841445,0.18019259,1.27389061,0.00000000,0.00000000
-0.21377660,-2.13466859,-0.47697702,-0.08248091,0.93173587,0.00000000,0.00000000,0.21130016,2.07893372,0.63210285,0.18881106,1.26653445,0.00000000,0.00000000
-0.18827936,-2.14428520,-0.47001499,-0.07964537,0.92953962,0.00000000,0.00000000,0.22348149,2.08679557,0.63489908,0.19696100,1.25757635,0.00000000,0.00000000
-0.16530135,-2.15251422,-0.46369389,-0.07935794,0.92619073,0.00000000,0.00000000,0.22846949,2.09704661,0.63650566,0.20462787,1.24609041,0.00000000,0.00000000
-0.14662227,-2.15811944,-0.45816624,-0.08138297,0.92551631,0.00000000,0.00000000,0.22595349,2.11001539,0.63677979,0.21195889,1.24228525,0.00000000,0.00000000
-0.13330945,-2.16106391,-0.45352036,-0.08572773,0.92012274,0.00000000,0.00000000,0.21805866,2.12440991,0.63595480,0.21904315,1.24100053,0.00000000,0.00000000
-0.12613079,-2.16246295,-0.44981414,-0.09228386,0.91294736,0.00000000,0.00000000,0.20886447,2.13800597,0.63456112,0.22602566,1.24181855,0.00000000,0.00000000
-0.12605320,-2.16347170,-0.44712040,-0.10034017,0.89718807,0.00000000,0.00000000,0.20153517,2.14930940,0.63300431,0.23276740,1.24699497,0.00000000,0.00000000
-0.13337624,-2.16396761,-0.44546077,-0.10889406,0.87999320,0.00000000,0.00000000,0.19664633,2.15794492,0.63134187,0.23851565,1.25803792,0.00000000,0.00000000
-0.14663254,-2.16363311,-0.44469655,-0.11729139,0.86658031,0.00000000,0.00000000,0.19360930,2.16380477,0.62950569,0.24249394,1.26587784,0.00000000,0.00000000
-0.16352265,-2.16343307,-0.44454664,-0.12607858,0.85617959,0.00000000,0.00000000,0.19182357,2.16639042,0.62750000,0.24413183,1.26800966,0.00000000,0.00000000
-0.18193248,-2.16448402,-0.44469553,-0.13630752,0.84559518,0.00000000,0.00000000,0.19130883,2.16561627,0.62541920,0.24332945,1.26231146,0.00000000,0.00000000
-0.19967319,-2.16684484,-0.44484684,-0.14817019,0.83888751,0.00000000,0.00000000,0.19238093,2.16179466,0.62341887,0.24007335,1.25547910,0.00000000,0.00000000
-0.21431892,-2.16903448,-0.44474623,-0.16049147,0.83556139,0.00000000,0.00000000,0.19529538,2.15517735,0.62171322,0.23437086,1.25118208,0.00000000,0.00000000
-0.22335751,-2.16987276,-0.44418648,-0.17105067,0.83803606,0.00000000,0.00000000,0.19966868,2.14608526,0.62047398,0.22659627,1.25007296,0.00000000,0.00000000
-0.22494195,-2.16999459,-0.44309333,-0.17682289,0.84250128,0.00000000,0.00000000,0.20579578,2.13653159,0.61980242,0.21861637,1.24385452,0.00000000,0.00000000
-0.21888995,-2.17000008,-0.44155699,-0.17549133,0.84727418,0.00000000,0.00000000,0.21324803,2.12851071,0.61966342,0.21182081,1.24146187,0.00000000,0.00000000
-0.20641835,-2.17000008,-0.43979058,-0.16591124,0.85964388,0.00000000,0.00000000,0.22097841,2.12248015,0.61999619,0.20645197,1.23521960,0.00000000,0.00000000
-0.18936774,-2.16995239,-0.43799081,-0.14869860,0.87405008,0.00000000,0.00000000,0.22852221,2.11875057,0.62075025,0.20285176,1.23513436,0.00000000,0.00000000
-0.16934724,-2.16921544,-0.43623063,-0.12642699,0.90012819,0.00000000,0.00000000,0.23596528,2.11783648,0.62188405,0.20160377,1.23612678,0.00000000,0.00000000
-0.14720966,-2.16673613,-0.43451267,-0.10242479,0.92044091,0.00000000,0.00000000,0.24322152,2.11989236,0.62336326,0.20299467,1.23574376,0.00000000,0.00000000
-0.12327757,-2.16350126,-0.43289390,-0.07909381,0.93990880,0.00000000,0.00000000,0.24972034,2.12436461,0.62517440,0.20676613,1.22556889,0.00000000,0.00000000
-0.09810314,-2.16061401,-0.43151763,-0.05760653,0.95986885,0.00000000,0.00000000,0.25494435,2.13047624,0.62734574,0.21256091,1.21822965,0.00000000,0.00000000
-0.07274453,-2.15837669,-0.43055716,-0.03854612,0.97974873,0.00000000,0.00000000,0.25883445,2.13758516,0.62994975,0.22024076,1.20717835,0.00000000,0.00000000
-0.04843471,-2.15684962,-0.43016103,-0.02240077,1.00975084,0.00000000,0.00000000,0.26158944,2.14499354,0.63307941,0.22969881,1.19472945,0.00000000,0.00000000
-0.02645646,-2.15599751,-0.43043712,-0.00963915,1.03998506,0.00000000,0.00000000,0.26331508,2.15190125,0.63679594,0.24067938,1.17772388,0.00000000,0.00000000
-0.00826348,-2.15557528,-0.43145454,-0.00062094,1.06341493,0.00000000,0.00000000,0.26360700,2.15786862,0.64102679,0.25285563,1.15758312,0.00000000,0.00000000
0.00459258,-2.15525746,-0.43324655,0.00435179,1.08645070,0.00000000,0.00000000,0.26118290,2.16295481,0.64549202,0.26581743,1.14059305,0.00000000,0.00000000
0.01064791,-2.15500855,-0.43582076,0.00478898,1.10430837,0.00000000,0.00000000,0.25417709,2.16702938,0.64978284,0.27890521,1.11635852,0.00000000,0.00000000
0.00859658,-2.15537667,-0.43917280,-0.00011097,1.11554813,0.00000000,0.00000000,0.24161689,2.16936445,0.65363830,0.29138732,1.09507298,0.00000000,0.00000000
-0.00278003,-2.15710545,-0.44330209,-0.01107353,1.12143683,0.00000000,0.00000000,0.22573920,2.16996336,0.65732163,0.30330914,1.07853544,0.00000000,0.00000000
-0.02419337,-2.15959334,-0.44822672,-0.02766091,1.12966597,0.00000000,0.00000000,0.21143408,2.17000008,0.66155028,0.31562564,1.06587183,0.00000000,0.00000000
-0.05482332,-2.16130686,-0.45397583,-0.04832167,1.13284838,0.00000000,0.00000000,0.20078741,2.17000008,0.66675186,0.32813299,1.05288255,0.00000000,0.00000000
-0.09290759,-2.16352224,-0.46051592,-0.07285485,1.13220310,0.00000000,0.00000000,0.19329230,2.17000008,0.67322391,0.33881840,1.03508735,0.00000000,0.00000000
-0.13529211,-2.16698694,-0.46772736,-0.10082497,1.13299727,0.00000000,0.00000000,0.18759714,2.17000008,0.68119526,0.34531289,1.01457477,0.00000000,0.00000000
-0.17890932,-2.16912365,-0.47551095,-0.13038929,1.13110793,0.00000000,0.00000000,0.18042390,2.17000008,0.69007790,0.34663484,0.99809170,0.00000000,0.00000000
-0.22179668,-2.16984701,-0.48374990,-0.16101721,1.13797188,0.00000000,0.00000000,0.16919746,2.17000008,0.69908494,0.34316534,0.98419654,0.00000000,0.00000000
-0.26409540,-2.16999197,-0.49249274,-0.19237882,1.14469361,0.00000000,0.00000000,0.15584971,2.17000008,0.70820969,0.33623475,0.96767730,0.00000000,0.00000000
-0.30662492,-2.17000008,-0.50191838,-0.22336960,1.15242040,0.00000000,0.00000000,0.14345983,2.17000008,0.71751213,0.32752332,0.95211858,0.00000000,0.00000000
-0.34736896,-2.17000008,-0.51196086,-0.25185603,1.16001046,0.00000000,0.00000000,0.13266356,2.16996932,0.72673821,0.31811243,0.93942142,0.00000000,0.00000000
-0.38453397,-2.17000008,-0.52245235,-0.27670604,1.17095423,0.00000000,0.00000000,0.12370738,2.16948366,0.73585820,0.30876181,0.93198436,0.00000000,0.00000000
-0.41733274,-2.17000008,-0.53322011,-0.29782999,1.18268001,0.00000000,0.00000000,0.11601004,2.16771436,0.74475163,0.29997435,0.92439276,0.00000000,0.00000000
-0.44529223,-2.17000008,-0.54406369,-0.31553954,1.19031680,0.00000000,0.00000000,0.10870952,2.16506147,0.75316113,0.29229391,0.91838366,0.00000000,0.00000000
-0.46768495,-2.17000008,-0.55470836,-0.33014023,1.19209182,0.00000000,0.00000000,0.10165708,2.16229367,0.76100361,0.28598940,0.90811670,0.00000000,0.00000000
-0.48323631,-2.17000008,-0.56480116,-0.34163451,1.19459212,0.00000000,0.00000000,0.09514337,2.15944672,0.76835054,0.28111243,0.89997649,0.00000000,0.00000000
-0.49057066,-2.17000008,-0.57398391,-0.34975567,1.20055771,0.00000000,0.00000000,0.08928266,2.15722823,0.77515566,0.27822515,0.89225638,0.00000000,0.00000000
-0.48853454,-2.17000008,-0.58191532,-0.35408133,1.20161498,0.00000000,0.00000000,0.08438412,2.15705323,0.78130084,0.27837276,0.88309598,0.00000000,0.00000000
-0.47589049,-2.17000008,-0.58821529,-0.35400251,1.20316041,0.00000000,0.00000000,0.08028840,2.15878940,0.78677046,0.28120187,0.87524897,0.00000000,0.00000000
-0.45084530,-2.17000008,-0.59238702,-0.34879208,1.19973505,0.00000000,0.00000000,0.07777594,2.16004348,0.79191917,0.28511766,0.86562496,0.00000000,0.00000000
-0.41302276,-2.17000008,-0.59426355,-0.33813664,1.19953918,0.00000000,0.00000000,0.07830971,2.16050696,0.79697132,0.28979975,0.85723400,0.00000000,0.00000000
-0.36737752,-2.17000008,-0.59468424,-0.32352111,1.19704747,0.00000000,0.00000000,0.08249590,2.16066766,0.80202168,0.29512683,0.84872544,0.00000000,0.00000000
-0.32015547,-2.17000008,-0.59476721,-0.30673093,1.19598460,0.00000000,0.00000000,0.09099064,2.15967464,0.80739987,0.30047745,0.83606291,0.00000000,0.00000000
-0.27100742,-2.17000008,-0.59451526,-0.28795883,1.19388223,0.00000000,0.00000000,0.10347126,2.15725803,0.81327415,0.30523679,0.82434034,0.00000000,0.00000000
-0.21705203,-2.17000008,-0.59356499,-0.26709351,1.18374479,0.00000000,0.00000000,0.11845840,2.15427732,0.81949902,0.30909967,0.81636512,0.00000000,0.00000000
-0.15732071,-2.17000008,-0.59185928,-0.24504927,1.17162454,0.00000000,0.00000000,0.13336171,2.15212512,0.82566988,0.31178775,0.81113935,0.00000000,0.00000000
-0.09444869,-2.17000008,-0.58979481,-0.22384271,1.16161871,0.00000000,0.00000000,0.14595640,2.15205288,0.83142847,0.31320462,0.80609208,0.00000000,0.00000000
-0.03670368,-2.16998768,-0.58842397,-0.20657915,1.15163350,0.00000000,0.00000000,0.15766330,2.15426946,0.83703619,0.31429982,0.80186570,0.00000000,0.00000000
0.00969552,-2.16977572,-0.58853185,-0.19505432,1.13887215,0.00000000,0.00000000,0.17053364,2.15681934,0.84314764,0.31550804,0.80350590,0.00000000,0.00000000
0.04622619,-2.16880465,-0.58998978,-0.18901855,1.12406635,0.00000000,0.00000000,0.18264198,2.15688872,0.85003811,0.31579837,0.79864675,0.00000000,0.00000000
0.07713547,-2.16700816,-0.59232181,-0.18766020,1.11298585,0.00000000,0.00000000,0.19135089,2.15464997,0.85745406,0.31533918,0.79239476,0.00000000,0.00000000
0.10431967,-2.16602039,-0.59533721,-0.18983285,1.10697150,0.00000000,0.00000000,0.19594279,2.15097690,0.86520958,0.31493950,0.78262496,0.00000000,0.00000000
0.12593189,-2.16715932,-0.59932613,-0.19392006,1.10043716,0.00000000,0.00000000,0.19672531,2.14745975,0.87307799,0.31570560,0.77447343,0.00000000,0.00000000
0.14033221,-2.16838121,-0.60470587,-0.19750600,1.09449899,0.00000000,0.00000000,0.19393748,2.14609551,0.88071841,0.31855312,0.76179951,0.00000000,0.00000000
0.14628251,-2.16798306,-0.61179709,-0.19954333,1.08574033,0.00000000,0.00000000,0.18718694,2.14723897,0.88788819,0.32313848,0.75300080,0.00000000,0.00000000
0.14324614,-2.16651225,-0.62064642,-0.20055580,1.08090699,0.00000000,0.00000000,0.17431206,2.14987016,0.89426649,0.32734749,0.73844689,0.00000000,0.00000000
0.13033220,-2.16476989,-0.63119185,-0.20166156,1.07329297,0.00000000,0.00000000,0.15548818,2.15297031,0.89981180,0.32974523,0.72930104,0.00000000,0.00000000
0.10603780,-2.16135287,-0.64347249,-0.20368327,1.06156266,0.00000000,0.00000000,0.13693036,2.15732360,0.90503919,0.33259776,0.72233909,0.00000000,0.00000000
0.07064276,-2.15452147,-0.65733224,-0.20731366,1.04494345,0.00000000,0.00000000,0.12163632,2.16188717,0.91047949,0.33673477,0.72077060,0.00000000,0.00000000
0.02600890,-2.14437509,-0.67240649,-0.21341184,1.01914966,0.00000000,0.00000000,0.10946866,2.16359854,0.91665775,0.34103891,0.71836650,0.00000000,0.00000000
-0.02549250,-2.13356161,-0.68821383,-0.22318681,0.98790318,0.00000000,0.00000000,0.09873729,2.16093850,0.92363471,0.34422192,0.71594948,0.00000000,0.00000000
-0.08035386,-2.12483001,-0.70419520,-0.23704901,0.95541823,0.00000000,0.00000000,0.08690333,2.15445757,0.93095607,0.34526521,0.71262449,0.00000000,0.00000000
-0.13482383,-2.11941361,-0.71988386,-0.25444269,0.92641634,0.00000000,0.00000000,0.07217687,2.14568424,0.93801874,0.34380952,0.70718569,0.00000000,0.00000000
-0.18639012,-2.11617208,-0.73514152,-0.27418998,0.90199375,0.00000000,0.00000000,0.05560071,2.13703156,0.94437051,0.34117365,0.70599329,0.00000000,0.00000000
-0.23362744,-2.11302686,-0.75001752,-0.29507774,0.87911165,0.00000000,0.00000000,0.04028579,2.13044524,0.94990075,0.33951262,0.70621371,0.00000000,0.00000000
-0.27468354,-2.10878587,-0.76439673,-0.31598997,0.85185283,0.00000000,0.00000000,0.02731976,2.12653494,0.95454377,0.33956671,0.70354974,0.00000000,0.00000000
-0.30867919,-2.10299635,-0.77819574,-0.33635786,0.82701391,0.00000000,0.00000000,0.01598695,2.12524199,0.95817316,0.34099942,0.70351708,0.00000000,0.00000000
-0.33648470,-2.09537268,-0.79153097,-0.35618499,0.80040574,0.00000000,0.00000000,0.00569087,2.12592888,0.96072900,0.34321478,0.70514554,0.00000000,0.00000000
-0.35950527,-2.08577561,-0.80455869,-0.37551990,0.77109200,0.00000000,0.00000000,-0.00322009,2.12735939,0.96230191,0.34558082,0.70427507,0.00000000,0.00000000
-0.37840629,-2.07440305,-0.81726992,-0.39408654,0.74320531,0.00000000,0.00000000,-0.00957342,2.12848234,0.96307462,0.34773463,0.70408553,0.00000000,0.00000000
-0.39285132,-2.06208563,-0.82939917,-0.41146865,0.71789944,0.00000000,0.00000000,-0.01217610,2.12919760,0.96312916,0.34987491,0.70570463,0.00000000,0.00000000
-0.40226758,-2.05003238,-0.84056336,-0.42748779,0.69379485,0.00000000,0.00000000,-0.01051283,2.13023162,0.96230942,0.35263368,0.71368814,0.00000000,0.00000000
-0.40626502,-2.03898311,-0.85047358,-0.44206032,0.66999078,0.00000000,0.00000000,-0.00483854,2.13179851,0.96040630,0.35629293,0.72340584,0.00000000,0.00000000
-0.40511519,-2.02858472,-0.85919613,-0.45511913,0.64215040,0.00000000,0.00000000,0.00391053,2.13277006,0.95736825,0.36015460,0.72718906,0.00000000,0.00000000
-0.40012294,-2.01738310,-0.86729085,-0.46672708,0.61619902,0.00000000,0.00000000,0.01430725,2.13126922,0.95325524,0.36285362,0.72425830,0.00000000,0.00000000
-0.39283568,-2.00394559,-0.87543404,-0.47707716,0.59731871,0.00000000,0.00000000,0.02510908,2.12573528,0.94812328,0.36332226,0.72825170,0.00000000,0.00000000
-0.38344938,-1.98791301,-0.88382047,-0.48609635,0.57676393,0.00000000,0.00000000,0.03573498,2.11547208,0.94198501,0.36136603,0.73381734,0.00000000,0.00000000
-0.36987674,-1.97018659,-0.89186710,-0.49304882,0.55751109,0.00000000,0.00000000,0.04591017,2.10062242,0.93481380,0.35751891,0.73741537,0.00000000,0.00000000
-0.34817564,-1.95248401,-0.89838177,-0.49655682,0.54141217,0.00000000,0.00000000,0.05510929,2.08210087,0.92657143,0.35285628,0.74300015,0.00000000,0.00000000
-0.31426248,-1.93649256,-0.90213740,-0.49515927,0.52470893,0.00000000,0.00000000,0.06250442,2.06169534,0.91725487,0.34897113,0.74748462,0.00000000,0.00000000
-0.26662910,-1.92321944,-0.90259528,-0.48860520,0.50668961,0.00000000,0.00000000,0.06728314,2.04183793,0.90689081,0.34757337,0.75399673,0.00000000,0.00000000
-0.20838170,-1.91279173,-0.90033191,-0.47889200,0.48833373,0.00000000,0.00000000,0.06895588,2.02484274,0.89548779,0.34994394,0.76242471,0.00000000,0.00000000
-0.14662084,-1.90466821,-0.89683402,-0.46974829,0.47155067,0.00000000,0.00000000,0.06774132,2.01198149,0.88313138,0.35687923,0.77829665,0.00000000,0.00000000
-0.08880334,-1.89874065,-0.89355439,-0.46497571,0.45667490,0.00000000,0.00000000,0.06473618,2.00265574,0.87014616,0.36880073,0.79197758,0.00000000,0.00000000
-0.03946948,-1.89514303,-0.89131582,-0.46680185,0.44486102,0.00000000,0.00000000,0.06124601,1.99475241,0.85703999,0.38561541,0.80803037,0.00000000,0.00000000
-0.00044699,-1.89388609,-0.89036518,-0.47459945,0.43118486,0.00000000,0.00000000,0.05856117,1.98878551,0.84423035,0.40622506,0.82188141,0.00000000,0.00000000
0.02762278,-1.89585042,-0.89041650,-0.48485708,0.42180356,0.00000000,0.00000000,0.05829915,1.98984087,0.83189917,0.42804074,0.83161986,0.00000000,0.00000000
0.04341218,-1.89870560,-0.89193785,-0.49520937,0.41564089,0.00000000,0.00000000,0.06088671,1.99769211,0.82020444,0.44840267,0.83527422,0.00000000,0.00000000
0.04672145,-1.90145981,-0.89497691,-0.50469911,0.41514900,0.00000000,0.00000000,0.06640762,2.00984645,0.80926687,0.46558374,0.84333634,0.00000000,0.00000000
0.03828766,-1.90488923,-0.89918315,-0.51281393,0.41685456,0.00000000,0.00000000,0.07493557,2.02467203,0.79918200,0.47856215,0.84665531,0.00000000,0.00000000
0.01998747,-1.91087568,-0.90389812,-0.51933533,0.41455615,0.00000000,0.00000000,0.08591058,2.04130650,0.79003060,0.48675138,0.85222936,0.00000000,0.00000000
-0.00563956,-1.92186594,-0.90825582,-0.52461588,0.40885481,0.00000000,0.00000000,0.09780384,2.05960417,0.78183311,0.49013230,0.85468924,0.00000000,0.00000000
-0.03472273,-1.93970656,-0.91113615,-0.52904779,0.40208003,0.00000000,0.00000000,0.10845692,2.07982373,0.77453274,0.48922920,0.85943705,0.00000000,0.00000000
-0.06132303,-1.96475542,-0.91117805,-0.53316015,0.39138937,0.00000000,0.00000000,0.11557262,2.10105586,0.76816314,0.48416176,0.86834878,0.00000000,0.00000000
