isaac-sim2real/sage/motion_files/wr75s/amass/0-Eyes_Japan_Dataset_kudo_walk-02-drank-kudo_poses_idx60.txt
l_joint1,l_joint2,l_joint3,l_joint4,l_joint5,l_joint6,l_joint7,r_joint1,r_joint2,r_joint3,r_joint4,r_joint5,r_joint6,r_joint7
-0.43986475,-1.21824241,0.15910113,0.59088939,0.11838885,0.00000000,0.00000000,-1.81771278,0.68029290,-0.38514331,0.34720749,0.12680550,0.00000000,0.00000000
-0.43944788,-1.21717608,0.15951495,0.59056997,0.13160063,0.00000000,0.00000000,-1.81761849,0.68085748,-0.38501057,0.34748486,0.13622665,0.00000000,0.00000000
-0.43882653,-1.21519327,0.16022934,0.59000957,0.14539994,0.00000000,0.00000000,-1.81747711,0.68170244,-0.38481560,0.34796348,0.14282835,0.00000000,0.00000000
-0.43824309,-1.21259010,0.16111422,0.58926117,0.15939677,0.00000000,0.00000000,-1.81734300,0.68243217,-0.38463241,0.34855375,0.15219508,0.00000000,0.00000000
-0.43787935,-1.20958889,0.16204178,0.58833784,0.17425106,0.00000000,0.00000000,-1.81725323,0.68282986,-0.38451892,0.34924045,0.15909697,0.00000000,0.00000000
-0.43784514,-1.20624089,0.16289474,0.58723527,0.18876253,0.00000000,0.00000000,-1.81721556,0.68296009,-0.38450396,0.35007805,0.16461417,0.00000000,0.00000000
-0.43823469,-1.20287716,0.16351090,0.58600307,0.19846022,0.00000000,0.00000000,-1.81722379,0.68275964,-0.38458794,0.35097271,0.16657946,0.00000000,0.00000000
-0.43909636,-1.20030451,0.16369773,0.58478868,0.20766671,0.00000000,0.00000000,-1.81727266,0.68185693,-0.38475397,0.35163188,0.16858771,0.00000000,0.00000000
-0.44046354,-1.19902575,0.16338778,0.58374232,0.21889287,0.00000000,0.00000000,-1.81733549,0.68017244,-0.38497725,0.35192814,0.17325331,0.00000000,0.00000000
-0.44219398,-1.19889879,0.16269262,0.58297926,0.23400256,0.00000000,0.00000000,-1.81735206,0.67802399,-0.38521293,0.35193145,0.17843829,0.00000000,0.00000000
-0.44396633,-1.19958687,0.16185571,0.58258861,0.25036526,0.00000000,0.00000000,-1.81723475,0.67591882,-0.38538712,0.35179037,0.18128975,0.00000000,0.00000000
-0.44548449,-1.20097506,0.16113387,0.58262557,0.27236661,0.00000000,0.00000000,-1.81690466,0.67422175,-0.38543165,0.35161757,0.18546425,0.00000000,0.00000000
-0.44665524,-1.20286906,0.16070165,0.58308768,0.29695302,0.00000000,0.00000000,-1.81632280,0.67308033,-0.38533932,0.35150692,0.19282651,0.00000000,0.00000000
-0.44766805,-1.20489168,0.16056946,0.58388382,0.32259896,0.00000000,0.00000000,-1.81551719,0.67231059,-0.38521400,0.35148323,0.20111400,0.00000000,0.00000000
-0.44879708,-1.20668566,0.16066454,0.58490974,0.34744978,0.00000000,0.00000000,-1.81453598,0.67163271,-0.38518751,0.35150963,0.21213435,0.00000000,0.00000000
-0.45018017,-1.20815873,0.16094488,0.58612788,0.37252417,0.00000000,0.00000000,-1.81339705,0.67089748,-0.38532436,0.35152519,0.22152472,0.00000000,0.00000000
-0.45179093,-1.20929146,0.16141723,0.58754492,0.40095651,0.00000000,0.00000000,-1.81208742,0.67010748,-0.38562718,0.35148475,0.23213464,0.00000000,0.00000000
-0.45355001,-1.20987785,0.16210973,0.58913064,0.42499450,0.00000000,0.00000000,-1.81058395,0.66936064,-0.38607740,0.35137019,0.24039182,0.00000000,0.00000000
-0.45541382,-1.20976484,0.16302948,0.59080392,0.44864234,0.00000000,0.00000000,-1.80886936,0.66866636,-0.38666102,0.35112193,0.25054887,0.00000000,0.00000000
-0.45734131,-1.20907331,0.16415407,0.59251529,0.47345623,0.00000000,0.00000000,-1.80692005,0.66797465,-0.38734663,0.35063690,0.26294962,0.00000000,0.00000000
-0.45925257,-1.20808673,0.16543567,0.59427130,0.49651366,0.00000000,0.00000000,-1.80469775,0.66727543,-0.38807535,0.34982759,0.27043957,0.00000000,0.00000000
-0.46108145,-1.20714509,0.16679122,0.59607339,0.52216077,0.00000000,0.00000000,-1.80215931,0.66660464,-0.38878709,0.34866092,0.27168107,0.00000000,0.00000000
-0.46282649,-1.20641613,0.16812447,0.59788406,0.54877454,0.00000000,0.00000000,-1.79927647,0.66603529,-0.38946795,0.34718695,0.27375734,0.00000000,0.00000000
-0.46450618,-1.20582461,0.16937737,0.59966546,0.57778853,0.00000000,0.00000000,-1.79603183,0.66571337,-0.39014167,0.34552813,0.27857271,0.00000000,0.00000000
-0.46608976,-1.20518732,0.17054847,0.60141844,0.60112071,0.00000000,0.00000000,-1.79240847,0.66585541,-0.39083189,0.34383357,0.28208512,0.00000000,0.00000000
-0.46752536,-1.20435166,0.17166774,0.60315925,0.62246239,0.00000000,0.00000000,-1.78839898,0.66661644,-0.39156321,0.34220400,0.28968170,0.00000000,0.00000000
-0.46880609,-1.20327604,0.17276974,0.60486358,0.64201152,0.00000000,0.00000000,-1.78401971,0.66795957,-0.39238301,0.34063768,0.30031589,0.00000000,0.00000000
-0.46995562,-1.20205057,0.17388815,0.60646236,0.66163963,0.00000000,0.00000000,-1.77930582,0.66969395,-0.39335570,0.33905581,0.31024045,0.00000000,0.00000000
-0.47096816,-1.20084524,0.17505705,0.60788751,0.68668574,0.00000000,0.00000000,-1.77429116,0.67162740,-0.39453578,0.33738038,0.32032949,0.00000000,0.00000000
-0.47180766,-1.19984388,0.17630558,0.60908276,0.71008044,0.00000000,0.00000000,-1.76900291,0.67362034,-0.39596167,0.33556780,0.32674581,0.00000000,0.00000000
-0.47244337,-1.19910145,0.17764063,0.61000311,0.73379546,0.00000000,0.00000000,-1.76346362,0.67564684,-0.39766884,0.33364594,0.33219188,0.00000000,0.00000000
-0.47286415,-1.19858885,0.17904988,0.61060196,0.75945187,0.00000000,0.00000000,-1.75769067,0.67774659,-0.39969316,0.33168033,0.33825853,0.00000000,0.00000000
-0.47305587,-1.19830787,0.18051392,0.61085373,0.78317034,0.00000000,0.00000000,-1.75169122,0.67996079,-0.40205553,0.32972741,0.34856090,0.00000000,0.00000000
-0.47300017,-1.19831526,0.18200536,0.61078209,0.80853426,0.00000000,0.00000000,-1.74546278,0.68229425,-0.40475529,0.32781735,0.35876703,0.00000000,0.00000000
-0.47271436,-1.19865119,0.18348223,0.61044264,0.82341534,0.00000000,0.00000000,-1.73900282,0.68469459,-0.40778950,0.32596886,0.36572140,0.00000000,0.00000000
-0.47227177,-1.19925785,0.18489493,0.60988021,0.83491015,0.00000000,0.00000000,-1.73231876,0.68708616,-0.41117445,0.32423171,0.37083745,0.00000000,0.00000000
-0.47176921,-1.19996417,0.18621249,0.60911858,0.84565550,0.00000000,0.00000000,-1.72542429,0.68942446,-0.41494733,0.32270998,0.37909350,0.00000000,0.00000000
-0.47128540,-1.20054114,0.18744212,0.60818166,0.85568953,0.00000000,0.00000000,-1.71833456,0.69168878,-0.41915128,0.32152584,0.39010742,0.00000000,0.00000000
-0.47087100,-1.20080197,0.18862009,0.60710591,0.86425054,0.00000000,0.00000000,-1.71105683,0.69382143,-0.42381248,0.32075155,0.40261894,0.00000000,0.00000000
-0.47055864,-1.20068192,0.18978284,0.60592389,0.87553167,0.00000000,0.00000000,-1.70357943,0.69570315,-0.42892003,0.32037544,0.41647443,0.00000000,0.00000000
-0.47036925,-1.20022297,0.19094442,0.60464728,0.89750659,0.00000000,0.00000000,-1.69586611,0.69720107,-0.43442059,0.32032326,0.43261278,0.00000000,0.00000000
-0.47030479,-1.19947529,0.19209324,0.60327113,0.92320973,0.00000000,0.00000000,-1.68785632,0.69823962,-0.44022885,0.32049185,0.45141396,0.00000000,0.00000000
-0.47033325,-1.19845188,0.19320412,0.60179079,0.94605350,0.00000000,0.00000000,-1.67946935,0.69882149,-0.44623515,0.32076216,0.46859136,0.00000000,0.00000000
-0.47037768,-1.19721353,0.19425081,0.60021228,0.96516836,0.00000000,0.00000000,-1.67060077,0.69899678,-0.45230171,0.32100493,0.48412541,0.00000000,0.00000000
-0.47034049,-1.19595623,0.19520603,0.59855247,0.97995871,0.00000000,0.00000000,-1.66112852,0.69880879,-0.45826867,0.32109809,0.50506753,0.00000000,0.00000000
-0.47016314,-1.19494128,0.19603018,0.59683001,0.98774308,0.00000000,0.00000000,-1.65092838,0.69825053,-0.46398330,0.32093966,0.52914667,0.00000000,0.00000000
-0.46986026,-1.19433355,0.19666635,0.59505826,0.99264938,0.00000000,0.00000000,-1.63988960,0.69726986,-0.46932706,0.32044441,0.54989600,0.00000000,0.00000000
-0.46947539,-1.19414496,0.19705790,0.59324771,0.99680680,0.00000000,0.00000000,-1.62791145,0.69582748,-0.47421062,0.31954247,0.57002765,0.00000000,0.00000000
-0.46900213,-1.19433188,0.19718018,0.59141040,1.00082612,0.00000000,0.00000000,-1.61489022,0.69394726,-0.47855127,0.31818426,0.58925796,0.00000000,0.00000000
-0.46834287,-1.19484901,0.19705197,0.58956856,1.00396228,0.00000000,0.00000000,-1.60071445,0.69176972,-0.48226279,0.31635821,0.61182839,0.00000000,0.00000000
-0.46732092,-1.19550538,0.19670853,0.58777279,1.00269079,0.00000000,0.00000000,-1.58526194,0.68967223,-0.48525906,0.31414813,0.63447869,0.00000000,0.00000000
-0.46580651,-1.19603407,0.19617210,0.58604884,1.00633121,0.00000000,0.00000000,-1.56842518,0.68798232,-0.48747614,0.31161085,0.65569168,0.00000000,0.00000000
-0.46374384,-1.19624519,0.19544938,0.58438963,1.00697529,0.00000000,0.00000000,-1.55011404,0.68683124,-0.48885939,0.30870968,0.67300189,0.00000000,0.00000000
-0.46110544,-1.19609869,0.19454199,0.58278286,0.99960750,0.00000000,0.00000000,-1.53024387,0.68622172,-0.48933935,0.30533826,0.68741578,0.00000000,0.00000000
-0.45787540,-1.19562972,0.19344376,0.58124292,0.99593204,0.00000000,0.00000000,-1.50872862,0.68614370,-0.48882809,0.30137220,0.70509422,0.00000000,0.00000000
-0.45410323,-1.19487572,0.19211642,0.57981610,0.99040186,0.00000000,0.00000000,-1.48549104,0.68652576,-0.48723626,0.29666802,0.72742516,0.00000000,0.00000000
-0.44992575,-1.19380665,0.19049403,0.57853270,0.98097730,0.00000000,0.00000000,-1.46046627,0.68716878,-0.48448160,0.29105192,0.74888062,0.00000000,0.00000000
-0.44544518,-1.19238782,0.18857427,0.57735568,0.96570152,0.00000000,0.00000000,-1.43357837,0.68800759,-0.48044786,0.28438514,0.76528960,0.00000000,0.00000000
-0.44066259,-1.19044209,0.18642949,0.57623810,0.94725442,0.00000000,0.00000000,-1.40473866,0.68913680,-0.47498414,0.27653992,0.78361207,0.00000000,0.00000000
-0.43535674,-1.18765938,0.18415193,0.57517058,0.92751569,0.00000000,0.00000000,-1.37385368,0.69075114,-0.46791017,0.26736066,0.79957485,0.00000000,0.00000000
-0.42918137,-1.18465590,0.18178038,0.57414418,0.90761399,0.00000000,0.00000000,-1.34084129,0.69297969,-0.45903736,0.25662461,0.81465131,0.00000000,0.00000000
-0.42219141,-1.18202984,0.17930461,0.57320684,0.88671923,0.00000000,0.00000000,-1.30563533,0.69581813,-0.44817102,0.24403222,0.83001459,0.00000000,0.00000000
-0.41494113,-1.18009853,0.17672323,0.57243967,0.86108571,0.00000000,0.00000000,-1.26819265,0.69928110,-0.43513894,0.22932833,0.84932822,0.00000000,0.00000000
-0.40775090,-1.17890871,0.17404945,0.57187212,0.83570814,0.00000000,0.00000000,-1.22850597,0.70341319,-0.41983479,0.21235853,0.87307936,0.00000000,0.00000000
-0.40053803,-1.17818785,0.17130877,0.57152581,0.81140077,0.00000000,0.00000000,-1.18661034,0.70826066,-0.40222961,0.19306916,0.90098691,0.00000000,0.00000000
-0.39318237,-1.17775989,0.16855282,0.57144743,0.78566086,0.00000000,0.00000000,-1.14257884,0.71397698,-0.38237303,0.17154202,0.92901486,0.00000000,0.00000000
-0.38570884,-1.17772126,0.16584648,0.57168877,0.76103091,0.00000000,0.00000000,-1.09651816,0.72080398,-0.36038122,0.14793105,0.95799750,0.00000000,0.00000000
-0.37823111,-1.17804527,0.16324830,0.57227719,0.73792583,0.00000000,0.00000000,-1.04856896,0.72893322,-0.33642638,0.12237174,0.98580641,0.00000000,0.00000000
-0.37084129,-1.17849720,0.16082509,0.57319409,0.72356874,0.00000000,0.00000000,-0.99890167,0.73844659,-0.31072927,0.09496639,1.01822305,0.00000000,0.00000000
-0.36358777,-1.17891860,0.15866657,0.57443964,0.71129090,0.00000000,0.00000000,-0.94771087,0.74929696,-0.28355154,0.06581811,1.04450476,0.00000000,0.00000000
-0.35651985,-1.17933273,0.15687485,0.57607782,0.69509685,0.00000000,0.00000000,-0.89521313,0.76133168,-0.25519338,0.03504859,1.07348311,0.00000000,0.00000000
-0.34965533,-1.17986166,0.15556605,0.57820106,0.67979658,0.00000000,0.00000000,-0.84164333,0.77441728,-0.22599217,0.00282950,1.09382999,0.00000000,0.00000000
-0.34296942,-1.18058372,0.15487678,0.58088517,0.66205472,0.00000000,0.00000000,-0.78725302,0.78849173,-0.19631954,-0.03062074,1.11487031,0.00000000,0.00000000
-0.33647999,-1.18148220,0.15494433,0.58419997,0.64445329,0.00000000,0.00000000,-0.73230875,0.80338573,-0.16657612,-0.06512489,1.13302886,0.00000000,0.00000000
-0.33022296,-1.18267524,0.15586407,0.58829218,0.61800909,0.00000000,0.00000000,-0.67709094,0.81887567,-0.13718757,-0.10054571,1.15268743,0.00000000,0.00000000
-0.32419214,-1.18450916,0.15769881,0.59336203,0.58985913,0.00000000,0.00000000,-0.62189370,0.83482254,-0.10860076,-0.13673875,1.16668677,0.00000000,0.00000000
-0.31831086,-1.18737864,0.16053095,0.59954447,0.56703293,0.00000000,0.00000000,-0.56702232,0.85124171,-0.08127643,-0.17353255,1.18225551,0.00000000,0.00000000
-0.31242439,-1.19159567,0.16449071,0.60684615,0.54564983,0.00000000,0.00000000,-0.51278675,0.86833763,-0.05567738,-0.21071854,1.20044398,0.00000000,0.00000000
-0.30631113,-1.19747365,0.16972825,0.61515141,0.52518851,0.00000000,0.00000000,-0.45949200,0.88653219,-0.03225515,-0.24802522,1.21682322,0.00000000,0.00000000
-0.29972222,-1.20548069,0.17636517,0.62419772,0.50386685,0.00000000,0.00000000,-0.40742484,0.90644747,-0.01143375,-0.28509054,1.22987628,0.00000000,0.00000000
-0.29241365,-1.21630502,0.18447413,0.63351530,0.48198432,0.00000000,0.00000000,-0.35683835,0.92884195,0.00641272,-0.32146034,1.24510026,0.00000000,0.00000000
-0.28415334,-1.23086059,0.19407107,0.64239901,0.45920762,0.00000000,0.00000000,-0.30793646,0.95456529,0.02098981,-0.35660949,1.26307201,0.00000000,0.00000000
-0.27474847,-1.25030327,0.20505811,0.64991152,0.43507764,0.00000000,0.00000000,-0.26086342,0.98456711,0.03211605,-0.38994938,1.27889431,0.00000000,0.00000000
-0.26413473,-1.27606893,0.21707900,0.65486455,0.41370967,0.00000000,0.00000000,-0.21570826,1.01994205,0.03975096,-0.42079040,1.29175663,0.00000000,0.00000000
-0.25251979,-1.30979776,0.22932464,0.65578550,0.39223677,0.00000000,0.00000000,-0.17253263,1.06194854,0.04400768,-0.44829398,1.30543387,0.00000000,0.00000000
-0.24047436,-1.35286808,0.24046078,0.65101588,0.37221673,0.00000000,0.00000000,-0.13142489,1.11191356,0.04515115,-0.47149968,1.32442904,0.00000000,0.00000000
-0.22872043,-1.40561342,0.24892843,0.63906801,0.35654947,0.00000000,0.00000000,-0.09258481,1.17102635,0.04360977,-0.48941392,1.34366465,0.00000000,0.00000000
-0.21762726,-1.46700239,0.25348017,0.61904287,0.34756505,0.00000000,0.00000000,-0.05639581,1.24001372,0.04002661,-0.50100797,1.36380148,0.00000000,0.00000000
-0.20711617,-1.53501606,0.25351700,0.59076619,0.33558452,0.00000000,0.00000000,-0.02322391,1.31821620,0.03546117,-0.50508666,1.38378835,0.00000000,0.00000000
-0.19711876,-1.60737216,0.24916348,0.55461961,0.31875229,0.00000000,0.00000000,0.00712409,1.40256333,0.03162058,-0.50055486,1.40390408,0.00000000,0.00000000
-0.18766369,-1.68230045,0.24091563,0.51127923,0.30438352,0.00000000,0.00000000,0.03524319,1.48927557,0.03022682,-0.48742351,1.42369699,0.00000000,0.00000000
-0.17868270,-1.75823963,0.22925732,0.46172324,0.29392296,0.00000000,0.00000000,0.06108691,1.57623923,0.03232927,-0.46676749,1.44656897,0.00000000,0.00000000
-0.16992292,-1.83325946,0.21458580,0.40730703,0.28672725,0.00000000,0.00000000,0.08406432,1.66183364,0.03823785,-0.44006339,1.46672976,0.00000000,0.00000000
-0.16110769,-1.90489686,0.19732475,0.34970343,0.27650878,0.00000000,0.00000000,0.10360815,1.74427795,0.04768718,-0.40868014,1.48584664,0.00000000,0.00000000
-0.15233320,-1.97062683,0.17804861,0.29058641,0.26773989,0.00000000,0.00000000,0.11948875,1.82190752,0.06005669,-0.37365404,1.50682497,0.00000000,0.00000000
-0.14423449,-2.02848577,0.15743679,0.23125361,0.26183832,0.00000000,0.00000000,0.13201629,1.89360857,0.07458842,-0.33559304,1.52800596,0.00000000,0.00000000
-0.13772085,-2.07736301,0.13611735,0.17244154,0.25927305,0.00000000,0.00000000,0.14192507,1.95889592,0.09057908,-0.29476559,1.54835153,0.00000000,0.00000000
-0.13346423,-2.11676502,0.11455119,0.11446688,0.25620615,0.00000000,0.00000000,0.14998715,2.01749635,0.10749201,-0.25139213,1.56325376,0.00000000,0.00000000
-0.13153061,-2.14604139,0.09302890,0.05770813,0.25967556,0.00000000,0.00000000,0.15672435,2.06892109,0.12495840,-0.20589343,1.57436574,0.00000000,0.00000000
-0.13152045,-2.16347313,0.07175341,0.00324580,0.25802892,0.00000000,0.00000000,0.16248211,2.11205482,0.14269878,-0.15910333,1.58189058,0.00000000,0.00000000
-0.13297905,-2.16918373,0.05090909,-0.04674340,0.25382081,0.00000000,0.00000000,0.16761695,2.14473271,0.16046217,-0.11247944,1.58284140,0.00000000,0.00000000
-0.13563120,-2.16996527,0.03066973,-0.08942349,0.24445619,0.00000000,0.00000000,0.17255065,2.16377330,0.17802727,-0.06812389,1.58697832,0.00000000,0.00000000
-0.13932365,-2.17000008,0.01117397,-0.12231105,0.23314230,0.00000000,0.00000000,0.17773521,2.16938949,0.19523206,-0.02851502,1.59140491,0.00000000,0.00000000
-0.14399725,-2.17000008,-0.00749330,-0.14383845,0.22498402,0.00000000,0.00000000,0.18357541,2.16998053,0.21198946,0.00405399,1.59915030,0.00000000,0.00000000
-0.14974020,-2.17000008,-0.02530244,-0.15347579,0.21993667,0.00000000,0.00000000,0.19028968,2.17000008,0.22827257,0.02822636,1.60376561,0.00000000,0.00000000
-0.15674184,-2.17000008,-0.04226011,-0.15164994,0.21558172,0.00000000,0.00000000,0.19784594,2.17000008,0.24407676,0.04377925,1.61021888,0.00000000,0.00000000
-0.16508657,-2.17000008,-0.05837590,-0.13966849,0.21335027,0.00000000,0.00000000,0.20592088,2.17000008,0.25938833,0.05142577,1.61621082,0.00000000,0.00000000
-0.17463136,-2.17000008,-0.07364639,-0.11965209,0.20758754,0.00000000,0.00000000,0.21394224,2.17000008,0.27417445,0.05261406,1.62475002,0.00000000,0.00000000
-0.18511006,-2.16993141,-0.08807088,-0.09435135,0.20331901,0.00000000,0.00000000,0.22128531,2.17000008,0.28839317,0.04934929,1.63240743,0.00000000,0.00000000
-0.19625384,-2.16885448,-0.10167287,-0.06679060,0.19597009,0.00000000,0.00000000,0.22744675,2.17000008,0.30201039,0.04392022,1.64151788,0.00000000,0.00000000
-0.20776729,-2.16507745,-0.11450916,-0.03972478,0.18388872,0.00000000,0.00000000,0.23206134,2.17000008,0.31501061,0.03843071,1.65074372,0.00000000,0.00000000
-0.21927971,-2.15976357,-0.12666979,-0.01514369,0.16825083,0.00000000,0.00000000,0.23480307,2.17000008,0.32739636,0.03433508,1.65951073,0.00000000,0.00000000
-0.23041177,-2.15495563,-0.13826914,0.00579669,0.15224601,0.00000000,0.00000000,0.23532122,2.17000008,0.33917931,0.03233027,1.66724873,0.00000000,0.00000000
-0.24090901,-2.15182948,-0.14942972,0.02259713,0.13897073,0.00000000,0.00000000,0.23326913,2.17000008,0.35037166,0.03256696,1.67150140,0.00000000,0.00000000
-0.25069058,-2.15081882,-0.16026470,0.03519082,0.12721153,0.00000000,0.00000000,0.22837801,2.17000008,0.36098033,0.03495120,1.67603731,0.00000000,0.00000000
-0.25979525,-2.15194869,-0.17086695,0.04373329,0.11639690,0.00000000,0.00000000,0.22049855,2.17000008,0.37100434,0.03936505,1.67855644,0.00000000,0.00000000
-0.26833680,-2.15497732,-0.18130422,0.04852234,0.10483564,0.00000000,0.00000000,0.20957614,2.17000008,0.38043454,0.04571882,1.67996836,0.00000000,0.00000000
-0.27653739,-2.15928173,-0.19161649,0.05009465,0.08849093,0.00000000,0.00000000,0.19560765,2.17000008,0.38925490,0.05387397,1.68399453,0.00000000,0.00000000
-0.28480405,-2.16372013,-0.20181532,0.04934123,0.07301387,0.00000000,0.00000000,0.17869499,2.17000008,0.39744991,0.06355946,1.68840325,0.00000000,0.00000000
-0.29374862,-2.16679549,-0.21188952,0.04739837,0.05560252,0.00000000,0.00000000,0.15916617,2.17000008,0.40501705,0.07435045,1.68996370,0.00000000,0.00000000
-0.30404824,-2.16726017,-0.22181965,0.04523511,0.03938176,0.00000000,0.00000000,0.13758919,2.17000008,0.41197944,0.08566466,1.69559205,0.00000000,0.00000000
-0.31611550,-2.16481805,-0.23159651,0.04319465,0.02453796,0.00000000,0.00000000,0.11460685,2.17000008,0.41838941,0.09668432,1.69942367,0.00000000,0.00000000
-0.32987669,-2.16039228,-0.24123017,0.04083489,0.00943828,0.00000000,0.00000000,0.09070816,2.17000008,0.42431939,0.10629979,1.70237243,0.00000000,0.00000000
-0.34499416,-2.15581489,-0.25074053,0.03711379,-0.00419518,0.00000000,0.00000000,0.06631121,2.17000008,0.42985001,0.11341038,1.70026314,0.00000000,0.00000000
-0.36089626,-2.15293503,-0.26014414,0.03095022,-0.01900883,0.00000000,0.00000000,0.04204236,2.17000008,0.43505886,0.11748149,1.69893837,0.00000000,0.00000000
-0.37550661,-2.15329695,-0.26946422,0.02163127,-0.02944024,0.00000000,0.00000000,0.01870417,2.17000008,0.44003236,0.11831275,1.69659650,0.00000000,0.00000000
-0.38670611,-2.15788436,-0.27870193,0.00874400,-0.03996909,0.00000000,0.00000000,-0.00188812,2.17000008,0.44494200,0.11575282,1.69500005,0.00000000,0.00000000
-0.39614934,-2.16365933,-0.28778699,-0.00645264,-0.04408669,0.00000000,0.00000000,-0.01731713,2.17000008,0.44996363,0.11041915,1.69176912,0.00000000,0.00000000
-0.40630299,-2.16743183,-0.29665649,-0.02282428,-0.04706044,0.00000000,0.00000000,-0.02745059,2.17000008,0.45513612,0.10219254,1.68670785,0.00000000,0.00000000
-0.41953474,-2.16942096,-0.30528733,-0.04084615,-0.04894985,0.00000000,0.00000000,-0.03316173,2.17000008,0.46043763,0.09060727,1.68009949,0.00000000,0.00000000
-0.43492034,-2.16996574,-0.31366214,-0.05904966,-0.05244436,0.00000000,0.00000000,-0.03505056,2.17000008,0.46584609,0.07542831,1.66739190,0.00000000,0.00000000
-0.45100909,-2.17000008,-0.32175359,-0.07592636,-0.05690965,0.00000000,0.00000000,-0.03345416,2.17000008,0.47132972,0.05678419,1.65287125,0.00000000,0.00000000
-0.46691188,-2.17000008,-0.32951021,-0.09096280,-0.06887957,0.00000000,0.00000000,-0.02851860,2.16997838,0.47684014,0.03542126,1.65006864,0.00000000,0.00000000
-0.48173755,-2.17000008,-0.33683002,-0.10444757,-0.07211789,0.00000000,0.00000000,-0.02015461,2.16957784,0.48232856,0.01293813,1.65078020,0.00000000,0.00000000
-0.49365345,-2.17000008,-0.34351620,-0.11664437,-0.07315183,0.00000000,0.00000000,-0.00799565,2.16739225,0.48777232,-0.00841641,1.65453219,0.00000000,0.00000000
-0.49962258,-2.17000008,-0.34934637,-0.12544844,-0.06947254,0.00000000,0.00000000,0.00854968,2.16189170,0.49318713,-0.02660964,1.66020191,0.00000000,0.00000000
-0.49932623,-2.17000008,-0.35433176,-0.12801503,-0.06554057,0.00000000,0.00000000,0.02996940,2.15351725,0.49861234,-0.04063716,1.66534412,0.00000000,0.00000000
-0.49404758,-2.17000008,-0.35854638,-0.12444218,-0.06328604,0.00000000,0.00000000,0.05638421,2.14332938,0.50410366,-0.05016300,1.67228079,0.00000000,0.00000000
-0.48697895,-2.17000008,-0.36219120,-0.11662324,-0.06152017,0.00000000,0.00000000,0.08744985,2.13310504,0.50974190,-0.05471312,1.67786312,0.00000000,0.00000000
-0.47819790,-2.17000008,-0.36530146,-0.10537758,-0.06178233,0.00000000,0.00000000,0.12233976,2.12455702,0.51561439,-0.05398208,1.68317163,0.00000000,0.00000000
-0.46625131,-2.16999888,-0.36785173,-0.09105100,-0.05515941,0.00000000,0.00000000,0.15965761,2.11830282,0.52178729,-0.04835227,1.69035339,0.00000000,0.00000000
-0.45072296,-2.16992378,-0.36991262,-0.07428631,-0.04582209,0.00000000,0.00000000,0.19735645,2.11394739,0.52829605,-0.03891233,1.69670630,0.00000000,0.00000000
-0.43141806,-2.16895080,-0.37158480,-0.05605133,-0.03622797,0.00000000,0.00000000,0.23307677,2.11081862,0.53513891,-0.02704688,1.70317841,0.00000000,0.00000000
-0.40797180,-2.16574907,-0.37296596,-0.03760999,-0.02192612,0.00000000,0.00000000,0.26464757,2.10845852,0.54227120,-0.01405918,1.71207082,0.00000000,0.00000000
-0.38220879,-2.16166782,-0.37420613,-0.02076260,-0.00460496,0.00000000,0.00000000,0.29058814,2.10665250,0.54960817,-0.00096720,1.71820831,0.00000000,0.00000000
-0.35876736,-2.15907574,-0.37546659,-0.00808338,0.01248235,0.00000000,0.00000000,0.31024960,2.10541582,0.55704159,0.01161080,1.72730076,0.00000000,0.00000000
-0.34073108,-2.15952158,-0.37683091,-0.00147334,0.03261555,0.00000000,0.00000000,0.32299048,2.10493326,0.56445563,0.02327377,1.73673189,0.00000000,0.00000000
-0.32857537,-2.16226697,-0.37832910,-0.00093981,0.05571944,0.00000000,0.00000000,0.32780367,2.10558748,0.57173121,0.03377348,1.74987173,0.00000000,0.00000000
-0.32176968,-2.16528559,-0.37997580,-0.00543645,0.07559640,0.00000000,0.00000000,0.32398388,2.10803962,0.57875353,0.04321396,1.76295161,0.00000000,0.00000000
-0.32000074,-2.16543984,-0.38178951,-0.01322852,0.09470928,0.00000000,0.00000000,0.31136584,2.11300802,0.58542067,0.05196078,1.77416182,0.00000000,0.00000000
-0.32197252,-2.16204166,-0.38376528,-0.02369333,0.11622176,0.00000000,0.00000000,0.28982526,2.12074280,0.59164470,0.06019758,1.78500140,0.00000000,0.00000000
-0.32541519,-2.16222763,-0.38582572,-0.04047360,0.14044012,0.00000000,0.00000000,0.25907442,2.13078356,0.59735489,0.06772864,1.79386497,0.00000000,0.00000000
-0.33053628,-2.16464233,-0.38793039,-0.06309565,0.16817172,0.00000000,0.00000000,0.21950130,2.14242887,0.60252166,0.07447134,1.80141485,0.00000000,0.00000000
-0.33647585,-2.16754103,-0.39001679,-0.09063177,0.19421460,0.00000000,0.00000000,0.17314817,2.15443921,0.60721076,0.08068089,1.80688298,0.00000000,0.00000000
-0.34464017,-2.16946650,-0.39216718,-0.12225106,0.21963611,0.00000000,0.00000000,0.12488599,2.16418076,0.61167556,0.08700069,1.80638361,0.00000000,0.00000000
-0.35903361,-2.16996908,-0.39474350,-0.15631473,0.24561404,0.00000000,0.00000000,0.08163656,2.16890788,0.61636865,0.09408134,1.81120944,0.00000000,0.00000000
-0.38112241,-2.17000008,-0.39803129,-0.19046560,0.27028260,0.00000000,0.00000000,0.04828534,2.16994023,0.62175560,0.10156769,1.81256282,0.00000000,0.00000000
-0.40552118,-2.17000008,-0.40166458,-0.22179653,0.29356506,0.00000000,0.00000000,0.02480597,2.17000008,0.62811452,0.10750924,1.81632495,0.00000000,0.00000000
-0.42746663,-2.17000008,-0.40518433,-0.24849047,0.31985271,0.00000000,0.00000000,0.00954208,2.17000008,0.63554442,0.11056083,1.81888342,0.00000000,0.00000000
-0.44533768,-2.17000008,-0.40833774,-0.27016789,0.34038210,0.00000000,0.00000000,0.00143730,2.17000008,0.64406383,0.11039230,1.82210732,0.00000000,0.00000000
-0.45827997,-2.17000008,-0.41088685,-0.28710020,0.35785449,0.00000000,0.00000000,-0.00001753,2.17000008,0.65365684,0.10705885,1.82664466,0.00000000,0.00000000
-0.46524650,-2.17000008,-0.41253656,-0.29966396,0.37133911,0.00000000,0.00000000,0.00501028,2.17000008,0.66427171,0.10097831,1.83060098,0.00000000,0.00000000
-0.46512178,-2.17000008,-0.41299284,-0.30810893,0.38522261,0.00000000,0.00000000,0.01657517,2.17000008,0.67581397,0.09306974,1.83842015,0.00000000,0.00000000
-0.45748547,-2.17000008,-0.41212475,-0.31260440,0.39726302,0.00000000,0.00000000,0.03477507,2.17000008,0.68814856,0.08474484,1.84597361,0.00000000,0.00000000
-0.44370705,-2.17000008,-0.41016811,-0.31353602,0.40771627,0.00000000,0.00000000,0.05957423,2.16998553,0.70111257,0.07776069,1.85833645,0.00000000,0.00000000
-0.42664433,-2.17000008,-0.40765467,-0.31159860,0.41930428,0.00000000,0.00000000,0.09064600,2.16973662,0.71454054,0.07378661,1.87844098,0.00000000,0.00000000
-0.40889096,-2.17000008,-0.40506518,-0.30751675,0.43331015,0.00000000,0.00000000,0.12720357,2.16858315,0.72827876,0.07389502,1.89014924,0.00000000,0.00000000
-0.39184180,-2.17000008,-0.40263847,-0.30181092,0.44289798,0.00000000,0.00000000,0.16797626,2.16620779,0.74218231,0.07834891,1.89368701,0.00000000,0.00000000
-0.37558797,-2.17000008,-0.40037030,-0.29461789,0.44920647,0.00000000,0.00000000,0.21114345,2.16337037,0.75609809,0.08658320,1.89582348,0.00000000,0.00000000
-0.35896736,-2.17000008,-0.39806390,-0.28559598,0.45628721,0.00000000,0.00000000,0.25419217,2.16079926,0.76983988,0.09735297,1.89439738,0.00000000,0.00000000
-0.33976102,-2.17000008,-0.39537689,-0.27412319,0.46680537,0.00000000,0.00000000,0.29409853,2.15890622,0.78317702,0.10905284,1.88997042,0.00000000,0.00000000
-0.31510252,-2.17000008,-0.39187974,-0.25963634,0.47671202,0.00000000,0.00000000,0.32783142,2.15795112,0.79585540,0.12006024,1.88801610,0.00000000,0.00000000
-0.28316215,-2.17000008,-0.38730642,-0.24209720,0.48568758,0.00000000,0.00000000,0.35286930,2.15790486,0.80764955,0.12893085,1.89106989,0.00000000,0.00000000
-0.24622500,-2.17000008,-0.38195637,-0.22274199,0.49352476,0.00000000,0.00000000,0.36804718,2.15829611,0.81844056,0.13463460,1.89875507,0.00000000,0.00000000
-0.21052405,-2.17000008,-0.37660128,-0.20399599,0.49510279,0.00000000,0.00000000,0.37430334,2.15858388,0.82825464,0.13692486,1.90770876,0.00000000,0.00000000
-0.18073228,-2.17000008,-0.37176752,-0.18797711,0.49473083,0.00000000,0.00000000,0.37324336,2.15848970,0.83717567,0.13597539,1.91407859,0.00000000,0.00000000
-0.15781145,-2.17000008,-0.36755589,-0.17556104,0.49569154,0.00000000,0.00000000,0.36564311,2.15830827,0.84523875,0.13197264,1.92051995,0.00000000,0.00000000
-0.14124879,-2.17000008,-0.36395848,-0.16646309,0.49212065,0.00000000,0.00000000,0.35173118,2.15880561,0.85244584,0.12518191,1.92311442,0.00000000,0.00000000
-0.13104749,-2.17000008,-0.36105037,-0.15983835,0.48387715,0.00000000,0.00000000,0.33190402,2.16049242,0.85884684,0.11593758,1.92621350,0.00000000,0.00000000
-0.12761256,-2.17000008,-0.35893381,-0.15483354,0.47492409,0.00000000,0.00000000,0.30697414,2.16323876,0.86457014,0.10458216,1.92533493,0.00000000,0.00000000
-0.13073689,-2.17000008,-0.35761660,-0.15095329,0.46578246,0.00000000,0.00000000,0.27792725,2.16632938,0.86979592,0.09138234,1.92158651,0.00000000,0.00000000
-0.13931094,-2.17000008,-0.35698807,-0.14821355,0.45254818,0.00000000,0.00000000,0.24581090,2.16872644,0.87472200,0.07656808,1.91593552,0.00000000,0.00000000
-0.15161435,-2.17000008,-0.35686332,-0.14702220,0.43803954,0.00000000,0.00000000,0.21213962,2.16973352,0.87954831,0.06061180,1.90379822,0.00000000,0.00000000
-0.16569875,-2.17000008,-0.35704190,-0.14772472,0.42547694,0.00000000,0.00000000,0.17957680,2.16927648,0.88446552,0.04462220,1.88930500,0.00000000,0.00000000
-0.18038677,-2.17000008,-0.35741824,-0.15013595,0.41233829,0.00000000,0.00000000,0.15211517,2.16665077,0.88963783,0.03043124,1.88179147,0.00000000,0.00000000
-0.19575924,-2.17000008,-0.35802555,-0.15351932,0.39834905,0.00000000,0.00000000,0.13342530,2.16156387,0.89517462,0.01978179,1.87762749,0.00000000,0.00000000
-0.21127856,-2.17000008,-0.35885808,-0.15676622,0.38077593,0.00000000,0.00000000,0.12463959,2.15408206,0.90112096,0.01332050,1.87001586,0.00000000,0.00000000
-0.22552104,-2.17000008,-0.35982403,-0.15885922,0.36726186,0.00000000,0.00000000,0.12500925,2.14438391,0.90748972,0.01086820,1.86838853,0.00000000,0.00000000
-0.23708428,-2.17000008,-0.36081880,-0.15913340,0.35120893,0.00000000,0.00000000,0.13335796,2.13283157,0.91428107,0.01206916,1.87044477,0.00000000,0.00000000
-0.24509032,-2.17000008,-0.36177742,-0.15719502,0.33497256,0.00000000,0.00000000,0.14863010,2.12002659,0.92148376,0.01665146,1.86406386,0.00000000,0.00000000
-0.24942747,-2.17000008,-0.36270106,-0.15278314,0.31966695,0.00000000,0.00000000,0.16988975,2.10676408,0.92906857,0.02437417,1.85704899,0.00000000,0.00000000
-0.25064361,-2.17000008,-0.36363888,-0.14578314,0.30731988,0.00000000,0.00000000,0.19629705,2.09381890,0.93698573,0.03491523,1.85346782,0.00000000,0.00000000
-0.24945436,-2.17000008,-0.36464158,-0.13625982,0.29306298,0.00000000,0.00000000,0.22718103,2.08183575,0.94516426,0.04791978,1.84636283,0.00000000,0.00000000
-0.24636182,-2.17000008,-0.36574632,-0.12429660,0.27951229,0.00000000,0.00000000,0.26191351,2.07147336,0.95350599,0.06310634,1.83800960,0.00000000,0.00000000
-0.24154685,-2.17000008,-0.36699197,-0.10968643,0.26988903,0.00000000,0.00000000,0.29952613,2.06343913,0.96187532,0.08018248,1.82964957,0.00000000,0.00000000
-0.23473129,-2.17000008,-0.36841747,-0.09174779,0.25509605,0.00000000,0.00000000,0.33855715,2.05818200,0.97010064,0.09865417,1.82503510,0.00000000,0.00000000
-0.22513384,-2.17000008,-0.37005460,-0.06946246,0.24227686,0.00000000,0.00000000,0.37737468,2.05561614,0.97800004,0.11781304,1.81707191,0.00000000,0.00000000
-0.21167423,-2.17000008,-0.37194034,-0.04183099,0.22716708,0.00000000,0.00000000,0.41452840,2.05517936,0.98540640,0.13690244,1.81143498,0.00000000,0.00000000
-0.19317174,-2.16997242,-0.37414330,-0.00820852,0.21540663,0.00000000,0.00000000,0.44862434,2.05607319,0.99216872,0.15520117,1.80454183,0.00000000,0.00000000
-0.16853271,-2.16942668,-0.37679458,0.03144778,0.20191672,0.00000000,0.00000000,0.47809601,2.05741978,0.99814677,0.17201310,1.79518235,0.00000000,0.00000000
-0.13748735,-2.16605616,-0.38009787,0.07640456,0.19044591,0.00000000,0.00000000,0.50196582,2.05852056,1.00323820,0.18699700,1.78974974,0.00000000,0.00000000
-0.10186610,-2.15654397,-0.38423771,0.12530957,0.18106923,0.00000000,0.00000000,0.52123749,2.05929446,1.00742900,0.20076588,1.79041636,0.00000000,0.00000000
-0.06501179,-2.14125085,-0.38930771,0.17657600,0.17610769,0.00000000,0.00000000,0.53775030,2.05979896,1.01079702,0.21412413,1.79392481,0.00000000,0.00000000
-0.02824579,-2.12444448,-0.39563301,0.22775088,0.16911399,0.00000000,0.00000000,0.55213279,2.05904078,1.01351750,0.22674471,1.79843271,0.00000000,0.00000000
0.00876596,-2.11181736,-0.40380821,0.27515373,0.15694468,0.00000000,0.00000000,0.56427902,2.05625701,1.01571274,0.23800115,1.80180335,0.00000000,0.00000000
0.04550633,-2.10410547,-0.41407007,0.31631008,0.14196302,0.00000000,0.00000000,0.57154369,2.05314493,1.01702213,0.24734695,1.80464363,0.00000000,0.00000000
0.08113290,-2.10042143,-0.42642000,0.35035050,0.12661350,0.00000000,0.00000000,0.57636768,2.05448914,1.01706016,0.25814328,1.80354023,0.00000000,0.00000000
0.11318415,-2.10061073,-0.44046116,0.37611514,0.11286864,0.00000000,0.00000000,0.57973975,2.06158423,1.01568520,0.27098450,1.79761136,0.00000000,0.00000000
0.13816443,-2.10451174,-0.45547307,0.39228648,0.09818722,0.00000000,0.00000000,0.57926625,2.07182145,1.01294947,0.28241199,1.79129374,0.00000000,0.00000000
0.15314925,-2.11180449,-0.47078663,0.39794582,0.07870596,0.00000000,0.00000000,0.57345468,2.08067298,1.00926399,0.28817993,1.79398620,0.00000000,0.00000000
0.15633912,-2.12178111,-0.48592776,0.39276153,0.06077469,0.00000000,0.00000000,0.56185514,2.08683681,1.00473869,0.28633276,1.79704046,0.00000000,0.00000000
0.14658932,-2.13312387,-0.50051963,0.37688830,0.04568528,0.00000000,0.00000000,0.54392701,2.09016299,0.99938524,0.27611589,1.80681837,0.00000000,0.00000000
0.12326577,-2.14411497,-0.51431060,0.35082638,0.03207367,0.00000000,0.00000000,0.51967484,2.09117770,0.99323744,0.25761402,1.81771362,0.00000000,0.00000000
0.08630326,-2.15332937,-0.52729005,0.31520191,0.02121217,0.00000000,0.00000000,0.49027124,2.09031200,0.98646915,0.23179455,1.82806933,0.00000000,0.00000000
0.03634799,-2.16015244,-0.53974026,0.27067259,0.01459532,0.00000000,0.00000000,0.45924217,2.08727980,0.97949821,0.20135021,1.84196401,0.00000000,0.00000000
-0.02461098,-2.16488266,-0.55223972,0.21813868,0.00726283,0.00000000,0.00000000,0.43305379,2.08292031,0.97275293,0.17141902,1.85835040,0.00000000,0.00000000
-0.09310374,-2.16791296,-0.56541562,0.15924062,0.00685442,0.00000000,0.00000000,0.41413179,2.07702899,0.96642131,0.14430815,1.88120413,0.00000000,0.00000000
-0.16410966,-2.16945720,-0.57972413,0.09648265,0.00785661,0.00000000,0.00000000,0.39817464,2.07009149,0.96025765,0.11881207,1.90731323,0.00000000,0.00000000
-0.23207493,-2.16992998,-0.59526962,0.03260154,0.00682550,0.00000000,0.00000000,0.37781861,2.06400156,0.95388633,0.09235934,1.92851925,0.00000000,0.00000000
-0.29299614,-2.16999722,-0.61173248,-0.03024788,0.00525841,0.00000000,0.00000000,0.34745836,2.05981779,0.94718963,0.06259338,1.94524860,0.00000000,0.00000000
-0.34480190,-2.17000008,-0.62854815,-0.09049716,0.00760029,0.00000000,0.00000000,0.31100214,2.05935407,0.94039017,0.03231165,1.96335411,0.00000000,0.00000000
-0.38667187,-2.17000008,-0.64511663,-0.14697632,0.01023802,0.00000000,0.00000000,0.27675146,2.06149864,0.93386751,0.00562508,1.97542500,0.00000000,0.00000000
-0.41793153,-2.17000008,-0.66089749,-0.19845209,0.01303721,0.00000000,0.00000000,0.25005612,2.06553984,0.92783517,-0.01474651,1.98647249,0.00000000,0.00000000
-0.43777007,-2.17000008,-0.67542684,-0.24369915,0.01382933,0.00000000,0.00000000,0.23271582,2.07131910,0.92237580,-0.02776391,1.99655783,0.00000000,0.00000000
-0.44559935,-2.17000008,-0.68830973,-0.28188249,0.01186389,0.00000000,0.00000000,0.22525711,2.07809448,0.91752464,-0.03332157,2.00901604,0.00000000,0.00000000
-0.44111145,-2.17000008,-0.69921011,-0.31260404,0.01315763,0.00000000,0.00000000,0.22751129,2.08514094,0.91329658,-0.03172290,2.01896763,0.00000000,0.00000000
-0.42414492,-2.17000008,-0.70785344,-0.33574462,0.01257289,0.00000000,0.00000000,0.23856993,2.09227061,0.90970004,-0.02348832,2.03396225,0.00000000,0.00000000
-0.39468503,-2.17000008,-0.71405464,-0.35134995,0.01438856,0.00000000,0.00000000,0.25728783,2.09971189,0.90672666,-0.00915549,2.05303502,0.00000000,0.00000000
-0.35295802,-2.17000008,-0.71777582,-0.35953021,0.01200111,0.00000000,0.00000000,0.28222182,2.10801291,0.90433675,0.01064521,2.07228708,0.00000000,0.00000000
-0.29965210,-2.17000008,-0.71927989,-0.36016902,0.01386881,0.00000000,0.00000000,0.31078258,2.11798167,0.90243584,0.03475809,2.08485126,0.00000000,0.00000000
-0.23699960,-2.17000008,-0.71961582,-0.35231519,0.01192085,0.00000000,0.00000000,0.33850768,2.12984633,0.90084618,0.06084449,2.09687161,0.00000000,0.00000000
-0.17060378,-2.16991353,-0.72118884,-0.33410701,0.01314759,0.00000000,0.00000000,0.35981998,2.14152312,0.89936095,0.08508535,2.10619283,0.00000000,0.00000000
-0.10947267,-2.16827679,-0.72682196,-0.30569106,0.01043060,0.00000000,0.00000000,0.37241632,2.14929676,0.89790988,0.10445371,2.11396599,0.00000000,0.00000000
-0.06365600,-2.15908170,-0.73766005,-0.27254903,0.01138489,0.00000000,0.00000000,0.38089702,2.15155220,0.89664811,0.11981573,2.11643362,0.00000000,0.00000000
-0.03861985,-2.13624859,-0.75285339,-0.24177723,0.00813309,0.00000000,0.00000000,0.39174321,2.14801240,0.89583260,0.13341667,2.11496496,0.00000000,0.00000000
-0.03095995,-2.10446095,-0.77071536,-0.21655916,0.00810174,0.00000000,0.00000000,0.40608135,2.13887095,0.89551514,0.14540315,2.11569500,0.00000000,0.00000000
-0.03435444,-2.06949925,-0.78995055,-0.19705287,0.00829663,0.00000000,0.00000000,0.42234311,2.12578440,0.89553547,0.15556064,2.11548424,0.00000000,0.00000000
-0.04394396,-2.03466272,-0.80984408,-0.18282197,0.00685997,0.00000000,0.00000000,0.43944559,2.11246157,0.89559489,0.16491094,2.11147904,0.00000000,0.00000000
-0.05664764,-2.00226331,-0.83002234,-0.17362411,0.00852888,0.00000000,0.00000000,0.45763850,2.10068345,0.89557076,0.17443335,2.11023307,0.00000000,0.00000000
-0.07030751,-1.97405183,-0.85026175,-0.16924211,0.01019976,0.00000000,0.00000000,0.47594991,2.09104466,0.89530760,0.18408541,2.10650420,0.00000000,0.00000000
-0.08356804,-1.95130754,-0.87042272,-0.16949779,0.01551053,0.00000000,0.00000000,0.49230731,2.08467960,0.89448780,0.19348988,2.10315943,0.00000000,0.00000000
-0.09601934,-1.93481338,-0.89043617,-0.17436193,0.02107788,0.00000000,0.00000000,0.50352716,2.08317232,0.89263934,0.20178828,2.10492468,0.00000000,0.00000000
-0.10753825,-1.92486668,-0.91024864,-0.18374316,0.02274400,0.00000000,0.00000000,0.50818521,2.08598614,0.88961691,0.20807756,2.10094452,0.00000000,0.00000000
-0.11778575,-1.92135203,-0.92978543,-0.19731517,0.02789566,0.00000000,0.00000000,0.51001316,2.08924937,0.88600326,0.21275884,2.09264159,0.00000000,0.00000000
-0.12743874,-1.92368197,-0.94905013,-0.21498549,0.02801154,0.00000000,0.00000000,0.50858951,2.09224534,0.88177389,0.21530253,2.08508992,0.00000000,0.00000000
-0.13779373,-1.93094242,-0.96809953,-0.23676777,0.02320425,0.00000000,0.00000000,0.50080138,2.09622312,0.87650609,0.21445422,2.07445526,0.00000000,0.00000000
-0.15035997,-1.94207799,-0.98701346,-0.26268309,0.01586798,0.00000000,0.00000000,0.48460525,2.10188079,0.86993122,0.20895612,2.06728363,0.00000000,0.00000000
-0.16654655,-1.95601547,-1.00586641,-0.29269657,0.00638178,0.00000000,0.00000000,0.45816624,2.10644245,0.86218005,0.19612378,2.06375265,0.00000000,0.00000000
-0.18696819,-1.97179377,-1.02464902,-0.32645133,-0.00624377,0.00000000,0.00000000,0.42100915,2.10833311,0.85345536,0.17491297,2.05940151,0.00000000,0.00000000
-0.21101841,-1.98866439,-1.04319537,-0.36307773,-0.01994105,0.00000000,0.00000000,0.37380651,2.11048245,0.84374386,0.14729285,2.05588126,0.00000000,0.00000000
-0.23704286,-2.00617290,-1.06115770,-0.40129745,-0.03323904,0.00000000,0.00000000,0.31780988,2.11394906,0.83328974,0.11495271,2.04688597,0.00000000,0.00000000
-0.26271409,-2.02421308,-1.07801211,-0.43963745,-0.04911353,0.00000000,0.00000000,0.25489074,2.11773062,0.82250947,0.07867818,2.03568935,0.00000000,0.00000000
-0.28557330,-2.04285073,-1.09315038,-0.47662467,-0.05890023,0.00000000,0.00000000,0.18811932,2.12045741,0.81181413,0.03943824,2.02562571,0.00000000,0.00000000
-0.30421105,-2.06216931,-1.10608542,-0.51124346,-0.06432196,0.00000000,0.00000000,0.12206232,2.12062836,0.80152917,-0.00122297,2.02231359,0.00000000,0.00000000
-0.31894672,-2.08224988,-1.11659741,-0.54322290,-0.07356721,0.00000000,0.00000000,0.06177837,2.11798882,0.79180777,-0.04103031,2.02125859,0.00000000,0.00000000
-0.33058599,-2.10291243,-1.12468600,-0.57243741,-0.08499489,0.00000000,0.00000000,0.01180690,2.11457992,0.78266531,-0.07691276,2.02472711,0.00000000,0.00000000
-0.33816817,-2.12327528,-1.13039231,-0.59776950,-0.09484362,0.00000000,0.00000000,-0.02572696,2.11409092,0.77418494,-0.10582417,2.02748108,0.00000000,0.00000000
-0.33822662,-2.14139962,-1.13377881,-0.61666906,-0.10022346,0.00000000,0.00000000,-0.05246873,2.11808157,0.76654941,-0.12670971,2.03699017,0.00000000,0.00000000
-0.32846743,-2.15528464,-1.13512528,-0.62718904,-0.09996045,0.00000000,0.00000000,-0.06671986,2.12292218,0.75951946,-0.13944101,2.04703641,0.00000000,0.00000000
-0.31009585,-2.16432571,-1.13477135,-0.62949663,-0.10429594,0.00000000,0.00000000,-0.06794795,2.12728047,0.75299615,-0.14393015,2.05553722,0.00000000,0.00000000
-0.28569579,-2.16883278,-1.13306022,-0.62470776,-0.10755793,0.00000000,0.00000000,-0.05645290,2.13101411,0.74699396,-0.14025572,2.06316662,0.00000000,0.00000000
-0.25696319,-2.16993332,-1.13040471,-0.61349815,-0.11086797,0.00000000,0.00000000,-0.03354303,2.13402557,0.74160659,-0.12903270,2.06548929,0.00000000,0.00000000
-0.22567730,-2.16998005,-1.12725210,-0.59668452,-0.10808340,0.00000000,0.00000000,-0.00136436,2.13644934,0.73697400,-0.11120600,2.06472731,0.00000000,0.00000000
-0.19261351,-2.16958356,-1.12399769,-0.57462084,-0.10517783,0.00000000,0.00000000,0.03799307,2.13843274,0.73319578,-0.08780435,2.07050204,0.00000000,0.00000000
-0.15776257,-2.16712999,-1.12072444,-0.54758567,-0.09902291,0.00000000,0.00000000,0.08305996,2.14038706,0.73029679,-0.05967713,2.07727432,0.00000000,0.00000000
-0.12034301,-2.16054440,-1.11695778,-0.51602912,-0.09157412,0.00000000,0.00000000,0.13177764,2.14302611,0.72825170,-0.02795990,2.08586240,0.00000000,0.00000000
-0.08024353,-2.15105224,-1.11210012,-0.48105267,-0.07746613,0.00000000,0.00000000,0.18124254,2.14727426,0.72695887,0.00584893,2.09212470,0.00000000,0.00000000
-0.04065307,-2.14114141,-1.10606194,-0.44537604,-0.06461486,0.00000000,0.00000000,0.22931588,2.15368581,0.72620720,0.04036627,2.10272288,0.00000000,0.00000000
-0.00787245,-2.13256407,-1.09937465,-0.41302589,-0.05057153,0.00000000,0.00000000,0.27506158,2.16131735,0.72575653,0.07411008,2.11616349,0.00000000,0.00000000
0.01248234,-2.12579942,-1.09275913,-0.38728955,-0.04335678,0.00000000,0.00000000,0.31713897,2.16726637,0.72539699,0.10478473,2.13126945,0.00000000,0.00000000
0.01909474,-2.12059259,-1.08655310,-0.36900485,-0.03353045,0.00000000,0.00000000,0.35165659,2.16959405,0.72489583,0.12912376,2.15042901,0.00000000,0.00000000
0.01302839,-2.11648870,-1.08082771,-0.35768464,-0.02708811,0.00000000,0.00000000,0.37551489,2.16998053,0.72405243,0.14481039,2.16780901,0.00000000,0.00000000
-0.00411535,-2.11272812,-1.07562375,-0.35240179,-0.02353700,0.00000000,0.00000000,0.38708565,2.17000008,0.72257733,0.15226243,2.18411970,0.00000000,0.00000000
-0.03017651,-2.10840440,-1.07091916,-0.35177702,-0.02118528,0.00000000,0.00000000,0.38855761,2.16998267,0.72039610,0.15471424,2.20058370,0.00000000,0.00000000
-0.06338797,-2.10303426,-1.06662035,-0.35459936,-0.01773081,0.00000000,0.00000000,0.38358119,2.16969681,0.71772301,0.15438966,2.21783304,0.00000000,0.00000000
-0.10314534,-2.09680700,-1.06260514,-0.36032170,-0.01728355,0.00000000,0.00000000,0.37664232,2.16855168,0.71486068,0.15337366,2.22818398,0.00000000,0.00000000
-0.14920902,-2.09042454,-1.05869055,-0.36872429,-0.00991054,0.00000000,0.00000000,0.36969194,2.16683006,0.71181422,0.15355825,2.24303412,0.00000000,0.00000000
-0.20032579,-2.08511162,-1.05449307,-0.37937954,-0.00471965,0.00000000,0.00000000,0.36148852,2.16601157,0.70834130,0.15567245,2.25364017,0.00000000,0.00000000
-0.25413996,-2.08216786,-1.04949594,-0.39151776,0.00352741,0.00000000,0.00000000,0.35033432,2.16676998,0.70424181,0.15959191,2.26408935,0.00000000,0.00000000
-0.30789354,-2.08224487,-1.04324794,-0.40399742,0.01207275,0.00000000,0.00000000,0.33549485,2.16840792,0.69945657,0.16488469,2.27195501,0.00000000,0.00000000
-0.35870102,-2.08509159,-1.03543890,-0.41515103,0.02737727,0.00000000,0.00000000,0.31653360,2.16963768,0.69401038,0.17064445,2.27670240,0.00000000,0.00000000
-0.40254804,-2.08999610,-1.02569437,-0.42253715,0.04368534,0.00000000,0.00000000,0.29314697,2.16997862,0.68808663,0.17482720,2.27744174,0.00000000,0.00000000
-0.43437782,-2.09656286,-1.01343703,-0.42415050,0.05827267,0.00000000,0.00000000,0.26651248,2.17000008,0.68219233,0.17435399,2.27656484,0.00000000,0.00000000
-0.45249850,-2.10545182,-0.99832886,-0.42124179,0.07367750,0.00000000,0.00000000,0.23870321,2.17000008,0.67703038,0.16552661,2.27296996,0.00000000,0.00000000
-0.46176541,-2.11699677,-0.98101681,-0.41740769,0.08814021,0.00000000,0.00000000,0.21516207,2.17000008,0.67327935,0.14802107,2.27671576,0.00000000,0.00000000
-0.47097987,-2.12969756,-0.96307713,-0.41695696,0.09965787,0.00000000,0.00000000,0.19983084,2.16998434,0.67076504,0.12663436,2.28224540,0.00000000,0.00000000
-0.48131463,-2.14165998,-0.94506019,-0.41990885,0.10251696,0.00000000,0.00000000,0.18997589,2.16970897,0.66881692,0.10465132,2.28724599,0.00000000,0.00000000
-0.49036163,-2.15170717,-0.92680478,-0.42467755,0.10055339,0.00000000,0.00000000,0.18194504,2.16836691,0.66701299,0.08335397,2.28811622,0.00000000,0.00000000
-0.49668157,-2.15953207,-0.90803897,-0.43048811,0.09733399,0.00000000,0.00000000,0.17518607,2.16522789,0.66529524,0.06375221,2.29246020,0.00000000,0.00000000
-0.49848303,-2.16535854,-0.88824987,-0.43659395,0.09643269,0.00000000,0.00000000,0.17055167,2.16070843,0.66372842,0.04675904,2.29425383,0.00000000,0.00000000
-0.49313003,-2.16894436,-0.86683530,-0.44167203,0.09620456,0.00000000,0.00000000,0.16850683,2.15649962,0.66235667,0.03341800,2.29848647,0.00000000,0.00000000
-0.47911036,-2.16993713,-0.84362096,-0.44453672,0.09591593,0.00000000,0.00000000,0.16870925,2.15491581,0.66119742,0.02483751,2.29806185,0.00000000,0.00000000
-0.45723996,-2.17000008,-0.81892532,-0.44507831,0.09372511,0.00000000,0.00000000,0.17083621,2.15702367,0.66027409,0.02162827,2.29143333,0.00000000,0.00000000
-0.42988089,-2.17000008,-0.79342687,-0.44382501,0.09120139,0.00000000,0.00000000,0.17462802,2.16177988,0.65960550,0.02337251,2.28634334,0.00000000,0.00000000
-0.40010077,-2.17000008,-0.76817405,-0.44106534,0.08957811,0.00000000,0.00000000,0.17932107,2.16665339,0.65918869,0.02854688,2.28396153,0.00000000,0.00000000
-0.37089941,-2.17000008,-0.74434620,-0.43658286,0.08753330,0.00000000,0.00000000,0.18403968,2.16932964,0.65900624,0.03510074,2.28382754,0.00000000,0.00000000
-0.34448639,-2.17000008,-0.72288448,-0.42984840,0.08169651,0.00000000,0.00000000,0.18829226,2.16993308,0.65903538,0.04123213,2.28415847,0.00000000,0.00000000
-0.32220122,-2.17000008,-0.70435500,-0.42031860,0.07304453,0.00000000,0.00000000,0.19183168,2.16945791,0.65924257,0.04586167,2.28264380,0.00000000,0.00000000
-0.30494422,-2.17000008,-0.68904680,-0.40760994,0.06157959,0.00000000,0.00000000,0.19434011,2.16696644,0.65957701,0.04866992,2.28235698,0.00000000,0.00000000
-0.29346749,-2.17000008,-0.67704916,-0.39165702,0.04915451,0.00000000,0.00000000,0.19531550,2.16130328,0.65997750,0.04982348,2.28689265,0.00000000,0.00000000
-0.28808016,-2.17000008,-0.66812795,-0.37301263,0.03531680,0.00000000,0.00000000,0.19408378,2.15336156,0.66038340,0.04969015,2.29506707,0.00000000,0.00000000
-0.28813866,-2.17000008,-0.66155767,-0.35312814,0.01576525,0.00000000,0.00000000,0.19017273,2.14480114,0.66074753,0.04883125,2.29768252,0.00000000,0.00000000
-0.29173729,-2.17000008,-0.65622580,-0.33378264,-0.00330712,0.00000000,0.00000000,0.18389638,2.13716674,0.66104943,0.04809676,2.30123138,0.00000000,0.00000000
-0.29618365,-2.16992736,-0.65114170,-0.31549433,-0.01939559,0.00000000,0.00000000,0.17619900,2.13167214,0.66128957,0.04843593,2.30290651,0.00000000,0.00000000
-0.30039126,-2.16878986,-0.64594811,-0.29771775,-0.03799703,0.00000000,0.00000000,0.16781744,2.12915325,0.66146302,0.05057067,2.30315566,0.00000000,0.00000000
-0.30483741,-2.16482449,-0.64058334,-0.28026742,-0.05559969,0.00000000,0.00000000,0.15888840,2.13020992,0.66154158,0.05494415,2.30837083,0.00000000,0.00000000
-0.31013426,-2.15912867,-0.63492918,-0.26370323,-0.07161084,0.00000000,0.00000000,0.14926821,2.13502431,0.66148186,0.06178112,2.31647944,0.00000000,0.00000000
-0.31626424,-2.15301061,-0.62888730,-0.24824712,-0.08561236,0.00000000,0.00000000,0.13901947,2.14293170,0.66124851,0.07102935,2.32708883,0.00000000,0.00000000
-0.32289538,-2.14661670,-0.62244278,-0.23357987,-0.10295593,0.00000000,0.00000000,0.12882614,2.15238428,0.66083938,0.08238237,2.33715796,0.00000000,0.00000000
-0.32942465,-2.14014769,-0.61555690,-0.21938768,-0.11630995,0.00000000,0.00000000,0.11977464,2.16127634,0.66028786,0.09528279,2.35208893,0.00000000,0.00000000
-0.33467761,-2.13382792,-0.60814226,-0.20525110,-0.12947209,0.00000000,0.00000000,0.11291235,2.16736507,0.65965319,0.10897645,2.36574125,0.00000000,0.00000000
-0.33740711,-2.12754035,-0.60014993,-0.19061616,-0.13960834,0.00000000,0.00000000,0.10928795,2.16961956,0.65904158,0.12256199,2.37947226,0.00000000,0.00000000
-0.33686298,-2.12098980,-0.59161484,-0.17503183,-0.14806639,0.00000000,0.00000000,0.11008411,2.16998196,0.65862995,0.13500142,2.39356852,0.00000000,0.00000000
-0.33272725,-2.11393380,-0.58262867,-0.15825626,-0.15553069,0.00000000,0.00000000,0.11639492,2.17000008,0.65861803,0.14538890,2.40503144,0.00000000,0.00000000
-0.32478818,-2.10623455,-0.57330352,-0.14022852,-0.16375910,0.00000000,0.00000000,0.12887655,2.17000008,0.65913945,0.15324707,2.41412854,0.00000000,0.00000000
-0.31292102,-2.09788227,-0.56376594,-0.12109337,-0.16817529,0.00000000,0.00000000,0.14753984,2.17000008,0.66021216,0.15849371,2.42046523,0.00000000,0.00000000
-0.29734617,-2.08914280,-0.55416483,-0.10132305,-0.17229296,0.00000000,0.00000000,0.17170364,2.17000008,0.66174221,0.16119839,2.42263699,0.00000000,0.00000000
-0.27864727,-2.08071303,-0.54466057,-0.08175524,-0.17282946,0.00000000,0.00000000,0.20013452,2.17000008,0.66356516,0.16141185,2.42305160,0.00000000,0.00000000
-0.25741372,-2.07369971,-0.53540146,-0.06345800,-0.17515406,0.00000000,0.00000000,0.23126730,2.16996837,0.66549355,0.15914519,2.41634464,0.00000000,0.00000000
-0.23399198,-2.06941557,-0.52651465,-0.04754491,-0.17581463,0.00000000,0.00000000,0.26335490,2.16939759,0.66734242,0.15445144,2.40997124,0.00000000,0.00000000
-0.20861050,-2.06910753,-0.51811135,-0.03505310,-0.17423868,0.00000000,0.00000000,0.29449758,2.16643429,0.66893220,0.14747809,2.40204096,0.00000000,0.00000000
-0.18154353,-2.07373381,-0.51028383,-0.02684689,-0.17261654,0.00000000,0.00000000,0.32261845,2.15907288,0.67010397,0.13835451,2.39305878,0.00000000,0.00000000
-0.15318993,-2.08374739,-0.50309658,-0.02354279,-0.16392364,0.00000000,0.00000000,0.34533849,2.14718843,0.67074960,0.12684186,2.37727308,0.00000000,0.00000000
-0.12421001,-2.09886575,-0.49658379,-0.02548635,-0.15931097,0.00000000,0.00000000,0.36153495,2.13220882,0.67085421,0.11345986,2.36521697,0.00000000,0.00000000
-0.09518971,-2.11757493,-0.49075168,-0.03243180,-0.15559492,0.00000000,0.00000000,0.37382144,2.11836004,0.67051488,0.10170268,2.35052443,0.00000000,0.00000000
-0.06621778,-2.13696289,-0.48559088,-0.04329468,-0.15637021,0.00000000,0.00000000,0.38314775,2.10707521,0.66984457,0.09327115,2.33660603,0.00000000,0.00000000
-0.03786280,-2.15380859,-0.48110646,-0.05690853,-0.15892734,0.00000000,0.00000000,0.39031127,2.09753990,0.66899610,0.08829648,2.32994151,0.00000000,0.00000000
-0.01085568,-2.16498470,-0.47732884,-0.07207802,-0.16056259,0.00000000,0.00000000,0.39619106,2.08973908,0.66805041,0.08706537,2.32038689,0.00000000,0.00000000
0.01474134,-2.16923237,-0.47430855,-0.08717757,-0.16382837,0.00000000,0.00000000,0.40052474,2.08463883,0.66696143,0.08986801,2.31098914,0.00000000,0.00000000
0.03866209,-2.16996241,-0.47215736,-0.10037240,-0.16598862,0.00000000,0.00000000,0.40200734,2.08444977,0.66555196,0.09712836,2.29846168,0.00000000,0.00000000
0.05874432,-2.17000008,-0.47110951,-0.11059216,-0.16452885,0.00000000,0.00000000,0.39971071,2.09094453,0.66363150,0.10902598,2.28773499,0.00000000,0.00000000
0.07144589,-2.17000008,-0.47147226,-0.11790860,-0.15978806,0.00000000,0.00000000,0.39203683,2.10295320,0.66104847,0.12401218,2.28241396,0.00000000,0.00000000
0.07378827,-2.17000008,-0.47349027,-0.12315477,-0.15638480,0.00000000,0.00000000,0.37894908,2.11835074,0.65776384,0.14089471,2.27643824,0.00000000,0.00000000
0.06440328,-2.17000008,-0.47726771,-0.12735523,-0.15163343,0.00000000,0.00000000,0.36294687,2.13478518,0.65393496,0.15958314,2.26639533,0.00000000,0.00000000
0.04319341,-2.17000008,-0.48279220,-0.13136728,-0.14941917,0.00000000,0.00000000,0.34642911,2.14983749,0.64977300,0.17999466,2.25750375,0.00000000,0.00000000
0.01056507,-2.17000008,-0.48997912,-0.13597848,-0.14728515,0.00000000,0.00000000,0.33008292,2.16159010,0.64537328,0.20145570,2.25149727,0.00000000,0.00000000
-0.03265355,-2.16994143,-0.49865851,-0.14217778,-0.14454846,0.00000000,0.00000000,0.31319195,2.16820192,0.64077228,0.22219846,2.24349761,0.00000000,0.00000000
-0.08462756,-2.16902924,-0.50852615,-0.15108317,-0.14020789,0.00000000,0.00000000,0.29530901,2.16989565,0.63610190,0.24026310,2.23719835,0.00000000,0.00000000
-0.14258984,-2.16593432,-0.51917452,-0.16353028,-0.13434471,0.00000000,0.00000000,0.27713171,2.17000008,0.63155478,0.25495309,2.22799587,0.00000000,0.00000000
-0.20356509,-2.16182995,-0.53017998,-0.17971162,-0.12676433,0.00000000,0.00000000,0.25953272,2.17000008,0.62731248,0.26626346,2.21827722,0.00000000,0.00000000
-0.26420113,-2.15817785,-0.54107749,-0.19902690,-0.12092232,0.00000000,0.00000000,0.24344432,2.17000008,0.62361652,0.27419552,2.20230722,0.00000000,0.00000000
-0.31983951,-2.15544128,-0.55123663,-0.21995652,-0.11612464,0.00000000,0.00000000,0.22988911,2.17000008,0.62081903,0.27835119,2.18578172,0.00000000,0.00000000
-0.36555052,-2.15424085,-0.55987513,-0.24113666,-0.10659147,0.00000000,0.00000000,0.21949208,2.17000008,0.61926937,0.27789775,2.16591954,0.00000000,0.00000000
-0.39847049,-2.15648651,-0.56625611,-0.26295674,-0.09554765,0.00000000,0.00000000,0.21210682,2.17000008,0.61910808,0.27213854,2.14353991,0.00000000,0.00000000
-0.41815838,-2.16190219,-0.57007897,-0.28583980,-0.08609101,0.00000000,0.00000000,0.20704994,2.17000008,0.62013376,0.26138416,2.11943007,0.00000000,0.00000000
-0.42838004,-2.16719866,-0.57193869,-0.30985650,-0.07947544,0.00000000,0.00000000,0.20398417,2.17000008,0.62190610,0.24747209,2.09400868,0.00000000,0.00000000
-0.43401110,-2.16954470,-0.57287568,-0.33440265,-0.07216705,0.00000000,0.00000000,0.20270720,2.17000008,0.62391996,0.23286411,2.06779909,0.00000000,0.00000000
-0.43588939,-2.16997719,-0.57350814,-0.35708594,-0.06515764,0.00000000,0.00000000,0.20245326,2.17000008,0.62581062,0.21887159,2.04600239,0.00000000,0.00000000
-0.43345881,-2.17000008,-0.57406217,-0.37612563,-0.05966694,0.00000000,0.00000000,0.20281677,2.17000008,0.62749386,0.20567174,2.02265120,0.00000000,0.00000000
-0.42598230,-2.17000008,-0.57451904,-0.39058569,-0.05572018,0.00000000,0.00000000,0.20361711,2.17000008,0.62897605,0.19317237,2.00019217,0.00000000,0.00000000
-0.41175532,-2.17000008,-0.57453823,-0.39960226,-0.04939069,0.00000000,0.00000000,0.20475838,2.16998577,0.63026208,0.18139218,1.97837067,0.00000000,0.00000000
-0.39146638,-2.17000008,-0.57403243,-0.40393335,-0.04444030,0.00000000,0.00000000,0.20682096,2.16974664,0.63138568,0.17086659,1.95909607,0.00000000,0.00000000
-0.37179458,-2.17000008,-0.57379955,-0.40767589,-0.04362479,0.00000000,0.00000000,0.21129796,2.16875482,0.63242400,0.16279180,1.94296408,0.00000000,0.00000000
-0.35190296,-2.17000008,-0.57365024,-0.40957582,-0.04267053,0.00000000,0.00000000,0.21856891,2.16725183,0.63332772,0.15826966,1.92640781,0.00000000,0.00000000
-0.32575119,-2.17000008,-0.57300168,-0.40275145,-0.03762517,0.00000000,0.00000000,0.22856818,2.16662383,0.63400805,0.15820003,1.90829515,0.00000000,0.00000000
-0.29176199,-2.17000008,-0.57144988,-0.38630024,-0.03039879,0.00000000,0.00000000,0.24071383,2.16720438,0.63440281,0.16258818,1.88648379,0.00000000,0.00000000
-0.25190440,-2.17000008,-0.56929135,-0.36162424,-0.02822124,0.00000000,0.00000000,0.25415689,2.16839361,0.63446009,0.17087543,1.86290336,0.00000000,0.00000000
-0.20738761,-2.17000008,-0.56687146,-0.32942376,-0.02589695,0.00000000,0.00000000,0.26673192,2.16949272,0.63400227,0.18193528,1.83610213,0.00000000,0.00000000
-0.15938923,-2.17000008,-0.56443751,-0.29081404,-0.02334343,0.00000000,0.00000000,0.27637061,2.16993093,0.63285589,0.19435671,1.81158936,0.00000000,0.00000000
-0.11214173,-2.17000008,-0.56258237,-0.24827929,-0.01918663,0.00000000,0.00000000,0.28372166,2.16999722,0.63114095,0.20710978,1.78658664,0.00000000,0.00000000
-0.07134476,-2.16995788,-0.56192499,-0.20508829,-0.01517537,0.00000000,0.00000000,0.29228392,2.17000008,0.62941140,0.21930060,1.75621533,0.00000000,0.00000000
-0.04012109,-2.16923475,-0.56263548,-0.16367954,-0.01194807,0.00000000,0.00000000,0.30595860,2.17000008,0.62832284,0.23072368,1.72454917,0.00000000,0.00000000
-0.01806204,-2.16591001,-0.56450140,-0.12520920,-0.00661502,0.00000000,0.00000000,0.32492593,2.17000008,0.62782216,0.24300019,1.68993139,0.00000000,0.00000000
-0.00385419,-2.15859437,-0.56728113,-0.09053111,-0.00212009,0.00000000,0.00000000,0.34205440,2.17000008,0.62706804,0.25496101,1.65727019,0.00000000,0.00000000
0.00282825,-2.14784431,-0.57088006,-0.06055615,-0.00147641,0.00000000,0.00000000,0.35562405,2.17000008,0.62587780,0.26601893,1.62666118,0.00000000,0.00000000
0.00210806,-2.13477039,-0.57527095,-0.03603247,0.00336799,0.00000000,0.00000000,0.36641318,2.17000008,0.62424964,0.27652705,1.59162974,0.00000000,0.00000000
-0.00565969,-2.12061071,-0.58044446,-0.01760701,0.01290088,0.00000000,0.00000000,0.37397555,2.17000008,0.62197101,0.28647351,1.54934704,0.00000000,0.00000000
-0.02007171,-2.10667539,-0.58640981,-0.00587834,0.01663758,0.00000000,0.00000000,0.37652844,2.17000008,0.61863005,0.29528186,1.50672460,0.00000000,0.00000000
-0.04075244,-2.09409189,-0.59318632,-0.00132649,0.02161918,0.00000000,0.00000000,0.37282723,2.17000008,0.61394626,0.30232552,1.46192455,0.00000000,0.00000000
-0.06727459,-2.08371186,-0.60078692,-0.00423728,0.03340584,0.00000000,0.00000000,0.36421028,2.17000008,0.60821420,0.30706552,1.41867673,0.00000000,0.00000000
-0.09913073,-2.07614207,-0.60920191,-0.01464361,0.04719402,0.00000000,0.00000000,0.35014877,2.17000008,0.60155207,0.30771732,1.36964095,0.00000000,0.00000000
-0.13590874,-2.07178831,-0.61838722,-0.03232579,0.06196187,0.00000000,0.00000000,0.33118480,2.17000008,0.59413236,0.30333072,1.31483388,0.00000000,0.00000000
-0.17706546,-2.07080317,-0.62825000,-0.05668388,0.07501174,0.00000000,0.00000000,0.30732125,2.16992855,0.58586735,0.29398164,1.26254261,0.00000000,0.00000000
-0.22154903,-2.07333279,-0.63861942,-0.08674546,0.09044866,0.00000000,0.00000000,0.28429168,2.16890526,0.57759219,0.28130487,1.21337998,0.00000000,0.00000000
-0.26703373,-2.07956958,-0.64919317,-0.12101459,0.10852654,0.00000000,0.00000000,0.25800857,2.16651964,0.56888038,0.26279479,1.16746819,0.00000000,0.00000000
-0.30994555,-2.08920312,-0.65952349,-0.15733498,0.12626737,0.00000000,0.00000000,0.22138260,2.16658068,0.55772835,0.24215393,1.12304306,0.00000000,0.00000000
-0.34654465,-2.10168505,-0.66906536,-0.19347392,0.13848276,0.00000000,0.00000000,0.17691934,2.16894507,0.54470456,0.21970005,1.08505702,0.00000000,0.00000000
-0.37450248,-2.11637497,-0.67733932,-0.22778814,0.14873183,0.00000000,0.00000000,0.12843449,2.16993189,0.53142250,0.18900849,1.05203009,0.00000000,0.00000000
-0.39471942,-2.13246179,-0.68420863,-0.25980756,0.15933028,0.00000000,0.00000000,0.08743747,2.17000008,0.51884550,0.15484682,1.02136099,0.00000000,0.00000000
-0.41154656,-2.14762044,-0.69020599,-0.28979066,0.17236817,0.00000000,0.00000000,0.06105601,2.17000008,0.50725085,0.12152162,0.99857885,0.00000000,0.00000000
-0.42734432,-2.15848351,-0.69583881,-0.31752667,0.18058048,0.00000000,0.00000000,0.04946879,2.17000008,0.49641794,0.09021738,0.97728974,0.00000000,0.00000000
-0.43745658,-2.16601300,-0.70028621,-0.34326279,0.19358172,0.00000000,0.00000000,0.04614455,2.17000008,0.48580164,0.05976152,0.95660561,0.00000000,0.00000000
-0.44265282,-2.16914701,-0.70383251,-0.36741513,0.20847389,0.00000000,0.00000000,0.04586097,2.17000008,0.47506896,0.02938464,0.93930727,0.00000000,0.00000000
-0.44445005,-2.16987467,-0.70703846,-0.38894475,0.22546260,0.00000000,0.00000000,0.04659639,2.17000008,0.46413726,-0.00068514,0.92451376,0.00000000,0.00000000
-0.44103530,-2.16999364,-0.71084714,-0.40141565,0.23633192,0.00000000,0.00000000,0.04853217,2.17000008,0.45302406,-0.02956335,0.91229391,0.00000000,0.00000000
-0.43458146,-2.16998148,-0.71510881,-0.40529266,0.24306162,0.00000000,0.00000000,0.05327109,2.17000008,0.44176158,-0.05625201,0.89817685,0.00000000,0.00000000
-0.43252173,-2.16960096,-0.72110146,-0.40312183,0.24939376,0.00000000,0.00000000,0.06265563,2.17000008,0.43037674,-0.07940174,0.88450843,0.00000000,0.00000000
-0.43548852,-2.16718817,-0.72871500,-0.39586699,0.25629345,0.00000000,0.00000000,0.07677375,2.17000008,0.41892749,-0.09858709,0.87253964,0.00000000,0.00000000
-0.44227940,-2.16092086,-0.73710042,-0.38556775,0.26078948,0.00000000,0.00000000,0.09448060,2.17000008,0.40749970,-0.11433010,0.86285204,0.00000000,0.00000000
-0.45151445,-2.15210366,-0.74525386,-0.37489635,0.26936445,0.00000000,0.00000000,0.11440915,2.17000008,0.39617863,-0.12769705,0.86019152,0.00000000,0.00000000
-0.46113473,-2.14115810,-0.75260246,-0.36374474,0.28152677,0.00000000,0.00000000,0.13522188,2.17000008,0.38504651,-0.14012498,0.86030704,0.00000000,0.00000000
-0.46874136,-2.12864184,-0.75869870,-0.35079575,0.29721966,0.00000000,0.00000000,0.15572220,2.17000008,0.37421474,-0.15279830,0.86281425,0.00000000,0.00000000
-0.47419244,-2.11514449,-0.76349491,-0.33570829,0.31429499,0.00000000,0.00000000,0.17466763,2.17000008,0.36386597,-0.16621304,0.86045963,0.00000000,0.00000000
-0.48014167,-2.10063648,-0.76746225,-0.31928802,0.33148497,0.00000000,0.00000000,0.19103588,2.17000008,0.35421336,-0.18027665,0.86131370,0.00000000,0.00000000
-0.48836643,-2.08501220,-0.77094573,-0.30217463,0.34664971,0.00000000,0.00000000,0.20414862,2.17000008,0.34544966,-0.19473283,0.86307597,0.00000000,0.00000000
-0.49828473,-2.06951976,-0.77379006,-0.28496006,0.36123386,0.00000000,0.00000000,0.21326263,2.17000008,0.33776772,-0.20952460,0.86711627,0.00000000,0.00000000
-0.50836706,-2.05776834,-0.77547038,-0.26948521,0.37743741,0.00000000,0.00000000,0.21735892,2.17000008,0.33137405,-0.22501168,0.87333637,0.00000000,0.00000000
-0.51623142,-2.05272245,-0.77549160,-0.25733936,0.39042664,0.00000000,0.00000000,0.21540958,2.17000008,0.32644957,-0.24201021,0.87779135,0.00000000,0.00000000
-0.52133787,-2.05360413,-0.77403075,-0.24856611,0.40197325,0.00000000,0.00000000,0.20696487,2.17000008,0.32308024,-0.26151648,0.88237828,0.00000000,0.00000000
-0.52449942,-2.05943918,-0.77142560,-0.24323420,0.40968502,0.00000000,0.00000000,0.19273742,2.17000008,0.32118359,-0.28426784,0.88262838,0.00000000,0.00000000
-0.52673662,-2.06969213,-0.76794958,-0.24164078,0.41433477,0.00000000,0.00000000,0.17478088,2.17000008,0.32044825,-0.31051907,0.89047951,0.00000000,0.00000000
-0.53003311,-2.08365560,-0.76395470,-0.24440321,0.42326328,0.00000000,0.00000000,0.15632327,2.17000008,0.32032093,-0.33977851,0.89991909,0.00000000,0.00000000
-0.53751814,-2.10018778,-0.75992149,-0.25238779,0.42768082,0.00000000,0.00000000,0.14102407,2.17000008,0.32013994,-0.37059930,0.91311747,0.00000000,0.00000000
-0.55176181,-2.11772060,-0.75629646,-0.26603431,0.43020365,0.00000000,0.00000000,0.13169160,2.17000008,0.31937382,-0.40111911,0.92476302,0.00000000,0.00000000
-0.57185811,-2.13452578,-0.75316584,-0.28436828,0.43354517,0.00000000,0.00000000,0.12913977,2.17000008,0.31778893,-0.43025696,0.93696105,0.00000000,0.00000000
-0.59469664,-2.14904356,-0.75033236,-0.30561361,0.43509600,0.00000000,0.00000000,0.13233811,2.17000008,0.31549218,-0.45763081,0.95394665,0.00000000,0.00000000
-0.61798614,-2.16007495,-0.74760681,-0.32839715,0.44010311,0.00000000,0.00000000,0.13958201,2.17000008,0.31281671,-0.48269823,0.96276855,0.00000000,0.00000000
-0.64046288,-2.16683435,-0.74481970,-0.35184377,0.44494927,0.00000000,0.00000000,0.14918628,2.17000008,0.31017819,-0.50465745,0.96649873,0.00000000,0.00000000
-0.66080219,-2.16947484,-0.74171776,-0.37503383,0.44858822,0.00000000,0.00000000,0.15951884,2.17000008,0.30802628,-0.52264553,0.96931422,0.00000000,0.00000000
-0.67725283,-2.16997290,-0.73797148,-0.39665058,0.45178512,0.00000000,0.00000000,0.16898701,2.17000008,0.30681002,-0.53579134,0.96441573,0.00000000,0.00000000
-0.68760985,-2.17000008,-0.73319757,-0.41489950,0.45762920,0.00000000,0.00000000,0.17619379,2.17000008,0.30688751,-0.54329652,0.95832169,0.00000000,0.00000000
-0.68954831,-2.17000008,-0.72693986,-0.42791891,0.46339774,0.00000000,0.00000000,0.18029006,2.17000008,0.30840048,-0.54459697,0.94672990,0.00000000,0.00000000
-0.68187910,-2.17000008,-0.71923035,-0.43318665,0.47036192,0.00000000,0.00000000,0.18133429,2.17000008,0.31118944,-0.53954446,0.93122518,0.00000000,0.00000000
-0.66401333,-2.17000008,-0.71079123,-0.42662793,0.47600529,0.00000000,0.00000000,0.18010472,2.17000008,0.31486958,-0.52859873,0.91683435,0.00000000,0.00000000
-0.63467026,-2.17000008,-0.70120513,-0.40843105,0.48218346,0.00000000,0.00000000,0.17705610,2.17000008,0.31913587,-0.51301408,0.90262735,0.00000000,0.00000000
-0.59706599,-2.17000008,-0.69074482,-0.38213280,0.48559555,0.00000000,0.00000000,0.17266437,2.17000008,0.32363933,-0.49473065,0.88799632,0.00000000,0.00000000
-0.55513090,-2.17000008,-0.68022805,-0.34972629,0.48654732,0.00000000,0.00000000,0.16753715,2.17000008,0.32800549,-0.47565758,0.87304771,0.00000000,0.00000000
-0.51233441,-2.16996264,-0.67037570,-0.31250790,0.48617241,0.00000000,0.00000000,0.16239724,2.17000008,0.33193183,-0.45704338,0.85860968,0.00000000,0.00000000
-0.47000340,-2.16923833,-0.66131240,-0.27170715,0.49073523,0.00000000,0.00000000,0.15780912,2.17000008,0.33525750,-0.43968570,0.84627426,0.00000000,0.00000000
-0.42560634,-2.16493702,-0.65251523,-0.22768119,0.49839735,0.00000000,0.00000000,0.15329848,2.17000008,0.33819973,-0.42420560,0.83391494,0.00000000,0.00000000
-0.37622589,-2.15333009,-0.64349377,-0.18070017,0.51207626,0.00000000,0.00000000,0.14698391,2.17000008,0.34150913,-0.41081458,0.82395351,0.00000000,0.00000000
-0.32476169,-2.13497210,-0.63440138,-0.13297322,0.52849954,0.00000000,0.00000000,0.13723488,2.17000008,0.34605721,-0.39905876,0.81327742,0.00000000,0.00000000
-0.27964211,-2.11214995,-0.62579614,-0.08851793,0.54802769,0.00000000,0.00000000,0.12474128,2.17000008,0.35218582,-0.38810429,0.80254889,0.00000000,0.00000000
-0.24573244,-2.08965683,-0.61782610,-0.05131456,0.56443959,0.00000000,0.00000000,0.11022478,2.17000008,0.36007917,-0.37733710,0.79058552,0.00000000,0.00000000
-0.22265688,-2.07375073,-0.61033452,-0.02422801,0.57657868,0.00000000,0.00000000,0.09360151,2.17000008,0.37001753,-0.36602089,0.77999711,0.00000000,0.00000000
-0.20827983,-2.06401873,-0.60328960,-0.00621019,0.58918715,0.00000000,0.00000000,0.07531936,2.17000008,0.38206100,-0.35328543,0.76761085,0.00000000,0.00000000
-0.20326371,-2.05928040,-0.59673870,0.00299021,0.60076958,0.00000000,0.00000000,0.05701671,2.17000008,0.39584914,-0.33852816,0.75921720,0.00000000,0.00000000
-0.20856361,-2.05955982,-0.59070086,0.00287174,0.61491364,0.00000000,0.00000000,0.04075328,2.17000008,0.41077232,-0.32184657,0.74684066,0.00000000,0.00000000
-0.22347733,-2.06515574,-0.58516908,-0.00655702,0.63053018,0.00000000,0.00000000,0.02752889,2.17000008,0.42631739,-0.30432782,0.73808712,0.00000000,0.00000000
-0.24627319,-2.07592726,-0.58010811,-0.02459362,0.65247089,0.00000000,0.00000000,0.01733967,2.17000008,0.44216558,-0.28738534,0.73069751,0.00000000,0.00000000
-0.27413213,-2.09089661,-0.57542527,-0.04961045,0.66993874,0.00000000,0.00000000,0.00931503,2.17000008,0.45825106,-0.27202553,0.72355920,0.00000000,0.00000000
-0.30285788,-2.10838342,-0.57092309,-0.07904514,0.69036484,0.00000000,0.00000000,0.00170001,2.17000008,0.47475407,-0.25876129,0.71635872,0.00000000,0.00000000
-0.32786998,-2.12663984,-0.56628019,-0.11008865,0.71135700,0.00000000,0.00000000,-0.00695515,2.17000008,0.49183756,-0.24783948,0.70535880,0.00000000,0.00000000
-0.34734374,-2.14415526,-0.56123745,-0.14092921,0.73426098,0.00000000,0.00000000,-0.01578466,2.17000008,0.50930738,-0.23922218,0.69891649,0.00000000,0.00000000
-0.36334828,-2.15865517,-0.55582505,-0.17080016,0.75811505,0.00000000,0.00000000,-0.02154341,2.16987848,0.52665472,-0.23239799,0.68452466,0.00000000,0.00000000
-0.37730590,-2.16747379,-0.55019027,-0.19815426,0.78005362,0.00000000,0.00000000,-0.02194477,2.16788054,0.54359615,-0.22663282,0.66715086,0.00000000,0.00000000
-0.39019403,-2.16985106,-0.54464716,-0.21993232,0.80496979,0.00000000,0.00000000,-0.01692846,2.15966940,0.56026328,-0.22107697,0.64797944,0.00000000,0.00000000
-0.40125614,-2.17000008,-0.53925771,-0.23312873,0.82964987,0.00000000,0.00000000,-0.00703989,2.14369416,0.57685375,-0.21517362,0.63022339,0.00000000,0.00000000
-0.41003191,-2.17000008,-0.53419554,-0.23444130,0.85372055,0.00000000,0.00000000,0.00818662,2.12123728,0.59343165,-0.20814925,0.61360353,0.00000000,0.00000000
-0.41647315,-2.17000008,-0.52934074,-0.22375157,0.87872410,0.00000000,0.00000000,0.03025855,2.09427190,0.60995096,-0.19881797,0.59493285,0.00000000,0.00000000
-0.41969249,-2.17000008,-0.52428466,-0.20255466,0.89649296,0.00000000,0.00000000,0.06040797,2.06526780,0.62642425,-0.18584771,0.58666599,0.00000000,0.00000000
-0.41777915,-2.16993308,-0.51858217,-0.17235751,0.91107488,0.00000000,0.00000000,0.09870543,2.03676343,0.64296913,-0.16824384,0.58055961,0.00000000,0.00000000
-0.40850419,-2.16886950,-0.51193774,-0.13462143,0.92554927,0.00000000,0.00000000,0.14415661,2.01065135,0.65972096,-0.14567068,0.57460719,0.00000000,0.00000000
-0.39004740,-2.16493535,-0.50432682,-0.09072774,0.94000638,0.00000000,0.00000000,0.19513309,1.98806036,0.67675799,-0.11846788,0.57354528,0.00000000,0.00000000
-0.36096993,-2.15863562,-0.49598089,-0.04188581,0.95177382,0.00000000,0.00000000,0.24955803,1.96955514,0.69407785,-0.08757462,0.57375813,0.00000000,0.00000000
-0.32053852,-2.15189719,-0.48731884,0.01058814,0.96361458,0.00000000,0.00000000,0.30494916,1.95518839,0.71158642,-0.05440325,0.57473499,0.00000000,0.00000000
-0.26954633,-2.14677334,-0.47886848,0.06501856,0.97605753,0.00000000,0.00000000,0.35852715,1.94436383,0.72909403,-0.02068773,0.58191568,0.00000000,0.00000000
-0.20961680,-2.14369559,-0.47118068,0.12052632,0.99146152,0.00000000,0.00000000,0.40776980,1.93603027,0.74633390,0.01179833,0.58506042,0.00000000,0.00000000
-0.14571276,-2.14174771,-0.46445525,0.17605746,1.00832951,0.00000000,0.00000000,0.45167199,1.92965627,0.76301086,0.04187523,0.58395892,0.00000000,0.00000000
-0.08723191,-2.13859463,-0.45805401,0.22973841,1.02355087,0.00000000,0.00000000,0.49136558,1.92602181,0.77885598,0.06943828,0.58112919,0.00000000,0.00000000
-0.03874419,-2.13209939,-0.45135698,0.28059068,1.03514099,0.00000000,0.00000000,0.52803785,1.92620671,0.79363227,0.09475345,0.57945991,0.00000000,0.00000000
-0.00012501,-2.12330580,-0.44439286,0.32741165,1.04707956,0.00000000,0.00000000,0.55984306,1.92928231,0.80710340,0.11682354,0.57605445,0.00000000,0.00000000
0.02986480,-2.11587977,-0.43764424,0.36819452,1.06007969,0.00000000,0.00000000,0.58430374,1.93329275,0.81910568,0.13414696,0.57498699,0.00000000,0.00000000
0.05204779,-2.11189723,-0.43148643,0.40177211,1.07327676,0.00000000,0.00000000,0.60041451,1.93600476,0.82964432,0.14535691,0.58076030,0.00000000,0.00000000
0.06720053,-2.11148500,-0.42616054,0.42798707,1.08050478,0.00000000,0.00000000,0.60965538,1.93721569,0.83882332,0.15103075,0.58030486,0.00000000,0.00000000
0.07615367,-2.11385322,-0.42182001,0.44715169,1.08666980,0.00000000,0.00000000,0.61424166,1.93976927,0.84662992,0.15383144,0.57456422,0.00000000,0.00000000
0.07925558,-2.11842656,-0.41849834,0.45937914,1.09244990,0.00000000,0.00000000,0.61435676,1.94361508,0.85310751,0.15393627,0.57031620,0.00000000,0.00000000
0.07633112,-2.12495208,-0.41607976,0.46449977,1.09806788,0.00000000,0.00000000,0.60899198,1.94982708,0.85815489,0.15117985,0.56378400,0.00000000,0.00000000
0.06689746,-2.13292098,-0.41423878,0.46234033,1.10101962,0.00000000,0.00000000,0.59658998,1.95929050,0.86169899,0.14518328,0.55737609,0.00000000,0.00000000
0.05046004,-2.14123034,-0.41246819,0.45298922,1.09805274,0.00000000,0.00000000,0.57640785,1.97318506,0.86374682,0.13619028,0.55455971,0.00000000,0.00000000
0.02680218,-2.14843130,-0.41027150,0.43690783,1.09810531,0.00000000,0.00000000,0.54893160,1.99246252,0.86441284,0.12509677,0.55322397,0.00000000,0.00000000
-0.00398478,-2.15372276,-0.40743417,0.41462806,1.09022987,0.00000000,0.00000000,0.51794887,2.01562071,0.86410934,0.11348472,0.55741131,0.00000000,0.00000000
-0.04094778,-2.15755510,-0.40428931,0.38666669,1.08134007,0.00000000,0.00000000,0.48969364,2.03790522,0.86349440,0.10277227,0.55957669,0.00000000,0.00000000
-0.08187030,-2.15956426,-0.40146032,0.35470420,1.06833506,0.00000000,0.00000000,0.46500283,2.05620623,0.86283523,0.09239488,0.55775076,0.00000000,0.00000000
-0.12303789,-2.15943837,-0.39980236,0.32117504,1.05500805,0.00000000,0.00000000,0.44138581,2.06851530,0.86217058,0.08066139,0.55484819,0.00000000,0.00000000
-0.15972312,-2.15777659,-0.40020657,0.28845122,1.03974223,0.00000000,0.00000000,0.41542926,2.07435513,0.86145747,0.06606267,0.55151671,0.00000000,0.00000000
-0.18852569,-2.15566730,-0.40310663,0.25811359,1.02495599,0.00000000,0.00000000,0.38745973,2.07642627,0.86066121,0.04997042,0.54751867,0.00000000,0.00000000
-0.20881285,-2.15435171,-0.40836063,0.23055677,1.00972402,0.00000000,0.00000000,0.36429483,2.07532191,0.85997713,0.03578410,0.54379380,0.00000000,0.00000000
-0.22114827,-2.15468359,-0.41561636,0.20568877,0.99683833,0.00000000,0.00000000,0.34646347,2.06986451,0.85949129,0.02336738,0.54606730,0.00000000,0.00000000
-0.22609340,-2.15676093,-0.42452917,0.18352045,0.98807085,0.00000000,0.00000000,0.33477148,2.06209254,0.85922462,0.01403191,0.54776460,0.00000000,0.00000000
-0.22419295,-2.16010022,-0.43479133,0.16413833,0.97827232,0.00000000,0.00000000,0.33027619,2.05433559,0.85920709,0.00930294,0.55020958,0.00000000,0.00000000
-0.21598957,-2.16389966,-0.44614473,0.14762980,0.96403623,0.00000000,0.00000000,0.33278754,2.04884744,0.85945922,0.01020042,0.55169129,0.00000000,0.00000000
-0.20190880,-2.16727400,-0.45839801,0.13407990,0.94373041,0.00000000,0.00000000,0.34086406,2.04819322,0.85997140,0.01740473,0.55620122,0.00000000,0.00000000
-0.18216099,-2.16938019,-0.47143164,0.12360079,0.92064744,0.00000000,0.00000000,0.35224560,2.05369687,0.86069119,0.03067321,0.55952406,0.00000000,0.00000000
-0.15672293,-2.16996002,-0.48518780,0.11638081,0.90176553,0.00000000,0.00000000,0.36509448,2.06430125,0.86154383,0.04880868,0.56072640,0.00000000,0.00000000
-0.12547170,-2.17000008,-0.49965253,0.11263033,0.88330865,0.00000000,0.00000000,0.37828183,2.07814503,0.86244941,0.07040065,0.56125379,0.00000000,0.00000000
-0.08859035,-2.16998506,-0.51483458,0.11227664,0.86991405,0.00000000,0.00000000,0.38996068,2.09440279,0.86326033,0.09395060,0.56365991,0.00000000,0.00000000
-0.04726070,-2.16972136,-0.53073299,0.11451349,0.85952967,0.00000000,0.00000000,0.39725295,2.11286759,0.86373627,0.11761519,0.56849879,0.00000000,0.00000000
-0.00410722,-2.16845489,-0.54730618,0.11765017,0.85699081,0.00000000,0.00000000,0.39931083,2.13255334,0.86374849,0.14019366,0.57106137,0.00000000,0.00000000
0.03746497,-2.16570401,-0.56448621,0.11956836,0.85397959,0.00000000,0.00000000,0.39935592,2.15082598,0.86353856,0.16195048,0.57468891,0.00000000,0.00000000
0.07456665,-2.16214299,-0.58222800,0.11842578,0.84650946,0.00000000,0.00000000,0.40101624,2.16346407,0.86359590,0.18299195,0.57759851,0.00000000,0.00000000
0.10543265,-2.15831065,-0.60052371,0.11307855,0.83686763,0.00000000,0.00000000,0.40477675,2.16884613,0.86415470,0.20287992,0.57903636,0.00000000,0.00000000
0.12955970,-2.15406060,-0.61940819,0.10315516,0.82565409,0.00000000,0.00000000,0.40825987,2.16993856,0.86503559,0.22101329,0.58540124,0.00000000,0.00000000
0.14712454,-2.14891028,-0.63893956,0.08873492,0.81848288,0.00000000,0.00000000,0.40910637,2.16999006,0.86592299,0.23726262,0.59528333,0.00000000,0.00000000
0.15837844,-2.14230180,-0.65917522,0.07003424,0.81749469,0.00000000,0.00000000,0.40596488,2.16985798,0.86650670,0.25207576,0.60320038,0.00000000,0.00000000
0.16346943,-2.13369036,-0.68016672,0.04730143,0.81621844,0.00000000,0.00000000,0.39730313,2.16965413,0.86629713,0.26607293,0.61320162,0.00000000,0.00000000
0.16232857,-2.12271547,-0.70196265,0.02071225,0.81123751,0.00000000,0.00000000,0.38410264,2.16985798,0.86516458,0.28006834,0.62467647,0.00000000,0.00000000
0.15458132,-2.10945940,-0.72460675,-0.00976961,0.80484885,0.00000000,0.00000000,0.37171805,2.16999030,0.86415505,0.29336977,0.62825209,0.00000000,0.00000000
0.13991959,-2.09428144,-0.74812829,-0.04421178,0.80429196,0.00000000,0.00000000,0.35497496,2.17000008,0.86286032,0.30127314,0.63284326,0.00000000,0.00000000
0.11847220,-2.07775617,-0.77251863,-0.08258369,0.80227011,0.00000000,0.00000000,0.33361050,2.17000008,0.86120206,0.30295449,0.64421457,0.00000000,0.00000000
0.09114123,-2.06071877,-0.79767883,-0.12462483,0.80083704,0.00000000,0.00000000,0.30897224,2.17000008,0.85931796,0.29876760,0.65165132,0.00000000,0.00000000
0.05957131,-2.04472852,-0.82333577,-0.16995052,0.79295278,0.00000000,0.00000000,0.28233850,2.17000008,0.85750115,0.28876692,0.65623146,0.00000000,0.00000000
0.02541514,-2.03173232,-0.84903914,-0.21809553,0.78717601,0.00000000,0.00000000,0.25748253,2.17000008,0.85632467,0.27414745,0.65708059,0.00000000,0.00000000
-0.00998100,-2.02280951,-0.87426966,-0.26812968,0.78271514,0.00000000,0.00000000,0.23774672,2.16994929,0.85595554,0.25699764,0.65339607,0.00000000,0.00000000
-0.04482399,-2.01805544,-0.89845818,-0.31843743,0.77479053,0.00000000,0.00000000,0.22187473,2.16915917,0.85588241,0.23817813,0.65063602,0.00000000,0.00000000
-0.07727937,-2.01691031,-0.92106974,-0.36714432,0.77077651,0.00000000,0.00000000,0.20663992,2.16644216,0.85543823,0.21797909,0.64048415,0.00000000,0.00000000
-0.10579174,-2.01846075,-0.94166392,-0.41245294,0.76720822,0.00000000,0.00000000,0.18903916,2.16286659,0.85413945,0.19671637,0.63110942,0.00000000,0.00000000
-0.12907046,-2.02178574,-0.95988858,-0.45281735,0.76566809,0.00000000,0.00000000,0.16688795,2.16014218,0.85178286,0.17462964,0.62929189,0.00000000,0.00000000
-0.14611641,-2.02612829,-0.97547412,-0.48702064,0.76785970,0.00000000,0.00000000,0.13956235,2.15894723,0.84845334,0.15209445,0.62721902,0.00000000,0.00000000
-0.15644692,-2.03090048,-0.98827714,-0.51422131,0.76968318,0.00000000,0.00000000,0.10923046,2.15884709,0.84450418,0.13020401,0.62540013,0.00000000,0.00000000
-0.16032794,-2.03548431,-0.99836850,-0.53396386,0.77462357,0.00000000,0.00000000,0.08047196,2.15917587,0.84038794,0.11097266,0.62628502,0.00000000,0.00000000
-0.15854426,-2.03892803,-1.00607288,-0.54604518,0.77866620,0.00000000,0.00000000,0.05746429,2.16008687,0.83641106,0.09653684,0.62280875,0.00000000,0.00000000
-0.15185192,-2.04004407,-1.01183748,-0.55040371,0.77933264,0.00000000,0.00000000,0.04198354,2.16227007,0.83268505,0.08815485,0.62516314,0.00000000,0.00000000
-0.14083077,-2.03828597,-1.01595247,-0.54738331,0.77960664,0.00000000,0.00000000,0.03398994,2.16548061,0.82925642,0.08586207,0.62992382,0.00000000,0.00000000
-0.12617375,-2.03426051,-1.01844382,-0.53805393,0.77775431,0.00000000,0.00000000,0.03251610,2.16837454,0.82615781,0.08876188,0.63588274,0.00000000,0.00000000
-0.10896657,-2.02947307,-1.01919794,-0.52420795,0.77787524,0.00000000,0.00000000,0.03613712,2.16971588,0.82339996,0.09546731,0.64206165,0.00000000,0.00000000
-0.09038693,-2.02539325,-1.01817322,-0.50775224,0.78263360,0.00000000,0.00000000,0.04317608,2.16998529,0.82095397,0.10447850,0.65072864,0.00000000,0.00000000
-0.07198939,-2.02294540,-1.01556146,-0.49046177,0.79378295,0.00000000,0.00000000,0.05239603,2.17000008,0.81878072,0.11452648,0.66066933,0.00000000,0.00000000
-0.05525571,-2.02232027,-1.01172292,-0.47362292,0.80238801,0.00000000,0.00000000,0.06282346,2.17000008,0.81683260,0.12455971,0.66889173,0.00000000,0.00000000
-0.04124669,-2.02341628,-1.00699747,-0.45803872,0.81004161,0.00000000,0.00000000,0.07360932,2.17000008,0.81505907,0.13370453,0.67901468,0.00000000,0.00000000
-0.03056741,-2.02646375,-1.00154722,-0.44426611,0.81333846,0.00000000,0.00000000,0.08422703,2.17000008,0.81342691,0.14129907,0.68848187,0.00000000,0.00000000
-0.02338850,-2.03213334,-0.99534541,-0.43271303,0.81620377,0.00000000,0.00000000,0.09459960,2.17000008,0.81193268,0.14690705,0.69704223,0.00000000,0.00000000
-0.01961827,-2.04110932,-0.98830456,-0.42363399,0.81004268,0.00000000,0.00000000,0.10510511,2.16996956,0.81059819,0.15036261,0.70488846,0.00000000,0.00000000
-0.01915096,-2.05372071,-0.98039067,-0.41714558,0.80334049,0.00000000,0.00000000,0.11649801,2.16941428,0.80944967,0.15186769,0.71451980,0.00000000,0.00000000
-0.02188082,-2.06990767,-0.97162884,-0.41318724,0.79869986,0.00000000,0.00000000,0.12950772,2.16648841,0.80846936,0.15193689,0.72104293,0.00000000,0.00000000
-0.02736044,-2.08911610,-0.96207362,-0.41127908,0.79451108,0.00000000,0.00000000,0.14404574,2.15936589,0.80753875,0.15104461,0.72600955,0.00000000,0.00000000
-0.03465456,-2.11004877,-0.95183784,-0.41037634,0.79547423,0.00000000,0.00000000,0.15908723,2.14910626,0.80644947,0.14944530,0.72507495,0.00000000,0.00000000
-0.04250716,-2.13077879,-0.94109595,-0.40905347,0.79263568,0.00000000,0.00000000,0.17367245,2.13778162,0.80500424,0.14742269,0.71621555,0.00000000,0.00000000
-0.04933646,-2.14901805,-0.93003398,-0.40565631,0.78495681,0.00000000,0.00000000,0.18753694,2.12713099,0.80307937,0.14546464,0.70523769,0.00000000,0.00000000
-0.05370897,-2.16214418,-0.91892499,-0.39852807,0.77641624,0.00000000,0.00000000,0.20072256,2.11849976,0.80059922,0.14410315,0.69397879,0.00000000,0.00000000
-0.05485730,-2.16847324,-0.90816587,-0.38631341,0.77087575,0.00000000,0.00000000,0.21326143,2.11276603,0.79751551,0.14374720,0.68091673,0.00000000,0.00000000
-0.05248568,-2.16991472,-0.89812636,-0.36811823,0.76406771,0.00000000,0.00000000,0.22508338,2.11024618,0.79380238,0.14461437,0.67005301,0.00000000,0.00000000
-0.04633186,-2.16988492,-0.88893616,-0.34366769,0.75425637,0.00000000,0.00000000,0.23587336,2.11080956,0.78943974,0.14673236,0.66023779,0.00000000,0.00000000
-0.03594699,-2.16804934,-0.88042194,-0.31339422,0.74483788,0.00000000,0.00000000,0.24498665,2.11429620,0.78438425,0.15007693,0.64674592,0.00000000,0.00000000
-0.02108873,-2.16123414,-0.87229294,-0.27844021,0.73650897,0.00000000,0.00000000,0.25153288,2.12089825,0.77855682,0.15477976,0.63518929,0.00000000,0.00000000
-0.00288529,-2.15032959,-0.86442691,-0.24081033,0.73711854,0.00000000,0.00000000,0.25538942,2.13110590,0.77192110,0.16151348,0.62906849,0.00000000,0.00000000
0.01544665,-2.13834500,-0.85698467,-0.20339425,0.73734748,0.00000000,0.00000000,0.25898135,2.14406180,0.76472658,0.17140250,0.62638515,0.00000000,0.00000000
0.03014508,-2.12741971,-0.85029602,-0.16888647,0.74117976,0.00000000,0.00000000,0.26750872,2.15599346,0.75766331,0.18573084,0.62377095,0.00000000,0.00000000
0.03950100,-2.11827016,-0.84463543,-0.13853489,0.74844056,0.00000000,0.00000000,0.28562093,2.16442013,0.75132370,0.20682363,0.62090755,0.00000000,0.00000000
0.04413564,-2.11113763,-0.84013546,-0.11244005,0.75481474,0.00000000,0.00000000,0.31037804,2.16882873,0.74555165,0.23375334,0.62341762,0.00000000,0.00000000
0.04549144,-2.10591769,-0.83689553,-0.09031257,0.76563555,0.00000000,0.00000000,0.33555165,2.16993237,0.73987633,0.26349431,0.62630242,0.00000000,0.00000000
0.04438544,-2.10210156,-0.83505595,-0.07210201,0.77293080,0.00000000,0.00000000,0.35801935,2.17000008,0.73400384,0.29436675,0.62580675,0.00000000,0.00000000
0.04067676,-2.09904099,-0.83477241,-0.05821047,0.77557170,0.00000000,0.00000000,0.37657601,2.17000008,0.72769195,0.32581007,0.62595069,0.00000000,0.00000000
0.03362564,-2.09632468,-0.83617193,-0.04934688,0.78073156,0.00000000,0.00000000,0.39112499,2.17000008,0.72079647,0.35781962,0.62875795,0.00000000,0.00000000
0.02256490,-2.09393811,-0.83932722,-0.04615448,0.78297383,0.00000000,0.00000000,0.40276358,2.17000008,0.71354616,0.38999254,0.63189071,0.00000000,0.00000000
0.00730243,-2.09201002,-0.84426314,-0.04890153,0.78349292,0.00000000,0.00000000,0.41202548,2.17000008,0.70654321,0.41924918,0.63534814,0.00000000,0.00000000
-0.01193113,-2.09051275,-0.85097021,-0.05743136,0.78554595,0.00000000,0.00000000,0.41977882,2.17000008,0.70063955,0.44120702,0.63331842,0.00000000,0.00000000
-0.03471262,-2.08918047,-0.85941279,-0.07128235,0.78463864,0.00000000,0.00000000,0.42612782,2.17000008,0.69624919,0.45275500,0.62880683,0.00000000,0.00000000
-0.06058401,-2.08752775,-0.86953402,-0.08980870,0.78386670,0.00000000,0.00000000,0.42906857,2.17000008,0.69293284,0.45229715,0.62218201,0.00000000,0.00000000
-0.08903790,-2.08503127,-0.88125265,-0.11227375,0.78448343,0.00000000,0.00000000,0.42659405,2.17000008,0.69009548,0.43916953,0.61721426,0.00000000,0.00000000
-0.11941323,-2.08125138,-0.89445382,-0.13785312,0.78284591,0.00000000,0.00000000,0.41700068,2.17000008,0.68722522,0.41305229,0.61006302,0.00000000,0.00000000
-0.15087707,-2.07580853,-0.90898669,-0.16560994,0.77828854,0.00000000,0.00000000,0.39795458,2.16999531,0.68365186,0.37396067,0.60233951,0.00000000,0.00000000
-0.18257010,-2.06837702,-0.92467374,-0.19458191,0.77503496,0.00000000,0.00000000,0.36788517,2.16987157,0.67858934,0.32397765,0.59060305,0.00000000,0.00000000
-0.21383567,-2.05868816,-0.94133472,-0.22393988,0.77451950,0.00000000,0.00000000,0.32790393,2.16881585,0.67164856,0.26764527,0.57835913,0.00000000,0.00000000
-0.24454917,-2.04638958,-0.95883834,-0.25309673,0.77009130,0.00000000,0.00000000,0.27889189,2.16552830,0.66268671,0.20850606,0.56637114,0.00000000,0.00000000
-0.27529496,-2.03138828,-0.97709423,-0.28187257,0.76203078,0.00000000,0.00000000,0.22366987,2.15997124,0.65217578,0.14853416,0.55387318,0.00000000,0.00000000
-0.30720115,-2.01414347,-0.99600828,-0.31050026,0.75807077,0.00000000,0.00000000,0.16792744,2.15147901,0.64091438,0.08940151,0.54084665,0.00000000,0.00000000
-0.34093222,-1.99556375,-1.01539350,-0.33919522,0.75821680,0.00000000,0.00000000,0.11726338,2.13995790,0.62942982,0.03281542,0.52691114,0.00000000,0.00000000
-0.37563857,-1.97659099,-1.03490508,-0.36762601,0.76004410,0.00000000,0.00000000,0.07433353,2.12643242,0.61795664,-0.02014289,0.51644075,0.00000000,0.00000000
-0.40909439,-1.95782936,-1.05408335,-0.39485216,0.75721973,0.00000000,0.00000000,0.03839706,2.11260962,0.60661232,-0.06921110,0.50834280,0.00000000,0.00000000
-0.43874669,-1.94021761,-1.07231665,-0.41996220,0.74987757,0.00000000,0.00000000,0.00856871,2.09921813,0.59548390,-0.11436814,0.50283819,0.00000000,0.00000000
-0.46225157,-1.92511499,-1.08886838,-0.44228700,0.74600035,0.00000000,0.00000000,-0.01478197,2.08640218,0.58462197,-0.15512598,0.50603718,0.00000000,0.00000000
-0.47800013,-1.91343844,-1.10313940,-0.46131226,0.74146932,0.00000000,0.00000000,-0.03117132,2.07588649,0.57412928,-0.19012479,0.51213712,0.00000000,0.00000000
-0.48524106,-1.90546000,-1.11477339,-0.47665966,0.73593003,0.00000000,0.00000000,-0.04156922,2.06885505,0.56421351,-0.21892074,0.51780194,0.00000000,0.00000000
-0.48392799,-1.90112221,-1.12360251,-0.48814428,0.72648525,0.00000000,0.00000000,-0.04699590,2.06536937,0.55505538,-0.24177626,0.52118653,0.00000000,0.00000000
-0.47463670,-1.90023303,-1.12961042,-0.49581575,0.71690774,0.00000000,0.00000000,-0.04772402,2.06464791,0.54669255,-0.25918850,0.52343494,0.00000000,0.00000000
-0.45873630,-1.90248966,-1.13296056,-0.50005573,0.71217990,0.00000000,0.00000000,-0.04331183,2.06552601,0.53900695,-0.27162829,0.52398551,0.00000000,0.00000000
-0.43848875,-1.90724266,-1.13407767,-0.50155681,0.70605135,0.00000000,0.00000000,-0.03281434,2.06785727,0.53186494,-0.27890852,0.52734548,0.00000000,0.00000000
-0.41607353,-1.91310406,-1.13361740,-0.50073540,0.69703156,0.00000000,0.00000000,-0.01587887,2.07258821,0.52530479,-0.28049171,0.53105938,0.00000000,0.00000000
-0.39256498,-1.91834617,-1.13220477,-0.49740115,0.68357199,0.00000000,0.00000000,0.00629184,2.07946205,0.51949477,-0.27690664,0.53295898,0.00000000,0.00000000
-0.36862102,-1.92159104,-1.13031125,-0.49139392,0.67632014,0.00000000,0.00000000,0.03184799,2.08667898,0.51456481,-0.26969570,0.53340811,0.00000000,0.00000000
-0.34525576,-1.92206943,-1.12827182,-0.48309764,0.67173469,0.00000000,0.00000000,0.05933106,2.09207797,0.51054585,-0.26062191,0.53444368,0.00000000,0.00000000
-0.32369298,-1.91972172,-1.12625241,-0.47338495,0.65936863,0.00000000,0.00000000,0.08761030,2.09420538,0.50746381,-0.25117290,0.53743684,0.00000000,0.00000000
-0.30499008,-1.91535652,-1.12418723,-0.46343169,0.64452118,0.00000000,0.00000000,0.11531568,2.09271073,0.50544482,-0.24241628,0.54213989,0.00000000,0.00000000
-0.28991383,-1.91054332,-1.12180662,-0.45457882,0.63061661,0.00000000,0.00000000,0.14062370,2.08799505,0.50471282,-0.23509324,0.54496515,0.00000000,0.00000000
-0.27937248,-1.90707254,-1.11882496,-0.44834647,0.62229925,0.00000000,0.00000000,0.16188611,2.08073282,0.50547367,-0.22960725,0.54734296,0.00000000,0.00000000
-0.27464497,-1.90671563,-1.11501145,-0.44643405,0.61737293,0.00000000,0.00000000,0.17805804,2.07162499,0.50785458,-0.22605400,0.54819840,0.00000000,0.00000000
-0.27732456,-1.91001594,-1.11045432,-0.45020798,0.61243176,0.00000000,0.00000000,0.18902662,2.06200242,0.51191777,-0.22390004,0.54801708,0.00000000,0.00000000
-0.28835329,-1.91645885,-1.10538960,-0.46018463,0.60123748,0.00000000,0.00000000,0.19538362,2.05375051,0.51768744,-0.22210452,0.54941392,0.00000000,0.00000000
-0.30629051,-1.92611134,-1.09956217,-0.47579575,0.59211624,0.00000000,0.00000000,0.19773540,2.04857111,0.52517939,-0.21967074,0.55379075,0.00000000,0.00000000
-0.32650700,-1.94050217,-1.09184384,-0.49574071,0.58045119,0.00000000,0.00000000,0.19628642,2.04739070,0.53440315,-0.21607155,0.55735141,0.00000000,0.00000000
-0.34537482,-1.96083665,-1.08121133,-0.51963723,0.56697583,0.00000000,0.00000000,0.19086684,2.05028200,0.54534614,-0.21130313,0.56402713,0.00000000,0.00000000
-0.36052096,-1.98668575,-1.06715906,-0.54689598,0.55455488,0.00000000,0.00000000,0.18129139,2.05672193,0.55794787,-0.20564026,0.56892484,0.00000000,0.00000000
-0.37054193,-2.01682281,-1.04951477,-0.57687628,0.54493320,0.00000000,0.00000000,0.16785799,2.06573915,0.57205993,-0.19936207,0.56975669,0.00000000,0.00000000
-0.37561315,-2.04963613,-1.02847493,-0.60949326,0.53760064,0.00000000,0.00000000,0.15200795,2.07600451,0.58739585,-0.19245246,0.57179344,0.00000000,0.00000000
-0.37713936,-2.08320308,-1.00458491,-0.64481920,0.52853459,0.00000000,0.00000000,0.13658430,2.08599496,0.60353380,-0.18444681,0.57922232,0.00000000,0.00000000
-0.37708363,-2.11510324,-0.97873676,-0.68240923,0.51895243,0.00000000,0.00000000,0.12502787,2.09429717,0.62003499,-0.17461255,0.59106165,0.00000000,0.00000000
-0.37750670,-2.14218378,-0.95219696,-0.72100860,0.50682038,0.00000000,0.00000000,0.12006105,2.09994650,0.63659430,-0.16229001,0.59993935,0.00000000,0.00000000
-0.37941346,-2.16050243,-0.92640281,-0.75827414,0.50341821,0.00000000,0.00000000,0.12282711,2.10232210,0.65309215,-0.14724797,0.61203253,0.00000000,0.00000000
-0.38205045,-2.16832399,-0.90261596,-0.79100025,0.50028688,0.00000000,0.00000000,0.13267453,2.10096002,0.66956341,-0.12984753,0.61965466,0.00000000,0.00000000
-0.38570270,-2.16991043,-0.88265014,-0.81643659,0.49920768,0.00000000,0.00000000,0.14787242,2.09591985,0.68612725,-0.11065952,0.63013566,0.00000000,0.00000000
-0.39283904,-2.17000008,-0.86838025,-0.83422351,0.49627283,0.00000000,0.00000000,0.16670313,2.08756685,0.70288306,-0.09020834,0.64290076,0.00000000,0.00000000
-0.40463373,-2.17000008,-0.85992527,-0.84617913,0.49446237,0.00000000,0.00000000,0.18800655,2.07618070,0.71986133,-0.06895074,0.65757656,0.00000000,0.00000000
-0.41998643,-2.17000008,-0.85558170,-0.85605276,0.50046372,0.00000000,0.00000000,0.21104236,2.06186891,0.73704100,-0.04730897,0.67731857,0.00000000,0.00000000
-0.43980727,-2.17000008,-0.85386407,-0.86930621,0.50939238,0.00000000,0.00000000,0.23511314,2.04465413,0.75437522,-0.02569821,0.69855398,0.00000000,0.00000000
-0.46456790,-2.17000008,-0.85403544,-0.88844866,0.51787132,0.00000000,0.00000000,0.25923488,2.02462792,0.77180481,-0.00456268,0.71317220,0.00000000,0.00000000
-0.49200755,-2.17000008,-0.85548365,-0.91196144,0.53039867,0.00000000,0.00000000,0.28213289,2.00215220,0.78925574,0.01566765,0.72949684,0.00000000,0.00000000
-0.51732677,-2.17000008,-0.85779309,-0.93382019,0.54532182,0.00000000,0.00000000,0.30256951,1.97798526,0.80663311,0.03473496,0.74134946,0.00000000,0.00000000
-0.53696692,-2.17000008,-0.86165160,-0.94625324,0.56640595,0.00000000,0.00000000,0.31973124,1.95317972,0.82382441,0.05271385,0.75583613,0.00000000,0.00000000
-0.54993564,-2.17000008,-0.86802566,-0.94514942,0.59371221,0.00000000,0.00000000,0.33331028,1.92881560,0.84071410,0.06998558,0.77109647,0.00000000,0.00000000
-0.55496359,-2.17000008,-0.87660599,-0.92930067,0.61669153,0.00000000,0.00000000,0.34334105,1.90584636,0.85719115,0.08705897,0.78886473,0.00000000,0.00000000
-0.55152416,-2.17000008,-0.88704276,-0.89855605,0.63879752,0.00000000,0.00000000,0.35011554,1.88511515,0.87315017,0.10441346,0.80565608,0.00000000,0.00000000
-0.54005766,-2.16990328,-0.89917243,-0.85351509,0.66106379,0.00000000,0.00000000,0.35407156,1.86716926,0.88849449,0.12228955,0.82001024,0.00000000,0.00000000
-0.52065891,-2.16840434,-0.91204083,-0.79670167,0.68669099,0.00000000,0.00000000,0.35567510,1.85208511,0.90314752,0.14057660,0.83667791,0.00000000,0.00000000
-0.49600255,-2.16334391,-0.92398620,-0.73577410,0.70645553,0.00000000,0.00000000,0.35554636,1.83947814,0.91707581,0.15894377,0.85579109,0.00000000,0.00000000
-0.47627515,-2.15631342,-0.93546015,-0.68109864,0.72062165,0.00000000,0.00000000,0.35474965,1.82865751,0.93031216,0.17711380,0.87399185,0.00000000,0.00000000
-0.46418115,-2.14861846,-0.94634366,-0.63541788,0.73379028,0.00000000,0.00000000,0.35419607,1.81896865,0.94290572,0.19483528,0.89471596,0.00000000,0.00000000
-0.45897800,-2.14083934,-0.95628905,-0.59840721,0.75385356,0.00000000,0.00000000,0.35424292,1.80998397,0.95487398,0.21185303,0.91210371,0.00000000,0.00000000
-0.45989868,-2.13322854,-0.96516049,-0.56947821,0.76644969,0.00000000,0.00000000,0.35476393,1.80149293,0.96619266,0.22794275,0.92745423,0.00000000,0.00000000
-0.46647084,-2.12630296,-0.97280949,-0.54825401,0.77645898,0.00000000,0.00000000,0.35534543,1.79352045,0.97679710,0.24291594,0.94081992,0.00000000,0.00000000
-0.47947013,-2.12133336,-0.97909987,-0.53526646,0.78698295,0.00000000,0.00000000,0.35546079,1.78639853,0.98658222,0.25661874,0.95544732,0.00000000,0.00000000
-0.49846116,-2.11957788,-0.98364699,-0.53038722,0.78911543,0.00000000,0.00000000,0.35451064,1.78067267,0.99541050,0.26890257,0.96969855,0.00000000,0.00000000
-0.51892716,-2.12110472,-0.98562080,-0.53092134,0.79600608,0.00000000,0.00000000,0.35171068,1.77677894,1.00314105,0.27952179,0.98177278,0.00000000,0.00000000
-0.53658533,-2.12573123,-0.98429286,-0.53456300,0.80116993,0.00000000,0.00000000,0.34627154,1.77472711,1.00969076,0.28814322,0.98865867,0.00000000,0.00000000
-0.54971397,-2.13378072,-0.97924912,-0.54093170,0.80561906,0.00000000,0.00000000,0.33781713,1.77403164,1.01509976,0.29449087,0.99640787,0.00000000,0.00000000
-0.55803174,-2.14462304,-0.97056508,-0.54997689,0.81409830,0.00000000,0.00000000,0.32661271,1.77388358,1.01954234,0.29849222,1.00460672,0.00000000,0.00000000
-0.56223571,-2.15651083,-0.95877409,-0.56154251,0.82805651,0.00000000,0.00000000,0.31341761,1.77342916,1.02327585,0.30032527,1.01663637,0.00000000,0.00000000
-0.56433409,-2.16587305,-0.94516623,-0.57505691,0.84071821,0.00000000,0.00000000,0.29910311,1.77203667,1.02655721,0.30034843,1.03655946,0.00000000,0.00000000
-0.56724107,-2.16943693,-0.93190980,-0.58871967,0.85333765,0.00000000,0.00000000,0.28417942,1.76936519,1.02957654,0.29888302,1.05519998,0.00000000,0.00000000
-0.57277358,-2.16997480,-0.92115903,-0.59947449,0.86331165,0.00000000,0.00000000,0.26858750,1.76521766,1.03245425,0.29602939,1.07020247,0.00000000,0.00000000
-0.57977462,-2.17000008,-0.91420704,-0.60344505,0.86874557,0.00000000,0.00000000,0.25196505,1.75943160,1.03528380,0.29173794,1.08605647,0.00000000,0.00000000
-0.58598822,-2.17000008,-0.91105962,-0.59840298,0.87188560,0.00000000,0.00000000,0.23390099,1.75188911,1.03815222,0.28592432,1.10437930,0.00000000,0.00000000
-0.58994436,-2.17000008,-0.91044879,-0.58534747,0.87058932,0.00000000,0.00000000,0.21402895,1.74251080,1.04114795,0.27851665,1.12039304,0.00000000,0.00000000
-0.59050202,-2.17000008,-0.91158390,-0.56581736,0.87316251,0.00000000,0.00000000,0.19224556,1.73137641,1.04436505,0.26962385,1.13979352,0.00000000,0.00000000
-0.58510321,-2.17000008,-0.91340327,-0.54076892,0.87112164,0.00000000,0.00000000,0.16874678,1.71876860,1.04790211,0.25959751,1.15486884,0.00000000,0.00000000
-0.57181787,-2.17000008,-0.91484439,-0.51107639,0.86831510,0.00000000,0.00000000,0.14426053,1.70524848,1.05186999,0.24920155,1.16885281,0.00000000,0.00000000
-0.54990876,-2.16995835,-0.91530818,-0.47734553,0.86236078,0.00000000,0.00000000,0.12005649,1.69158471,1.05639493,0.23960787,1.17326748,0.00000000,0.00000000
-0.51991683,-2.16924930,-0.91456026,-0.44062787,0.85686892,0.00000000,0.00000000,0.09768409,1.67841721,1.06162977,0.23213239,1.17182529,0.00000000,0.00000000
-0.48472610,-2.16600251,-0.91288483,-0.40305427,0.84850550,0.00000000,0.00000000,0.07862107,1.66601598,1.06774640,0.22792025,1.17044663,0.00000000,0.00000000
-0.44903395,-2.15856934,-0.91104925,-0.36710387,0.84152889,0.00000000,0.00000000,0.06403220,1.65437961,1.07489705,0.22778437,1.17363322,0.00000000,0.00000000
-0.41754791,-2.14634299,-0.90986383,-0.33474225,0.83237398,0.00000000,0.00000000,0.05479642,1.64340436,1.08318973,0.23222595,1.17276514,0.00000000,0.00000000
-0.39392358,-2.12929201,-0.90985101,-0.30734250,0.82493323,0.00000000,0.00000000,0.05155476,1.63293386,1.09268701,0.24145988,1.17746520,0.00000000,0.00000000
-0.38010564,-2.10813880,-0.91112471,-0.28577495,0.81358999,0.00000000,0.00000000,0.05458349,1.62273180,1.10340595,0.25534913,1.18359149,0.00000000,0.00000000
-0.37608027,-2.08455920,-0.91342568,-0.27046371,0.79930544,0.00000000,0.00000000,0.06358866,1.61260664,1.11529243,0.27335417,1.18963540,0.00000000,0.00000000
-0.37845328,-2.06091642,-0.91608912,-0.26048183,0.78938603,0.00000000,0.00000000,0.07764792,1.60275257,1.12816846,0.29462731,1.19870317,0.00000000,0.00000000
-0.37886101,-2.03848171,-0.91814005,-0.25144744,0.77794164,0.00000000,0.00000000,0.09530446,1.59391630,1.14170146,0.31815255,1.20676255,0.00000000,0.00000000
-0.37339139,-2.01658678,-0.91932970,-0.23973432,0.76478010,0.00000000,0.00000000,0.11462642,1.58701968,1.15544844,0.34271502,1.21582246,0.00000000,0.00000000
-0.36224270,-1.99556792,-0.91972554,-0.22519214,0.74957621,0.00000000,0.00000000,0.13367347,1.58266175,1.16897404,0.36704892,1.22768283,0.00000000,0.00000000
-0.34943303,-1.97657847,-0.91966170,-0.21033578,0.73713636,0.00000000,0.00000000,0.15150608,1.58091903,1.18200004,0.39035290,1.24052751,0.00000000,0.00000000
-0.33944750,-1.96064353,-0.91951537,-0.19785272,0.72615027,0.00000000,0.00000000,0.16779678,1.58142483,1.19438076,0.41209817,1.25779819,0.00000000,0.00000000
-0.33378103,-1.94877160,-0.91940033,-0.18898360,0.71782780,0.00000000,0.00000000,0.18167375,1.58344066,1.20599091,0.43141198,1.26898944,0.00000000,0.00000000
