isaac-sim2real/sage/motion_files/wr75s/amass/0-Eyes_Japan_Dataset_kaiwa_walk-26-exhausted-kaiwa_poses_idx65.txt
l_joint1,l_joint2,l_joint3,l_joint4,l_joint5,l_joint6,l_joint7,r_joint1,r_joint2,r_joint3,r_joint4,r_joint5,r_joint6,r_joint7
-1.51467669,-0.86230397,-0.01860436,-0.12039910,0.15825245,0.00000000,0.00000000,-1.00399601,0.66655254,-0.10309437,-0.03515666,-0.04882501,0.00000000,0.00000000
-1.51476192,-0.86282194,-0.01887701,-0.12055539,0.18834779,0.00000000,0.00000000,-1.00358188,0.66589057,-0.10284720,-0.03525855,-0.06270799,0.00000000,0.00000000
-1.51490808,-0.86334020,-0.01939398,-0.12063477,0.21877609,0.00000000,0.00000000,-1.00275183,0.66496688,-0.10236749,-0.03536688,-0.07468375,0.00000000,0.00000000
-1.51508737,-0.86352515,-0.02013919,-0.12048385,0.24630354,0.00000000,0.00000000,-1.00148880,0.66403240,-0.10165334,-0.03542321,-0.08517989,0.00000000,0.00000000
-1.51526356,-0.86328888,-0.02109268,-0.12005643,0.27410784,0.00000000,0.00000000,-0.99979877,0.66317499,-0.10070399,-0.03539678,-0.09522443,0.00000000,0.00000000
-1.51539373,-0.86268288,-0.02223233,-0.11937286,0.30430380,0.00000000,0.00000000,-0.99770337,0.66238868,-0.09951910,-0.03528297,-0.10467868,0.00000000,0.00000000
-1.51542449,-0.86183250,-0.02353255,-0.11849781,0.33388734,0.00000000,0.00000000,-0.99524099,0.66164422,-0.09809872,-0.03512676,-0.11324639,0.00000000,0.00000000
-1.51529169,-0.86086422,-0.02496333,-0.11750145,0.36778563,0.00000000,0.00000000,-0.99246538,0.66099143,-0.09644347,-0.03500604,-0.12222600,0.00000000,0.00000000
-1.51492631,-0.85987186,-0.02649256,-0.11642953,0.39814827,0.00000000,0.00000000,-0.98943925,0.66058171,-0.09455431,-0.03499232,-0.12871586,0.00000000,0.00000000
-1.51426828,-0.85897511,-0.02809207,-0.11532033,0.43096289,0.00000000,0.00000000,-0.98622018,0.66052639,-0.09243220,-0.03512944,-0.13207205,0.00000000,0.00000000
-1.51327837,-0.85836279,-0.02974268,-0.11423085,0.46610305,0.00000000,0.00000000,-0.98284525,0.66076940,-0.09007747,-0.03542788,-0.13933583,0.00000000,0.00000000
-1.51193833,-0.85820097,-0.03143398,-0.11320883,0.50362933,0.00000000,0.00000000,-0.97932601,0.66116619,-0.08748966,-0.03587110,-0.14383687,0.00000000,0.00000000
-1.51024461,-0.85851806,-0.03316030,-0.11224872,0.54035658,0.00000000,0.00000000,-0.97565180,0.66163194,-0.08466726,-0.03644071,-0.14755560,0.00000000,0.00000000
-1.50819886,-0.85922116,-0.03491660,-0.11129762,0.58154774,0.00000000,0.00000000,-0.97179842,0.66215599,-0.08160809,-0.03713902,-0.15417448,0.00000000,0.00000000
-1.50580478,-0.86019224,-0.03669694,-0.11029419,0.62065578,0.00000000,0.00000000,-0.96773857,0.66273940,-0.07831044,-0.03797754,-0.16048841,0.00000000,0.00000000
-1.50306654,-0.86133510,-0.03849442,-0.10919067,0.65630424,0.00000000,0.00000000,-0.96345007,0.66338378,-0.07477408,-0.03895921,-0.16686077,0.00000000,0.00000000
-1.49998605,-0.86258787,-0.04029987,-0.10795923,0.68384844,0.00000000,0.00000000,-0.95892125,0.66410786,-0.07100092,-0.04007467,-0.17122386,0.00000000,0.00000000
-1.49655747,-0.86394483,-0.04210031,-0.10660059,0.71310073,0.00000000,0.00000000,-0.95415336,0.66494334,-0.06699511,-0.04130249,-0.17710614,0.00000000,0.00000000
-1.49276936,-0.86546999,-0.04387914,-0.10514849,0.73838735,0.00000000,0.00000000,-0.94915992,0.66591638,-0.06276261,-0.04260911,-0.18615502,0.00000000,0.00000000
-1.48861277,-0.86725396,-0.04562017,-0.10364722,0.75964499,0.00000000,0.00000000,-0.94395697,0.66704565,-0.05831048,-0.04396192,-0.18653259,0.00000000,0.00000000
-1.48408902,-0.86937302,-0.04731104,-0.10213665,0.78143758,0.00000000,0.00000000,-0.93855560,0.66833872,-0.05364623,-0.04534179,-0.18150865,0.00000000,0.00000000
-1.47921503,-0.87186921,-0.04894470,-0.10064702,0.80629212,0.00000000,0.00000000,-0.93295610,0.66979456,-0.04877745,-0.04674734,-0.17588519,0.00000000,0.00000000
-1.47402465,-0.87473017,-0.05051948,-0.09918641,0.82727689,0.00000000,0.00000000,-0.92714566,0.67141557,-0.04371116,-0.04818523,-0.16821527,0.00000000,0.00000000
-1.46856570,-0.87785941,-0.05203800,-0.09771810,0.84548664,0.00000000,0.00000000,-0.92109299,0.67321539,-0.03845264,-0.04965214,-0.15320812,0.00000000,0.00000000
-1.46288991,-0.88112509,-0.05350250,-0.09618237,0.85973412,0.00000000,0.00000000,-0.91475660,0.67519754,-0.03300620,-0.05112874,-0.13766985,0.00000000,0.00000000
-1.45704079,-0.88442987,-0.05491049,-0.09454166,0.87617713,0.00000000,0.00000000,-0.90809870,0.67735171,-0.02737699,-0.05259147,-0.11875507,0.00000000,0.00000000
-1.45105100,-0.88770074,-0.05625469,-0.09277719,0.88753521,0.00000000,0.00000000,-0.90108567,0.67966503,-0.02157103,-0.05402477,-0.09686354,0.00000000,0.00000000
-1.44494462,-0.89087325,-0.05752416,-0.09088067,0.89443195,0.00000000,0.00000000,-0.89368433,0.68211281,-0.01559485,-0.05544181,-0.07424948,0.00000000,0.00000000
-1.43874037,-0.89390522,-0.05870616,-0.08886288,0.89928234,0.00000000,0.00000000,-0.88585985,0.68463039,-0.00945558,-0.05688556,-0.04952840,0.00000000,0.00000000
-1.43245542,-0.89677954,-0.05978746,-0.08675521,0.90845656,0.00000000,0.00000000,-0.87757903,0.68713045,-0.00316157,-0.05839499,-0.01954902,0.00000000,0.00000000
-1.42610824,-0.89946949,-0.06075559,-0.08458438,0.91096759,0.00000000,0.00000000,-0.86881059,0.68953437,0.00327748,-0.05999576,0.01209324,0.00000000,0.00000000
-1.41970980,-0.90195817,-0.06159544,-0.08235809,0.91514343,0.00000000,0.00000000,-0.85953373,0.69180965,0.00985012,-0.06169286,0.03674237,0.00000000,0.00000000
-1.41325545,-0.90423393,-0.06228723,-0.08005431,0.92445976,0.00000000,0.00000000,-0.84973717,0.69397104,0.01654240,-0.06347717,0.06092155,0.00000000,0.00000000
-1.40673018,-0.90630376,-0.06280838,-0.07763296,0.93241763,0.00000000,0.00000000,-0.83941627,0.69602233,0.02333749,-0.06534535,0.08518383,0.00000000,0.00000000
-1.40011072,-0.90820801,-0.06313469,-0.07507218,0.94052970,0.00000000,0.00000000,-0.82857305,0.69797802,0.03021673,-0.06729360,0.11101201,0.00000000,0.00000000
-1.39337158,-0.91004056,-0.06324165,-0.07238472,0.95198101,0.00000000,0.00000000,-0.81721699,0.69986153,0.03716028,-0.06931540,0.13696533,0.00000000,0.00000000
-1.38648939,-0.91193306,-0.06310625,-0.06960157,0.95709413,0.00000000,0.00000000,-0.80536056,0.70169616,0.04414829,-0.07139140,0.16074610,0.00000000,0.00000000
-1.37945378,-0.91398853,-0.06270900,-0.06673926,0.96434909,0.00000000,0.00000000,-0.79300612,0.70350850,0.05116427,-0.07347670,0.17806253,0.00000000,0.00000000
-1.37226939,-0.91629207,-0.06203458,-0.06381267,0.97270817,0.00000000,0.00000000,-0.78014445,0.70529002,0.05819578,-0.07550719,0.19194874,0.00000000,0.00000000
-1.36494625,-0.91883022,-0.06106916,-0.06081508,0.97767031,0.00000000,0.00000000,-0.76675385,0.70706934,0.06523313,-0.07741737,0.20716116,0.00000000,0.00000000
-1.35749769,-0.92151695,-0.05979989,-0.05771869,0.97721285,0.00000000,0.00000000,-0.75280201,0.70886111,0.07226851,-0.07915785,0.21872094,0.00000000,0.00000000
-1.34994113,-0.92426425,-0.05821478,-0.05447915,0.97716677,0.00000000,0.00000000,-0.73825240,0.71061456,0.07929556,-0.08071250,0.23052873,0.00000000,0.00000000
-1.34228706,-0.92700446,-0.05630126,-0.05102867,0.97058821,0.00000000,0.00000000,-0.72306949,0.71225321,0.08630936,-0.08209402,0.24260640,0.00000000,0.00000000
-1.33453131,-0.92970794,-0.05404507,-0.04730040,0.96403515,0.00000000,0.00000000,-0.70722038,0.71371102,0.09330632,-0.08332241,0.24706650,0.00000000,0.00000000
-1.32665277,-0.93241656,-0.05143110,-0.04327198,0.96143901,0.00000000,0.00000000,-0.69067800,0.71494329,0.10028341,-0.08441514,0.24815238,0.00000000,0.00000000
-1.31861925,-0.93522990,-0.04844515,-0.03896460,0.96174622,0.00000000,0.00000000,-0.67342180,0.71594268,0.10723712,-0.08538793,0.24652854,0.00000000,0.00000000
-1.31039369,-0.93825412,-0.04507549,-0.03440336,0.95832729,0.00000000,0.00000000,-0.65543634,0.71675920,0.11416288,-0.08625233,0.24319398,0.00000000,0.00000000
-1.30193996,-0.94158649,-0.04131409,-0.02959913,0.95954114,0.00000000,0.00000000,-0.63670695,0.71747136,0.12105553,-0.08701120,0.24623929,0.00000000,0.00000000
-1.29322314,-0.94533616,-0.03715693,-0.02455963,0.96103090,0.00000000,0.00000000,-0.61721802,0.71814960,0.12791072,-0.08766223,0.23997959,0.00000000,0.00000000
-1.28420472,-0.94961518,-0.03260403,-0.01929072,0.96345222,0.00000000,0.00000000,-0.59695041,0.71887171,0.13472582,-0.08821235,0.23038165,0.00000000,0.00000000
-1.27484214,-0.95448846,-0.02765996,-0.01377924,0.96820915,0.00000000,0.00000000,-0.57587653,0.71973020,0.14150141,-0.08867577,0.22323619,0.00000000,0.00000000
-1.26509190,-0.95993668,-0.02233469,-0.00797419,0.97043729,0.00000000,0.00000000,-0.55395335,0.72077608,0.14824401,-0.08905739,0.21195707,0.00000000,0.00000000
-1.25491428,-0.96585530,-0.01664460,-0.00177632,0.96963662,0.00000000,0.00000000,-0.53111887,0.72194612,0.15496793,-0.08936401,0.19820331,0.00000000,0.00000000
-1.24426281,-0.97211736,-0.01061322,0.00492492,0.97530746,0.00000000,0.00000000,-0.50729978,0.72314394,0.16169479,-0.08961707,0.18452010,0.00000000,0.00000000
-1.23308134,-0.97864676,-0.00427287,0.01220684,0.98216677,0.00000000,0.00000000,-0.48242205,0.72426385,0.16844998,-0.08986109,0.16527949,0.00000000,0.00000000
-1.22130787,-0.98541701,0.00233360,0.02011558,0.99249995,0.00000000,0.00000000,-0.45641685,0.72519451,0.17525765,-0.09015097,0.14390945,0.00000000,0.00000000
-1.20887113,-0.99243009,0.00915110,0.02869486,0.99793881,0.00000000,0.00000000,-0.42922524,0.72588271,0.18213770,-0.09054548,0.12650120,0.00000000,0.00000000
-1.19568539,-0.99978137,0.01611027,0.03798173,1.00800979,0.00000000,0.00000000,-0.40080264,0.72641450,0.18910646,-0.09112220,0.11487821,0.00000000,0.00000000
-1.18164766,-1.00772178,0.02312557,0.04797919,1.01488268,0.00000000,0.00000000,-0.37111631,0.72701895,0.19618025,-0.09199207,0.09519174,0.00000000,0.00000000
-1.16664255,-1.01662862,0.03009429,0.05864054,1.02377105,0.00000000,0.00000000,-0.34013566,0.72801048,0.20337956,-0.09329003,0.07483095,0.00000000,0.00000000
-1.15053701,-1.02695191,0.03689610,0.06987277,1.03180027,0.00000000,0.00000000,-0.30782440,0.72978568,0.21073140,-0.09513756,0.06301470,0.00000000,0.00000000
-1.13316393,-1.03920984,0.04339261,0.08154771,1.03696799,0.00000000,0.00000000,-0.27413982,0.73288870,0.21826990,-0.09759704,0.04734411,0.00000000,0.00000000
-1.11430311,-1.05401599,0.04942805,0.09350040,1.04450810,0.00000000,0.00000000,-0.23903166,0.73805112,0.22603907,-0.10064299,0.02810430,0.00000000,0.00000000
-1.09367478,-1.07205307,0.05483173,0.10551623,1.05847454,0.00000000,0.00000000,-0.20243421,0.74622411,0.23410228,-0.10414814,0.00107826,0.00000000,0.00000000
-1.07094228,-1.09395361,0.05942139,0.11733611,1.06495130,0.00000000,0.00000000,-0.16426022,0.75862098,0.24255253,-0.10787414,-0.02934946,0.00000000,0.00000000
-1.04572058,-1.12019646,0.06300859,0.12867628,1.07597840,0.00000000,0.00000000,-0.12441558,0.77672172,0.25151780,-0.11147669,-0.06257387,0.00000000,0.00000000
-1.01760280,-1.15111148,0.06540851,0.13922299,1.09033382,0.00000000,0.00000000,-0.08284330,0.80218506,0.26115921,-0.11453643,-0.08969763,0.00000000,0.00000000
-0.98620701,-1.18702018,0.06645350,0.14857580,1.10464501,0.00000000,0.00000000,-0.03958973,0.83679628,0.27165982,-0.11660603,-0.11600582,0.00000000,0.00000000
-0.95124048,-1.22844541,0.06601018,0.15614946,1.12799215,0.00000000,0.00000000,0.00512485,0.88222843,0.28320026,-0.11723014,-0.14197902,0.00000000,0.00000000
-0.91256523,-1.27589798,0.06399678,0.16123971,1.15797246,0.00000000,0.00000000,0.05083726,0.93914098,0.29591987,-0.11580189,-0.16468740,0.00000000,0.00000000
-0.87019086,-1.32888734,0.06038534,0.16347122,1.18634021,0.00000000,0.00000000,0.09672821,1.00623930,0.30987141,-0.11135099,-0.19155806,0.00000000,0.00000000
-0.82419527,-1.38602376,0.05519841,0.16288561,1.21483290,0.00000000,0.00000000,0.14155948,1.08052731,0.32500711,-0.10291836,-0.21091934,0.00000000,0.00000000
-0.77498925,-1.44634748,0.04856125,0.15938698,1.24711978,0.00000000,0.00000000,0.18403195,1.15970826,0.34119454,-0.09010272,-0.22268134,0.00000000,0.00000000
-0.72349167,-1.50978971,0.04071771,0.15248877,1.28205431,0.00000000,0.00000000,0.22299790,1.24258113,0.35822350,-0.07321193,-0.23125994,0.00000000,0.00000000
-0.67070419,-1.57582831,0.03192492,0.14208418,1.31492090,0.00000000,0.00000000,0.25711310,1.32828200,0.37583062,-0.05298354,-0.24159566,0.00000000,0.00000000
-0.61792070,-1.64331591,0.02245963,0.12851530,1.34971678,0.00000000,0.00000000,0.28506061,1.41583014,0.39371860,-0.03022805,-0.25347972,0.00000000,0.00000000
-0.56656539,-1.71126485,0.01258801,0.11206947,1.38708115,0.00000000,0.00000000,0.30575696,1.50394356,0.41155168,-0.00594813,-0.27162418,0.00000000,0.00000000
-0.51794326,-1.77870035,0.00252755,0.09307089,1.42129195,0.00000000,0.00000000,0.31857899,1.59111035,0.42898974,0.01881402,-0.28921959,0.00000000,0.00000000
-0.47302341,-1.84454048,-0.00756521,0.07197302,1.45792711,0.00000000,0.00000000,0.32360959,1.67576289,0.44573620,0.04320641,-0.30767930,0.00000000,0.00000000
-0.43224996,-1.90754485,-0.01758944,0.04939508,1.49256551,0.00000000,0.00000000,0.32180098,1.75646567,0.46157652,0.06669214,-0.32459334,0.00000000,0.00000000
-0.39562017,-1.96623313,-0.02747538,0.02616479,1.52885509,0.00000000,0.00000000,0.31482854,1.83201027,0.47639519,0.08904091,-0.34047243,0.00000000,0.00000000
-0.36300609,-2.01909184,-0.03716049,0.00318709,1.56960154,0.00000000,0.00000000,0.30455792,1.90139389,0.49015835,0.11017290,-0.35170096,0.00000000,0.00000000
-0.33433378,-2.06492472,-0.04658446,-0.01879445,1.60640717,0.00000000,0.00000000,0.29252434,1.96380234,0.50287193,0.12998702,-0.36619517,0.00000000,0.00000000
-0.30947700,-2.10291719,-0.05569315,-0.03928347,1.64042914,0.00000000,0.00000000,0.27970645,2.01858473,0.51454282,0.14824457,-0.37625831,0.00000000,0.00000000
-0.28823799,-2.13250494,-0.06444056,-0.05796467,1.66666520,0.00000000,0.00000000,0.26657087,2.06525397,0.52515829,0.16459189,-0.38614619,0.00000000,0.00000000
-0.27047855,-2.15331531,-0.07279176,-0.07463330,1.69385493,0.00000000,0.00000000,0.25334832,2.10352182,0.53469825,0.17874584,-0.39904469,0.00000000,0.00000000
-0.25619024,-2.16516399,-0.08072653,-0.08913063,1.71605158,0.00000000,0.00000000,0.24032265,2.13325119,0.54316252,0.19062836,-0.41592884,0.00000000,0.00000000
-0.24552992,-2.16929054,-0.08824535,-0.10116352,1.73432088,0.00000000,0.00000000,0.22786219,2.15422869,0.55058682,0.20024578,-0.43188486,0.00000000,0.00000000
-0.23875546,-2.16996574,-0.09537145,-0.11018398,1.75146925,0.00000000,0.00000000,0.21626002,2.16595364,0.55703658,0.20743003,-0.44702500,0.00000000,0.00000000
-0.23573500,-2.17000008,-0.10211889,-0.11563218,1.76659524,0.00000000,0.00000000,0.20557058,2.16953802,0.56259066,0.21169788,-0.46685499,0.00000000,0.00000000
-0.23542781,-2.16988564,-0.10844930,-0.11712608,1.78817403,0.00000000,0.00000000,0.19540271,2.16998196,0.56727833,0.21250622,-0.48625901,0.00000000,0.00000000
-0.23725890,-2.16829586,-0.11436373,-0.11455869,1.81060803,0.00000000,0.00000000,0.18483022,2.17000008,0.57099414,0.20982400,-0.50434333,0.00000000,0.00000000
-0.24125697,-2.16512442,-0.11988863,-0.11036135,1.82787502,0.00000000,0.00000000,0.17226005,2.17000008,0.57350260,0.20400542,-0.51386487,0.00000000,0.00000000
-0.24432573,-2.16581869,-0.12480559,-0.10989305,1.85541415,0.00000000,0.00000000,0.15512143,2.17000008,0.57448375,0.19522350,-0.52117896,0.00000000,0.00000000
-0.24877764,-2.16768527,-0.12935001,-0.11318522,1.88292730,0.00000000,0.00000000,0.13161406,2.17000008,0.57375574,0.18376385,-0.52742696,0.00000000,0.00000000
-0.25389221,-2.16900325,-0.13356197,-0.11969441,1.90627050,0.00000000,0.00000000,0.10109655,2.17000008,0.57126403,0.17054251,-0.53173846,0.00000000,0.00000000
-0.25960416,-2.16977930,-0.13752538,-0.12931463,1.92560589,0.00000000,0.00000000,0.06479038,2.17000008,0.56714976,0.15712792,-0.54097348,0.00000000,0.00000000
-0.26630676,-2.16998720,-0.14137559,-0.14094636,1.93392003,0.00000000,0.00000000,0.02552072,2.17000008,0.56174177,0.14514735,-0.54517323,0.00000000,0.00000000
-0.27374768,-2.17000008,-0.14521003,-0.15295778,1.93750501,0.00000000,0.00000000,-0.01314210,2.17000008,0.55548263,0.13561341,-0.54970676,0.00000000,0.00000000
-0.28168747,-2.17000008,-0.14911172,-0.16396071,1.94596457,0.00000000,0.00000000,-0.04814867,2.17000008,0.54880464,0.12867524,-0.54970211,0.00000000,0.00000000
-0.28976214,-2.17000008,-0.15311678,-0.17318934,1.95440674,0.00000000,0.00000000,-0.07762352,2.17000008,0.54205298,0.12392288,-0.56447363,0.00000000,0.00000000
-0.29726520,-2.17000008,-0.15718812,-0.18050477,1.96259165,0.00000000,0.00000000,-0.10037030,2.17000008,0.53552157,0.12073910,-0.58403599,0.00000000,0.00000000
-0.30333072,-2.17000008,-0.16123834,-0.18618667,1.96902013,0.00000000,0.00000000,-0.11546084,2.17000008,0.52950847,0.11814608,-0.60484028,0.00000000,0.00000000
-0.30722806,-2.17000008,-0.16517191,-0.19067259,1.97926724,0.00000000,0.00000000,-0.12138014,2.17000008,0.52437454,0.11502846,-0.62527162,0.00000000,0.00000000
-0.30852407,-2.17000008,-0.16891608,-0.19430068,1.98470831,0.00000000,0.00000000,-0.11573485,2.17000008,0.52044618,0.11188753,-0.64294124,0.00000000,0.00000000
-0.30672428,-2.17000008,-0.17239553,-0.19714795,1.98757589,0.00000000,0.00000000,-0.09964319,2.17000008,0.51767206,0.11009289,-0.65848470,0.00000000,0.00000000
-0.30089831,-2.17000008,-0.17550084,-0.19898383,1.99602675,0.00000000,0.00000000,-0.07467232,2.17000008,0.51594168,0.11016627,-0.66763765,0.00000000,0.00000000
-0.29026327,-2.17000008,-0.17815405,-0.19943319,2.00282598,0.00000000,0.00000000,-0.04149539,2.17000008,0.51520139,0.11227845,-0.67453563,0.00000000,0.00000000
-0.27501026,-2.17000008,-0.18039832,-0.19824550,2.00541878,0.00000000,0.00000000,-0.00093002,2.17000008,0.51539737,0.11629824,-0.68269587,0.00000000,0.00000000
-0.25712591,-2.17000008,-0.18248127,-0.19553192,2.01768351,0.00000000,0.00000000,0.04607341,2.17000008,0.51647621,0.12182736,-0.69243407,0.00000000,0.00000000
-0.23943704,-2.17000008,-0.18474588,-0.19150510,2.02581477,0.00000000,0.00000000,0.09824745,2.17000008,0.51836056,0.12829183,-0.70736384,0.00000000,0.00000000
-0.22273305,-2.17000008,-0.18731578,-0.18596216,2.03476834,0.00000000,0.00000000,0.15362701,2.17000008,0.52091110,0.13500717,-0.71836317,0.00000000,0.00000000
-0.20474371,-2.17000008,-0.18998441,-0.17837387,2.03976750,0.00000000,0.00000000,0.20983244,2.17000008,0.52393091,0.14138706,-0.72837824,0.00000000,0.00000000
-0.18344483,-2.17000008,-0.19255762,-0.16815859,2.05102968,0.00000000,0.00000000,0.26447350,2.17000008,0.52718085,0.14717050,-0.73865891,0.00000000,0.00000000
-0.15901648,-2.17000008,-0.19505270,-0.15495649,2.06806922,0.00000000,0.00000000,0.31542316,2.17000008,0.53039777,0.15250558,-0.74700093,0.00000000,0.00000000
-0.12509203,-2.17000008,-0.19681425,-0.13925749,2.08696485,0.00000000,0.00000000,0.36123848,2.17000008,0.53335458,0.15774319,-0.75510091,0.00000000,0.00000000
-0.08585474,-2.17000008,-0.19815226,-0.12383446,2.10923314,0.00000000,0.00000000,0.40190405,2.16999960,0.53596061,0.16321960,-0.75940555,0.00000000,0.00000000
-0.04947492,-2.17000008,-0.19967028,-0.11116786,2.13034868,0.00000000,0.00000000,0.43801516,2.16995454,0.53822929,0.16889170,-0.76800197,0.00000000,0.00000000
-0.01951035,-2.17000008,-0.20157209,-0.10189725,2.15100718,0.00000000,0.00000000,0.46873152,2.16932607,0.54010868,0.17400889,-0.77381265,0.00000000,0.00000000
0.00367350,-2.17000008,-0.20384966,-0.09557177,2.16443205,0.00000000,0.00000000,0.49265629,2.16705012,0.54147071,0.17797865,-0.77901751,0.00000000,0.00000000
0.02014968,-2.17000008,-0.20647955,-0.09161969,2.17301440,0.00000000,0.00000000,0.50863224,2.16345358,0.54215026,0.18071748,-0.78045559,0.00000000,0.00000000
0.02959906,-2.17000008,-0.20947000,-0.08968519,2.17533517,0.00000000,0.00000000,0.51573747,2.15970159,0.54196990,0.18244955,-0.78521174,0.00000000,0.00000000
0.03145118,-2.17000008,-0.21285740,-0.08958358,2.17422581,0.00000000,0.00000000,0.51338077,2.15688586,0.54078263,0.18353209,-0.78931671,0.00000000,0.00000000
0.02507146,-2.17000008,-0.21670189,-0.09112220,2.16622400,0.00000000,0.00000000,0.50145793,2.15574765,0.53850335,0.18439242,-0.78609091,0.00000000,0.00000000
0.00995621,-2.17000008,-0.22107276,-0.09396804,2.16499996,0.00000000,0.00000000,0.48038542,2.15660715,0.53511608,0.18547711,-0.78535444,0.00000000,0.00000000
-0.01367362,-2.17000008,-0.22599472,-0.09778901,2.16378784,0.00000000,0.00000000,0.45100382,2.15931034,0.53066754,0.18715212,-0.78270358,0.00000000,0.00000000
-0.04445491,-2.17000008,-0.23140387,-0.10224016,2.16777611,0.00000000,0.00000000,0.41460162,2.16327000,0.52527159,0.18969898,-0.78130883,0.00000000,0.00000000
-0.08161394,-2.17000008,-0.23725395,-0.10704504,2.16831660,0.00000000,0.00000000,0.37313920,2.16721487,0.51914924,0.19324763,-0.77774256,0.00000000,0.00000000
-0.12598068,-2.17000008,-0.24359119,-0.11242577,2.16585064,0.00000000,0.00000000,0.32912263,2.16943502,0.51266265,0.19739234,-0.77760756,0.00000000,0.00000000
-0.17512923,-2.17000008,-0.25024849,-0.11799894,2.16659546,0.00000000,0.00000000,0.28459585,2.16996813,0.50621188,0.20095152,-0.76102704,0.00000000,0.00000000
-0.22503099,-2.17000008,-0.25692192,-0.12305678,2.16436315,0.00000000,0.00000000,0.24006025,2.17000008,0.50006533,0.20216683,-0.73617053,0.00000000,0.00000000
-0.27268189,-2.17000008,-0.26333383,-0.12784080,2.16394305,0.00000000,0.00000000,0.19480738,2.17000008,0.49431995,0.19936872,-0.71405488,0.00000000,0.00000000
-0.31532529,-2.17000008,-0.26921633,-0.13278382,2.16111898,0.00000000,0.00000000,0.14737552,2.17000008,0.48893392,0.19126235,-0.68932498,0.00000000,0.00000000
-0.35155413,-2.17000008,-0.27441382,-0.13817921,2.15960026,0.00000000,0.00000000,0.09811123,2.17000008,0.48398173,0.17764933,-0.66841650,0.00000000,0.00000000
-0.38258708,-2.17000008,-0.27898335,-0.14448550,2.16040778,0.00000000,0.00000000,0.05193570,2.17000008,0.47985443,0.16041140,-0.64370811,0.00000000,0.00000000
-0.40956596,-2.17000008,-0.28301838,-0.15130460,2.15641522,0.00000000,0.00000000,0.01189823,2.17000008,0.47659624,0.14191955,-0.62729019,0.00000000,0.00000000
-0.43178734,-2.17000008,-0.28647536,-0.15778926,2.15129232,0.00000000,0.00000000,-0.02077990,2.17000008,0.47417256,0.12338916,-0.61786419,0.00000000,0.00000000
-0.44783226,-2.17000008,-0.28923276,-0.16335763,2.14640021,0.00000000,0.00000000,-0.04488771,2.16999698,0.47261554,0.10549972,-0.60958779,0.00000000,0.00000000
-0.45681104,-2.17000008,-0.29118037,-0.16809095,2.14117789,0.00000000,0.00000000,-0.05928398,2.16995597,0.47195384,0.08902337,-0.59565234,0.00000000,0.00000000
-0.45820978,-2.17000008,-0.29220891,-0.17268272,2.14174056,0.00000000,0.00000000,-0.06411696,2.16989231,0.47208208,0.07497143,-0.58248508,0.00000000,0.00000000
-0.45206079,-2.17000008,-0.29226705,-0.17777351,2.14615679,0.00000000,0.00000000,-0.05815280,2.16995120,0.47290832,0.06573510,-0.56481951,0.00000000,0.00000000
-0.43818229,-2.17000008,-0.29128891,-0.18384063,2.15340662,0.00000000,0.00000000,-0.04219355,2.16992331,0.47435489,0.06152026,-0.55072886,0.00000000,0.00000000
-0.41662109,-2.17000008,-0.28924298,-0.19113037,2.15904713,0.00000000,0.00000000,-0.01747300,2.16971350,0.47635016,0.06197897,-0.54292971,0.00000000,0.00000000
-0.38901159,-2.17000008,-0.28626856,-0.19995567,2.16078353,0.00000000,0.00000000,0.01510151,2.16959643,0.47883636,0.06718645,-0.53222203,0.00000000,0.00000000
-0.35873368,-2.17000008,-0.28271466,-0.21069907,2.16163230,0.00000000,0.00000000,0.05455806,2.16979265,0.48177296,0.07695506,-0.52359551,0.00000000,0.00000000
-0.32859746,-2.17000008,-0.27892494,-0.22311680,2.16021252,0.00000000,0.00000000,0.09960409,2.16996002,0.48512641,0.09046771,-0.51599026,0.00000000,0.00000000
-0.29943430,-2.17000008,-0.27507108,-0.23616084,2.15850091,0.00000000,0.00000000,0.14849281,2.16999245,0.48883554,0.10664503,-0.50650853,0.00000000,0.00000000
-0.27076659,-2.17000008,-0.27118322,-0.24851954,2.15466046,0.00000000,0.00000000,0.19920295,2.16989756,0.49277872,0.12457659,-0.50243860,0.00000000,0.00000000
-0.24252550,-2.17000008,-0.26737884,-0.25874683,2.15355730,0.00000000,0.00000000,0.24958181,2.16944242,0.49675173,0.14366929,-0.50054747,0.00000000,0.00000000
-0.21584758,-2.17000008,-0.26402238,-0.26422727,2.15484858,0.00000000,0.00000000,0.29739723,2.16869140,0.50045353,0.16369992,-0.50286347,0.00000000,0.00000000
-0.18787722,-2.17000008,-0.26079109,-0.26191542,2.15183997,0.00000000,0.00000000,0.34030774,2.16850328,0.50350964,0.18452437,-0.50758207,0.00000000,0.00000000
-0.15555267,-2.17000008,-0.25706515,-0.25254822,2.14891577,0.00000000,0.00000000,0.37668115,2.16910934,0.50561053,0.20575842,-0.51640660,0.00000000,0.00000000
-0.12252658,-2.17000008,-0.25315756,-0.23940133,2.14817047,0.00000000,0.00000000,0.40679711,2.16977835,0.50668532,0.22696641,-0.52744210,0.00000000,0.00000000
-0.09416706,-2.17000008,-0.24967021,-0.22517973,2.14504552,0.00000000,0.00000000,0.43132645,2.16998672,0.50680208,0.24732058,-0.54101700,0.00000000,0.00000000
-0.07193375,-2.17000008,-0.24669884,-0.21101756,2.14136958,0.00000000,0.00000000,0.44934276,2.17000008,0.50593585,0.26532164,-0.55661762,0.00000000,0.00000000
-0.05480526,-2.17000008,-0.24404749,-0.19724169,2.13486600,0.00000000,0.00000000,0.45977950,2.17000008,0.50401479,0.27986959,-0.57651579,0.00000000,0.00000000
-0.04174260,-2.17000008,-0.24155296,-0.18400623,2.13143134,0.00000000,0.00000000,0.46226016,2.17000008,0.50099039,0.29058391,-0.60169446,0.00000000,0.00000000
-0.03224970,-2.17000008,-0.23914835,-0.17141275,2.12780571,0.00000000,0.00000000,0.45681146,2.17000008,0.49685267,0.29742998,-0.62847143,0.00000000,0.00000000
-0.02622988,-2.17000008,-0.23684217,-0.15959950,2.12504125,0.00000000,0.00000000,0.44366235,2.17000008,0.49165112,0.30048758,-0.66183674,0.00000000,0.00000000
-0.02391916,-2.17000008,-0.23470157,-0.14889571,2.12583661,0.00000000,0.00000000,0.42323694,2.17000008,0.48551181,0.29992771,-0.70528382,0.00000000,0.00000000
-0.02586732,-2.17000008,-0.23282953,-0.13984270,2.12523556,0.00000000,0.00000000,0.39645126,2.17000008,0.47867823,0.29605371,-0.75171739,0.00000000,0.00000000
-0.03293614,-2.17000008,-0.23133683,-0.13316274,2.11552501,0.00000000,0.00000000,0.36538103,2.17000008,0.47158760,0.28937280,-0.80538422,0.00000000,0.00000000
-0.04592616,-2.17000008,-0.23030397,-0.12941810,2.10713816,0.00000000,0.00000000,0.33344990,2.17000008,0.46486241,0.28053463,-0.85325474,0.00000000,0.00000000
-0.06471457,-2.17000008,-0.22974877,-0.12777674,2.09882879,0.00000000,0.00000000,0.30419403,2.17000008,0.45910540,0.26999334,-0.90674084,0.00000000,0.00000000
-0.08946991,-2.17000008,-0.22973840,-0.12586941,2.08807683,0.00000000,0.00000000,0.27966183,2.17000008,0.45468435,0.25762457,-0.95464396,0.00000000,0.00000000
-0.12203819,-2.17000008,-0.23042786,-0.12251741,2.07785249,0.00000000,0.00000000,0.25976458,2.17000008,0.45167217,0.24261560,-0.99365360,0.00000000,0.00000000
-0.16106334,-2.17000008,-0.23167743,-0.11783773,2.07023907,0.00000000,0.00000000,0.24314786,2.17000008,0.44992596,0.22414240,-1.03493726,0.00000000,0.00000000
-0.20397194,-2.17000008,-0.23324993,-0.11221120,2.05803108,0.00000000,0.00000000,0.22813897,2.16999626,0.44918534,0.20198652,-1.08176720,0.00000000,0.00000000
-0.24960986,-2.17000008,-0.23502672,-0.10625344,2.04344988,0.00000000,0.00000000,0.21284078,2.16983771,0.44910425,0.17666975,-1.13138688,0.00000000,0.00000000
-0.29613593,-2.17000008,-0.23685712,-0.10085895,2.02256966,0.00000000,0.00000000,0.19514132,2.16805983,0.44929588,0.14938100,-1.18446672,0.00000000,0.00000000
-0.34093305,-2.17000008,-0.23856464,-0.09677828,2.00013185,0.00000000,0.00000000,0.17300890,2.16224527,0.44942150,0.12167494,-1.23796904,0.00000000,0.00000000
-0.38189384,-2.17000008,-0.24003220,-0.09426206,1.97281897,0.00000000,0.00000000,0.14551604,2.15402675,0.44931945,0.09498316,-1.28659666,0.00000000,0.00000000
-0.41855466,-2.17000008,-0.24125066,-0.09325136,1.94445157,0.00000000,0.00000000,0.11449613,2.14610696,0.44907147,0.07075015,-1.33952820,0.00000000,0.00000000
-0.45113358,-2.17000008,-0.24225222,-0.09349050,1.91533077,0.00000000,0.00000000,0.08379878,2.14049768,0.44886720,0.05051868,-1.39303362,0.00000000,0.00000000
-0.47859117,-2.16998267,-0.24300084,-0.09448555,1.88935757,0.00000000,0.00000000,0.05604308,2.13838196,0.44882521,0.03513933,-1.43920302,0.00000000,0.00000000
-0.49953982,-2.16971397,-0.24342731,-0.09606496,1.86331463,0.00000000,0.00000000,0.03207485,2.13976240,0.44899929,0.02451488,-1.48354185,0.00000000,0.00000000
-0.51320946,-2.16880012,-0.24347666,-0.09855869,1.84072661,0.00000000,0.00000000,0.01239091,2.14398789,0.44942710,0.01826870,-1.52495599,0.00000000,0.00000000
-0.51938367,-2.16771746,-0.24310869,-0.10261188,1.81344843,0.00000000,0.00000000,-0.00193707,2.15011120,0.45014349,0.01614397,-1.55938196,0.00000000,0.00000000
-0.51819521,-2.16733050,-0.24229088,-0.10898850,1.78649187,0.00000000,0.00000000,-0.00933248,2.15693736,0.45118210,0.01798098,-1.59275150,0.00000000,0.00000000
-0.50998801,-2.16799140,-0.24099648,-0.11829639,1.76426280,0.00000000,0.00000000,-0.00843304,2.16317248,0.45257920,0.02361085,-1.62635863,0.00000000,0.00000000
-0.49523216,-2.16915655,-0.23920771,-0.13077801,1.73942053,0.00000000,0.00000000,0.00136539,2.16758919,0.45437860,0.03277216,-1.65212619,0.00000000,0.00000000
-0.47454137,-2.16983843,-0.23692694,-0.14618546,1.71695411,0.00000000,0.00000000,0.01979163,2.16956139,0.45662951,0.04495465,-1.68283093,0.00000000,0.00000000
-0.44866601,-2.16999149,-0.23418804,-0.16367248,1.68769002,0.00000000,0.00000000,0.04579171,2.16997623,0.45937443,0.05933795,-1.71519518,0.00000000,0.00000000
-0.41834906,-2.17000008,-0.23105352,-0.18180631,1.65963817,0.00000000,0.00000000,0.07776211,2.17000008,0.46262908,0.07503133,-1.73992932,0.00000000,0.00000000
-0.38429776,-2.17000008,-0.22761460,-0.19881627,1.63506830,0.00000000,0.00000000,0.11392441,2.17000008,0.46637061,0.09137414,-1.76511872,0.00000000,0.00000000
-0.34789839,-2.17000008,-0.22406887,-0.21304189,1.61883652,0.00000000,0.00000000,0.15275910,2.17000008,0.47054905,0.10801087,-1.79283166,0.00000000,0.00000000
-0.31233263,-2.17000008,-0.22085297,-0.22352004,1.60188866,0.00000000,0.00000000,0.19334525,2.17000008,0.47511950,0.12469353,-1.81204665,0.00000000,0.00000000
-0.28127289,-2.17000008,-0.21847923,-0.23025052,1.58309817,0.00000000,0.00000000,0.23495948,2.17000008,0.48003402,0.14100875,-1.83286297,0.00000000,0.00000000
-0.25424269,-2.17000008,-0.21693678,-0.23275717,1.56039989,0.00000000,0.00000000,0.27610770,2.17000008,0.48515496,0.15649936,-1.84584880,0.00000000,0.00000000
-0.22553357,-2.17000008,-0.21554333,-0.22826995,1.53667843,0.00000000,0.00000000,0.31472144,2.17000008,0.49021950,0.17113546,-1.84958923,0.00000000,0.00000000
-0.19181517,-2.17000008,-0.21382524,-0.21572264,1.52426445,0.00000000,0.00000000,0.34879035,2.17000008,0.49489400,0.18525906,-1.84937894,0.00000000,0.00000000
-0.15182105,-2.17000008,-0.21144348,-0.19801256,1.51884186,0.00000000,0.00000000,0.37709191,2.17000008,0.49892282,0.19900522,-1.85291648,0.00000000,0.00000000
-0.10942368,-2.17000008,-0.20869705,-0.17880118,1.51127756,0.00000000,0.00000000,0.40043795,2.17000008,0.50231349,0.21233271,-1.85386801,0.00000000,0.00000000
-0.07065279,-2.17000008,-0.20613258,-0.16084608,1.51070261,0.00000000,0.00000000,0.42017779,2.17000008,0.50522643,0.22469996,-1.85384798,0.00000000,0.00000000
-0.03807637,-2.17000008,-0.20392296,-0.14528175,1.51174593,0.00000000,0.00000000,0.43516117,2.17000008,0.50763696,0.23456573,-1.85765767,0.00000000,0.00000000
-0.01187459,-2.17000008,-0.20203531,-0.13193214,1.51086879,0.00000000,0.00000000,0.44383466,2.17000008,0.50940770,0.24090163,-1.85501277,0.00000000,0.00000000
0.00791799,-2.17000008,-0.20044780,-0.12028465,1.50831151,0.00000000,0.00000000,0.44547367,2.17000008,0.51040816,0.24357900,-1.85257268,0.00000000,0.00000000
0.02092631,-2.17000008,-0.19918166,-0.10997093,1.50401509,0.00000000,0.00000000,0.43968901,2.17000008,0.51052231,0.24290104,-1.84351671,0.00000000,0.00000000
0.02641149,-2.17000008,-0.19829717,-0.10105632,1.50228405,0.00000000,0.00000000,0.42625931,2.17000008,0.50966829,0.23940653,-1.84192288,0.00000000,0.00000000
0.02334828,-2.17000008,-0.19787863,-0.09419952,1.50704193,0.00000000,0.00000000,0.40548047,2.17000008,0.50785834,0.23383543,-1.84206355,0.00000000,0.00000000
0.01071203,-2.17000008,-0.19800609,-0.09038028,1.51775944,0.00000000,0.00000000,0.37865660,2.17000008,0.50526023,0.22705516,-1.84089267,0.00000000,0.00000000
-0.01253770,-2.17000008,-0.19875313,-0.09038685,1.52592731,0.00000000,0.00000000,0.34813657,2.17000008,0.50218534,0.21995939,-1.84400237,0.00000000,0.00000000
-0.04631070,-2.17000008,-0.20015071,-0.09307312,1.53856468,0.00000000,0.00000000,0.31661308,2.17000008,0.49900600,0.21313570,-1.84611201,0.00000000,0.00000000
-0.08713096,-2.17000008,-0.20207348,-0.09450364,1.54700005,0.00000000,0.00000000,0.28600395,2.17000008,0.49606729,0.20622793,-1.85049009,0.00000000,0.00000000
-0.13285372,-2.17000008,-0.20439057,-0.09384668,1.55608118,0.00000000,0.00000000,0.25665531,2.17000008,0.49360052,0.19782345,-1.85336626,0.00000000,0.00000000
-0.18296735,-2.17000008,-0.20701715,-0.09179293,1.56532097,0.00000000,0.00000000,0.22772682,2.17000008,0.49166757,0.18647498,-1.85486758,0.00000000,0.00000000
-0.23503318,-2.17000008,-0.20978057,-0.08816877,1.58138561,0.00000000,0.00000000,0.19854714,2.17000008,0.49026608,0.17138116,-1.85660291,0.00000000,0.00000000
-0.28611681,-2.17000008,-0.21249408,-0.08336550,1.59736729,0.00000000,0.00000000,0.16859396,2.16993618,0.48931926,0.15258285,-1.85633314,0.00000000,0.00000000
-0.33353344,-2.17000008,-0.21500024,-0.07860297,1.61099076,0.00000000,0.00000000,0.13675933,2.16897106,0.48860827,0.13111188,-1.85344124,0.00000000,0.00000000
-0.37529576,-2.16999936,-0.21720278,-0.07493877,1.62897861,0.00000000,0.00000000,0.10198297,2.16605496,0.48787290,0.10902051,-1.85508144,0.00000000,0.00000000
-0.41077104,-2.16996789,-0.21909465,-0.07252987,1.64397037,0.00000000,0.00000000,0.06524558,2.16346049,0.48703223,0.08871084,-1.85242188,0.00000000,0.00000000
-0.44012925,-2.16957903,-0.22071135,-0.07107103,1.66724157,0.00000000,0.00000000,0.02969692,2.16278577,0.48622748,0.07142085,-1.84257114,0.00000000,0.00000000
-0.46358508,-2.16832590,-0.22207378,-0.07080065,1.68809509,0.00000000,0.00000000,-0.00211486,2.16319251,0.48559096,0.05736672,-1.83309627,0.00000000,0.00000000
-0.48086053,-2.16664338,-0.22316936,-0.07207151,1.70881641,0.00000000,0.00000000,-0.02863593,2.16379595,0.48517594,0.04699385,-1.82176149,0.00000000,0.00000000
-0.49139252,-2.16500092,-0.22396299,-0.07504705,1.72734451,0.00000000,0.00000000,-0.04914850,2.16400695,0.48501173,0.04010585,-1.80793130,0.00000000,0.00000000
-0.49473166,-2.16384006,-0.22440611,-0.07999640,1.74389946,0.00000000,0.00000000,-0.06313655,2.16359162,0.48513252,0.03571914,-1.79620302,0.00000000,0.00000000
-0.49077529,-2.16375065,-0.22444378,-0.08745352,1.75662351,0.00000000,0.00000000,-0.06957426,2.16381049,0.48557052,0.03354502,-1.78069985,0.00000000,0.00000000
-0.47976312,-2.16511297,-0.22402173,-0.09803171,1.77204907,0.00000000,0.00000000,-0.06805163,2.16649532,0.48632962,0.03430746,-1.76423132,0.00000000,0.00000000
-0.46241203,-2.16742373,-0.22310811,-0.11205217,1.78694355,0.00000000,0.00000000,-0.05847314,2.16915941,0.48744097,0.03747783,-1.74743176,0.00000000,0.00000000
-0.43962327,-2.16937160,-0.22169298,-0.12942292,1.79794514,0.00000000,0.00000000,-0.04101717,2.16994953,0.48893535,0.04238693,-1.72964489,0.00000000,0.00000000
-0.41262344,-2.16996193,-0.21981989,-0.14946282,1.81201816,0.00000000,0.00000000,-0.01653824,2.16996336,0.49081454,0.04875885,-1.71151304,0.00000000,0.00000000
-0.38299656,-2.17000008,-0.21760610,-0.17097369,1.82920074,0.00000000,0.00000000,0.01368254,2.16936707,0.49305388,0.05629764,-1.69322073,0.00000000,0.00000000
-0.35235772,-2.17000008,-0.21522191,-0.19260204,1.84452355,0.00000000,0.00000000,0.04824049,2.16697431,0.49559903,0.06481653,-1.67423356,0.00000000,0.00000000
-0.32241622,-2.17000008,-0.21290107,-0.21318991,1.85956073,0.00000000,0.00000000,0.08580277,2.16254091,0.49837476,0.07423724,-1.65346467,0.00000000,0.00000000
-0.29523882,-2.17000008,-0.21097656,-0.23177490,1.87444234,0.00000000,0.00000000,0.12537953,2.15669823,0.50130814,0.08450940,-1.63917708,0.00000000,0.00000000
-0.27165154,-2.17000008,-0.20966356,-0.24662413,1.88844323,0.00000000,0.00000000,0.16670562,2.15014577,0.50435060,0.09573317,-1.62365925,0.00000000,0.00000000
-0.25035110,-2.17000008,-0.20888405,-0.25488430,1.90419519,0.00000000,0.00000000,0.20992914,2.14372230,0.50745595,0.10828745,-1.61146569,0.00000000,0.00000000
-0.23103219,-2.17000008,-0.20862330,-0.25521076,1.92065942,0.00000000,0.00000000,0.25438264,2.13857150,0.51050979,0.12256138,-1.59154367,0.00000000,0.00000000
-0.21160756,-2.17000008,-0.20853262,-0.24799678,1.92765117,0.00000000,0.00000000,0.29837811,2.13596082,0.51330400,0.13875626,-1.57157087,0.00000000,0.00000000
-0.18859117,-2.17000008,-0.20803416,-0.23425484,1.93273699,0.00000000,0.00000000,0.33958936,2.13696265,0.51555032,0.15679948,-1.55338871,0.00000000,0.00000000
-0.16016351,-2.17000008,-0.20678377,-0.21566407,1.94170964,0.00000000,0.00000000,0.37600359,2.14186716,0.51696908,0.17631325,-1.52749062,0.00000000,0.00000000
-0.12766825,-2.17000008,-0.20485128,-0.19463232,1.94879079,0.00000000,0.00000000,0.40723142,2.14978290,0.51743931,0.19680429,-1.50377452,0.00000000,0.00000000
-0.09475870,-2.17000008,-0.20257434,-0.17359726,1.95655346,0.00000000,0.00000000,0.43389261,2.15868711,0.51699466,0.21752682,-1.48017323,0.00000000,0.00000000
-0.06455693,-2.17000008,-0.20022333,-0.15418717,1.96433496,0.00000000,0.00000000,0.45531127,2.16574764,0.51562274,0.23696309,-1.45858729,0.00000000,0.00000000
-0.03832804,-2.17000008,-0.19788639,-0.13721471,1.97219038,0.00000000,0.00000000,0.47054738,2.16918325,0.51328605,0.25370213,-1.44223309,0.00000000,0.00000000
-0.01625232,-2.17000008,-0.19556960,-0.12307313,1.97782207,0.00000000,0.00000000,0.47950175,2.16995478,0.50999546,0.26701173,-1.42856121,0.00000000,0.00000000
0.00170012,-2.17000008,-0.19327801,-0.11199949,1.98509145,0.00000000,0.00000000,0.48241505,2.17000008,0.50577891,0.27655181,-1.41990840,0.00000000,0.00000000
0.01527350,-2.17000008,-0.19104701,-0.10413665,2.00007868,0.00000000,0.00000000,0.47952855,2.17000008,0.50065404,0.28222737,-1.40809798,0.00000000,0.00000000
0.02381911,-2.17000008,-0.18894459,-0.09945782,2.00906873,0.00000000,0.00000000,0.47109568,2.17000008,0.49463773,0.28419000,-1.39422071,0.00000000,0.00000000
0.02652036,-2.17000008,-0.18705696,-0.09767450,2.02183199,0.00000000,0.00000000,0.45742935,2.17000008,0.48777100,0.28280652,-1.38006449,0.00000000,0.00000000
0.02267236,-2.17000008,-0.18547356,-0.09823054,2.03437209,0.00000000,0.00000000,0.43897411,2.17000008,0.48015037,0.27860221,-1.37076855,0.00000000,0.00000000
0.01188440,-2.17000008,-0.18427394,-0.10032150,2.05102158,0.00000000,0.00000000,0.41640034,2.17000008,0.47195682,0.27215496,-1.36476564,0.00000000,0.00000000
-0.00597638,-2.17000008,-0.18352322,-0.10294533,2.06490111,0.00000000,0.00000000,0.39061123,2.17000008,0.46345392,0.26398841,-1.35401201,0.00000000,0.00000000
-0.03122067,-2.17000008,-0.18328780,-0.10502414,2.07366681,0.00000000,0.00000000,0.36261150,2.17000008,0.45494986,0.25446051,-1.33750486,0.00000000,0.00000000
-0.06294188,-2.17000008,-0.18354312,-0.10538750,2.08633471,0.00000000,0.00000000,0.33330294,2.17000008,0.44674876,0.24361612,-1.32213175,0.00000000,0.00000000
-0.09754615,-2.17000008,-0.18406697,-0.10382073,2.10372448,0.00000000,0.00000000,0.30340463,2.17000008,0.43912023,0.23113069,-1.30938005,0.00000000,0.00000000
-0.13537410,-2.17000008,-0.18483801,-0.10268814,2.11877799,0.00000000,0.00000000,0.27392912,2.17000008,0.43230101,0.21679683,-1.29945624,0.00000000,0.00000000
-0.17694567,-2.17000008,-0.18587385,-0.10239469,2.13178945,0.00000000,0.00000000,0.24642989,2.17000008,0.42647958,0.20103820,-1.29089308,0.00000000,0.00000000
-0.22030170,-2.17000008,-0.18706381,-0.10201640,2.14581227,0.00000000,0.00000000,0.22172345,2.17000008,0.42169312,0.18451457,-1.28392029,0.00000000,0.00000000
-0.26308671,-2.17000008,-0.18826517,-0.10148013,2.15214634,0.00000000,0.00000000,0.19923747,2.17000008,0.41782191,0.16767226,-1.27284575,0.00000000,0.00000000
-0.30302456,-2.17000008,-0.18933356,-0.10137144,2.15931392,0.00000000,0.00000000,0.17731242,2.17000008,0.41464829,0.15082248,-1.25413668,0.00000000,0.00000000
-0.33783957,-2.17000008,-0.19012903,-0.10223491,2.16938090,0.00000000,0.00000000,0.15355605,2.17000008,0.41189831,0.13436703,-1.24080527,0.00000000,0.00000000
-0.36570564,-2.17000008,-0.19054674,-0.10422999,2.17738557,0.00000000,0.00000000,0.12576406,2.17000008,0.40932658,0.11895303,-1.22570741,0.00000000,0.00000000
-0.38595119,-2.17000008,-0.19055349,-0.10723593,2.18483520,0.00000000,0.00000000,0.09367710,2.17000008,0.40685195,0.10542966,-1.20881343,0.00000000,0.00000000
-0.39943966,-2.17000008,-0.19020605,-0.11116797,2.19283772,0.00000000,0.00000000,0.06042711,2.17000008,0.40463156,0.09467051,-1.19209659,0.00000000,0.00000000
-0.40763345,-2.17000008,-0.18959996,-0.11597517,2.19860244,0.00000000,0.00000000,0.03111593,2.17000008,0.40292925,0.08733983,-1.17878604,0.00000000,0.00000000
-0.41130003,-2.17000008,-0.18879242,-0.12154163,2.20329905,0.00000000,0.00000000,0.00926194,2.17000008,0.40190899,0.08344899,-1.16894126,0.00000000,0.00000000
-0.41050282,-2.17000008,-0.18779229,-0.12789030,2.21576262,0.00000000,0.00000000,-0.00423685,2.17000008,0.40161356,0.08214082,-1.15412557,0.00000000,0.00000000
-0.40518388,-2.17000008,-0.18659039,-0.13532439,2.22743273,0.00000000,0.00000000,-0.00915423,2.17000008,0.40207222,0.08221397,-1.13390565,0.00000000,0.00000000
-0.39544341,-2.17000008,-0.18518034,-0.14430052,2.23996520,0.00000000,0.00000000,-0.00504149,2.17000008,0.40332344,0.08283597,-1.11411130,0.00000000,0.00000000
-0.38153079,-2.17000008,-0.18356557,-0.15519628,2.25517607,0.00000000,0.00000000,0.00814950,2.17000008,0.40536746,0.08386017,-1.09414601,0.00000000,0.00000000
-0.36381382,-2.17000008,-0.18176797,-0.16805772,2.27076268,0.00000000,0.00000000,0.02996565,2.17000008,0.40816200,0.08571388,-1.07669842,0.00000000,0.00000000
-0.34281784,-2.17000008,-0.17984438,-0.18239914,2.28958941,0.00000000,0.00000000,0.05952797,2.17000008,0.41163656,0.08894596,-1.06227529,0.00000000,0.00000000
-0.31926674,-2.17000008,-0.17790069,-0.19715828,2.30743861,0.00000000,0.00000000,0.09546465,2.17000008,0.41569430,0.09384541,-1.04049766,0.00000000,0.00000000
-0.29420680,-2.17000008,-0.17610683,-0.21090356,2.33176112,0.00000000,0.00000000,0.13601132,2.17000008,0.42021722,0.10034756,-1.01835608,0.00000000,0.00000000
-0.26937425,-2.17000008,-0.17473099,-0.22231585,2.35464811,0.00000000,0.00000000,0.17936690,2.17000008,0.42508680,0.10809388,-0.98952585,0.00000000,0.00000000
-0.24687777,-2.17000008,-0.17408977,-0.23057915,2.37612104,0.00000000,0.00000000,0.22396567,2.17000008,0.43020070,0.11654086,-0.96617717,0.00000000,0.00000000
-0.22740412,-2.17000008,-0.17431414,-0.23514591,2.39677787,0.00000000,0.00000000,0.26826325,2.17000008,0.43544766,0.12520513,-0.94252044,0.00000000,0.00000000
-0.20949882,-2.17000008,-0.17523797,-0.23523593,2.42089438,0.00000000,0.00000000,0.31049815,2.16999173,0.44067547,0.13386823,-0.92129594,0.00000000,0.00000000
-0.18912052,-2.17000008,-0.17630592,-0.22968176,2.43986487,0.00000000,0.00000000,0.34886235,2.16987658,0.44569820,0.14254022,-0.89558107,0.00000000,0.00000000
-0.16095041,-2.17000008,-0.17675503,-0.21755631,2.46008825,0.00000000,0.00000000,0.38192883,2.16962528,0.45032895,0.15144852,-0.87054521,0.00000000,0.00000000
-0.12501046,-2.17000008,-0.17651391,-0.19994043,2.48294926,0.00000000,0.00000000,0.40949348,2.16966581,0.45446700,0.16096395,-0.84888744,0.00000000,0.00000000
-0.08540825,-2.17000008,-0.17592622,-0.18083680,2.50659966,0.00000000,0.00000000,0.43248591,2.16990280,0.45815185,0.17102151,-0.83229399,0.00000000,0.00000000
-0.04715559,-2.17000008,-0.17541051,-0.16351758,2.52940416,0.00000000,0.00000000,0.45087627,2.16999388,0.46143350,0.18046738,-0.81656104,0.00000000,0.00000000
-0.01323404,-2.17000008,-0.17518933,-0.14899114,2.55026317,0.00000000,0.00000000,0.46393174,2.17000008,0.46431512,0.18801868,-0.80293226,0.00000000,0.00000000
0.01523831,-2.17000008,-0.17531309,-0.13728005,2.57231474,0.00000000,0.00000000,0.47157532,2.17000008,0.46679652,0.19324915,-0.79088628,0.00000000,0.00000000
0.03773170,-2.17000008,-0.17578830,-0.12820758,2.60356593,0.00000000,0.00000000,0.47389376,2.17000008,0.46884820,0.19626598,-0.78086430,0.00000000,0.00000000
0.05355985,-2.17000008,-0.17664567,-0.12151856,2.64302659,0.00000000,0.00000000,0.47078612,2.17000008,0.47040343,0.19741386,-0.77261442,0.00000000,0.00000000
0.06179866,-2.17000008,-0.17795104,-0.11688153,2.68744946,0.00000000,0.00000000,0.46197942,2.17000008,0.47137523,0.19719280,-0.76859570,0.00000000,0.00000000
0.06158286,-2.17000008,-0.17978689,-0.11386196,2.72610879,0.00000000,0.00000000,0.44710428,2.17000008,0.47168455,0.19616149,-0.76899004,0.00000000,0.00000000
0.05237439,-2.17000008,-0.18222970,-0.11193158,2.76001024,0.00000000,0.00000000,0.42591834,2.17000008,0.47129920,0.19484702,-0.76700902,0.00000000,0.00000000
0.03404408,-2.17000008,-0.18533042,-0.11058425,2.79574442,0.00000000,0.00000000,0.39857882,2.17000008,0.47026610,0.19367863,-0.77041227,0.00000000,0.00000000
0.00654708,-2.17000008,-0.18911864,-0.10956256,2.83184981,0.00000000,0.00000000,0.36597052,2.17000008,0.46873292,0.19299740,-0.77317041,0.00000000,0.00000000
-0.02983887,-2.17000008,-0.19358237,-0.10885778,2.86512995,0.00000000,0.00000000,0.33014348,2.17000008,0.46697161,0.19320996,-0.77704805,0.00000000,0.00000000
-0.07250486,-2.17000008,-0.19855419,-0.10825408,2.87979317,0.00000000,0.00000000,0.29433385,2.17000008,0.46538952,0.19468059,-0.77569246,0.00000000,0.00000000
-0.11903337,-2.17000008,-0.20388868,-0.10734884,2.87979317,0.00000000,0.00000000,0.26127255,2.17000008,0.46441019,0.19699752,-0.77300990,0.00000000,0.00000000
-0.17016885,-2.17000008,-0.20964882,-0.10534986,2.87979317,0.00000000,0.00000000,0.23100172,2.17000008,0.46423209,0.19880787,-0.77155215,0.00000000,0.00000000
-0.22356743,-2.16999197,-0.21567708,-0.10188589,2.87979317,0.00000000,0.00000000,0.20241787,2.17000008,0.46491286,0.19879170,-0.77097940,0.00000000,0.00000000
-0.27626032,-2.16986585,-0.22176179,-0.09761306,2.87979317,0.00000000,0.00000000,0.17357646,2.17000008,0.46637017,0.19564085,-0.76992577,0.00000000,0.00000000
-0.32625237,-2.16944051,-0.22774993,-0.09405892,2.87979317,0.00000000,0.00000000,0.14003173,2.17000008,0.46822208,0.18700746,-0.76232511,0.00000000,0.00000000
-0.37204021,-2.16908288,-0.23352763,-0.09275733,2.87979317,0.00000000,0.00000000,0.10183130,2.17000008,0.47039607,0.17288324,-0.75809687,0.00000000,0.00000000
-0.41319415,-2.16936183,-0.23906577,-0.09416363,2.87979317,0.00000000,0.00000000,0.06210499,2.17000008,0.47295108,0.15625098,-0.75266969,0.00000000,0.00000000
-0.44953722,-2.16982675,-0.24436721,-0.09763087,2.87979317,0.00000000,0.00000000,0.02412717,2.17000008,0.47595751,0.13981733,-0.75115448,0.00000000,0.00000000
-0.47981313,-2.16986585,-0.24937412,-0.10204244,2.87979317,0.00000000,0.00000000,-0.00980240,2.17000008,0.47946429,0.12467396,-0.75133938,0.00000000,0.00000000
-0.50313246,-2.16915584,-0.25401476,-0.10699940,2.87979317,0.00000000,0.00000000,-0.03868788,2.17000008,0.48345163,0.11088490,-0.75018662,0.00000000,0.00000000
-0.51927567,-2.16729259,-0.25821677,-0.11284809,2.87979317,0.00000000,0.00000000,-0.06212325,2.17000008,0.48786181,0.09830377,-0.75108069,0.00000000,0.00000000
-0.52816808,-2.16484952,-0.26188585,-0.12023790,2.87979317,0.00000000,0.00000000,-0.07964459,2.17000008,0.49264735,0.08683645,-0.75438702,0.00000000,0.00000000
-0.52961409,-2.16277218,-0.26489300,-0.12989016,2.87979317,0.00000000,0.00000000,-0.09058096,2.17000008,0.49778989,0.07653125,-0.75524724,0.00000000,0.00000000
-0.52316350,-2.16170835,-0.26706499,-0.14250362,2.87979317,0.00000000,0.00000000,-0.09409120,2.17000008,0.50329947,0.06768872,-0.75875288,0.00000000,0.00000000
-0.50796026,-2.16180539,-0.26817095,-0.15857661,2.87979317,0.00000000,0.00000000,-0.08900593,2.16999578,0.50920475,0.06110351,-0.76064420,0.00000000,0.00000000
-0.48380461,-2.16385078,-0.26802975,-0.17843765,2.87979317,0.00000000,0.00000000,-0.07424570,2.16982436,0.51553971,0.05749321,-0.75971031,0.00000000,0.00000000
-0.45232224,-2.16815376,-0.26670587,-0.20085569,2.87979317,0.00000000,0.00000000,-0.05081730,2.16793895,0.52231187,0.05585432,-0.75705516,0.00000000,0.00000000
-0.41377711,-2.16988087,-0.26437068,-0.22013602,2.87979317,0.00000000,0.00000000,-0.02053579,2.16202974,0.52947015,0.05599603,-0.75307262,0.00000000,0.00000000
-0.37141439,-2.17000008,-0.26152691,-0.23366301,2.87979317,0.00000000,0.00000000,0.01750478,2.15401316,0.53699768,0.05953137,-0.74500865,0.00000000,0.00000000
-0.32900402,-2.17000008,-0.25870210,-0.24155065,2.87979317,0.00000000,0.00000000,0.06278773,2.14537573,0.54485238,0.06677641,-0.73584247,0.00000000,0.00000000
-0.29051307,-2.17000008,-0.25643003,-0.24508715,2.87979317,0.00000000,0.00000000,0.11424294,2.13651752,0.55298263,0.07732504,-0.72760338,0.00000000,0.00000000
-0.25765425,-2.17000008,-0.25492772,-0.24553002,2.87979317,0.00000000,0.00000000,0.17024739,2.12757778,0.56129903,0.09046713,-0.71677816,0.00000000,0.00000000
-0.22919837,-2.17000008,-0.25403818,-0.24318291,2.87979317,0.00000000,0.00000000,0.22827984,2.11942053,0.56961650,0.10559423,-0.69649714,0.00000000,0.00000000
-0.20289853,-2.17000008,-0.25347528,-0.23783492,2.87979317,0.00000000,0.00000000,0.28533396,2.11370969,0.57764405,0.12233138,-0.67818224,0.00000000,0.00000000
-0.17641036,-2.17000008,-0.25292560,-0.22928828,2.87979317,0.00000000,0.00000000,0.33804458,2.11231637,0.58499348,0.14027096,-0.66092306,0.00000000,0.00000000
-0.14789787,-2.17000008,-0.25211987,-0.21770923,2.87979317,0.00000000,0.00000000,0.38338450,2.11650157,0.59126401,0.15884139,-0.64076561,0.00000000,0.00000000
-0.11710608,-2.17000008,-0.25095877,-0.20392762,2.87979317,0.00000000,0.00000000,0.42019162,2.12608194,0.59623450,0.17749207,-0.62220663,0.00000000,0.00000000
-0.08575550,-2.17000008,-0.24955142,-0.18937746,2.87979317,0.00000000,0.00000000,0.44925469,2.13906765,0.59996212,0.19559640,-0.60144931,0.00000000,0.00000000
-0.05627862,-2.17000008,-0.24807966,-0.17549142,2.87979317,0.00000000,0.00000000,0.47081697,2.15209436,0.60260713,0.21179999,-0.58366501,0.00000000,0.00000000
-0.03068195,-2.17000008,-0.24669324,-0.16322681,2.87979317,0.00000000,0.00000000,0.48467869,2.16221380,0.60433048,0.22487158,-0.56449139,0.00000000,0.00000000
-0.01017138,-2.17000008,-0.24547981,-0.15304331,2.87979317,0.00000000,0.00000000,0.49141240,2.16799116,0.60530090,0.23457533,-0.54577202,0.00000000,0.00000000
0.00484688,-2.17000008,-0.24446809,-0.14500290,2.87979317,0.00000000,0.00000000,0.49166760,2.16976833,0.60564017,0.24109152,-0.52236515,0.00000000,0.00000000
0.01430948,-2.17000008,-0.24367219,-0.13886772,2.87979317,0.00000000,0.00000000,0.48577332,2.16999102,0.60541445,0.24457279,-0.49689737,0.00000000,0.00000000
0.01803995,-2.17000008,-0.24313195,-0.13417307,2.87979317,0.00000000,0.00000000,0.47380379,2.17000008,0.60464621,0.24513975,-0.47515693,0.00000000,0.00000000
0.01567678,-2.17000008,-0.24291722,-0.13028453,2.87979317,0.00000000,0.00000000,0.45570019,2.17000008,0.60333651,0.24295692,-0.45270613,0.00000000,0.00000000
0.00683953,-2.17000008,-0.24310806,-0.12654810,2.87979317,0.00000000,0.00000000,0.43149400,2.17000008,0.60150820,0.23829055,-0.42870632,0.00000000,0.00000000
-0.00874860,-2.17000008,-0.24377015,-0.12258790,2.87979317,0.00000000,0.00000000,0.40162265,2.17000008,0.59925193,0.23153958,-0.39951530,0.00000000,0.00000000
-0.03124590,-2.17000008,-0.24493863,-0.11852769,2.87979317,0.00000000,0.00000000,0.36734256,2.17000008,0.59676224,0.22328687,-0.36562896,0.00000000,0.00000000
-0.06069560,-2.17000008,-0.24661782,-0.11479481,2.87979317,0.00000000,0.00000000,0.33104417,2.17000008,0.59434354,0.21440175,-0.33434713,0.00000000,0.00000000
-0.09683447,-2.16993260,-0.24878894,-0.11134978,2.87979317,0.00000000,0.00000000,0.29578686,2.17000008,0.59234166,0.20594425,-0.29598907,0.00000000,0.00000000
-0.13867968,-2.16894698,-0.25140896,-0.10671492,2.87979317,0.00000000,0.00000000,0.26379004,2.17000008,0.59100717,0.19862850,-0.25942624,0.00000000,0.00000000
-0.18383668,-2.16634536,-0.25433755,-0.09929656,2.87979317,0.00000000,0.00000000,0.23542231,2.17000008,0.59043920,0.19228606,-0.22025047,0.00000000,0.00000000
-0.22913608,-2.16472769,-0.25731814,-0.09075674,2.87979317,0.00000000,0.00000000,0.20999756,2.17000008,0.59069067,0.18590170,-0.18369105,0.00000000,0.00000000
-0.27356854,-2.16339064,-0.26027930,-0.08273271,2.87979317,0.00000000,0.00000000,0.18665743,2.17000008,0.59181201,0.17811643,-0.14458483,0.00000000,0.00000000
-0.31476432,-2.15981913,-0.26312539,-0.07560581,2.87979317,0.00000000,0.00000000,0.16302052,2.17000008,0.59362888,0.16738226,-0.10649247,0.00000000,0.00000000
-0.35012516,-2.15544343,-0.26574117,-0.07041940,2.87979317,0.00000000,0.00000000,0.13481264,2.17000008,0.59569430,0.15186526,-0.06527569,0.00000000,0.00000000
-0.38023826,-2.15251517,-0.26816338,-0.06826902,2.87979317,0.00000000,0.00000000,0.10135421,2.17000008,0.59771234,0.13243070,-0.03126441,0.00000000,0.00000000
-0.40675455,-2.15173197,-0.27047536,-0.06945447,2.87979317,0.00000000,0.00000000,0.06573550,2.17000008,0.59965539,0.11218265,0.00452912,0.00000000,0.00000000
-0.42957357,-2.15196919,-0.27268845,-0.07307574,2.87979317,0.00000000,0.00000000,0.03154270,2.17000008,0.60160643,0.09375341,0.04241063,0.00000000,0.00000000
-0.44762474,-2.15226626,-0.27475476,-0.07830771,2.87979317,0.00000000,0.00000000,0.00119815,2.17000008,0.60367429,0.07818059,0.08272864,0.00000000,0.00000000
-0.46019378,-2.15241551,-0.27661258,-0.08494274,2.87979317,0.00000000,0.00000000,-0.02421256,2.17000008,0.60593987,0.06561083,0.12599270,0.00000000,0.00000000
-0.46674085,-2.15257430,-0.27817872,-0.09311394,2.87979317,0.00000000,0.00000000,-0.04417174,2.17000008,0.60846114,0.05602525,0.16527146,0.00000000,0.00000000
-0.46673164,-2.15317607,-0.27933884,-0.10321330,2.87979317,0.00000000,0.00000000,-0.05784991,2.17000008,0.61129588,0.04968407,0.20445086,0.00000000,0.00000000
-0.45971301,-2.15494227,-0.27994806,-0.11592411,2.87979317,0.00000000,0.00000000,-0.06398061,2.17000008,0.61450976,0.04697128,0.25156185,0.00000000,0.00000000
-0.44572571,-2.15806413,-0.27987704,-0.13182718,2.87979317,0.00000000,0.00000000,-0.06237987,2.17000008,0.61818075,0.04659130,0.29968387,0.00000000,0.00000000
-0.42575702,-2.16117954,-0.27908024,-0.15079688,2.87979317,0.00000000,0.00000000,-0.05378041,2.17000008,0.62236607,0.04703274,0.34980297,0.00000000,0.00000000
-0.40109709,-2.16356778,-0.27756613,-0.17252243,2.87979317,0.00000000,0.00000000,-0.03695444,2.17000008,0.62705642,0.05116835,0.40138566,0.00000000,0.00000000
-0.37360695,-2.16583061,-0.27547762,-0.19587794,2.87979317,0.00000000,0.00000000,-0.01217142,2.16999865,0.63227427,0.05899356,0.45642245,0.00000000,0.00000000
-0.34284380,-2.16879749,-0.27281135,-0.21776024,2.87979317,0.00000000,0.00000000,0.01950939,2.16991043,0.63804018,0.06920685,0.51069033,0.00000000,0.00000000
-0.30823687,-2.16992307,-0.26972848,-0.23242514,2.87979317,0.00000000,0.00000000,0.05710533,2.16874838,0.64431888,0.08143854,0.56670338,0.00000000,0.00000000
-0.27584317,-2.17000008,-0.26717159,-0.23827571,2.87979317,0.00000000,0.00000000,0.10023640,2.16463089,0.65104485,0.09603248,0.61268377,0.00000000,0.00000000
-0.24895054,-2.17000008,-0.26555324,-0.23699984,2.87979317,0.00000000,0.00000000,0.14875597,2.15795875,0.65813321,0.11333846,0.65514928,0.00000000,0.00000000
-0.22614837,-2.17000008,-0.26458487,-0.23044625,2.87979317,0.00000000,0.00000000,0.20135714,2.14990282,0.66540956,0.13312472,0.69901860,0.00000000,0.00000000
-0.20454648,-2.17000008,-0.26379916,-0.21977419,2.87979317,0.00000000,0.00000000,0.25563940,2.14214301,0.67255265,0.15497372,0.74135000,0.00000000,0.00000000
-0.18132089,-2.17000008,-0.26277682,-0.20582597,2.86979103,0.00000000,0.00000000,0.30850831,2.13687158,0.67908448,0.17841142,0.78053713,0.00000000,0.00000000
-0.15409257,-2.17000008,-0.26119182,-0.18947712,2.85189915,0.00000000,0.00000000,0.35632244,2.13598585,0.68440735,0.20259449,0.81372476,0.00000000,0.00000000
-0.12161373,-2.17000008,-0.25887901,-0.17184079,2.82960367,0.00000000,0.00000000,0.39599538,2.14025879,0.68797886,0.22639036,0.84836566,0.00000000,0.00000000
-0.08513734,-2.17000008,-0.25594077,-0.15443774,2.80625200,0.00000000,0.00000000,0.42701235,2.14881849,0.68962842,0.24901576,0.87897342,0.00000000,0.00000000
-0.04850735,-2.17000008,-0.25270793,-0.13894665,2.78454065,0.00000000,0.00000000,0.45084447,2.15886497,0.68962795,0.26972255,0.90539646,0.00000000,0.00000000
-0.01582842,-2.17000008,-0.24951105,-0.12652943,2.76457787,0.00000000,0.00000000,0.46787813,2.16636300,0.68833971,0.28687105,0.93601215,0.00000000,0.00000000
0.01038102,-2.17000008,-0.24654305,-0.11753359,2.73980546,0.00000000,0.00000000,0.47850680,2.16940951,0.68608242,0.29941928,0.96122515,0.00000000,0.00000000
0.02955914,-2.17000008,-0.24385531,-0.11164065,2.71574640,0.00000000,0.00000000,0.48320839,2.16997004,0.68305480,0.30705443,0.98587602,0.00000000,0.00000000
0.04191235,-2.17000008,-0.24145310,-0.10820661,2.68913674,0.00000000,0.00000000,0.48191097,2.17000008,0.67928076,0.30969188,1.00650847,0.00000000,0.00000000
0.04729378,-2.17000008,-0.23937531,-0.10647875,2.66135550,0.00000000,0.00000000,0.47406161,2.17000008,0.67462379,0.30753514,1.02522278,0.00000000,0.00000000
0.04512044,-2.17000008,-0.23770264,-0.10568491,2.63041711,0.00000000,0.00000000,0.45905980,2.17000008,0.66889507,0.30121300,1.04116547,0.00000000,0.00000000
0.03503222,-2.16999602,-0.23651561,-0.10508186,2.60403323,0.00000000,0.00000000,0.43675065,2.17000008,0.66200590,0.29175290,1.05887914,0.00000000,0.00000000
0.01755754,-2.16994500,-0.23584874,-0.10387532,2.58087325,0.00000000,0.00000000,0.40781298,2.17000008,0.65407926,0.28043866,1.07103789,0.00000000,0.00000000
-0.00750025,-2.16986585,-0.23577406,-0.10175546,2.56040835,0.00000000,0.00000000,0.37411788,2.17000008,0.64551365,0.26859042,1.07686448,0.00000000,0.00000000
-0.04185885,-2.16994500,-0.23642048,-0.09965201,2.53405476,0.00000000,0.00000000,0.33870599,2.17000008,0.63694876,0.25732756,1.08526003,0.00000000,0.00000000
-0.08293883,-2.16999626,-0.23764031,-0.09721272,2.51343083,0.00000000,0.00000000,0.30472267,2.17000008,0.62902480,0.24742325,1.09093583,0.00000000,0.00000000
-0.12845409,-2.16998696,-0.23930727,-0.09311384,2.49336362,0.00000000,0.00000000,0.27415302,2.17000008,0.62222648,0.23882098,1.09327567,0.00000000,0.00000000
-0.17710026,-2.16969228,-0.24132890,-0.08705478,2.47712111,0.00000000,0.00000000,0.24752320,2.17000008,0.61683619,0.23066530,1.09854841,0.00000000,0.00000000
-0.22666264,-2.16750288,-0.24354896,-0.07962352,2.45445943,0.00000000,0.00000000,0.22435309,2.17000008,0.61295915,0.22170629,1.10015082,0.00000000,0.00000000
-0.27460358,-2.16090727,-0.24581683,-0.07158767,2.43059897,0.00000000,0.00000000,0.20326552,2.17000008,0.61050528,0.21064705,1.10271728,0.00000000,0.00000000
-0.31902710,-2.15065908,-0.24805066,-0.06362994,2.40848732,0.00000000,0.00000000,0.18333198,2.16998076,0.60931766,0.19667599,1.10772407,0.00000000,0.00000000
-0.35894519,-2.13958645,-0.25022921,-0.05683136,2.39542484,0.00000000,0.00000000,0.16471003,2.16962934,0.60921162,0.17957777,1.11158633,0.00000000,0.00000000
-0.39416030,-2.13093972,-0.25236624,-0.05266646,2.38389945,0.00000000,0.00000000,0.14165033,2.16784263,0.60922080,0.15847363,1.11502361,0.00000000,0.00000000
-0.42453220,-2.12614202,-0.25448644,-0.05168539,2.36739087,0.00000000,0.00000000,0.11106730,2.16427374,0.60860449,0.13552468,1.11447585,0.00000000,0.00000000
-0.44935647,-2.12442899,-0.25659880,-0.05323447,2.35318899,0.00000000,0.00000000,0.07612063,2.16125154,0.60742074,0.11383373,1.11319244,0.00000000,0.00000000
-0.46825370,-2.12462425,-0.25870764,-0.05656060,2.33555984,0.00000000,0.00000000,0.04106498,2.15989017,0.60598755,0.09506185,1.11331904,0.00000000,0.00000000
-0.48164448,-2.12610579,-0.26082024,-0.06138996,2.31733131,0.00000000,0.00000000,0.00851717,2.16004324,0.60453826,0.07978354,1.11432981,0.00000000,0.00000000
-0.48963949,-2.12864184,-0.26291490,-0.06764967,2.30295563,0.00000000,0.00000000,-0.02048134,2.16136050,0.60320395,0.06807462,1.11516786,0.00000000,0.00000000
-0.49182928,-2.13218927,-0.26493153,-0.07532899,2.29097295,0.00000000,0.00000000,-0.04547315,2.16349697,0.60206974,0.05995113,1.12045991,0.00000000,0.00000000
-0.48762235,-2.13673043,-0.26677915,-0.08447242,2.27881956,0.00000000,0.00000000,-0.06601968,2.16606975,0.60120511,0.05554796,1.12662578,0.00000000,0.00000000
-0.47644982,-2.14221144,-0.26834074,-0.09521006,2.26974416,0.00000000,0.00000000,-0.08160150,2.16841364,0.60067225,0.05507434,1.13190889,0.00000000,0.00000000
-0.45792747,-2.14863515,-0.26947916,-0.10784207,2.26413989,0.00000000,0.00000000,-0.09135949,2.16968226,0.60054547,0.05862040,1.13316143,0.00000000,0.00000000
-0.43213758,-2.15581775,-0.27006385,-0.12274285,2.25911522,0.00000000,0.00000000,-0.09342247,2.16998243,0.60098052,0.06568597,1.13783324,0.00000000,0.00000000
-0.39958575,-2.16245151,-0.26999247,-0.13976786,2.25075603,0.00000000,0.00000000,-0.08456560,2.17000008,0.60227692,0.07514326,1.14448690,0.00000000,0.00000000
-0.36077055,-2.16681790,-0.26916900,-0.15821768,2.24695086,0.00000000,0.00000000,-0.06320940,2.17000008,0.60469365,0.08566699,1.14991224,0.00000000,0.00000000
-0.31836572,-2.16927052,-0.26780644,-0.17659786,2.24346614,0.00000000,0.00000000,-0.03342224,2.17000008,0.60820895,0.09478390,1.16140699,0.00000000,0.00000000
-0.27703935,-2.16995645,-0.26658854,-0.18992144,2.24432659,0.00000000,0.00000000,0.00326541,2.16996002,0.61276770,0.10221667,1.17268765,0.00000000,0.00000000
-0.23717843,-2.17000008,-0.26567385,-0.19579442,2.24976993,0.00000000,0.00000000,0.04820066,2.16929793,0.61830533,0.10989995,1.18188953,0.00000000,0.00000000
-0.20143865,-2.17000008,-0.26528731,-0.19631930,2.25633502,0.00000000,0.00000000,0.10133101,2.16655564,0.62461030,0.11987815,1.18807423,0.00000000,0.00000000
-0.16920473,-2.17000008,-0.26527607,-0.19337508,2.26098752,0.00000000,0.00000000,0.15927584,2.16184092,0.63125038,0.13300273,1.19191563,0.00000000,0.00000000
-0.13747790,-2.17000008,-0.26525754,-0.18784383,2.26507497,0.00000000,0.00000000,0.21760839,2.15785980,0.63770455,0.14918570,1.20025527,0.00000000,0.00000000
-0.10355332,-2.17000008,-0.26489770,-0.18038943,2.26614237,0.00000000,0.00000000,0.27206460,2.15700793,0.64344019,0.16766040,1.20884395,0.00000000,0.00000000
-0.06641965,-2.17000008,-0.26404163,-0.17190503,2.27207637,0.00000000,0.00000000,0.31960988,2.15994430,0.64804393,0.18731798,1.22149026,0.00000000,0.00000000
-0.02839641,-2.17000008,-0.26286256,-0.16361786,2.28235626,0.00000000,0.00000000,0.35973322,2.16504860,0.65144014,0.20701954,1.23432124,0.00000000,0.00000000
0.00604237,-2.17000008,-0.26174846,-0.15641981,2.29119468,0.00000000,0.00000000,0.39290172,2.16886568,0.65384597,0.22504087,1.24329686,0.00000000,0.00000000
0.03359602,-2.17000008,-0.26099816,-0.15025999,2.30168819,0.00000000,0.00000000,0.41924626,2.16993284,0.65549231,0.23970477,1.24949920,0.00000000,0.00000000
0.05289364,-2.17000008,-0.26073620,-0.14477167,2.31061959,0.00000000,0.00000000,0.43917674,2.17000008,0.65646780,0.25058430,1.24963450,0.00000000,0.00000000
0.06362338,-2.17000008,-0.26098287,-0.13984402,2.31907105,0.00000000,0.00000000,0.45230725,2.17000008,0.65662062,0.25778636,1.24467683,0.00000000,0.00000000
0.06576964,-2.17000008,-0.26173568,-0.13553983,2.32513928,0.00000000,0.00000000,0.45758149,2.17000008,0.65567559,0.26149744,1.23670292,0.00000000,0.00000000
0.05926032,-2.17000008,-0.26301765,-0.13185680,2.33150458,0.00000000,0.00000000,0.45413449,2.17000008,0.65339774,0.26214746,1.22367966,0.00000000,0.00000000
0.04402747,-2.17000008,-0.26487589,-0.12865457,2.33190417,0.00000000,0.00000000,0.44184661,2.17000008,0.64970469,0.26050219,1.20711207,0.00000000,0.00000000
0.02073499,-2.17000008,-0.26731145,-0.12571427,2.33129978,0.00000000,0.00000000,0.42157418,2.17000008,0.64474261,0.25741440,1.18864775,0.00000000,0.00000000
-0.00938448,-2.17000008,-0.27027023,-0.12311012,2.33014798,0.00000000,0.00000000,0.39517176,2.17000008,0.63886428,0.25367799,1.17022312,0.00000000,0.00000000
-0.04670395,-2.17000008,-0.27379170,-0.12175409,2.32826138,0.00000000,0.00000000,0.36533880,2.17000008,0.63254547,0.25003788,1.15192270,0.00000000,0.00000000
-0.09131727,-2.17000008,-0.27789363,-0.12234233,2.32959247,0.00000000,0.00000000,0.33463058,2.17000008,0.62627572,0.24674535,1.13496733,0.00000000,0.00000000
-0.13961545,-2.17000008,-0.28235468,-0.12361883,2.32757068,0.00000000,0.00000000,0.30439931,2.17000008,0.62042391,0.24334820,1.11682630,0.00000000,0.00000000
-0.18948786,-2.17000008,-0.28704578,-0.12423411,2.32514071,0.00000000,0.00000000,0.27437428,2.17000008,0.61521047,0.23855667,1.09856296,0.00000000,0.00000000
-0.23955111,-2.17000008,-0.29184723,-0.12388723,2.32066059,0.00000000,0.00000000,0.24387272,2.17000008,0.61078948,0.23096630,1.07712841,0.00000000,0.00000000
-0.28757560,-2.17000008,-0.29655749,-0.12287898,2.31413341,0.00000000,0.00000000,0.21219116,2.17000008,0.60724437,0.21942601,1.05592966,0.00000000,0.00000000
-0.33111930,-2.17000008,-0.30096808,-0.12166800,2.30633855,0.00000000,0.00000000,0.17819540,2.17000008,0.60448515,0.20326436,1.03684568,0.00000000,0.00000000
-0.36861178,-2.17000008,-0.30495608,-0.12065130,2.30163288,0.00000000,0.00000000,0.14063637,2.16999030,0.60225588,0.18271220,1.01847410,0.00000000,0.00000000
-0.40015432,-2.17000008,-0.30853415,-0.12018856,2.29654002,0.00000000,0.00000000,0.10051794,2.16984463,0.60039097,0.15967229,0.99927056,0.00000000,0.00000000
-0.42645416,-2.17000008,-0.31176943,-0.12040223,2.29330921,0.00000000,0.00000000,0.06205671,2.16939139,0.59895885,0.13727953,0.98246956,0.00000000,0.00000000
-0.44700077,-2.17000008,-0.31466055,-0.12080080,2.28540087,0.00000000,0.00000000,0.02739334,2.16894865,0.59794104,0.11687806,0.96943372,0.00000000,0.00000000
-0.46125531,-2.17000008,-0.31717801,-0.12132309,2.27855778,0.00000000,0.00000000,-0.00316238,2.16880941,0.59727991,0.09868065,0.95283091,0.00000000,0.00000000
-0.46896410,-2.17000008,-0.31928766,-0.12227881,2.27903152,0.00000000,0.00000000,-0.02937810,2.16887760,0.59697920,0.08273440,0.93620378,0.00000000,0.00000000
-0.46989033,-2.17000008,-0.32094303,-0.12401861,2.28111172,0.00000000,0.00000000,-0.05071340,2.16877866,0.59710222,0.06882802,0.92213875,0.00000000,0.00000000
-0.46390489,-2.16999960,-0.32209685,-0.12684464,2.28590322,0.00000000,0.00000000,-0.06593574,2.16828847,0.59774637,0.05679454,0.91155839,0.00000000,0.00000000
-0.45110458,-2.16999435,-0.32271215,-0.13099085,2.29443479,0.00000000,0.00000000,-0.07357879,2.16752410,0.59897548,0.04711409,0.90212220,0.00000000,0.00000000
-0.43167371,-2.16998625,-0.32273445,-0.13697740,2.29874945,0.00000000,0.00000000,-0.07310680,2.16699481,0.60077572,0.04101947,0.89180803,0.00000000,0.00000000
-0.40568629,-2.16999435,-0.32208225,-0.14541253,2.30028868,0.00000000,0.00000000,-0.06499638,2.16623950,0.60312998,0.03886160,0.87934828,0.00000000,0.00000000
-0.37305909,-2.16999960,-0.32065406,-0.15662754,2.29743600,0.00000000,0.00000000,-0.04940286,2.16492200,0.60604537,0.04060751,0.86957020,0.00000000,0.00000000
-0.33439541,-2.17000008,-0.31840935,-0.17078818,2.28903270,0.00000000,0.00000000,-0.02641993,2.16324639,0.60952562,0.04626689,0.85901803,0.00000000,0.00000000
-0.29438531,-2.17000008,-0.31580341,-0.18755049,2.27706051,0.00000000,0.00000000,0.00408478,2.16108561,0.61358136,0.05573015,0.85348952,0.00000000,0.00000000
-0.25993031,-2.17000008,-0.31373832,-0.20465533,2.26845288,0.00000000,0.00000000,0.04238668,2.15791965,0.61822909,0.06874494,0.85212612,0.00000000,0.00000000
-0.23061492,-2.17000008,-0.31236076,-0.21895815,2.25964642,0.00000000,0.00000000,0.08766421,2.15381479,0.62343109,0.08497116,0.85803884,0.00000000,0.00000000
-0.20334578,-2.17000008,-0.31141534,-0.22828084,2.25658274,0.00000000,0.00000000,0.13789339,2.14956713,0.62905627,0.10401361,0.86413813,0.00000000,0.00000000
-0.17587851,-2.17000008,-0.31061456,-0.23218812,2.25969720,0.00000000,0.00000000,0.19021957,2.14665341,0.63485247,0.12550478,0.86910045,0.00000000,0.00000000
-0.14600649,-2.17000008,-0.30960763,-0.23096241,2.25938773,0.00000000,0.00000000,0.24131551,2.14669919,0.64045590,0.14898153,0.87819248,0.00000000,0.00000000
-0.11255220,-2.17000008,-0.30814192,-0.22536768,2.26504183,0.00000000,0.00000000,0.28835565,2.15044498,0.64550096,0.17378142,0.89033073,0.00000000,0.00000000
-0.07729997,-2.17000008,-0.30631861,-0.21690078,2.27396798,0.00000000,0.00000000,0.33038899,2.15701890,0.64980936,0.19922666,0.90374285,0.00000000,0.00000000
-0.04436673,-2.17000008,-0.30454254,-0.20713772,2.28417730,0.00000000,0.00000000,0.36757332,2.16407895,0.65339738,0.22440466,0.91936082,0.00000000,0.00000000
-0.01642878,-2.17000008,-0.30307880,-0.19682965,2.28924036,0.00000000,0.00000000,0.39864427,2.16867924,0.65625274,0.24752465,0.93363112,0.00000000,0.00000000
0.00633316,-2.17000008,-0.30190954,-0.18633950,2.29089260,0.00000000,0.00000000,0.42251900,2.16992235,0.65837198,0.26709685,0.95171249,0.00000000,0.00000000
0.02450275,-2.17000008,-0.30093938,-0.17606843,2.29157424,0.00000000,0.00000000,0.43906671,2.17000008,0.65975910,0.28251618,0.97029942,0.00000000,0.00000000
0.03844917,-2.17000008,-0.30010894,-0.16642800,2.29253721,0.00000000,0.00000000,0.44825149,2.17000008,0.66035599,0.29359004,0.99024230,0.00000000,0.00000000
0.04814084,-2.17000008,-0.29940990,-0.15779552,2.29354405,0.00000000,0.00000000,0.44992036,2.17000008,0.66005844,0.30029753,1.01237011,0.00000000,0.00000000
0.05313490,-2.17000008,-0.29888728,-0.15058000,2.29316282,0.00000000,0.00000000,0.44400972,2.17000008,0.65877366,0.30284438,1.03468525,0.00000000,0.00000000
0.05276013,-2.17000008,-0.29863098,-0.14519610,2.28798223,0.00000000,0.00000000,0.43078193,2.17000008,0.65649098,0.30173349,1.05908477,0.00000000,0.00000000
0.04646646,-2.17000008,-0.29874772,-0.14186476,2.28220105,0.00000000,0.00000000,0.41104668,2.17000008,0.65335405,0.29771513,1.08477437,0.00000000,0.00000000
0.03404482,-2.17000008,-0.29933164,-0.14040102,2.27616358,0.00000000,0.00000000,0.38619992,2.17000008,0.64968431,0.29161337,1.11260509,0.00000000,0.00000000
0.01581831,-2.17000008,-0.30043927,-0.13990329,2.27472448,0.00000000,0.00000000,0.35793257,2.17000008,0.64593869,0.28396058,1.13374484,0.00000000,0.00000000
-0.00750463,-2.17000008,-0.30210504,-0.13849106,2.27331352,0.00000000,0.00000000,0.32773727,2.17000008,0.64263850,0.27453637,1.15139258,0.00000000,0.00000000
-0.03572473,-2.17000008,-0.30438426,-0.13431843,2.27214885,0.00000000,0.00000000,0.29697472,2.17000008,0.64031553,0.26245603,1.17127335,0.00000000,0.00000000
-0.06977265,-2.17000008,-0.30732140,-0.12767576,2.26622510,0.00000000,0.00000000,0.26836234,2.17000008,0.63954610,0.24732059,1.18778658,0.00000000,0.00000000
-0.11119919,-2.17000008,-0.31094345,-0.12026191,2.25675726,0.00000000,0.00000000,0.24585333,2.16994548,0.64081997,0.22985353,1.20002651,0.00000000,0.00000000
-0.15887219,-2.17000008,-0.31513566,-0.11232916,2.24529672,0.00000000,0.00000000,0.22969992,2.16902089,0.64397091,0.21069108,1.20805383,0.00000000,0.00000000
-0.21001928,-2.16997886,-0.31966746,-0.10466615,2.23309374,0.00000000,0.00000000,0.21597193,2.16496634,0.64820731,0.19037695,1.22245562,0.00000000,0.00000000
-0.26209408,-2.16963720,-0.32433486,-0.09872327,2.22340155,0.00000000,0.00000000,0.19999522,2.15713596,0.65263873,0.16988169,1.23367536,0.00000000,0.00000000
-0.31210187,-2.16827846,-0.32896402,-0.09494628,2.22244930,0.00000000,0.00000000,0.17812240,2.14856720,0.65664452,0.14994946,1.25322378,0.00000000,0.00000000
-0.35778102,-2.16576242,-0.33346230,-0.09302214,2.21761131,0.00000000,0.00000000,0.14923838,2.14262581,0.65999007,0.13133168,1.27004743,0.00000000,0.00000000
-0.39870802,-2.16217446,-0.33784115,-0.09269195,2.21382046,0.00000000,0.00000000,0.11666134,2.14095879,0.66288131,0.11541885,1.28813088,0.00000000,0.00000000
-0.43493763,-2.15728354,-0.34212714,-0.09365183,2.21351647,0.00000000,0.00000000,0.08491858,2.14279890,0.66568714,0.10283780,1.30214918,0.00000000,0.00000000
-0.46616545,-2.15130281,-0.34629646,-0.09584831,2.21210122,0.00000000,0.00000000,0.05573364,2.14616632,0.66862845,0.09267871,1.31846797,0.00000000,0.00000000
-0.49188542,-2.14514732,-0.35027194,-0.09963447,2.20842409,0.00000000,0.00000000,0.02955166,2.14955950,0.67181194,0.08393009,1.32801414,0.00000000,0.00000000
-0.51068872,-2.13996172,-0.35388854,-0.10535394,2.20599508,0.00000000,0.00000000,0.00690435,2.15208292,0.67530853,0.07615069,1.33895206,0.00000000,0.00000000
-0.52096355,-2.13703871,-0.35692692,-0.11344026,2.20146132,0.00000000,0.00000000,-0.01121431,2.15376353,0.67917866,0.06983288,1.35814881,0.00000000,0.00000000
-0.52151662,-2.13786507,-0.35914502,-0.12458315,2.19376898,0.00000000,0.00000000,-0.02352818,2.15444136,0.68350089,0.06571853,1.37262940,0.00000000,0.00000000
-0.51119709,-2.14363575,-0.36026427,-0.13935521,2.18430042,0.00000000,0.00000000,-0.02912954,2.15331793,0.68835026,0.06412764,1.38805592,0.00000000,0.00000000
-0.48851851,-2.15347147,-0.35999206,-0.15697023,2.17439818,0.00000000,0.00000000,-0.02716583,2.15017080,0.69377202,0.06553335,1.40409768,0.00000000,0.00000000
-0.45319149,-2.16290188,-0.35821885,-0.17456505,2.16872597,0.00000000,0.00000000,-0.01706229,2.14562774,0.69976902,0.07053348,1.42000794,0.00000000,0.00000000
-0.40879676,-2.16846704,-0.35519400,-0.19057836,2.16562629,0.00000000,0.00000000,0.00193560,2.14057899,0.70633543,0.07972345,1.43663371,0.00000000,0.00000000
-0.36064920,-2.16991091,-0.35135859,-0.20512182,2.16417480,0.00000000,0.00000000,0.03059671,2.13509488,0.71348375,0.09321012,1.45283461,0.00000000,0.00000000
-0.31188041,-2.17000008,-0.34699914,-0.21813886,2.16206312,0.00000000,0.00000000,0.06802183,2.12845469,0.72117507,0.11010095,1.46251965,0.00000000,0.00000000
-0.26270920,-2.17000008,-0.34215078,-0.22870082,2.15727282,0.00000000,0.00000000,0.11163283,2.12122750,0.72921211,0.12948041,1.47381508,0.00000000,0.00000000
-0.21226776,-2.17000008,-0.33671853,-0.23606844,2.15685344,0.00000000,0.00000000,0.15859388,2.11560798,0.73724079,0.15107597,1.48434925,0.00000000,0.00000000
-0.15973067,-2.17000008,-0.33058563,-0.24006365,2.16237402,0.00000000,0.00000000,0.20616096,2.11418819,0.74479574,0.17483054,1.49545658,0.00000000,0.00000000
-0.10507203,-2.17000008,-0.32371864,-0.24107526,2.17656279,0.00000000,0.00000000,0.25155860,2.11862421,0.75138110,0.20034997,1.50887477,0.00000000,0.00000000
-0.05016160,-2.17000008,-0.31633538,-0.23996018,2.18763304,0.00000000,0.00000000,0.29281202,2.12841082,0.75667048,0.22678149,1.51715779,0.00000000,0.00000000
0.00157406,-2.17000008,-0.30890527,-0.23732615,2.19445062,0.00000000,0.00000000,0.32845041,2.14068675,0.76057309,0.25254014,1.52101445,0.00000000,0.00000000
0.04724013,-2.17000008,-0.30187944,-0.23289898,2.20035744,0.00000000,0.00000000,0.35735196,2.15205455,0.76313311,0.27590686,1.52900839,0.00000000,0.00000000
0.08539432,-2.17000008,-0.29550719,-0.22603983,2.21408629,0.00000000,0.00000000,0.38049704,2.16039801,0.76456016,0.29650947,1.53780949,0.00000000,0.00000000
0.11578505,-2.17000008,-0.28982556,-0.21647474,2.23012543,0.00000000,0.00000000,0.39898753,2.16493297,0.76498699,0.31443402,1.54922712,0.00000000,0.00000000
0.13862799,-2.17000008,-0.28475615,-0.20460564,2.23823643,0.00000000,0.00000000,0.41282922,2.16605687,0.76438546,0.32937229,1.56178296,0.00000000,0.00000000
0.15413074,-2.17000008,-0.28020027,-0.19125810,2.24270725,0.00000000,0.00000000,0.42142874,2.16500187,0.76274902,0.34036469,1.57759249,0.00000000,0.00000000
0.16231580,-2.17000008,-0.27609149,-0.17722049,2.24662614,0.00000000,0.00000000,0.42450216,2.16313243,0.76022530,0.34606037,1.59906578,0.00000000,0.00000000
0.16322540,-2.17000008,-0.27239168,-0.16289306,2.25417614,0.00000000,0.00000000,0.42241424,2.16232228,0.75692058,0.34561181,1.61412966,0.00000000,0.00000000
0.15684099,-2.17000008,-0.26909065,-0.14850272,2.26094413,0.00000000,0.00000000,0.41506633,2.16266656,0.75290745,0.33841720,1.63395572,0.00000000,0.00000000
0.14274459,-2.17000008,-0.26623398,-0.13423815,2.26500130,0.00000000,0.00000000,0.40263703,2.16376519,0.74815100,0.32557636,1.64917052,0.00000000,0.00000000
0.12082213,-2.17000008,-0.26385671,-0.12010044,2.26984906,0.00000000,0.00000000,0.38514581,2.16498017,0.74247485,0.30918539,1.66652453,0.00000000,0.00000000
0.09165633,-2.17000008,-0.26193994,-0.10586739,2.27677822,0.00000000,0.00000000,0.36252570,2.16610384,0.73571956,0.29122329,1.68206334,0.00000000,0.00000000
0.05629279,-2.17000008,-0.26041934,-0.09154171,2.28322673,0.00000000,0.00000000,0.33583766,2.16714644,0.72808272,0.27318099,1.69741726,0.00000000,0.00000000
0.01569250,-2.16993952,-0.25920910,-0.07808374,2.28772235,0.00000000,0.00000000,0.30824035,2.16802216,0.72013795,0.25644949,1.71162844,0.00000000,0.00000000
-0.03044652,-2.16889882,-0.25830981,-0.06614907,2.28918242,0.00000000,0.00000000,0.28418189,2.16893673,0.71250612,0.24269003,1.73249495,0.00000000,0.00000000
-0.08152101,-2.16412997,-0.25772345,-0.05476107,2.28918767,0.00000000,0.00000000,0.26366645,2.16973209,0.70530063,0.23113070,1.75024199,0.00000000,0.00000000
-0.13616945,-2.15406442,-0.25741664,-0.04377153,2.28788638,0.00000000,0.00000000,0.24385799,2.16997123,0.69848037,0.21863949,1.75762999,0.00000000,0.00000000
-0.19342281,-2.14094138,-0.25736374,-0.03431704,2.29243374,0.00000000,0.00000000,0.22348316,2.16976643,0.69204766,0.20343161,1.76433492,0.00000000,0.00000000
-0.25244743,-2.12781739,-0.25755447,-0.02766889,2.28796148,0.00000000,0.00000000,0.20154428,2.16867399,0.68569934,0.18614599,1.76962745,0.00000000,0.00000000
-0.31123835,-2.11708713,-0.25796637,-0.02456910,2.28271008,0.00000000,0.00000000,0.17598343,2.16626501,0.67896587,0.16790725,1.77108228,0.00000000,0.00000000
-0.36668023,-2.11009455,-0.25855905,-0.02500733,2.27019143,0.00000000,0.00000000,0.14564171,2.16335416,0.67160875,0.14955425,1.77282143,0.00000000,0.00000000
-0.41619503,-2.10664058,-0.25928882,-0.02825123,2.26002026,0.00000000,0.00000000,0.11166923,2.16116452,0.66367465,0.13208799,1.76882195,0.00000000,0.00000000
-0.45829684,-2.10541677,-0.26011023,-0.03322433,2.25047946,0.00000000,0.00000000,0.07726936,2.16044402,0.65539002,0.11672117,1.76390815,0.00000000,0.00000000
-0.49231032,-2.10551238,-0.26097023,-0.03931142,2.24325275,0.00000000,0.00000000,0.04553904,2.16104770,0.64700091,0.10414033,1.76568091,0.00000000,0.00000000
-0.51809675,-2.10680342,-0.26180658,-0.04648562,2.24053097,0.00000000,0.00000000,0.01793643,2.16243839,0.63865876,0.09432465,1.76423645,0.00000000,0.00000000
-0.53556740,-2.10947466,-0.26253983,-0.05492305,2.23409367,0.00000000,0.00000000,-0.00525976,2.16421008,0.63043547,0.08697284,1.76397705,0.00000000,0.00000000
-0.54449439,-2.11382413,-0.26306635,-0.06486933,2.22510862,0.00000000,0.00000000,-0.02408474,2.16610241,0.62237370,0.08180232,1.76502872,0.00000000,0.00000000
-0.54458678,-2.12024355,-0.26325732,-0.07668000,2.20882416,0.00000000,0.00000000,-0.03846535,2.16786265,0.61451691,0.07861104,1.76151550,0.00000000,0.00000000
-0.53557569,-2.12914133,-0.26296046,-0.09080666,2.19074106,0.00000000,0.00000000,-0.04773157,2.16919184,0.60693979,0.07725684,1.75934541,0.00000000,0.00000000
-0.51715112,-2.14047265,-0.26200217,-0.10748833,2.17543554,0.00000000,0.00000000,-0.05080979,2.16984367,0.59975946,0.07726535,1.75373435,0.00000000,0.00000000
-0.48926699,-2.15278530,-0.26022545,-0.12618725,2.15725613,0.00000000,0.00000000,-0.04863833,2.16999149,0.59304070,0.07706238,1.75015414,0.00000000,0.00000000
-0.45277232,-2.16304541,-0.25755575,-0.14558201,2.13331914,0.00000000,0.00000000,-0.04251124,2.16998935,0.58680534,0.07551335,1.74415958,0.00000000,0.00000000
-0.40854153,-2.16857243,-0.25396663,-0.16406536,2.10814166,0.00000000,0.00000000,-0.03017176,2.16980052,0.58111590,0.07423301,1.72988236,0.00000000,0.00000000
-0.35869515,-2.16991854,-0.24960192,-0.18020454,2.08446956,0.00000000,0.00000000,-0.01023295,2.16884089,0.57597136,0.07474859,1.71417308,0.00000000,0.00000000
-0.30834153,-2.17000008,-0.24494587,-0.19369656,2.05970311,0.00000000,0.00000000,0.01728843,2.16634750,0.57133549,0.07757665,1.70024347,0.00000000,0.00000000
-0.26190847,-2.17000008,-0.24048790,-0.20483845,2.03781700,0.00000000,0.00000000,0.05147633,2.16206288,0.56714714,0.08265199,1.68152654,0.00000000,0.00000000
-0.21998468,-2.17000008,-0.23634592,-0.21366037,2.01709795,0.00000000,0.00000000,0.09030212,2.15663648,0.56328857,0.08962644,1.66334271,0.00000000,0.00000000
-0.18126203,-2.17000008,-0.23242332,-0.21996480,2.00142384,0.00000000,0.00000000,0.13154534,2.15124893,0.55961150,0.09824586,1.64501667,0.00000000,0.00000000
-0.14400378,-2.17000008,-0.22855383,-0.22346289,1.98122978,0.00000000,0.00000000,0.17319059,2.14725947,0.55595076,0.10844119,1.62416136,0.00000000,0.00000000
-0.10643926,-2.17000008,-0.22454260,-0.22388829,1.95940220,0.00000000,0.00000000,0.21328601,2.14596176,0.55212069,0.12020200,1.60166776,0.00000000,0.00000000
-0.06739639,-2.17000008,-0.22024070,-0.22122106,1.93824100,0.00000000,0.00000000,0.25007275,2.14806271,0.54794425,0.13337511,1.57961345,0.00000000,0.00000000
-0.02746479,-2.17000008,-0.21568231,-0.21604216,1.91264081,0.00000000,0.00000000,0.28278208,2.15310001,0.54334033,0.14762701,1.55907047,0.00000000,0.00000000
0.01033634,-2.17000008,-0.21116936,-0.20958808,1.88890541,0.00000000,0.00000000,0.31214148,2.15956283,0.53838176,0.16264395,1.53782117,0.00000000,0.00000000
0.04219941,-2.17000008,-0.20709857,-0.20304188,1.86809909,0.00000000,0.00000000,0.33865085,2.16549730,0.53316867,0.17787997,1.50732958,0.00000000,0.00000000
0.06644750,-2.17000008,-0.20363849,-0.19680558,1.85087001,0.00000000,0.00000000,0.36081225,2.16902781,0.52767235,0.19213587,1.47829628,0.00000000,0.00000000
0.08375200,-2.17000008,-0.20070374,-0.19070224,1.84063005,0.00000000,0.00000000,0.37718305,2.16994333,0.52185702,0.20434687,1.45102692,0.00000000,0.00000000
0.09546933,-2.17000008,-0.19813870,-0.18446317,1.82874918,0.00000000,0.00000000,0.38744172,2.17000008,0.51575446,0.21398190,1.42736220,0.00000000,0.00000000
0.10251673,-2.17000008,-0.19583838,-0.17801107,1.82209337,0.00000000,0.00000000,0.39178398,2.17000008,0.50941116,0.22092864,1.40619421,0.00000000,0.00000000
0.10503747,-2.17000008,-0.19378452,-0.17152765,1.81189442,0.00000000,0.00000000,0.39045957,2.17000008,0.50284845,0.22537114,1.38877082,0.00000000,0.00000000
0.10256734,-2.17000008,-0.19203231,-0.16536647,1.79950428,0.00000000,0.00000000,0.38365003,2.17000008,0.49606395,0.22767954,1.37232649,0.00000000,0.00000000
0.09436987,-2.17000008,-0.19068001,-0.15991053,1.78017783,0.00000000,0.00000000,0.37147009,2.17000008,0.48905057,0.22829004,1.36157310,0.00000000,0.00000000
0.07964255,-2.17000008,-0.18984586,-0.15538894,1.76893783,0.00000000,0.00000000,0.35404003,2.17000008,0.48181880,0.22757758,1.34728158,0.00000000,0.00000000
0.05724671,-2.17000008,-0.18968503,-0.15170704,1.76065719,0.00000000,0.00000000,0.33154792,2.17000008,0.47440940,0.22572695,1.33182740,0.00000000,0.00000000
0.02712745,-2.17000008,-0.19026309,-0.14799689,1.74936080,0.00000000,0.00000000,0.30458808,2.17000008,0.46692806,0.22272803,1.31600523,0.00000000,0.00000000
-0.00841046,-2.17000008,-0.19142519,-0.14331587,1.74053049,0.00000000,0.00000000,0.27559718,2.17000008,0.45968410,0.21877155,1.29793596,0.00000000,0.00000000
-0.05128226,-2.17000008,-0.19332552,-0.13896880,1.73248887,0.00000000,0.00000000,0.24882765,2.17000008,0.45317635,0.21431245,1.27730453,0.00000000,0.00000000
-0.10176162,-2.17000008,-0.19597173,-0.13464059,1.72608280,0.00000000,0.00000000,0.22594310,2.17000008,0.44764861,0.20888105,1.25823236,0.00000000,0.00000000
-0.15720583,-2.17000008,-0.19912304,-0.12929454,1.72125340,0.00000000,0.00000000,0.20563950,2.17000008,0.44301605,0.20143715,1.23896563,0.00000000,0.00000000
-0.21465455,-2.17000008,-0.20250642,-0.12277824,1.71464419,0.00000000,0.00000000,0.18620728,2.17000008,0.43909639,0.19137976,1.21901929,0.00000000,0.00000000
-0.27103442,-2.17000008,-0.20585059,-0.11567096,1.70293033,0.00000000,0.00000000,0.16608828,2.17000008,0.43567339,0.17866600,1.19158888,0.00000000,0.00000000
-0.32320675,-2.17000008,-0.20890747,-0.10887727,1.69598806,0.00000000,0.00000000,0.14318860,2.17000008,0.43243691,0.16371277,1.16494799,0.00000000,0.00000000
-0.36889279,-2.17000008,-0.21152431,-0.10323518,1.69373989,0.00000000,0.00000000,0.11578084,2.17000008,0.42907831,0.14771150,1.14111161,0.00000000,0.00000000
-0.40769887,-2.17000008,-0.21369372,-0.09935620,1.69402671,0.00000000,0.00000000,0.08477386,2.17000008,0.42551851,0.13281059,1.11782122,0.00000000,0.00000000
-0.44038489,-2.16999650,-0.21548782,-0.09749481,1.69999611,0.00000000,0.00000000,0.05414508,2.17000008,0.42195514,0.12146445,1.09801149,0.00000000,0.00000000
-0.46688968,-2.16993451,-0.21693139,-0.09741472,1.71014452,0.00000000,0.00000000,0.02784663,2.17000008,0.41863170,0.11499733,1.07817876,0.00000000,0.00000000
-0.48652065,-2.16962671,-0.21799852,-0.09888973,1.71473253,0.00000000,0.00000000,0.00728125,2.17000008,0.41566342,0.11303121,1.05789495,0.00000000,0.00000000
-0.49867621,-2.16897583,-0.21864729,-0.10197111,1.71690249,0.00000000,0.00000000,-0.00759354,2.17000008,0.41310036,0.11430795,1.03627920,0.00000000,0.00000000
-0.50302327,-2.16834235,-0.21882932,-0.10696197,1.72944140,0.00000000,0.00000000,-0.01668320,2.17000008,0.41101861,0.11744267,1.01900196,0.00000000,0.00000000
-0.49951118,-2.16821885,-0.21849066,-0.11434317,1.74456549,0.00000000,0.00000000,-0.01946067,2.17000008,0.40952364,0.12133154,1.00693119,0.00000000,0.00000000
-0.48832634,-2.16879797,-0.21757352,-0.12458546,1.75809026,0.00000000,0.00000000,-0.01536529,2.17000008,0.40870801,0.12533171,0.98941451,0.00000000,0.00000000
-0.46980798,-2.16961145,-0.21602006,-0.13789618,1.77179217,0.00000000,0.00000000,-0.00426837,2.17000008,0.40861130,0.12921418,0.97263926,0.00000000,0.00000000
-0.44442645,-2.16995192,-0.21378309,-0.15404187,1.78687739,0.00000000,0.00000000,0.01334218,2.17000008,0.40920776,0.13295117,0.95563072,0.00000000,0.00000000
-0.41287479,-2.16999817,-0.21084915,-0.17229253,1.80565119,0.00000000,0.00000000,0.03645471,2.17000008,0.41041642,0.13650139,0.94037193,0.00000000,0.00000000
-0.37631124,-2.17000008,-0.20728293,-0.19152701,1.81887078,0.00000000,0.00000000,0.06381757,2.17000008,0.41212633,0.13976029,0.92823946,0.00000000,0.00000000
-0.33696231,-2.17000008,-0.20331846,-0.21052007,1.82358444,0.00000000,0.00000000,0.09432866,2.17000008,0.41423327,0.14263383,0.91294611,0.00000000,0.00000000
-0.29869023,-2.17000008,-0.19945739,-0.22830601,1.83022523,0.00000000,0.00000000,0.12730767,2.16998768,0.41666758,0.14508858,0.89949125,0.00000000,0.00000000
-0.26561096,-2.17000008,-0.19632007,-0.24416107,1.83405411,0.00000000,0.00000000,0.16219227,2.16974783,0.41936064,0.14719547,0.88112658,0.00000000,0.00000000
-0.23787157,-2.17000008,-0.19403826,-0.25653663,1.84191728,0.00000000,0.00000000,0.19804637,2.16834688,0.42218149,0.14931841,0.85851657,0.00000000,0.00000000
-0.21065535,-2.17000008,-0.19201417,-0.26234829,1.84960485,0.00000000,0.00000000,0.23373513,2.16506553,0.42493773,0.15228124,0.83411026,0.00000000,0.00000000
-0.18114486,-2.17000008,-0.18985964,-0.25978947,1.86364043,0.00000000,0.00000000,0.26793978,2.16175056,0.42739964,0.15703309,0.80635697,0.00000000,0.00000000
-0.14783049,-2.17000008,-0.18728717,-0.25006825,1.87352848,0.00000000,0.00000000,0.29913154,2.16052938,0.42933676,0.16411529,0.78007501,0.00000000,0.00000000
-0.11018338,-2.17000008,-0.18409799,-0.23635612,1.88189101,0.00000000,0.00000000,0.32625940,2.16205430,0.43060413,0.17347312,0.75303304,0.00000000,0.00000000
-0.07158201,-2.17000008,-0.18064858,-0.22207801,1.89238119,0.00000000,0.00000000,0.34959963,2.16539264,0.43123007,0.18465662,0.72738773,0.00000000,0.00000000
-0.03751266,-2.17000008,-0.17759587,-0.20925876,1.90265751,0.00000000,0.00000000,0.36974040,2.16851854,0.43132880,0.19683579,0.70644605,0.00000000,0.00000000
-0.01096487,-2.17000008,-0.17527512,-0.19807982,1.90908444,0.00000000,0.00000000,0.38589206,2.16978765,0.43093076,0.20863999,0.68180674,0.00000000,0.00000000
0.00833778,-2.17000008,-0.17361450,-0.18800728,1.91301000,0.00000000,0.00000000,0.39703253,2.16999030,0.43003932,0.21878286,0.65577388,0.00000000,0.00000000
0.02168334,-2.17000008,-0.17243034,-0.17862786,1.92106414,0.00000000,0.00000000,0.40290204,2.17000008,0.42869776,0.22653666,0.62762254,0.00000000,0.00000000
0.03000918,-2.17000008,-0.17159335,-0.16973060,1.93005931,0.00000000,0.00000000,0.40371272,2.17000008,0.42696613,0.23164830,0.60372883,0.00000000,0.00000000
0.03374128,-2.17000008,-0.17104240,-0.16124246,1.94595516,0.00000000,0.00000000,0.39977202,2.17000008,0.42489955,0.23415066,0.58518803,0.00000000,0.00000000
0.03292882,-2.17000008,-0.17077148,-0.15318774,1.95664060,0.00000000,0.00000000,0.39128804,2.17000008,0.42254061,0.23424804,0.57286835,0.00000000,0.00000000
0.02717099,-2.17000008,-0.17084131,-0.14558439,1.95999765,0.00000000,0.00000000,0.37829676,2.17000008,0.41991752,0.23223843,0.55459315,0.00000000,0.00000000
0.01528167,-2.17000008,-0.17140318,-0.13825108,1.96290040,0.00000000,0.00000000,0.36079642,2.17000008,0.41706192,0.22843102,0.54158461,0.00000000,0.00000000
-0.00287509,-2.17000008,-0.17253140,-0.13077421,1.95850146,0.00000000,0.00000000,0.33924842,2.17000008,0.41406721,0.22307102,0.52116066,0.00000000,0.00000000
-0.02567599,-2.17000008,-0.17413318,-0.12364637,1.94994414,0.00000000,0.00000000,0.31563535,2.17000008,0.41119650,0.21647035,0.50233656,0.00000000,0.00000000
-0.05690666,-2.17000008,-0.17650633,-0.11858495,1.94043517,0.00000000,0.00000000,0.29362059,2.17000008,0.40887508,0.20912409,0.48186412,0.00000000,0.00000000
-0.09715001,-2.17000008,-0.17969058,-0.11513343,1.92930484,0.00000000,0.00000000,0.27543026,2.17000008,0.40738341,0.20087495,0.45904088,0.00000000,0.00000000
-0.14394931,-2.17000008,-0.18348965,-0.11199169,1.91128135,0.00000000,0.00000000,0.26058611,2.17000008,0.40671259,0.19100517,0.43406695,0.00000000,0.00000000
-0.19480929,-2.17000008,-0.18769778,-0.10856948,1.89479852,0.00000000,0.00000000,0.24720733,2.17000008,0.40667164,0.17897494,0.40382251,0.00000000,0.00000000
-0.24701038,-2.17000008,-0.19209555,-0.10504457,1.87826860,0.00000000,0.00000000,0.23303276,2.17000008,0.40698898,0.16475695,0.37812641,0.00000000,0.00000000
-0.29758191,-2.17000008,-0.19646411,-0.10191734,1.86730552,0.00000000,0.00000000,0.21597277,2.16998577,0.40738204,0.14889646,0.35208586,0.00000000,0.00000000
-0.34394574,-2.17000008,-0.20063370,-0.09961365,1.85338092,0.00000000,0.00000000,0.19438818,2.16975713,0.40760735,0.13238315,0.32618803,0.00000000,0.00000000
-0.38497019,-2.17000008,-0.20453857,-0.09841129,1.83389068,0.00000000,0.00000000,0.16820270,2.16888404,0.40756139,0.11659013,0.30346853,0.00000000,0.00000000
-0.42082903,-2.17000008,-0.20819914,-0.09835138,1.81719899,0.00000000,0.00000000,0.13992372,2.16777110,0.40733784,0.10319839,0.28123379,0.00000000,0.00000000
-0.45107022,-2.16999865,-0.21160646,-0.09907921,1.80214953,0.00000000,0.00000000,0.11285505,2.16764975,0.40709260,0.09354019,0.26247406,0.00000000,0.00000000
-0.47489074,-2.16997361,-0.21471742,-0.10049172,1.78453040,0.00000000,0.00000000,0.08897866,2.16858101,0.40693274,0.08787076,0.24593249,0.00000000,0.00000000
-0.49173695,-2.16983414,-0.21748056,-0.10297032,1.77040112,0.00000000,0.00000000,0.06916604,2.16963434,0.40692487,0.08578744,0.23009148,0.00000000,0.00000000
-0.50124854,-2.16955638,-0.21983661,-0.10713503,1.75589788,0.00000000,0.00000000,0.05413342,2.16997766,0.40713850,0.08664376,0.21791741,0.00000000,0.00000000
-0.50327760,-2.16943026,-0.22172326,-0.11359887,1.74096298,0.00000000,0.00000000,0.04481906,2.17000008,0.40766680,0.08964679,0.20646700,0.00000000,0.00000000
-0.49791154,-2.16962099,-0.22307970,-0.12279405,1.72823238,0.00000000,0.00000000,0.04223339,2.17000008,0.40861541,0.09411174,0.19714507,0.00000000,0.00000000
-0.48545924,-2.16989899,-0.22385398,-0.13480571,1.71055627,0.00000000,0.00000000,0.04704090,2.17000008,0.41007209,0.09965045,0.19006741,0.00000000,0.00000000
-0.46647504,-2.16999388,-0.22401904,-0.14921416,1.69430482,0.00000000,0.00000000,0.05925182,2.17000008,0.41208440,0.10604960,0.18631463,0.00000000,0.00000000
-0.44175637,-2.17000008,-0.22359040,-0.16500056,1.67264009,0.00000000,0.00000000,0.07814746,2.17000008,0.41464809,0.11308638,0.17853659,0.00000000,0.00000000
-0.41223136,-2.17000008,-0.22263280,-0.18059374,1.64923143,0.00000000,0.00000000,0.10237281,2.17000008,0.41770101,0.12049108,0.16397804,0.00000000,0.00000000
-0.37894586,-2.17000008,-0.22126314,-0.19418913,1.62559998,0.00000000,0.00000000,0.13022964,2.17000008,0.42113322,0.12802829,0.14825839,0.00000000,0.00000000
-0.34372777,-2.17000008,-0.21970914,-0.20442596,1.60355616,0.00000000,0.00000000,0.16023548,2.17000008,0.42482701,0.13555987,0.13340698,0.00000000,0.00000000
-0.30950105,-2.17000008,-0.21832433,-0.21101132,1.57642579,0.00000000,0.00000000,0.19152664,2.17000008,0.42870080,0.14296466,0.11772700,0.00000000,0.00000000
-0.27793339,-2.17000008,-0.21730757,-0.21437290,1.55217028,0.00000000,0.00000000,0.22328478,2.17000008,0.43266791,0.15009974,0.10726518,0.00000000,0.00000000
-0.24794391,-2.17000008,-0.21652570,-0.21470995,1.52467823,0.00000000,0.00000000,0.25406998,2.17000008,0.43656790,0.15697551,0.09565286,0.00000000,0.00000000
-0.21567942,-2.17000008,-0.21549362,-0.21146265,1.49500346,0.00000000,0.00000000,0.28217483,2.17000008,0.44019088,0.16382404,0.08679661,0.00000000,0.00000000
-0.17599373,-2.17000008,-0.21354271,-0.20380297,1.47109413,0.00000000,0.00000000,0.30643183,2.17000008,0.44335505,0.17108554,0.08870140,0.00000000,0.00000000
-0.12931107,-2.17000008,-0.21067990,-0.19232079,1.44828534,0.00000000,0.00000000,0.32697129,2.17000008,0.44600245,0.17929132,0.09204385,0.00000000,0.00000000
-0.08115501,-2.17000008,-0.20742574,-0.18037143,1.43180287,0.00000000,0.00000000,0.34499243,2.17000008,0.44824186,0.18847345,0.09956980,0.00000000,0.00000000
-0.03696170,-2.17000008,-0.20428471,-0.17040792,1.41194057,0.00000000,0.00000000,0.36020395,2.17000008,0.45013678,0.19752246,0.10828453,0.00000000,0.00000000
0.00118443,-2.17000008,-0.20143671,-0.16281587,1.39441526,0.00000000,0.00000000,0.37116557,2.17000008,0.45166135,0.20496735,0.11855226,0.00000000,0.00000000
0.03318397,-2.17000008,-0.19887865,-0.15711297,1.37280893,0.00000000,0.00000000,0.37735602,2.17000008,0.45282111,0.21010099,0.12721604,0.00000000,0.00000000
0.05909491,-2.17000008,-0.19659650,-0.15286012,1.35601628,0.00000000,0.00000000,0.37888896,2.17000008,0.45362818,0.21284637,0.13745268,0.00000000,0.00000000
0.07855235,-2.17000008,-0.19462207,-0.14971542,1.34098637,0.00000000,0.00000000,0.37584788,2.17000008,0.45405141,0.21345331,0.14791258,0.00000000,0.00000000
0.09089050,-2.17000008,-0.19303167,-0.14724804,1.32246804,0.00000000,0.00000000,0.36815205,2.17000008,0.45402560,0.21231452,0.15917589,0.00000000,0.00000000
0.09538364,-2.17000008,-0.19193159,-0.14485748,1.29941905,0.00000000,0.00000000,0.35560805,2.17000008,0.45347998,0.20982793,0.17515716,0.00000000,0.00000000
0.09133304,-2.16996193,-0.19144593,-0.14186366,1.27781010,0.00000000,0.00000000,0.33801395,2.17000008,0.45235932,0.20635262,0.19109152,0.00000000,0.00000000
0.07818973,-2.16939783,-0.19169286,-0.13754417,1.26133239,0.00000000,0.00000000,0.31535369,2.17000008,0.45064694,0.20220818,0.20917772,0.00000000,0.00000000
0.05519472,-2.16786838,-0.19278468,-0.13169980,1.23903286,0.00000000,0.00000000,0.28847530,2.17000008,0.44843477,0.19773556,0.23088737,0.00000000,0.00000000
0.02089007,-2.16750240,-0.19482447,-0.12591723,1.22109449,0.00000000,0.00000000,0.26020032,2.17000008,0.44602993,0.19350447,0.25183934,0.00000000,0.00000000
-0.02428251,-2.16915989,-0.19774944,-0.12100969,1.20814908,0.00000000,0.00000000,0.23432305,2.17000008,0.44385326,0.19004484,0.26871726,0.00000000,0.00000000
-0.07708765,-2.16994429,-0.20132153,-0.11494033,1.19248807,0.00000000,0.00000000,0.21200526,2.17000008,0.44208530,0.18701659,0.28952190,0.00000000,0.00000000
-0.13461277,-2.17000008,-0.20528887,-0.10745324,1.17538834,0.00000000,0.00000000,0.19215760,2.17000008,0.44069400,0.18346027,0.30705684,0.00000000,0.00000000
-0.19403440,-2.16999245,-0.20940462,-0.09955800,1.15735149,0.00000000,0.00000000,0.17319928,2.17000008,0.43956879,0.17861952,0.32990399,0.00000000,0.00000000
-0.25220749,-2.16988039,-0.21343404,-0.09244382,1.12770355,0.00000000,0.00000000,0.15338650,2.17000008,0.43852913,0.17229660,0.34997088,0.00000000,0.00000000
-0.30603188,-2.16954565,-0.21718919,-0.08707254,1.10060382,0.00000000,0.00000000,0.13053931,2.17000008,0.43731040,0.16471626,0.36302873,0.00000000,0.00000000
-0.35348633,-2.16928124,-0.22057964,-0.08382845,1.06833363,0.00000000,0.00000000,0.10313158,2.17000008,0.43570727,0.15637796,0.37343153,0.00000000,0.00000000
-0.39460462,-2.16939306,-0.22363469,-0.08277719,1.04661357,0.00000000,0.00000000,0.07323641,2.17000008,0.43385795,0.14835967,0.38250297,0.00000000,0.00000000
-0.43008041,-2.16980124,-0.22641647,-0.08373010,1.02734041,0.00000000,0.00000000,0.04649445,2.17000008,0.43221706,0.14210878,0.39563900,0.00000000,0.00000000
-0.45917106,-2.16997623,-0.22891723,-0.08598833,1.00721002,0.00000000,0.00000000,0.02617815,2.17000008,0.43105060,0.13804899,0.40707690,0.00000000,0.00000000
-0.48093271,-2.16991377,-0.23110096,-0.08910033,0.98643094,0.00000000,0.00000000,0.01216303,2.17000008,0.43038282,0.13544516,0.41976529,0.00000000,0.00000000
-0.49483478,-2.16958404,-0.23292461,-0.09314530,0.96674103,0.00000000,0.00000000,0.00352104,2.17000008,0.43019292,0.13327244,0.43679437,0.00000000,0.00000000
-0.50049484,-2.16906357,-0.23432764,-0.09851753,0.94062132,0.00000000,0.00000000,0.00009261,2.17000008,0.43051559,0.13074298,0.45055479,0.00000000,0.00000000
-0.49762118,-2.16879869,-0.23523289,-0.10572370,0.91593945,0.00000000,0.00000000,0.00231330,2.17000008,0.43140233,0.12763111,0.46478203,0.00000000,0.00000000
-0.48602784,-2.16907597,-0.23555186,-0.11519469,0.89398611,0.00000000,0.00000000,0.01062257,2.17000008,0.43286684,0.12433966,0.46780723,0.00000000,0.00000000
-0.46584332,-2.16961908,-0.23520441,-0.12714803,0.87020874,0.00000000,0.00000000,0.02501647,2.17000008,0.43486264,0.12167045,0.46400133,0.00000000,0.00000000
-0.43818116,-2.16992903,-0.23417680,-0.14160436,0.84808671,0.00000000,0.00000000,0.04507574,2.17000008,0.43730065,0.12055472,0.45923474,0.00000000,0.00000000
-0.40554470,-2.16999626,-0.23258111,-0.15836017,0.82073855,0.00000000,0.00000000,0.07027622,2.17000008,0.44009331,0.12169575,0.45333546,0.00000000,0.00000000
-0.37091744,-2.17000008,-0.23062496,-0.17677440,0.79607183,0.00000000,0.00000000,0.09995380,2.17000008,0.44316801,0.12525463,0.45208371,0.00000000,0.00000000
-0.33649004,-2.17000008,-0.22851664,-0.19573843,0.77274424,0.00000000,0.00000000,0.13308890,2.17000008,0.44644344,0.13092384,0.44812652,0.00000000,0.00000000
-0.30332619,-2.17000008,-0.22641219,-0.21395749,0.75542778,0.00000000,0.00000000,0.16835901,2.16999078,0.44980913,0.13822712,0.44836712,0.00000000,0.00000000
-0.27175695,-2.17000008,-0.22442028,-0.23025726,0.73776871,0.00000000,0.00000000,0.20435917,2.16982794,0.45312104,0.14676811,0.44769385,0.00000000,0.00000000
-0.24153332,-2.17000008,-0.22258225,-0.24364962,0.71704930,0.00000000,0.00000000,0.23968248,2.16903639,0.45619994,0.15633437,0.45287722,0.00000000,0.00000000
-0.21151476,-2.17000008,-0.22080199,-0.25319067,0.70063078,0.00000000,0.00000000,0.27285320,2.16735721,0.45883080,0.16685532,0.45396921,0.00000000,0.00000000
-0.18129680,-2.17000008,-0.21907564,-0.25815386,0.68098789,0.00000000,0.00000000,0.30230188,2.16557193,0.46076310,0.17836589,0.45509252,0.00000000,0.00000000
-0.15208454,-2.17000008,-0.21762261,-0.25765702,0.66541618,0.00000000,0.00000000,0.32661051,2.16486049,0.46173143,0.19105597,0.45223382,0.00000000,0.00000000
-0.12152919,-2.17000008,-0.21604037,-0.25053677,0.64800781,0.00000000,0.00000000,0.34520286,2.16589022,0.46155638,0.20517881,0.45220882,0.00000000,0.00000000
-0.09027579,-2.17000008,-0.21420240,-0.23973301,0.63635361,0.00000000,0.00000000,0.35886464,2.16797400,0.46026191,0.22078250,0.44441822,0.00000000,0.00000000
