isaac-sim2real/sage/motion_files/wr75s/amass/0-Eyes_Japan_Dataset_kaiwa_pose-05-cross leg-kaiwa_poses_idx68.txt
l_joint1,l_joint2,l_joint3,l_joint4,l_joint5,l_joint6,l_joint7,r_joint1,r_joint2,r_joint3,r_joint4,r_joint5,r_joint6,r_joint7
-2.21699500,-0.59422320,-0.04092269,-0.23545900,-0.05645462,0.00000000,0.00000000,-0.69406563,0.68125206,0.02198062,-0.08194038,-0.11295196,0.00000000,0.00000000
-2.21705961,-0.59475130,-0.04033219,-0.23557931,-0.05635815,0.00000000,0.00000000,-0.69433725,0.68134779,0.02186081,-0.08166608,-0.12992901,0.00000000,0.00000000
-2.21718121,-0.59572136,-0.03918081,-0.23579727,-0.05807814,0.00000000,0.00000000,-0.69482714,0.68133378,0.02163935,-0.08124291,-0.14592825,0.00000000,0.00000000
-2.21732688,-0.59691650,-0.03750769,-0.23603790,-0.05457108,0.00000000,0.00000000,-0.69545943,0.68103260,0.02132716,-0.08082179,-0.16639684,0.00000000,0.00000000
-2.21743941,-0.59817582,-0.03540737,-0.23627836,-0.05498018,0.00000000,0.00000000,-0.69613016,0.68021351,0.02093398,-0.08051725,-0.19149238,0.00000000,0.00000000
-2.21745229,-0.59943300,-0.03301043,-0.23654826,-0.05753673,0.00000000,0.00000000,-0.69671923,0.67863017,0.02047052,-0.08035143,-0.21858506,0.00000000,0.00000000
-2.21729898,-0.60062504,-0.03046012,-0.23686199,-0.06246132,0.00000000,0.00000000,-0.69710368,0.67613554,0.01994969,-0.08024501,-0.25404888,0.00000000,0.00000000
-2.21692324,-0.60163021,-0.02788976,-0.23717305,-0.06779335,0.00000000,0.00000000,-0.69717282,0.67273414,0.01938459,-0.08005080,-0.29017648,0.00000000,0.00000000
-2.21627903,-0.60225600,-0.02541169,-0.23736425,-0.07224681,0.00000000,0.00000000,-0.69683802,0.66857231,0.01878642,-0.07961492,-0.32721025,0.00000000,0.00000000
-2.21532750,-0.60228962,-0.02311859,-0.23728187,-0.08019626,0.00000000,0.00000000,-0.69603336,0.66388333,0.01816466,-0.07883199,-0.36147687,0.00000000,0.00000000
-2.21402740,-0.60158283,-0.02109522,-0.23680136,-0.08394141,0.00000000,0.00000000,-0.69470495,0.65890604,0.01752843,-0.07766166,-0.39887744,0.00000000,0.00000000
-2.21232271,-0.60010821,-0.01943701,-0.23588502,-0.08721647,0.00000000,0.00000000,-0.69279385,0.65380913,0.01688707,-0.07610876,-0.43345660,0.00000000,0.00000000
-2.21013665,-0.59796494,-0.01826579,-0.23460759,-0.09442387,0.00000000,0.00000000,-0.69021821,0.64864254,0.01625067,-0.07420745,-0.46825692,0.00000000,0.00000000
-2.20737076,-0.59535730,-0.01772562,-0.23314494,-0.10182362,0.00000000,0.00000000,-0.68686903,0.64332652,0.01563134,-0.07203188,-0.50473982,0.00000000,0.00000000
-2.20392132,-0.59254301,-0.01795065,-0.23171553,-0.11679294,0.00000000,0.00000000,-0.68263000,0.63770241,0.01504323,-0.06970280,-0.53693122,0.00000000,0.00000000
-2.19970179,-0.58973449,-0.01902078,-0.23048264,-0.13070093,0.00000000,0.00000000,-0.67741477,0.63164502,0.01449959,-0.06735849,-0.57322526,0.00000000,0.00000000
-2.19466400,-0.58702195,-0.02092955,-0.22948618,-0.14399646,0.00000000,0.00000000,-0.67120188,0.62516147,0.01400858,-0.06511026,-0.60996705,0.00000000,0.00000000
-2.18880844,-0.58440524,-0.02357557,-0.22866911,-0.15766746,0.00000000,0.00000000,-0.66405565,0.61838526,0.01357069,-0.06302656,-0.64326805,0.00000000,0.00000000
-2.18218303,-0.58185631,-0.02677647,-0.22793698,-0.16396540,0.00000000,0.00000000,-0.65612787,0.61154866,0.01317921,-0.06115064,-0.67717296,0.00000000,0.00000000
-2.17487574,-0.57935911,-0.03029694,-0.22719750,-0.17238611,0.00000000,0.00000000,-0.64764285,0.60495287,0.01282263,-0.05951770,-0.71283269,0.00000000,0.00000000
-2.16699529,-0.57692850,-0.03388266,-0.22637425,-0.18326178,0.00000000,0.00000000,-0.63886625,0.59892452,0.01248772,-0.05814394,-0.74202716,0.00000000,0.00000000
-2.15865493,-0.57461905,-0.03729334,-0.22541067,-0.19886383,0.00000000,0.00000000,-0.63006175,0.59374285,0.01216312,-0.05700217,-0.76392305,0.00000000,0.00000000
-2.14994860,-0.57253414,-0.04033451,-0.22428115,-0.21733308,0.00000000,0.00000000,-0.62144226,0.58954883,0.01184291,-0.05601444,-0.77870929,0.00000000,0.00000000
-2.14093781,-0.57082248,-0.04287938,-0.22300074,-0.22725689,0.00000000,0.00000000,-0.61312962,0.58628106,0.01152877,-0.05506943,-0.79198545,0.00000000,0.00000000
-2.13163924,-0.56963027,-0.04487085,-0.22160891,-0.24346940,0.00000000,0.00000000,-0.60514176,0.58367860,0.01122937,-0.05406044,-0.80822062,0.00000000,0.00000000
-2.12203169,-0.56902665,-0.04630529,-0.22013685,-0.26126966,0.00000000,0.00000000,-0.59741199,0.58138269,0.01095671,-0.05292647,-0.82228810,0.00000000,0.00000000
-2.11206508,-0.56897110,-0.04720987,-0.21858755,-0.28163239,0.00000000,0.00000000,-0.58983165,0.57904702,0.01072124,-0.05168013,-0.83515477,0.00000000,0.00000000
-2.10169172,-0.56933707,-0.04761197,-0.21693088,-0.30307764,0.00000000,0.00000000,-0.58230209,0.57640988,0.01052864,-0.05040029,-0.84819502,0.00000000,0.00000000
-2.09089088,-0.56997067,-0.04750044,-0.21510921,-0.32448456,0.00000000,0.00000000,-0.57478857,0.57336962,0.01037914,-0.04918348,-0.86285269,0.00000000,0.00000000
-2.07968760,-0.57076377,-0.04680355,-0.21306209,-0.33919266,0.00000000,0.00000000,-0.56734812,0.57000768,0.01026875,-0.04808920,-0.87901968,0.00000000,0.00000000
-2.06813741,-0.57171363,-0.04540555,-0.21076308,-0.35172272,0.00000000,0.00000000,-0.56010747,0.56650859,0.01019085,-0.04712415,-0.89505935,0.00000000,0.00000000
-2.05629182,-0.57291478,-0.04318981,-0.20822693,-0.36718586,0.00000000,0.00000000,-0.55321127,0.56307155,0.01013766,-0.04627030,-0.91130090,0.00000000,0.00000000
-2.04416466,-0.57447028,-0.04008484,-0.20546618,-0.37863466,0.00000000,0.00000000,-0.54676479,0.55988896,0.01010141,-0.04551985,-0.92350256,0.00000000,0.00000000
-2.03170490,-0.57642943,-0.03609829,-0.20245619,-0.39501292,0.00000000,0.00000000,-0.54079252,0.55716026,0.01007551,-0.04488050,-0.93396097,0.00000000,0.00000000
-2.01878524,-0.57879919,-0.03132894,-0.19913825,-0.40737364,0.00000000,0.00000000,-0.53522003,0.55506289,0.01005604,-0.04435997,-0.93999064,0.00000000,0.00000000
-2.00520873,-0.58160943,-0.02595611,-0.19546013,-0.42111367,0.00000000,0.00000000,-0.52988237,0.55371141,0.01004296,-0.04395028,-0.94066548,0.00000000,0.00000000
-1.99072897,-0.58496827,-0.02021335,-0.19141695,-0.43102893,0.00000000,0.00000000,-0.52454942,0.55311686,0.01004062,-0.04363189,-0.93385911,0.00000000,0.00000000
-1.97508156,-0.58903325,-0.01435277,-0.18704300,-0.44340178,0.00000000,0.00000000,-0.51895988,0.55318874,0.01005642,-0.04339053,-0.92551577,0.00000000,0.00000000
-1.95802605,-0.59393656,-0.00860143,-0.18237060,-0.45915797,0.00000000,0.00000000,-0.51286548,0.55378920,0.01009774,-0.04323657,-0.91368806,0.00000000,0.00000000
-1.93938637,-0.59974635,-0.00311816,-0.17740355,-0.47222680,0.00000000,0.00000000,-0.50608069,0.55480415,0.01016893,-0.04321589,-0.90852433,0.00000000,0.00000000
-1.91907203,-0.60647762,0.00203090,-0.17211793,-0.48703003,0.00000000,0.00000000,-0.49851221,0.55619460,0.01026991,-0.04339914,-0.89892060,0.00000000,0.00000000
-1.89707506,-0.61411911,0.00686725,-0.16647331,-0.50218409,0.00000000,0.00000000,-0.49015319,0.55799991,0.01039679,-0.04385407,-0.89466667,0.00000000,0.00000000
-1.87344253,-0.62265742,0.01147143,-0.16041957,-0.51706797,0.00000000,0.00000000,-0.48104918,0.56029761,0.01054397,-0.04462472,-0.88532758,0.00000000,0.00000000
-1.84824562,-0.63206941,0.01594885,-0.15389164,-0.52856517,0.00000000,0.00000000,-0.47125643,0.56317616,0.01070708,-0.04572692,-0.87607551,0.00000000,0.00000000
-1.82155967,-0.64230496,0.02040589,-0.14680590,-0.53198445,0.00000000,0.00000000,-0.46080768,0.56669319,0.01088551,-0.04714843,-0.87269658,0.00000000,0.00000000
-1.79345965,-0.65327162,0.02494481,-0.13906501,-0.53956318,0.00000000,0.00000000,-0.44969746,0.57084501,0.01108417,-0.04884174,-0.86785948,0.00000000,0.00000000
-1.76402593,-0.66484332,0.02967034,-0.13056982,-0.54159117,0.00000000,0.00000000,-0.43788946,0.57557702,0.01131428,-0.05071981,-0.86663526,0.00000000,0.00000000
-1.73334968,-0.67689574,0.03469490,-0.12123328,-0.53778362,0.00000000,0.00000000,-0.42533845,0.58082706,0.01159286,-0.05266999,-0.87321502,0.00000000,0.00000000
-1.70152962,-0.68935144,0.04013669,-0.11099732,-0.53772730,0.00000000,0.00000000,-0.41200691,0.58654547,0.01194085,-0.05458813,-0.87866122,0.00000000,0.00000000
-1.66866565,-0.70219779,0.04611047,-0.09984168,-0.53801769,0.00000000,0.00000000,-0.39786634,0.59265822,0.01238074,-0.05641413,-0.88479209,0.00000000,0.00000000
-1.63485217,-0.71545947,0.05271576,-0.08776844,-0.52720797,0.00000000,0.00000000,-0.38289225,0.59898955,0.01293412,-0.05814463,-0.89936537,0.00000000,0.00000000
-1.60017633,-0.72918189,0.06002850,-0.07478856,-0.51435643,0.00000000,0.00000000,-0.36707470,0.60529333,0.01361953,-0.05980982,-0.91490996,0.00000000,0.00000000
-1.56471908,-0.74343109,0.06809898,-0.06092079,-0.50220287,0.00000000,0.00000000,-0.35042295,0.61146402,0.01445044,-0.06143896,-0.93240619,0.00000000,0.00000000
-1.52855790,-0.75823623,0.07695334,-0.04616565,-0.49208212,0.00000000,0.00000000,-0.33293325,0.61756122,0.01543289,-0.06304649,-0.95317864,0.00000000,0.00000000
-1.49176991,-0.77356416,0.08659574,-0.03049440,-0.47919142,0.00000000,0.00000000,-0.31458271,0.62354696,0.01656540,-0.06463579,-0.96999520,0.00000000,0.00000000
-1.45443332,-0.78935772,0.09701113,-0.01386870,-0.46776775,0.00000000,0.00000000,-0.29535216,0.62928087,0.01784162,-0.06621670,-0.99064571,0.00000000,0.00000000
-1.41662872,-0.80557579,0.10816745,0.00374248,-0.45733842,0.00000000,0.00000000,-0.27523294,0.63464808,0.01925341,-0.06783068,-1.01282525,0.00000000,0.00000000
-1.37843835,-0.82221353,0.12001591,0.02235566,-0.44443792,0.00000000,0.00000000,-0.25422326,0.63959754,0.02079289,-0.06956536,-1.03239071,0.00000000,0.00000000
-1.33994460,-0.83930373,0.13248831,0.04197476,-0.42867032,0.00000000,0.00000000,-0.23232338,0.64414686,0.02245363,-0.07154512,-1.04633212,0.00000000,0.00000000
-1.30122578,-0.85690331,0.14549327,0.06259384,-0.41128406,0.00000000,0.00000000,-0.20953041,0.64839059,0.02423145,-0.07391343,-1.05948818,0.00000000,0.00000000
-1.26235366,-0.87509429,0.15891308,0.08419039,-0.39845747,0.00000000,0.00000000,-0.18583511,0.65249753,0.02612477,-0.07683068,-1.07177949,0.00000000,0.00000000
-1.22339022,-0.89400589,0.17260145,0.10671322,-0.38324854,0.00000000,0.00000000,-0.16122060,0.65672028,0.02813514,-0.08047374,-1.08696783,0.00000000,0.00000000
-1.18438077,-0.91384268,0.18638290,0.13007651,-0.36835161,0.00000000,0.00000000,-0.13566080,0.66141820,0.03026843,-0.08501548,-1.10934091,0.00000000,0.00000000
-1.14534986,-0.93490255,0.20005618,0.15416215,-0.35424936,0.00000000,0.00000000,-0.10911839,0.66707164,0.03253661,-0.09059335,-1.12563574,0.00000000,0.00000000
-1.10629714,-0.95757961,0.21340384,0.17881948,-0.33520311,0.00000000,0.00000000,-0.08154304,0.67427683,0.03495927,-0.09728935,-1.14952838,0.00000000,0.00000000
-1.06719434,-0.98235947,0.22620444,0.20385596,-0.31051251,0.00000000,0.00000000,-0.05286909,0.68374985,0.03756550,-0.10511743,-1.18012071,0.00000000,0.00000000
-1.02797580,-1.00981212,0.23824309,0.22902390,-0.28490341,0.00000000,0.00000000,-0.02301070,0.69636124,0.04039827,-0.11398622,-1.21187770,0.00000000,0.00000000
-0.98852849,-1.04058874,0.24931794,0.25400898,-0.25918803,0.00000000,0.00000000,0.00814579,0.71319366,0.04352361,-0.12362676,-1.24062741,0.00000000,0.00000000
-0.94867712,-1.07539952,0.25924602,0.27843258,-0.22984876,0.00000000,0.00000000,0.04074835,0.73558259,0.04704580,-0.13353105,-1.26921284,0.00000000,0.00000000
-0.90817744,-1.11495268,0.26786926,0.30188075,-0.19615398,0.00000000,0.00000000,0.07497024,0.76509565,0.05112482,-0.14296162,-1.29615438,0.00000000,0.00000000
-0.86671972,-1.15987349,0.27506733,0.32394925,-0.16242483,0.00000000,0.00000000,0.11096042,0.80340993,0.05598609,-0.15105198,-1.32457888,0.00000000,0.00000000
-0.82396781,-1.21066213,0.28078541,0.34426773,-0.13006003,0.00000000,0.00000000,0.14873889,0.85205352,0.06190936,-0.15696527,-1.35194731,0.00000000,0.00000000
-0.77962500,-1.26777673,0.28507495,0.36246854,-0.09794535,0.00000000,0.00000000,0.18806097,0.91216636,0.06918517,-0.15998912,-1.38805354,0.00000000,0.00000000
-0.73354840,-1.33165348,0.28812248,0.37818000,-0.07021529,0.00000000,0.00000000,0.22833140,0.98411620,0.07805554,-0.15953401,-1.42646277,0.00000000,0.00000000
-0.68585348,-1.40239358,0.29020166,0.39114007,-0.04624024,0.00000000,0.00000000,0.26859656,1.06691945,0.08866506,-0.15506566,-1.46455872,0.00000000,0.00000000
-0.63683653,-1.47936988,0.29151341,0.40125906,-0.01634171,0.00000000,0.00000000,0.30751300,1.15818679,0.10104074,-0.14612690,-1.50000107,0.00000000,0.00000000
-0.58679062,-1.56148505,0.29207850,0.40833595,0.01037831,0.00000000,0.00000000,0.34329215,1.25524819,0.11510342,-0.13256218,-1.53110838,0.00000000,0.00000000
-0.53612506,-1.64750934,0.29183054,0.41189620,0.03362469,0.00000000,0.00000000,0.37381154,1.35596192,0.13068669,-0.11471092,-1.55482602,0.00000000,0.00000000
-0.48553848,-1.73577166,0.29072493,0.41152838,0.05632049,0.00000000,0.00000000,0.39683738,1.45854771,0.14754330,-0.09338322,-1.57715285,0.00000000,0.00000000
-0.43583956,-1.82381058,0.28874099,0.40729845,0.07950585,0.00000000,0.00000000,0.41024154,1.56128335,0.16535161,-0.06973284,-1.59898114,0.00000000,0.00000000
-0.38755587,-1.90837443,0.28582138,0.39994743,0.09782949,0.00000000,0.00000000,0.41224217,1.66244149,0.18373387,-0.04510022,-1.61853313,0.00000000,0.00000000
-0.34074199,-1.98578310,0.28184754,0.39081034,0.12125999,0.00000000,0.00000000,0.40169239,1.76031053,0.20228815,-0.02084097,-1.63846183,0.00000000,0.00000000
-0.29522130,-2.05258465,0.27672043,0.38146913,0.14878526,0.00000000,0.00000000,0.37830716,1.85333991,0.22063187,0.00192845,-1.65518880,0.00000000,0.00000000
-0.25092614,-2.10601091,0.27044937,0.37340155,0.17591563,0.00000000,0.00000000,0.34346452,1.93877363,0.23846751,0.02178680,-1.66852713,0.00000000,0.00000000
-0.20791955,-2.14385986,0.26313502,0.36787209,0.19689624,0.00000000,0.00000000,0.30156168,2.01139665,0.25567350,0.03663839,-1.68521714,0.00000000,0.00000000
-0.16613585,-2.16428757,0.25487888,0.36593199,0.22253880,0.00000000,0.00000000,0.25776863,2.07065010,0.27229518,0.04759191,-1.70049179,0.00000000,0.00000000
-0.12529600,-2.16961193,0.24573530,0.36844033,0.25404790,0.00000000,0.00000000,0.21561369,2.11744142,0.28844282,0.05638864,-1.71125364,0.00000000,0.00000000
-0.08498959,-2.16999578,0.23572750,0.37588465,0.28342313,0.00000000,0.00000000,0.17751977,2.14969397,0.30426127,0.06267735,-1.72496104,0.00000000,0.00000000
-0.04469229,-2.17000008,0.22489263,0.38789082,0.31167945,0.00000000,0.00000000,0.14539932,2.16587162,0.31990430,0.06554793,-1.74083829,0.00000000,0.00000000
-0.00395771,-2.17000008,0.21334280,0.40315643,0.33438981,0.00000000,0.00000000,0.12076010,2.16976452,0.33550826,0.06396630,-1.75659108,0.00000000,0.00000000
0.03714111,-2.16999531,0.20136569,0.41972420,0.35544392,0.00000000,0.00000000,0.10457665,2.16994095,0.35114956,0.05726685,-1.76921892,0.00000000,0.00000000
0.07760925,-2.16988683,0.18952014,0.43529826,0.37601230,0.00000000,0.00000000,0.09720723,2.16888976,0.36680266,0.04647851,-1.77739632,0.00000000,0.00000000
0.11551857,-2.16910386,0.17861430,0.44768563,0.39502034,0.00000000,0.00000000,0.09849201,2.16362405,0.38236344,0.03430142,-1.78542912,0.00000000,0.00000000
0.14858468,-2.16707802,0.16950610,0.45528743,0.41456854,0.00000000,0.00000000,0.10784740,2.15132856,0.39771816,0.02359944,-1.79605699,0.00000000,0.00000000
0.17514303,-2.16492510,0.16281310,0.45733577,0.43249694,0.00000000,0.00000000,0.12430941,2.13367200,0.41278797,0.01626700,-1.79779541,0.00000000,0.00000000
0.19465873,-2.16361713,0.15876973,0.45367676,0.44403157,0.00000000,0.00000000,0.14661811,2.11335158,0.42753053,0.01342957,-1.79466534,0.00000000,0.00000000
0.20745648,-2.16332030,0.15729545,0.44446522,0.45395693,0.00000000,0.00000000,0.17336605,2.09257412,0.44192410,0.01587846,-1.78895926,0.00000000,0.00000000
0.21432281,-2.16381454,0.15811467,0.42996901,0.46407792,0.00000000,0.00000000,0.20290622,2.07328606,0.45594218,0.02413416,-1.78813541,0.00000000,0.00000000
0.21621865,-2.16489029,0.16086286,0.41040194,0.47239339,0.00000000,0.00000000,0.23271134,2.05734134,0.46950093,0.03830719,-1.78980100,0.00000000,0.00000000
0.21378009,-2.16633701,0.16518879,0.38601831,0.47360665,0.00000000,0.00000000,0.26087728,2.04692888,0.48245558,0.05872836,-1.79078472,0.00000000,0.00000000
0.20693304,-2.16778040,0.17083752,0.35719177,0.47203553,0.00000000,0.00000000,0.28798065,2.04402328,0.49462369,0.08608056,-1.78837919,0.00000000,0.00000000
0.19500977,-2.16937828,0.17780378,0.32430708,0.47142786,0.00000000,0.00000000,0.30956623,2.04876423,0.50556415,0.11839353,-1.78611457,0.00000000,0.00000000
0.17683038,-2.16996050,0.18612464,0.29026636,0.47565675,0.00000000,0.00000000,0.32336387,2.05924392,0.51487392,0.15357322,-1.77169144,0.00000000,0.00000000
0.15284516,-2.17000008,0.19554389,0.25792688,0.47989953,0.00000000,0.00000000,0.33041438,2.07376122,0.52229923,0.19094878,-1.75341535,0.00000000,0.00000000
0.12501104,-2.17000008,0.20561284,0.22814606,0.49043548,0.00000000,0.00000000,0.33232713,2.09101343,0.52767879,0.23036017,-1.72885847,0.00000000,0.00000000
0.09244725,-2.17000008,0.21635687,0.20211740,0.50225312,0.00000000,0.00000000,0.33128226,2.10973120,0.53100103,0.27181491,-1.70127082,0.00000000,0.00000000
0.05420647,-2.17000008,0.22781627,0.18079084,0.50712395,0.00000000,0.00000000,0.32906622,2.12856555,0.53230327,0.31510529,-1.67128432,0.00000000,0.00000000
0.01101717,-2.17000008,0.23980562,0.16488494,0.51561219,0.00000000,0.00000000,0.32518464,2.14595008,0.53138822,0.35923412,-1.64657295,0.00000000,0.00000000
-0.03578816,-2.17000008,0.25209281,0.15486248,0.52678603,0.00000000,0.00000000,0.31744158,2.15983582,0.52786028,0.40247497,-1.62214994,0.00000000,0.00000000
-0.08493546,-2.17000008,0.26449010,0.15065402,0.53555036,0.00000000,0.00000000,0.30376509,2.16780710,0.52150232,0.44244766,-1.59645891,0.00000000,0.00000000
-0.13449802,-2.17000008,0.27675980,0.15197633,0.54679668,0.00000000,0.00000000,0.28425348,2.16987228,0.51306015,0.47570461,-1.56877172,0.00000000,0.00000000
-0.18118922,-2.17000008,0.28850171,0.15888129,0.54991919,0.00000000,0.00000000,0.26336098,2.17000008,0.50494677,0.49891719,-1.54242694,0.00000000,0.00000000
-0.22142026,-2.17000008,0.29921904,0.17179129,0.54872686,0.00000000,0.00000000,0.24631070,2.17000008,0.49961865,0.51125669,-1.51842010,0.00000000,0.00000000
-0.25270742,-2.17000008,0.30844453,0.19112346,0.54516375,0.00000000,0.00000000,0.23459801,2.17000008,0.49811584,0.51230419,-1.50049198,0.00000000,0.00000000
-0.27376837,-2.16995931,0.31575644,0.21705252,0.54294860,0.00000000,0.00000000,0.22808577,2.17000008,0.50062406,0.50155956,-1.48019004,0.00000000,0.00000000
-0.28405976,-2.16919684,0.32076594,0.24914859,0.54022902,0.00000000,0.00000000,0.22625580,2.16990542,0.50670105,0.47944829,-1.45916343,0.00000000,0.00000000
-0.28357559,-2.16517711,0.32317585,0.28581542,0.52881318,0.00000000,0.00000000,0.22808124,2.16834021,0.51524591,0.44759718,-1.44121468,0.00000000,0.00000000
-0.27315271,-2.15765595,0.32306227,0.32302707,0.52085561,0.00000000,0.00000000,0.23143658,2.16184902,0.52439857,0.40907022,-1.41682994,0.00000000,0.00000000
-0.25398886,-2.15270448,0.32078797,0.35506991,0.51416028,0.00000000,0.00000000,0.23258355,2.14996243,0.53185487,0.36803365,-1.39254439,0.00000000,0.00000000
-0.22603086,-2.14943004,0.31603482,0.38057110,0.50391811,0.00000000,0.00000000,0.23012386,2.13629580,0.53669655,0.32746699,-1.37279630,0.00000000,0.00000000
-0.19022951,-2.14608216,0.30873668,0.39983091,0.49994507,0.00000000,0.00000000,0.22497764,2.12335539,0.53908575,0.28898248,-1.36315548,0.00000000,0.00000000
-0.14837699,-2.14387560,0.29934549,0.41227803,0.49367589,0.00000000,0.00000000,0.21832836,2.11203098,0.53937960,0.25338215,-1.35515332,0.00000000,0.00000000
-0.10236106,-2.14399219,0.28845266,0.41749474,0.49034539,0.00000000,0.00000000,0.21123728,2.10254240,0.53793037,0.22101246,-1.34179056,0.00000000,0.00000000
-0.05407047,-2.14687467,0.27666709,0.41547793,0.48458862,0.00000000,0.00000000,0.20454872,2.09475708,0.53504843,0.19191167,-1.32844794,0.00000000,0.00000000
-0.00532748,-2.15231013,0.26458374,0.40651599,0.47553071,0.00000000,0.00000000,0.19869415,2.08834481,0.53097475,0.16583677,-1.31564367,0.00000000,0.00000000
0.04226594,-2.15923071,0.25272298,0.39122254,0.47081313,0.00000000,0.00000000,0.19381672,2.08298278,0.52589273,0.14241621,-1.30356908,0.00000000,0.00000000
0.08752545,-2.16555762,0.24146892,0.37059107,0.46461800,0.00000000,0.00000000,0.19022910,2.07896280,0.51994991,0.12163585,-1.28758931,0.00000000,0.00000000
0.12982017,-2.16908503,0.23102862,0.34606817,0.46132424,0.00000000,0.00000000,0.18832979,2.07708287,0.51326501,0.10378233,-1.27456522,0.00000000,0.00000000
0.16894031,-2.16994786,0.22145885,0.31955814,0.46003905,0.00000000,0.00000000,0.18861568,2.07810402,0.50595188,0.08916867,-1.26339054,0.00000000,0.00000000
0.20458628,-2.17000008,0.21278605,0.29318777,0.46319681,0.00000000,0.00000000,0.19157055,2.08247209,0.49811408,0.07798622,-1.25322878,0.00000000,0.00000000
0.23579274,-2.17000008,0.20512761,0.26895392,0.46534023,0.00000000,0.00000000,0.19665301,2.08908153,0.48982623,0.06933147,-1.24703407,0.00000000,0.00000000
0.26106462,-2.17000008,0.19865669,0.24858862,0.46587688,0.00000000,0.00000000,0.20334435,2.09656119,0.48115864,0.06219405,-1.23697245,0.00000000,0.00000000
0.27925107,-2.17000008,0.19346905,0.23355243,0.46663395,0.00000000,0.00000000,0.21107200,2.10434031,0.47215298,0.05608117,-1.23648643,0.00000000,0.00000000
0.29025695,-2.17000008,0.18951401,0.22492617,0.46643978,0.00000000,0.00000000,0.21884747,2.11236668,0.46281558,0.05076670,-1.23331797,0.00000000,0.00000000
0.29486570,-2.17000008,0.18665072,0.22329502,0.46481511,0.00000000,0.00000000,0.22535209,2.12059855,0.45313370,0.04600955,-1.23492932,0.00000000,0.00000000
0.29422402,-2.17000008,0.18472239,0.22864720,0.45899060,0.00000000,0.00000000,0.22900775,2.12854528,0.44308716,0.04130379,-1.24082911,0.00000000,0.00000000
0.28930312,-2.17000008,0.18362010,0.24024588,0.45848706,0.00000000,0.00000000,0.22902541,2.13764191,0.43264899,0.03742581,-1.25126326,0.00000000,0.00000000
0.28030831,-2.17000008,0.18335678,0.25659123,0.45464957,0.00000000,0.00000000,0.22549999,2.15035748,0.42179847,0.03592728,-1.26142800,0.00000000,0.00000000
0.26693213,-2.17000008,0.18402694,0.27579314,0.45047754,0.00000000,0.00000000,0.21745113,2.16104913,0.41057137,0.03367751,-1.26917136,0.00000000,0.00000000
0.24894650,-2.17000008,0.18570943,0.29598030,0.44737563,0.00000000,0.00000000,0.20668952,2.16731644,0.39903173,0.03022267,-1.27454686,0.00000000,0.00000000
0.22699530,-2.17000008,0.18830849,0.31567568,0.44614783,0.00000000,0.00000000,0.19459008,2.16959405,0.38722399,0.02590783,-1.28147364,0.00000000,0.00000000
0.20243326,-2.17000008,0.19154572,0.33405629,0.44574791,0.00000000,0.00000000,0.18055202,2.16998005,0.37517440,0.01975280,-1.29139948,0.00000000,0.00000000
0.17655915,-2.17000008,0.19509897,0.35085011,0.45334613,0.00000000,0.00000000,0.16329944,2.17000008,0.36291328,0.01047953,-1.30217612,0.00000000,0.00000000
0.15039891,-2.17000008,0.19866349,0.36602855,0.45888236,0.00000000,0.00000000,0.14165010,2.17000008,0.35049114,-0.00278413,-1.31363761,0.00000000,0.00000000
0.12497912,-2.17000008,0.20191751,0.37951088,0.46435747,0.00000000,0.00000000,0.11491766,2.17000008,0.33798939,-0.02029740,-1.33163154,0.00000000,0.00000000
0.10136296,-2.17000008,0.20453846,0.39097714,0.46789709,0.00000000,0.00000000,0.08329268,2.17000008,0.32551637,-0.04170595,-1.34717882,0.00000000,0.00000000
0.08026086,-2.16999793,0.20630291,0.40003023,0.47482279,0.00000000,0.00000000,0.04781426,2.17000008,0.31318745,-0.06623634,-1.35901356,0.00000000,0.00000000
0.06187704,-2.16996980,0.20710559,0.40668499,0.47480249,0.00000000,0.00000000,0.00981112,2.17000008,0.30110842,-0.09299392,-1.37668896,0.00000000,0.00000000
0.04615400,-2.16992617,0.20694606,0.41116408,0.47415361,0.00000000,0.00000000,-0.02933777,2.17000008,0.28936616,-0.12094244,-1.38832176,0.00000000,0.00000000
0.03319600,-2.16997004,0.20588291,0.41325247,0.47609746,0.00000000,0.00000000,-0.06813800,2.17000008,0.27802113,-0.14877808,-1.39568579,0.00000000,0.00000000
0.02285914,-2.16999817,0.20393437,0.41345626,0.47601593,0.00000000,0.00000000,-0.10543974,2.17000008,0.26711366,-0.17573610,-1.39769971,0.00000000,0.00000000
0.01488900,-2.17000008,0.20110177,0.41246596,0.47680765,0.00000000,0.00000000,-0.14039810,2.17000008,0.25667745,-0.20138869,-1.39984775,0.00000000,0.00000000
0.00902315,-2.17000008,0.19740766,0.41068017,0.47348538,0.00000000,0.00000000,-0.17237827,2.17000008,0.24675314,-0.22540180,-1.40358651,0.00000000,0.00000000
0.00491281,-2.17000008,0.19292046,0.40819520,0.47261593,0.00000000,0.00000000,-0.20090906,2.16993499,0.23739500,-0.24745747,-1.41071737,0.00000000,0.00000000
0.00205231,-2.17000008,0.18777356,0.40481654,0.47016078,0.00000000,0.00000000,-0.22560516,2.16888762,0.22867005,-0.26715922,-1.41717410,0.00000000,0.00000000
-0.00026020,-2.17000008,0.18216139,0.40017655,0.46921402,0.00000000,0.00000000,-0.24613844,2.16486359,0.22064701,-0.28409845,-1.42123139,0.00000000,0.00000000
-0.00295024,-2.17000008,0.17631866,0.39396119,0.47173622,0.00000000,0.00000000,-0.26227379,2.15776253,0.21338160,-0.29805499,-1.43459833,0.00000000,0.00000000
-0.00707148,-2.17000008,0.17047946,0.38600102,0.47375131,0.00000000,0.00000000,-0.27388120,2.14839149,0.20691375,-0.30898064,-1.44120419,0.00000000,0.00000000
-0.01363913,-2.17000008,0.16483186,0.37630907,0.47689408,0.00000000,0.00000000,-0.28091833,2.13766623,0.20127214,-0.31682476,-1.44630563,0.00000000,0.00000000
-0.02347823,-2.17000008,0.15948391,0.36522162,0.47891578,0.00000000,0.00000000,-0.28333104,2.12688947,0.19646558,-0.32130697,-1.44765031,0.00000000,0.00000000
-0.03691230,-2.17000008,0.15441552,0.35336223,0.48450270,0.00000000,0.00000000,-0.28071120,2.11773014,0.19241069,-0.32183743,-1.45269382,0.00000000,0.00000000
-0.05352233,-2.17000008,0.14948009,0.34102926,0.48639497,0.00000000,0.00000000,-0.27218583,2.11113572,0.18886237,-0.31806248,-1.46201158,0.00000000,0.00000000
-0.07275935,-2.17000008,0.14455612,0.32809210,0.48648918,0.00000000,0.00000000,-0.25726014,2.10722685,0.18558601,-0.31003377,-1.46816468,0.00000000,0.00000000
-0.09415425,-2.17000008,0.13956966,0.31443161,0.48839539,0.00000000,0.00000000,-0.23627830,2.10643387,0.18250489,-0.29765928,-1.47923267,0.00000000,0.00000000
-0.11717212,-2.17000008,0.13445488,0.30012694,0.48700595,0.00000000,0.00000000,-0.21053496,2.10861778,0.17969714,-0.28136444,-1.48979688,0.00000000,0.00000000
-0.14149596,-2.17000008,0.12919813,0.28567502,0.48552734,0.00000000,0.00000000,-0.18259378,2.11159182,0.17740248,-0.26350588,-1.50431061,0.00000000,0.00000000
-0.16723329,-2.17000008,0.12387047,0.27190956,0.48093191,0.00000000,0.00000000,-0.15519936,2.11553526,0.17595565,-0.24573919,-1.51970482,0.00000000,0.00000000
-0.19444962,-2.17000008,0.11855384,0.25936180,0.47688386,0.00000000,0.00000000,-0.12907793,2.12281156,0.17539759,-0.22738382,-1.52906680,0.00000000,0.00000000
-0.22308108,-2.17000008,0.11330971,0.24819580,0.46983942,0.00000000,0.00000000,-0.10479683,2.13219762,0.17565872,-0.20911491,-1.53823578,0.00000000,0.00000000
-0.25282085,-2.17000008,0.10815242,0.23802964,0.46547246,0.00000000,0.00000000,-0.08248065,2.14142227,0.17660142,-0.19200701,-1.55111277,0.00000000,0.00000000
-0.28311479,-2.17000008,0.10303952,0.22789356,0.45527145,0.00000000,0.00000000,-0.06140540,2.14948940,0.17802253,-0.17634238,-1.56272137,0.00000000,0.00000000
-0.31320381,-2.17000008,0.09787276,0.21643536,0.44673964,0.00000000,0.00000000,-0.04024633,2.15626931,0.17968604,-0.16191360,-1.57129037,0.00000000,0.00000000
-0.34213614,-2.17000008,0.09250978,0.20227826,0.42882460,0.00000000,0.00000000,-0.01745223,2.16185403,0.18136203,-0.14840668,-1.57674682,0.00000000,0.00000000
-0.36880893,-2.17000008,0.08679730,0.18439397,0.41511285,0.00000000,0.00000000,0.00830658,2.16618729,0.18287258,-0.13563520,-1.57400644,0.00000000,0.00000000
-0.39207819,-2.17000008,0.08061878,0.16233790,0.40170297,0.00000000,0.00000000,0.03780124,2.16890335,0.18411906,-0.12365099,-1.56019509,0.00000000,0.00000000
-0.41091537,-2.17000008,0.07393339,0.13631383,0.38830075,0.00000000,0.00000000,0.07111723,2.16983294,0.18508197,-0.11276094,-1.54606760,0.00000000,0.00000000
-0.42455035,-2.17000008,0.06678908,0.10710738,0.37377658,0.00000000,0.00000000,0.10769168,2.16963720,0.18580528,-0.10340454,-1.52991402,0.00000000,0.00000000
-0.43257970,-2.17000008,0.05931013,0.07592563,0.36081904,0.00000000,0.00000000,0.14642882,2.16779113,0.18637902,-0.09591009,-1.51145756,0.00000000,0.00000000
-0.43505108,-2.17000008,0.05166796,0.04421212,0.34874848,0.00000000,0.00000000,0.18585417,2.16295528,0.18692151,-0.09037534,-1.50117278,0.00000000,0.00000000
-0.43246481,-2.17000008,0.04404148,0.01346377,0.33270764,0.00000000,0.00000000,0.22429389,2.15514994,0.18756270,-0.08670603,-1.48753738,0.00000000,0.00000000
-0.42566791,-2.17000008,0.03657896,-0.01495987,0.31270298,0.00000000,0.00000000,0.26003233,2.14521623,0.18843400,-0.08463001,-1.46583235,0.00000000,0.00000000
-0.41571003,-2.17000008,0.02937484,-0.03999113,0.29125690,0.00000000,0.00000000,0.29142535,2.13431764,0.18966340,-0.08368639,-1.44294763,0.00000000,0.00000000
-0.40370366,-2.17000008,0.02246569,-0.06091385,0.26793316,0.00000000,0.00000000,0.31694514,2.12390256,0.19137345,-0.08323853,-1.42065823,0.00000000,0.00000000
-0.39067367,-2.17000008,0.01584273,-0.07737034,0.24052629,0.00000000,0.00000000,0.33522412,2.11581111,0.19367801,-0.08239827,-1.39762545,0.00000000,0.00000000
-0.37744960,-2.17000008,0.00947228,-0.08944332,0.21263720,0.00000000,0.00000000,0.34511337,2.11195159,0.19666989,-0.08019958,-1.37814581,0.00000000,0.00000000
-0.36469543,-2.17000008,0.00331139,-0.09779736,0.18445829,0.00000000,0.00000000,0.34576058,2.11248159,0.20039150,-0.07662504,-1.36657286,0.00000000,0.00000000
-0.35297608,-2.17000008,-0.00268342,-0.10338855,0.14752533,0.00000000,0.00000000,0.33716479,2.11585188,0.20480268,-0.07251167,-1.35050297,0.00000000,0.00000000
-0.34276935,-2.17000008,-0.00855118,-0.10675368,0.10896431,0.00000000,0.00000000,0.32038093,2.12107849,0.20979942,-0.06830499,-1.33801210,0.00000000,0.00000000
-0.33440474,-2.17000008,-0.01432064,-0.10775155,0.06893875,0.00000000,0.00000000,0.29694539,2.12751532,0.21525423,-0.06425866,-1.32810748,0.00000000,0.00000000
-0.32796061,-2.17000008,-0.02000117,-0.10602430,0.02907379,0.00000000,0.00000000,0.26861975,2.13519096,0.22104090,-0.06011355,-1.31997442,0.00000000,0.00000000
-0.32325360,-2.17000008,-0.02557982,-0.10151722,-0.01045138,0.00000000,0.00000000,0.23693009,2.14383769,0.22704780,-0.05560407,-1.30975831,0.00000000,0.00000000
-0.31990710,-2.17000008,-0.03102724,-0.09452083,-0.04592052,0.00000000,0.00000000,0.20314522,2.15254974,0.23317455,-0.05067309,-1.29755855,0.00000000,0.00000000
-0.31742308,-2.17000008,-0.03630723,-0.08541521,-0.07959672,0.00000000,0.00000000,0.16840479,2.16042113,0.23933195,-0.04516327,-1.28821063,0.00000000,0.00000000
-0.31531057,-2.17000008,-0.04138974,-0.07447194,-0.10815732,0.00000000,0.00000000,0.13369301,2.16634893,0.24544318,-0.03901696,-1.27900350,0.00000000,0.00000000
-0.31325889,-2.17000008,-0.04626220,-0.06180420,-0.13531919,0.00000000,0.00000000,0.09982413,2.16928625,0.25144380,-0.03261473,-1.26518631,0.00000000,0.00000000
-0.31125894,-2.17000008,-0.05093212,-0.04748876,-0.16229710,0.00000000,0.00000000,0.06749886,2.16996002,0.25728312,-0.02678743,-1.24682879,0.00000000,0.00000000
-0.30956146,-2.17000008,-0.05541873,-0.03184563,-0.18674795,0.00000000,0.00000000,0.03738758,2.17000008,0.26292682,-0.02239289,-1.22713649,0.00000000,0.00000000
-0.30850655,-2.17000008,-0.05974238,-0.01562310,-0.21306790,0.00000000,0.00000000,0.01019316,2.17000008,0.26835653,-0.01981200,-1.21059620,0.00000000,0.00000000
-0.30839923,-2.17000008,-0.06392094,0.00010252,-0.23641789,0.00000000,0.00000000,-0.01335765,2.17000008,0.27356547,-0.01888393,-1.19921613,0.00000000,0.00000000
-0.30946049,-2.17000008,-0.06797132,0.01416821,-0.26480561,0.00000000,0.00000000,-0.03260224,2.17000008,0.27855340,-0.01912299,-1.18755400,0.00000000,0.00000000
-0.31179851,-2.17000008,-0.07191119,0.02553504,-0.28826037,0.00000000,0.00000000,-0.04704604,2.17000008,0.28332448,-0.01992069,-1.18049586,0.00000000,0.00000000
-0.31540060,-2.17000008,-0.07575932,0.03341800,-0.31001562,0.00000000,0.00000000,-0.05641821,2.17000008,0.28788623,-0.02069131,-1.17639959,0.00000000,0.00000000
-0.32015613,-2.17000008,-0.07953426,0.03733773,-0.33201173,0.00000000,0.00000000,-0.06065759,2.17000008,0.29224923,-0.02098413,-1.17875791,0.00000000,0.00000000
-0.32589149,-2.17000008,-0.08325191,0.03710290,-0.35590386,0.00000000,0.00000000,-0.05984063,2.17000008,0.29642603,-0.02054277,-1.18698025,0.00000000,0.00000000
-0.33239335,-2.17000008,-0.08692280,0.03275270,-0.37784630,0.00000000,0.00000000,-0.05409427,2.17000008,0.30042955,-0.01930457,-1.20374906,0.00000000,0.00000000
-0.33943522,-2.17000008,-0.09054942,0.02452252,-0.40233082,0.00000000,0.00000000,-0.04355796,2.17000008,0.30427232,-0.01738431,-1.22290790,0.00000000,0.00000000
-0.34680957,-2.17000008,-0.09412384,0.01286391,-0.42744052,0.00000000,0.00000000,-0.02842471,2.17000008,0.30796638,-0.01506088,-1.24688721,0.00000000,0.00000000
-0.35434058,-2.17000008,-0.09762789,-0.00152357,-0.44947469,0.00000000,0.00000000,-0.00901449,2.17000008,0.31152415,-0.01273383,-1.27063155,0.00000000,0.00000000
-0.36186737,-2.17000008,-0.10103600,-0.01771076,-0.47616202,0.00000000,0.00000000,0.01418569,2.17000008,0.31495830,-0.01083212,-1.29285276,0.00000000,0.00000000
-0.36920699,-2.17000008,-0.10431902,-0.03461906,-0.49936050,0.00000000,0.00000000,0.04051796,2.17000008,0.31828171,-0.00969709,-1.31211162,0.00000000,0.00000000
-0.37614313,-2.17000008,-0.10744727,-0.05113678,-0.51630861,0.00000000,0.00000000,0.06916773,2.17000008,0.32150847,-0.00951004,-1.33840108,0.00000000,0.00000000
-0.38239968,-2.17000008,-0.11039054,-0.06627055,-0.53526962,0.00000000,0.00000000,0.09919431,2.16997433,0.32465512,-0.01022229,-1.36222577,0.00000000,0.00000000
-0.38762397,-2.17000008,-0.11311535,-0.07931544,-0.56034815,0.00000000,0.00000000,0.12957633,2.16954684,0.32774228,-0.01150154,-1.39007282,0.00000000,0.00000000
-0.39156768,-2.17000008,-0.11559252,-0.08996311,-0.58504111,0.00000000,0.00000000,0.15925343,2.16774464,0.33079508,-0.01284580,-1.41846693,0.00000000,0.00000000
-0.39438501,-2.17000008,-0.11781782,-0.09822690,-0.61076796,0.00000000,0.00000000,0.18716092,2.16426849,0.33384106,-0.01388489,-1.44611514,0.00000000,0.00000000
-0.39648816,-2.17000008,-0.11981034,-0.10422155,-0.64133805,0.00000000,0.00000000,0.21229884,2.15982962,0.33690637,-0.01453190,-1.46720338,0.00000000,0.00000000
-0.39817476,-2.17000008,-0.12158858,-0.10799929,-0.66854846,0.00000000,0.00000000,0.23383087,2.15508676,0.34001324,-0.01490148,-1.48975194,0.00000000,0.00000000
-0.39956903,-2.17000008,-0.12316009,-0.10951611,-0.69657534,0.00000000,0.00000000,0.25116524,2.15047479,0.34317946,-0.01515460,-1.50894797,0.00000000,0.00000000
-0.40055704,-2.17000008,-0.12451284,-0.10867267,-0.72781396,0.00000000,0.00000000,0.26397896,2.14640903,0.34641907,-0.01537649,-1.53338003,0.00000000,0.00000000
-0.40068200,-2.17000008,-0.12560844,-0.10539173,-0.75772327,0.00000000,0.00000000,0.27218217,2.14332008,0.34974292,-0.01554472,-1.55313146,0.00000000,0.00000000
-0.39942271,-2.17000008,-0.12640549,-0.09970983,-0.78955317,0.00000000,0.00000000,0.27587152,2.14157128,0.35315907,-0.01557289,-1.57276797,0.00000000,0.00000000
-0.39656630,-2.17000008,-0.12688829,-0.09182525,-0.82422626,0.00000000,0.00000000,0.27532136,2.14137793,0.35667109,-0.01535005,-1.59038162,0.00000000,0.00000000
-0.39216658,-2.17000008,-0.12706488,-0.08201327,-0.86162210,0.00000000,0.00000000,0.27099603,2.14285111,0.36027765,-0.01471330,-1.60814524,0.00000000,0.00000000
-0.38631579,-2.16993809,-0.12695464,-0.07042838,-0.90325421,0.00000000,0.00000000,0.26354271,2.14617419,0.36397219,-0.01334479,-1.61997318,0.00000000,0.00000000
-0.37920046,-2.16902971,-0.12658903,-0.05702321,-0.94340533,0.00000000,0.00000000,0.25370806,2.15163946,0.36774233,-0.01076030,-1.63773203,0.00000000,0.00000000
-0.37168941,-2.16662621,-0.12601997,-0.04238858,-0.98227543,0.00000000,0.00000000,0.24192615,2.15891981,0.37156975,-0.00680204,-1.65091646,0.00000000,0.00000000
-0.36524424,-2.16541171,-0.12529333,-0.02835444,-1.02077830,0.00000000,0.00000000,0.22793603,2.16578341,0.37542936,-0.00235170,-1.66321504,0.00000000,0.00000000
-0.36068311,-2.16631126,-0.12441729,-0.01621917,-1.05974317,0.00000000,0.00000000,0.21154487,2.16922021,0.37929168,0.00084912,-1.67716503,0.00000000,0.00000000
-0.35777998,-2.16826391,-0.12337440,-0.00692808,-1.10065663,0.00000000,0.00000000,0.19345120,2.16995764,0.38313547,0.00148418,-1.68637764,0.00000000,0.00000000
-0.35642272,-2.16962337,-0.12215851,-0.00043112,-1.13471925,0.00000000,0.00000000,0.17499548,2.17000008,0.38695574,-0.00070175,-1.69681478,0.00000000,0.00000000
-0.35720545,-2.16997814,-0.12076958,0.00391657,-1.17212784,0.00000000,0.00000000,0.15723334,2.17000008,0.39075822,-0.00591440,-1.70699394,0.00000000,0.00000000
-0.36064532,-2.17000008,-0.11920098,0.00680159,-1.21029031,0.00000000,0.00000000,0.14080508,2.17000008,0.39455193,-0.01428515,-1.71289980,0.00000000,0.00000000
-0.36691082,-2.17000008,-0.11744242,0.00874439,-1.24319839,0.00000000,0.00000000,0.12626067,2.17000008,0.39834517,-0.02528152,-1.71565247,0.00000000,0.00000000
-0.37589660,-2.17000008,-0.11548372,0.01005067,-1.27356386,0.00000000,0.00000000,0.11393360,2.17000008,0.40214774,-0.03793318,-1.71376669,0.00000000,0.00000000
-0.38719305,-2.17000008,-0.11331638,0.01084442,-1.31021464,0.00000000,0.00000000,0.10365228,2.17000008,0.40598443,-0.05117367,-1.70619500,0.00000000,0.00000000
-0.40006277,-2.17000008,-0.11093403,0.01114438,-1.34306729,0.00000000,0.00000000,0.09524669,2.17000008,0.40989023,-0.06378720,-1.69378257,0.00000000,0.00000000
-0.41356173,-2.17000008,-0.10833089,0.01102392,-1.37208116,0.00000000,0.00000000,0.08950975,2.17000008,0.41388017,-0.07404788,-1.67970586,0.00000000,0.00000000
-0.42668730,-2.17000008,-0.10549965,0.01070954,-1.40316606,0.00000000,0.00000000,0.08712655,2.17000008,0.41796544,-0.08043458,-1.67020369,0.00000000,0.00000000
-0.43835983,-2.17000008,-0.10243120,0.01047633,-1.43306696,0.00000000,0.00000000,0.08809545,2.17000008,0.42214212,-0.08295311,-1.65970147,0.00000000,0.00000000
-0.44745225,-2.17000008,-0.09911535,0.01059958,-1.45724869,0.00000000,0.00000000,0.09174418,2.17000008,0.42640147,-0.08297349,-1.65651488,0.00000000,0.00000000
-0.45288312,-2.16999555,-0.09554231,0.01138074,-1.47981513,0.00000000,0.00000000,0.09784828,2.17000008,0.43071991,-0.08184036,-1.65181303,0.00000000,0.00000000
-0.45356950,-2.16991377,-0.09170594,0.01299635,-1.50077820,0.00000000,0.00000000,0.10735253,2.17000008,0.43502986,-0.08050364,-1.65289128,0.00000000,0.00000000
-0.44849804,-2.16946459,-0.08760522,0.01531745,-1.50872827,0.00000000,0.00000000,0.12127733,2.16999626,0.43927309,-0.07971964,-1.65187764,0.00000000,0.00000000
-0.43689117,-2.16832900,-0.08324232,0.01783325,-1.51150668,0.00000000,0.00000000,0.14013286,2.16982532,0.44344658,-0.07974721,-1.64315474,0.00000000,0.00000000
-0.41799551,-2.16672635,-0.07862016,0.01969720,-1.51290250,0.00000000,0.00000000,0.16358340,2.16783285,0.44763383,-0.08005092,-1.63154042,0.00000000,0.00000000
-0.39211068,-2.16530037,-0.07372310,0.02014575,-1.51026976,0.00000000,0.00000000,0.19034997,2.16122365,0.45200029,-0.07958958,-1.62623084,0.00000000,0.00000000
-0.36381310,-2.16429830,-0.06847865,0.01933209,-1.50950778,0.00000000,0.00000000,0.21864292,2.15183139,0.45673931,-0.07742804,-1.62093747,0.00000000,0.00000000
-0.33790201,-2.16335821,-0.06280739,0.01811787,-1.50963569,0.00000000,0.00000000,0.24583471,2.14271116,0.46204722,-0.07335379,-1.61842275,0.00000000,0.00000000
-0.31359619,-2.16351533,-0.05668461,0.01621175,-1.51238763,0.00000000,0.00000000,0.26888454,2.13558650,0.46807766,-0.06796897,-1.60574174,0.00000000,0.00000000
-0.28917485,-2.16553593,-0.05009202,0.01327936,-1.51899981,0.00000000,0.00000000,0.28532463,2.13149714,0.47491109,-0.06201471,-1.59318209,0.00000000,0.00000000
-0.26490566,-2.16822243,-0.04299320,0.01008338,-1.52863729,0.00000000,0.00000000,0.29355377,2.13084459,0.48255715,-0.05620102,-1.57767320,0.00000000,0.00000000
-0.24241215,-2.16967010,-0.03534414,0.00771175,-1.53318930,0.00000000,0.00000000,0.29291254,2.13342953,0.49097347,-0.05112772,-1.56771755,0.00000000,0.00000000
-0.22364029,-2.16998243,-0.02710369,0.00661292,-1.53837657,0.00000000,0.00000000,0.28346312,2.13863277,0.50009423,-0.04723824,-1.56011748,0.00000000,0.00000000
-0.21011680,-2.17000008,-0.01823903,0.00710569,-1.53915119,0.00000000,0.00000000,0.26552296,2.14558601,0.50985795,-0.04488062,-1.55594909,0.00000000,0.00000000
-0.20293158,-2.17000008,-0.00872297,0.00963834,-1.54412651,0.00000000,0.00000000,0.23940094,2.15328693,0.52022195,-0.04435965,-1.55081332,0.00000000,0.00000000
-0.20250845,-2.17000008,0.00147199,0.01417227,-1.55260479,0.00000000,0.00000000,0.20551254,2.16063762,0.53116119,-0.04590319,-1.54914391,0.00000000,0.00000000
-0.20774318,-2.17000008,0.01236706,0.02002899,-1.56016815,0.00000000,0.00000000,0.16463025,2.16633320,0.54266018,-0.04964305,-1.54836714,0.00000000,0.00000000
-0.21702921,-2.17000008,0.02397139,0.02685662,-1.56165123,0.00000000,0.00000000,0.11816384,2.16926384,0.55469459,-0.05562568,-1.54812229,0.00000000,0.00000000
-0.22948238,-2.17000008,0.03628673,0.03546284,-1.56193471,0.00000000,0.00000000,0.06849102,2.16995859,0.56720364,-0.06378142,-1.54471672,0.00000000,0.00000000
-0.24444363,-2.17000008,0.04928483,0.04742822,-1.56606734,0.00000000,0.00000000,0.01874706,2.17000008,0.58007234,-0.07393411,-1.54372931,0.00000000,0.00000000
-0.26045397,-2.17000008,0.06287064,0.06386222,-1.56991076,0.00000000,0.00000000,-0.02804583,2.17000008,0.59315121,-0.08577587,-1.54113185,0.00000000,0.00000000
-0.27650684,-2.17000008,0.07697128,0.08539352,-1.56713915,0.00000000,0.00000000,-0.06972969,2.16992712,0.60631156,-0.09866557,-1.53860366,0.00000000,0.00000000
-0.29123446,-2.17000008,0.09143411,0.11242095,-1.56159782,0.00000000,0.00000000,-0.10489801,2.16868854,0.61948925,-0.11139192,-1.53531277,0.00000000,0.00000000
-0.29718861,-2.16997409,0.10557729,0.14328730,-1.55639064,0.00000000,0.00000000,-0.13237132,2.16314721,0.63269335,-0.12223098,-1.52884734,0.00000000,0.00000000
-0.29228964,-2.16955018,0.11890616,0.17489405,-1.54807043,0.00000000,0.00000000,-0.15121506,2.15140820,0.64598507,-0.12956616,-1.52769482,0.00000000,0.00000000
-0.27794567,-2.16784000,0.13117290,0.20519724,-1.53901601,0.00000000,0.00000000,-0.16054334,2.13487411,0.65943968,-0.13207920,-1.53080976,0.00000000,0.00000000
-0.25682670,-2.16493821,0.14236166,0.23313075,-1.53294480,0.00000000,0.00000000,-0.15919438,2.11559582,0.67309874,-0.12870859,-1.54096603,0.00000000,0.00000000
-0.23198536,-2.16228151,0.15260516,0.25774461,-1.52449894,0.00000000,0.00000000,-0.14652516,2.09470463,0.68698591,-0.11905343,-1.54702365,0.00000000,0.00000000
-0.20482820,-2.16096663,0.16188437,0.27840450,-1.51442099,0.00000000,0.00000000,-0.12365019,2.07289958,0.70119929,-0.10358538,-1.55625880,0.00000000,0.00000000
-0.17627217,-2.16108727,0.17016128,0.29504147,-1.50559330,0.00000000,0.00000000,-0.09165765,2.05120778,0.71582323,-0.08269229,-1.56447434,0.00000000,0.00000000
-0.14687164,-2.16253710,0.17739198,0.30766541,-1.49997592,0.00000000,0.00000000,-0.05149482,2.03090405,0.73089242,-0.05666925,-1.57503569,0.00000000,0.00000000
-0.11682267,-2.16503143,0.18351936,0.31633830,-1.49128497,0.00000000,0.00000000,-0.00480317,2.01339173,0.74639112,-0.02609373,-1.58780015,0.00000000,0.00000000
-0.08673807,-2.16765165,0.18859565,0.32149309,-1.48802006,0.00000000,0.00000000,0.04576765,1.99995935,0.76221091,0.00792617,-1.60203636,0.00000000,0.00000000
-0.05790006,-2.16944098,0.19285287,0.32360032,-1.48282993,0.00000000,0.00000000,0.09707696,1.99146736,0.77811038,0.04381432,-1.61810267,0.00000000,0.00000000
-0.03187077,-2.16996074,0.19660640,0.32320285,-1.47786915,0.00000000,0.00000000,0.14633740,1.98782814,0.79373968,0.07972686,-1.63949776,0.00000000,0.00000000
-0.00946843,-2.16999960,0.20002367,0.32090315,-1.47210371,0.00000000,0.00000000,0.19164711,1.98822796,0.80872196,0.11393970,-1.65752780,0.00000000,0.00000000
0.00950952,-2.17000008,0.20305701,0.31733888,-1.46101046,0.00000000,0.00000000,0.23194014,1.99174321,0.82271385,0.14512187,-1.67442071,0.00000000,0.00000000
0.02579120,-2.17000008,0.20554648,0.31317759,-1.44742095,0.00000000,0.00000000,0.26662996,1.99760628,0.83542675,0.17231886,-1.69286919,0.00000000,0.00000000
0.04007107,-2.17000008,0.20733912,0.30908933,-1.42622161,0.00000000,0.00000000,0.29532784,2.00520086,0.84662861,0.19484490,-1.71616960,0.00000000,0.00000000
0.05282440,-2.17000008,0.20833014,0.30567935,-1.40421247,0.00000000,0.00000000,0.31779334,2.01404500,0.85614574,0.21225625,-1.74165940,0.00000000,0.00000000
0.06431868,-2.17000008,0.20846525,0.30333364,-1.37445104,0.00000000,0.00000000,0.33401000,2.02381921,0.86386478,0.22438613,-1.76314378,0.00000000,0.00000000
0.07469723,-2.17000008,0.20773041,0.30203429,-1.33923960,0.00000000,0.00000000,0.34421635,2.03438950,0.86972970,0.23135394,-1.77981257,0.00000000,0.00000000
0.08413135,-2.17000008,0.20612407,0.30129275,-1.30258119,0.00000000,0.00000000,0.34882212,2.04578614,0.87373120,0.23350646,-1.79621303,0.00000000,0.00000000
0.09289952,-2.17000008,0.20363769,0.30026636,-1.26743388,0.00000000,0.00000000,0.34835035,2.05810165,0.87590510,0.23133622,-1.81455541,0.00000000,0.00000000
0.10139521,-2.17000008,0.20025000,0.29795209,-1.23327637,0.00000000,0.00000000,0.34344190,2.07133961,0.87634093,0.22540070,-1.83322120,0.00000000,0.00000000
0.11002366,-2.17000008,0.19594620,0.29336074,-1.19619310,0.00000000,0.00000000,0.33489677,2.08527946,0.87519205,0.21626334,-1.84917903,0.00000000,0.00000000
0.11897203,-2.17000008,0.19076169,0.28567085,-1.16634369,0.00000000,0.00000000,0.32371968,2.09944201,0.87267244,0.20448542,-1.86356151,0.00000000,0.00000000
0.12803422,-2.17000008,0.18480995,0.27438420,-1.13790345,0.00000000,0.00000000,0.31104791,2.11323214,0.86902446,0.19065221,-1.88237619,0.00000000,0.00000000
0.13672294,-2.17000008,0.17825696,0.25939223,-1.10921943,0.00000000,0.00000000,0.29787931,2.12619114,0.86446500,0.17536020,-1.91188955,0.00000000,0.00000000
0.14447799,-2.17000008,0.17128508,0.24085145,-1.08095491,0.00000000,0.00000000,0.28490826,2.13803506,0.85916698,0.15916020,-1.93976653,0.00000000,0.00000000
0.15067148,-2.17000008,0.16409227,0.21900801,-1.05416834,0.00000000,0.00000000,0.27266848,2.14845133,0.85328627,0.14253043,-1.96548784,0.00000000,0.00000000
0.15457915,-2.17000008,0.15688866,0.19412874,-1.03065872,0.00000000,0.00000000,0.26173162,2.15695715,0.84698188,0.12589233,-1.99351871,0.00000000,0.00000000
0.15551949,-2.17000008,0.14986442,0.16657364,-1.01595652,0.00000000,0.00000000,0.25278673,2.16295743,0.84041297,0.10965193,-2.02473879,0.00000000,0.00000000
0.15317881,-2.17000008,0.14314242,0.13700591,-1.00407052,0.00000000,0.00000000,0.24655922,2.16593313,0.83372080,0.09422579,-2.06030607,0.00000000,0.00000000
0.14793736,-2.17000008,0.13675757,0.10658602,-0.99117607,0.00000000,0.00000000,0.24362047,2.16563296,0.82701468,0.08002918,-2.08883166,0.00000000,0.00000000
0.14073902,-2.17000008,0.13070227,0.07684647,-0.98479831,0.00000000,0.00000000,0.24429853,2.16216373,0.82037145,0.06748389,-2.12106395,0.00000000,0.00000000
0.13260652,-2.17000008,0.12498840,0.04937365,-0.97590393,0.00000000,0.00000000,0.24870032,2.15598226,0.81384438,0.05704145,-2.14903402,0.00000000,0.00000000
0.12438831,-2.17000008,0.11966086,0.02561484,-0.96556461,0.00000000,0.00000000,0.25667366,2.14779496,0.80746979,0.04912119,-2.17935324,0.00000000,0.00000000
0.11674570,-2.17000008,0.11478119,0.00676725,-0.95539176,0.00000000,0.00000000,0.26773775,2.13834286,0.80126953,0.04394997,-2.20846939,0.00000000,0.00000000
0.11014161,-2.17000008,0.11040776,-0.00653532,-0.94734997,0.00000000,0.00000000,0.28091064,2.12845135,0.79524589,0.04147231,-2.23720288,0.00000000,0.00000000
0.10481570,-2.17000008,0.10658132,-0.01446840,-0.94144660,0.00000000,0.00000000,0.29465285,2.11923647,0.78937370,0.04140475,-2.26593328,0.00000000,0.00000000
0.10102352,-2.17000008,0.10331905,-0.01718161,-0.93675441,0.00000000,0.00000000,0.30763778,2.11124563,0.78362733,0.04318414,-2.29023814,0.00000000,0.00000000
0.09895187,-2.17000008,0.10061287,-0.01504116,-0.93082148,0.00000000,0.00000000,0.31873608,2.10483813,0.77797276,0.04621874,-2.31252098,0.00000000,0.00000000
0.09862600,-2.17000008,0.09843043,-0.00880692,-0.92570138,0.00000000,0.00000000,0.32696995,2.10048199,0.77236521,0.05009276,-2.33916092,0.00000000,0.00000000
0.09986967,-2.17000008,0.09672027,0.00050366,-0.92171556,0.00000000,0.00000000,0.33161160,2.09872150,0.76675373,0.05463782,-2.36480451,0.00000000,0.00000000
0.10221741,-2.17000008,0.09542162,0.01171435,-0.92333215,0.00000000,0.00000000,0.33230808,2.10002780,0.76109034,0.05991820,-2.38703346,0.00000000,0.00000000
0.10490826,-2.17000008,0.09447631,0.02357896,-0.92577195,0.00000000,0.00000000,0.32917145,2.10445786,0.75534219,0.06608576,-2.40976334,0.00000000,0.00000000
0.10717904,-2.17000008,0.09383553,0.03508335,-0.92326868,0.00000000,0.00000000,0.32254276,2.11155057,0.74949133,0.07319632,-2.42792225,0.00000000,0.00000000
0.10844336,-2.17000008,0.09345867,0.04556641,-0.92358124,0.00000000,0.00000000,0.31315771,2.12055302,0.74353701,0.08135472,-2.44420242,0.00000000,0.00000000
0.10843597,-2.17000008,0.09330683,0.05465307,-0.92360562,0.00000000,0.00000000,0.30253214,2.13092303,0.73749900,0.09110594,-2.46438074,0.00000000,0.00000000
0.10718958,-2.17000008,0.09333923,0.06210252,-0.93232495,0.00000000,0.00000000,0.29207948,2.14189315,0.73140597,0.10287364,-2.48734498,0.00000000,0.00000000
0.10481033,-2.17000008,0.09351820,0.06769674,-0.94439095,0.00000000,0.00000000,0.28219631,2.15214109,0.72526747,0.11639688,-2.51583266,0.00000000,0.00000000
0.10135268,-2.17000008,0.09381343,0.07126721,-0.95473009,0.00000000,0.00000000,0.27272451,2.16053104,0.71906507,0.13119176,-2.54376078,0.00000000,0.00000000
0.09688539,-2.17000008,0.09419885,0.07283683,-0.96326035,0.00000000,0.00000000,0.26378298,2.16639328,0.71281415,0.14675403,-2.56803322,0.00000000,0.00000000
0.09180082,-2.17000008,0.09463809,0.07277729,-0.97198844,0.00000000,0.00000000,0.25621101,2.16928291,0.70671678,0.16185276,-2.59462476,0.00000000,0.00000000
0.08697424,-2.17000008,0.09507730,0.07170274,-0.98445779,0.00000000,0.00000000,0.25085694,2.16995955,0.70113534,0.17432114,-2.62359118,0.00000000,0.00000000
0.08323824,-2.17000008,0.09546820,0.07027005,-0.99007779,0.00000000,0.00000000,0.24782479,2.17000008,0.69626534,0.18280044,-2.65481591,0.00000000,0.00000000
0.08104850,-2.17000008,0.09578197,0.06900913,-1.00470638,0.00000000,0.00000000,0.24714909,2.17000008,0.69217372,0.18690284,-2.68004990,0.00000000,0.00000000
0.08053408,-2.17000008,0.09600521,0.06826311,-1.02249801,0.00000000,0.00000000,0.24887423,2.17000008,0.68884212,0.18685512,-2.70265794,0.00000000,0.00000000
0.08161151,-2.17000008,0.09613335,0.06817453,-1.03920543,0.00000000,0.00000000,0.25289840,2.17000008,0.68617541,0.18322903,-2.71966243,0.00000000,0.00000000
0.08405358,-2.17000008,0.09616719,0.06870170,-1.05331767,0.00000000,0.00000000,0.25895467,2.16998935,0.68402958,0.17669959,-2.74020028,0.00000000,0.00000000
0.08747521,-2.17000008,0.09611331,0.06972919,-1.07495975,0.00000000,0.00000000,0.26634595,2.16981053,0.68218070,0.16805057,-2.76295972,0.00000000,0.00000000
0.09130196,-2.17000008,0.09598574,0.07120219,-1.08917570,0.00000000,0.00000000,0.27399769,2.16907692,0.68033099,0.15830682,-2.78301406,0.00000000,0.00000000
0.09498204,-2.17000008,0.09579842,0.07303510,-1.10419345,0.00000000,0.00000000,0.28151813,2.16796613,0.67830890,0.14842261,-2.80318189,0.00000000,0.00000000
0.09823369,-2.17000008,0.09555529,0.07506989,-1.11669517,0.00000000,0.00000000,0.28805846,2.16733837,0.67594731,0.13904503,-2.82984638,0.00000000,0.00000000
0.10084473,-2.17000008,0.09525886,0.07703360,-1.12828767,0.00000000,0.00000000,0.29326546,2.16717267,0.67319065,0.13052298,-2.85091043,0.00000000,0.00000000
0.10265164,-2.17000008,0.09491015,0.07865556,-1.14547133,0.00000000,0.00000000,0.29705012,2.16718769,0.67003453,0.12309629,-2.86772847,0.00000000,0.00000000
0.10360655,-2.17000008,0.09450464,0.07977878,-1.16973460,0.00000000,0.00000000,0.29934996,2.16729546,0.66648555,0.11692502,-2.87979317,0.00000000,0.00000000
0.10376096,-2.17000008,0.09403290,0.08039360,-1.19411480,0.00000000,0.00000000,0.30022073,2.16750526,0.66256618,0.11209109,-2.87979317,0.00000000,0.00000000
0.10320197,-2.17000008,0.09348471,0.08060786,-1.21774900,0.00000000,0.00000000,0.29982978,2.16781831,0.65830648,0.10864185,-2.87979317,0.00000000,0.00000000
0.10201619,-2.17000008,0.09285174,0.08059603,-1.23748457,0.00000000,0.00000000,0.29841375,2.16820741,0.65373927,0.10657625,-2.87979317,0.00000000,0.00000000
0.10030294,-2.17000008,0.09212674,0.08055725,-1.25622833,0.00000000,0.00000000,0.29620183,2.16866922,0.64889753,0.10577168,-2.87979317,0.00000000,0.00000000
0.09818297,-2.17000008,0.09130210,0.08068040,-1.27473891,0.00000000,0.00000000,0.29335105,2.16920590,0.64381200,0.10594648,-2.87979317,0.00000000,0.00000000
0.09577667,-2.17000008,0.09037011,0.08111889,-1.29507208,0.00000000,0.00000000,0.28997165,2.16970062,0.63851345,0.10668135,-2.87979317,0.00000000,0.00000000
0.09317628,-2.17000008,0.08932415,0.08197301,-1.31351602,0.00000000,0.00000000,0.28622735,2.16994548,0.63303947,0.10747696,-2.87979317,0.00000000,0.00000000
0.09043728,-2.17000008,0.08815902,0.08325849,-1.32139528,0.00000000,0.00000000,0.28249729,2.16999459,0.62744427,0.10785617,-2.87979317,0.00000000,0.00000000
0.08760668,-2.17000008,0.08686913,0.08486730,-1.33308458,0.00000000,0.00000000,0.27923408,2.16991711,0.62178630,0.10740607,-2.87979317,0.00000000,0.00000000
0.08474003,-2.17000008,0.08544720,0.08658227,-1.34149778,0.00000000,0.00000000,0.27675176,2.16916943,0.61612093,0.10563437,-2.87979317,0.00000000,0.00000000
0.08190060,-2.17000008,0.08388487,0.08812307,-1.35187447,0.00000000,0.00000000,0.27558404,2.16716409,0.61051291,0.10215987,-2.87979317,0.00000000,0.00000000
0.07925427,-2.17000008,0.08216867,0.08937353,-1.36208904,0.00000000,0.00000000,0.27515110,2.16548133,0.60487396,0.09743945,-2.87979317,0.00000000,0.00000000
0.07681271,-2.17000008,0.08029506,0.09043080,-1.36850500,0.00000000,0.00000000,0.27597439,2.16534019,0.59916937,0.09253997,-2.87979317,0.00000000,0.00000000
0.07464270,-2.17000008,0.07826202,0.09125024,-1.37776053,0.00000000,0.00000000,0.27729693,2.16638565,0.59334767,0.08755527,-2.87979317,0.00000000,0.00000000
0.07277125,-2.17000008,0.07607263,0.09180491,-1.38851738,0.00000000,0.00000000,0.27915850,2.16752958,0.58741122,0.08253750,-2.87979317,0.00000000,0.00000000
0.07115405,-2.17000008,0.07373609,0.09208322,-1.40428102,0.00000000,0.00000000,0.28167084,2.16841507,0.58134151,0.07788634,-2.87979317,0.00000000,0.00000000
0.06974196,-2.17000008,0.07126438,0.09208978,-1.41317856,0.00000000,0.00000000,0.28428131,2.16923022,0.57508039,0.07399713,-2.87979317,0.00000000,0.00000000
0.06850258,-2.17000008,0.06867190,0.09183414,-1.41581774,0.00000000,0.00000000,0.28647798,2.16979599,0.56859666,0.07091627,-2.87979317,0.00000000,0.00000000
0.06745014,-2.17000008,0.06597427,0.09131117,-1.42063689,0.00000000,0.00000000,0.28815237,2.16997814,0.56189084,0.06853991,-2.87979317,0.00000000,0.00000000
0.06662367,-2.17000008,0.06318903,0.09048744,-1.41704488,0.00000000,0.00000000,0.28943679,2.16999936,0.55497360,0.06675991,-2.87979317,0.00000000,0.00000000
0.06606199,-2.17000008,0.06033627,0.08932772,-1.40986466,0.00000000,0.00000000,0.29046497,2.17000008,0.54785365,0.06543867,-2.87979317,0.00000000,0.00000000
0.06579267,-2.17000008,0.05743923,0.08782959,-1.40350127,0.00000000,0.00000000,0.29137933,2.17000008,0.54053932,0.06441482,-2.87979317,0.00000000,0.00000000
0.06582446,-2.17000008,0.05452496,0.08603524,-1.39963317,0.00000000,0.00000000,0.29238296,2.17000008,0.53304064,0.06355464,-2.87979317,0.00000000,0.00000000
0.06613657,-2.17000008,0.05162488,0.08402278,-1.39297318,0.00000000,0.00000000,0.29373080,2.16999602,0.52536881,0.06279647,-2.87979317,0.00000000,0.00000000
0.06667968,-2.17000008,0.04877425,0.08189301,-1.38319159,0.00000000,0.00000000,0.29568291,2.16992617,0.51753432,0.06215151,-2.87979317,0.00000000,0.00000000
0.06739920,-2.17000008,0.04601051,0.07976115,-1.37373233,0.00000000,0.00000000,0.29844511,2.16959476,0.50954437,0.06165964,-2.87979317,0.00000000,0.00000000
0.06826867,-2.17000008,0.04337127,0.07775554,-1.36809385,0.00000000,0.00000000,0.30212966,2.16882682,0.50140148,0.06133351,-2.87979317,0.00000000,0.00000000
0.06930872,-2.17000008,0.04089305,0.07601720,-1.35674024,0.00000000,0.00000000,0.30675092,2.16760111,0.49310318,0.06113390,-2.87979317,0.00000000,0.00000000
0.07057904,-2.17000008,0.03861114,0.07469343,-1.34178519,0.00000000,0.00000000,0.31225449,2.16592908,0.48464194,0.06099344,-2.87979317,0.00000000,0.00000000
0.07216009,-2.17000008,0.03655988,0.07392563,-1.32283890,0.00000000,0.00000000,0.31855464,2.16382194,0.47600621,0.06085767,-2.87979317,0.00000000,0.00000000
0.07412896,-2.17000008,0.03477316,0.07384086,-1.30384564,0.00000000,0.00000000,0.32557330,2.16133904,0.46718177,0.06071844,-2.87979317,0.00000000,0.00000000
0.07651635,-2.17000008,0.03328589,0.07456318,-1.28441107,0.00000000,0.00000000,0.33328369,2.15863228,0.45815343,0.06063824,-2.87979317,0.00000000,0.00000000
0.07923748,-2.17000008,0.03213651,0.07624599,-1.26426780,0.00000000,0.00000000,0.34174037,2.15599084,0.44890621,0.06077307,-2.87979317,0.00000000,0.00000000
0.08202175,-2.17000008,0.03136971,0.07910796,-1.24528158,0.00000000,0.00000000,0.35105938,2.15386343,0.43942413,0.06138743,-2.87979317,0.00000000,0.00000000
0.08439624,-2.17000008,0.03103775,0.08347990,-1.22534168,0.00000000,0.00000000,0.36133155,2.15282464,0.42968667,0.06283668,-2.87979317,0.00000000,0.00000000
0.08577798,-2.17000008,0.03119760,0.08984992,-1.20499945,0.00000000,0.00000000,0.37248564,2.15343547,0.41966400,0.06547859,-2.87979317,0.00000000,0.00000000
0.08565122,-2.17000008,0.03190397,0.09886692,-1.18688595,0.00000000,0.00000000,0.38414216,2.15599465,0.40931213,0.06951169,-2.87979317,0.00000000,0.00000000
0.08370501,-2.17000008,0.03320235,0.11125441,-1.17627442,0.00000000,0.00000000,0.39551842,2.16025901,0.39856839,0.07479479,-2.87979317,0.00000000,0.00000000
0.07984819,-2.17000008,0.03512572,0.12763669,-1.16838133,0.00000000,0.00000000,0.40542358,2.16519642,0.38734773,0.08070205,-2.87979317,0.00000000,0.00000000
0.07418633,-2.17000008,0.03768954,0.14835094,-1.16739821,0.00000000,0.00000000,0.41234663,2.16886282,0.37554610,0.08601711,-2.87979317,0.00000000,0.00000000
0.06706291,-2.17000008,0.04087669,0.17331390,-1.16665387,0.00000000,0.00000000,0.41470331,2.16993189,0.36305949,0.08886947,-2.87979317,0.00000000,0.00000000
0.05901118,-2.17000008,0.04462281,0.20192772,-1.15939581,0.00000000,0.00000000,0.41119045,2.17000008,0.34981546,0.08691821,-2.87979317,0.00000000,0.00000000
0.05044916,-2.16987228,0.04882462,0.23300131,-1.15444458,0.00000000,0.00000000,0.40093467,2.17000008,0.33578882,0.07796542,-2.87979317,0.00000000,0.00000000
0.04138379,-2.16783142,0.05336181,0.26476264,-1.14843202,0.00000000,0.00000000,0.38337570,2.17000008,0.32099921,0.06063300,-2.87979317,0.00000000,0.00000000
0.03130470,-2.16021633,0.05812424,0.29517600,-1.14488471,0.00000000,0.00000000,0.35846922,2.16990685,0.30551419,0.03484499,-2.87979317,0.00000000,0.00000000
0.01910914,-2.14799619,0.06307051,0.32247451,-1.13897896,0.00000000,0.00000000,0.32671157,2.16841412,0.28945151,0.00163743,-2.87979317,0.00000000,0.00000000
0.00313311,-2.13485265,0.06829160,0.34531131,-1.13597190,0.00000000,0.00000000,0.28704229,2.16272449,0.27303743,-0.03758078,-2.87979317,0.00000000,0.00000000
-0.01773188,-2.12390304,0.07383409,0.36284921,-1.13536549,0.00000000,0.00000000,0.23830877,2.15242553,0.25666592,-0.08026403,-2.87979317,0.00000000,0.00000000
-0.04258325,-2.11679983,0.07936522,0.37488651,-1.13390875,0.00000000,0.00000000,0.18360166,2.13753009,0.24066460,-0.12444695,-2.87979317,0.00000000,0.00000000
-0.06901381,-2.11385250,0.08422715,0.38180184,-1.13011336,0.00000000,0.00000000,0.12477116,2.11884665,0.22530515,-0.16886659,-2.87979317,0.00000000,0.00000000
-0.09477829,-2.11439943,0.08780687,0.38440761,-1.12867928,0.00000000,0.00000000,0.06424735,2.09821773,0.21071447,-0.21196295,-2.87979317,0.00000000,0.00000000
-0.11857773,-2.11720657,0.08974029,0.38374713,-1.12354648,0.00000000,0.00000000,0.00477088,2.07765627,0.19691792,-0.25222325,-2.87979317,0.00000000,0.00000000
-0.13986728,-2.12105584,0.08988374,0.38077539,-1.11377192,0.00000000,0.00000000,-0.05170589,2.05877256,0.18390884,-0.28854275,-2.87979317,0.00000000,0.00000000
-0.15849587,-2.12508154,0.08822779,0.37617821,-1.10337532,0.00000000,0.00000000,-0.10379733,2.04269671,0.17164209,-0.32017323,-2.87979317,0.00000000,0.00000000
-0.17450365,-2.12879968,0.08483751,0.37036347,-1.09079921,0.00000000,0.00000000,-0.15043324,2.03011155,0.16002423,-0.34666398,-2.87979317,0.00000000,0.00000000
-0.18803909,-2.13203454,0.07981969,0.36351067,-1.07739878,0.00000000,0.00000000,-0.19078080,2.02130866,0.14892800,-0.36782449,-2.87979317,0.00000000,0.00000000
-0.19929951,-2.13487029,0.07329988,0.35560653,-1.05801284,0.00000000,0.00000000,-0.22423945,2.01627493,0.13822408,-0.38367224,-2.87979317,0.00000000,0.00000000
-0.20847070,-2.13761616,0.06540392,0.34646299,-1.03945398,0.00000000,0.00000000,-0.25045347,2.01477623,0.12781431,-0.39437205,-2.87979317,0.00000000,0.00000000
-0.21573333,-2.14072204,0.05625629,0.33575606,-1.01898229,0.00000000,0.00000000,-0.26930889,2.01642370,0.11765260,-0.40017730,-2.87979317,0.00000000,0.00000000
-0.22136985,-2.14460421,0.04600072,0.32311454,-1.00098407,0.00000000,0.00000000,-0.28092054,2.02070260,0.10775358,-0.40139773,-2.87979317,0.00000000,0.00000000
-0.22588274,-2.14943910,0.03482264,0.30824134,-0.98260218,0.00000000,0.00000000,-0.28563538,2.02701068,0.09820033,-0.39839095,-2.87979317,0.00000000,0.00000000
-0.23001549,-2.15502691,0.02295125,0.29100338,-0.96585846,0.00000000,0.00000000,-0.28405464,2.03476810,0.08915141,-0.39153340,-2.87979317,0.00000000,0.00000000
-0.23466821,-2.16079760,0.01064060,0.27144182,-0.94972175,0.00000000,0.00000000,-0.27705178,2.04357767,0.08083498,-0.38115555,-2.87979317,0.00000000,0.00000000
-0.24073742,-2.16586971,-0.00186153,0.24974687,-0.93584853,0.00000000,0.00000000,-0.26573023,2.05334783,0.07351585,-0.36747697,-2.87979317,0.00000000,0.00000000
-0.24878429,-2.16907072,-0.01436451,0.22633143,-0.92237157,0.00000000,0.00000000,-0.25114465,2.06416726,0.06739999,-0.35065025,-2.87979317,0.00000000,0.00000000
-0.25857446,-2.16994524,-0.02678722,0.20201181,-0.91008478,0.00000000,0.00000000,-0.23381321,2.07584500,0.06250098,-0.33097473,-2.87979317,0.00000000,0.00000000
-0.26916128,-2.17000008,-0.03912039,0.17792295,-0.89115453,0.00000000,0.00000000,-0.21386455,2.08771992,0.05868099,-0.30901194,-2.87979317,0.00000000,0.00000000
-0.27960286,-2.17000008,-0.05132757,0.15505719,-0.87187546,0.00000000,0.00000000,-0.19192266,2.09848118,0.05584787,-0.28576508,-2.87979317,0.00000000,0.00000000
-0.28957155,-2.17000008,-0.06329978,0.13392450,-0.84408253,0.00000000,0.00000000,-0.16893001,2.10844064,0.05393967,-0.26146391,-2.87979317,0.00000000,0.00000000
-0.29951435,-2.17000008,-0.07487498,0.11465240,-0.81153625,0.00000000,0.00000000,-0.14549688,2.12164640,0.05282475,-0.23483241,-2.87979317,0.00000000,0.00000000
-0.31019005,-2.17000008,-0.08589730,0.09741160,-0.77672392,0.00000000,0.00000000,-0.12328582,2.13473082,0.05246070,-0.20956744,-2.87979317,0.00000000,0.00000000
-0.32193962,-2.17000008,-0.09627519,0.08244850,-0.75062054,0.00000000,0.00000000,-0.10319392,2.14624023,0.05271336,-0.18681057,-2.87979317,0.00000000,0.00000000
-0.33457962,-2.17000008,-0.10597711,0.06998679,-0.72380471,0.00000000,0.00000000,-0.08511292,2.15616608,0.05337004,-0.16615576,-2.87979317,0.00000000,0.00000000
-0.34749225,-2.17000008,-0.11501190,0.06005289,-0.70155823,0.00000000,0.00000000,-0.06895156,2.16379642,0.05428253,-0.14759956,-2.87979317,0.00000000,0.00000000
-0.35985401,-2.17000008,-0.12340777,0.05233301,-0.67524695,0.00000000,0.00000000,-0.05473541,2.16831732,0.05536152,-0.13125703,-2.87979317,0.00000000,0.00000000
-0.37083906,-2.17000008,-0.13119835,0.04625644,-0.65070915,0.00000000,0.00000000,-0.04235605,2.16978860,0.05653073,-0.11732252,-2.87979317,0.00000000,0.00000000
-0.37983748,-2.17000008,-0.13841385,0.04109586,-0.62286705,0.00000000,0.00000000,-0.03142793,2.16999102,0.05770868,-0.10623024,-2.87979317,0.00000000,0.00000000
-0.38619968,-2.17000008,-0.14508596,0.03605610,-0.59248233,0.00000000,0.00000000,-0.02175843,2.17000008,0.05884536,-0.09854069,-2.87979317,0.00000000,0.00000000
-0.38940600,-2.17000008,-0.15123814,0.03053196,-0.56484330,0.00000000,0.00000000,-0.01325963,2.17000008,0.05991821,-0.09444898,-2.87979317,0.00000000,0.00000000
-0.38921994,-2.17000008,-0.15688027,0.02413841,-0.52980572,0.00000000,0.00000000,-0.00584928,2.17000008,0.06092593,-0.09369233,-2.87979317,0.00000000,0.00000000
-0.38576680,-2.17000008,-0.16200946,0.01662563,-0.49551320,0.00000000,0.00000000,0.00065414,2.16998959,0.06188104,-0.09561103,-2.87979317,0.00000000,0.00000000
-0.37925649,-2.17000008,-0.16661778,0.00788480,-0.46181449,0.00000000,0.00000000,0.00623186,2.16981745,0.06282348,-0.09916255,-2.87979317,0.00000000,0.00000000
-0.37019631,-2.17000008,-0.17069395,-0.00219974,-0.43410510,0.00000000,0.00000000,0.01097048,2.16909552,0.06379610,-0.10321262,-2.87979317,0.00000000,0.00000000
-0.35917699,-2.17000008,-0.17422859,-0.01347673,-0.40568867,0.00000000,0.00000000,0.01495764,2.16784692,0.06484362,-0.10661056,-2.87979317,0.00000000,0.00000000
-0.34676573,-2.17000008,-0.17721939,-0.02564645,-0.38635689,0.00000000,0.00000000,0.01826521,2.16677570,0.06600294,-0.10869788,-2.87979317,0.00000000,0.00000000
-0.33348161,-2.17000008,-0.17967348,-0.03825027,-0.36689901,0.00000000,0.00000000,0.02091394,2.16641712,0.06730247,-0.10918603,-2.87979317,0.00000000,0.00000000
-0.31983188,-2.17000008,-0.18160945,-0.05067329,-0.35445920,0.00000000,0.00000000,0.02287417,2.16694689,0.06876233,-0.10795821,-2.87979317,0.00000000,0.00000000
-0.30634832,-2.17000008,-0.18305790,-0.06225638,-0.34393188,0.00000000,0.00000000,0.02409393,2.16813493,0.07039223,-0.10509318,-2.87979317,0.00000000,0.00000000
-0.29354852,-2.17000008,-0.18405838,-0.07241642,-0.33927003,0.00000000,0.00000000,0.02445596,2.16932726,0.07219428,-0.10084461,-2.87979317,0.00000000,0.00000000
-0.28190735,-2.17000008,-0.18465556,-0.08061285,-0.33472130,0.00000000,0.00000000,0.02376666,2.16988540,0.07416377,-0.09558643,-2.87979317,0.00000000,0.00000000
-0.27185047,-2.17000008,-0.18489505,-0.08629411,-0.33544630,0.00000000,0.00000000,0.02184360,2.16999435,0.07628360,-0.08985136,-2.87979317,0.00000000,0.00000000
-0.26375729,-2.17000008,-0.18481915,-0.08891522,-0.33588797,0.00000000,0.00000000,0.01855579,2.17000008,0.07852540,-0.08430982,-2.87979317,0.00000000,0.00000000
-0.25798190,-2.17000008,-0.18446465,-0.08794798,-0.33677596,0.00000000,0.00000000,0.01379732,2.17000008,0.08085758,-0.07969847,-2.87979317,0.00000000,0.00000000
-0.25482553,-2.17000008,-0.18386017,-0.08288955,-0.34197208,0.00000000,0.00000000,0.00744960,2.17000008,0.08325386,-0.07682618,-2.87979317,0.00000000,0.00000000
-0.25443140,-2.17000008,-0.18301973,-0.07335348,-0.35174718,0.00000000,0.00000000,-0.00063389,2.17000008,0.08569916,-0.07662135,-2.87979317,0.00000000,0.00000000
-0.25671563,-2.17000008,-0.18194044,-0.05928429,-0.36174971,0.00000000,0.00000000,-0.01057240,2.17000008,0.08819075,-0.08022717,-2.87979317,0.00000000,0.00000000
-0.26132819,-2.17000008,-0.18060662,-0.04127476,-0.37543228,0.00000000,0.00000000,-0.02201496,2.17000008,0.09071906,-0.08851608,-2.87979317,0.00000000,0.00000000
-0.26762235,-2.17000008,-0.17900227,-0.02073182,-0.38933814,0.00000000,0.00000000,-0.03398167,2.17000008,0.09326281,-0.10084458,-2.87979317,0.00000000,0.00000000
-0.27502206,-2.16997838,-0.17713827,0.00055891,-0.40833962,0.00000000,0.00000000,-0.04604209,2.17000008,0.09584372,-0.11617398,-2.87979317,0.00000000,0.00000000
-0.28320834,-2.16963243,-0.17505929,0.02080333,-0.43042809,0.00000000,0.00000000,-0.05743092,2.17000008,0.09846672,-0.13398364,-2.87979317,0.00000000,0.00000000
-0.29185244,-2.16835093,-0.17283534,0.03840561,-0.44900334,0.00000000,0.00000000,-0.06679465,2.17000008,0.10109612,-0.15383126,-2.87979317,0.00000000,0.00000000
-0.30047384,-2.16641021,-0.17055267,0.05225412,-0.46644920,0.00000000,0.00000000,-0.07309758,2.17000008,0.10371748,-0.17512420,-2.87979317,0.00000000,0.00000000
-0.30857980,-2.16471076,-0.16829750,0.06180163,-0.48229074,0.00000000,0.00000000,-0.07582773,2.17000008,0.10636641,-0.19703496,-2.87979317,0.00000000,0.00000000
-0.31586394,-2.16392255,-0.16613616,0.06685279,-0.49217808,0.00000000,0.00000000,-0.07473878,2.16997600,0.10911938,-0.21844521,-2.87979317,0.00000000,0.00000000
-0.32230973,-2.16431975,-0.16409943,0.06736860,-0.50316763,0.00000000,0.00000000,-0.06969783,2.16959214,0.11208507,-0.23802771,-2.87979317,0.00000000,0.00000000
-0.32815564,-2.16580486,-0.16217852,0.06342594,-0.51296395,0.00000000,0.00000000,-0.06072524,2.16816235,0.11540705,-0.25450855,-2.87979317,0.00000000,0.00000000
-0.33376560,-2.16785336,-0.16033144,0.05531520,-0.51968908,0.00000000,0.00000000,-0.04813569,2.16600537,0.11927299,-0.26695910,-2.87979317,0.00000000,0.00000000
-0.33945283,-2.16948271,-0.15849635,0.04380013,-0.53852391,0.00000000,0.00000000,-0.03266955,2.16418600,0.12392604,-0.27486297,-2.87979317,0.00000000,0.00000000
-0.34535992,-2.16996884,-0.15660429,0.03034720,-0.55303270,0.00000000,0.00000000,-0.01555039,2.16337323,0.12966575,-0.27810755,-2.87979317,0.00000000,0.00000000
-0.35140467,-2.17000008,-0.15459025,0.01681391,-0.57689208,0.00000000,0.00000000,0.00168269,2.16364503,0.13681228,-0.27692437,-2.87979317,0.00000000,0.00000000
-0.35722458,-2.17000008,-0.15239884,0.00488092,-0.60104877,0.00000000,0.00000000,0.01755315,2.16480064,0.14563932,-0.27168748,-2.87979317,0.00000000,0.00000000
-0.36222798,-2.17000008,-0.14998227,-0.00424729,-0.63323551,0.00000000,0.00000000,0.03090546,2.16653800,0.15632692,-0.26278806,-2.87979317,0.00000000,0.00000000
-0.36581376,-2.17000008,-0.14729978,-0.00992135,-0.66679001,0.00000000,0.00000000,0.04098249,2.16838074,0.16894673,-0.25065318,-2.87979317,0.00000000,0.00000000
-0.36785352,-2.17000008,-0.14432411,-0.01213248,-0.69788790,0.00000000,0.00000000,0.04743172,2.16963077,0.18346350,-0.23582211,-2.87979317,0.00000000,0.00000000
-0.36904800,-2.17000008,-0.14104676,-0.01139663,-0.72141284,0.00000000,0.00000000,0.05024588,2.16997814,0.19974993,-0.21907128,-2.87979317,0.00000000,0.00000000
-0.36972612,-2.17000008,-0.13746706,-0.00815363,-0.75042647,0.00000000,0.00000000,0.04961995,2.17000008,0.21761724,-0.20148648,-2.87979317,0.00000000,0.00000000
-0.36978498,-2.17000008,-0.13358425,-0.00301139,-0.77496827,0.00000000,0.00000000,0.04597118,2.17000008,0.23684154,-0.18418096,-2.87979317,0.00000000,0.00000000
-0.37121356,-2.17000008,-0.12940757,0.00240558,-0.79591179,0.00000000,0.00000000,0.04009107,2.17000008,0.25717312,-0.16794971,-2.87979317,0.00000000,0.00000000
-0.37339488,-2.17000008,-0.12493694,0.00763243,-0.81311387,0.00000000,0.00000000,0.03251031,2.17000008,0.27841389,-0.15341082,-2.87979317,0.00000000,0.00000000
-0.37617120,-2.17000008,-0.12017070,0.01293326,-0.82603258,0.00000000,0.00000000,0.02451055,2.17000008,0.30033281,-0.14088209,-2.87979317,0.00000000,0.00000000
-0.37907150,-2.17000008,-0.11511316,0.01892236,-0.83332491,0.00000000,0.00000000,0.01904741,2.17000008,0.32264787,-0.12956952,-2.87979317,0.00000000,0.00000000
-0.38252115,-2.17000008,-0.10976493,0.02651059,-0.83970106,0.00000000,0.00000000,0.01657384,2.17000008,0.34539309,-0.11791977,-2.87979317,0.00000000,0.00000000
-0.38737816,-2.17000008,-0.10412595,0.03620455,-0.85002893,0.00000000,0.00000000,0.01512992,2.16999865,0.36871746,-0.10571782,-2.87979317,0.00000000,0.00000000
-0.39377323,-2.17000008,-0.09821272,0.04779878,-0.85595870,0.00000000,0.00000000,0.01468781,2.16995406,0.39258298,-0.09277211,-2.87979317,0.00000000,0.00000000
-0.40103397,-2.17000008,-0.09207442,0.06082900,-0.85520244,0.00000000,0.00000000,0.01590535,2.16948175,0.41691503,-0.07873414,-2.87979317,0.00000000,0.00000000
-0.40788314,-2.17000008,-0.08580655,0.07478310,-0.85340023,0.00000000,0.00000000,0.01892170,2.16777730,0.44168425,-0.06341546,-2.87979317,0.00000000,0.00000000
-0.41272107,-2.17000008,-0.07955457,0.08910578,-0.85216624,0.00000000,0.00000000,0.02373104,2.16456199,0.46686921,-0.04681246,-2.87979317,0.00000000,0.00000000
-0.41386539,-2.17000008,-0.07350664,0.10318923,-0.84862971,0.00000000,0.00000000,0.03042747,2.15961957,0.49243972,-0.02904883,-2.87979317,0.00000000,0.00000000
-0.40973315,-2.17000008,-0.06787554,0.11636312,-0.84393430,0.00000000,0.00000000,0.03917988,2.15256357,0.51836073,-0.01030587,-2.87863684,0.00000000,0.00000000
-0.39905819,-2.17000008,-0.06286900,0.12790507,-0.84001243,0.00000000,0.00000000,0.05012156,2.14300656,0.54459763,0.00924036,-2.85248470,0.00000000,0.00000000
-0.38116759,-2.17000008,-0.05864885,0.13702254,-0.83903432,0.00000000,0.00000000,0.06324746,2.13066506,0.57111359,0.02942751,-2.82713509,0.00000000,0.00000000
-0.35635278,-2.17000008,-0.05527805,0.14286341,-0.83673072,0.00000000,0.00000000,0.07837994,2.11553454,0.59785759,0.05014449,-2.80121922,0.00000000,0.00000000
-0.32612526,-2.17000008,-0.05267607,0.14467527,-0.83881640,0.00000000,0.00000000,0.09498908,2.09838915,0.62473369,0.07146276,-2.77971745,0.00000000,0.00000000
-0.29260844,-2.17000008,-0.05065614,0.14210154,-0.84249568,0.00000000,0.00000000,0.11184938,2.08102274,0.65156049,0.09358380,-2.75825429,0.00000000,0.00000000
-0.25745618,-2.17000008,-0.04902597,0.13522409,-0.84606647,0.00000000,0.00000000,0.12796980,2.06567287,0.67810220,0.11682700,-2.73240304,0.00000000,0.00000000
-0.22185530,-2.17000008,-0.04760950,0.12433066,-0.84863150,0.00000000,0.00000000,0.14333504,2.05400538,0.70413792,0.14132464,-2.70631552,0.00000000,0.00000000
-0.18685696,-2.17000008,-0.04623486,0.10990688,-0.85992128,0.00000000,0.00000000,0.15719457,2.04573393,0.72945839,0.16584308,-2.68828273,0.00000000,0.00000000
-0.15324129,-2.17000008,-0.04475185,0.09280620,-0.85699308,0.00000000,0.00000000,0.16938126,2.04005551,0.75393128,0.18926485,-2.67886353,0.00000000,0.00000000
-0.12145674,-2.17000008,-0.04304008,0.07422619,-0.86017060,0.00000000,0.00000000,0.18027873,2.03705525,0.77743691,0.21136402,-2.66907048,0.00000000,0.00000000
-0.09170108,-2.17000008,-0.04100461,0.05561490,-0.86818635,0.00000000,0.00000000,0.19004931,2.03742170,0.79980850,0.23234059,-2.65751076,0.00000000,0.00000000
-0.06420677,-2.17000008,-0.03856551,0.03853167,-0.87487048,0.00000000,0.00000000,0.19856526,2.04186440,0.82085401,0.25251818,-2.64357567,0.00000000,0.00000000
-0.03965700,-2.17000008,-0.03565151,0.02441484,-0.87709582,0.00000000,0.00000000,0.20635182,2.05036736,0.84053904,0.27249184,-2.63135362,0.00000000,0.00000000
-0.01911374,-2.17000008,-0.03220806,0.01437902,-0.87146771,0.00000000,0.00000000,0.21523273,2.06145525,0.85917592,0.29309940,-2.62554526,0.00000000,0.00000000
-0.00320578,-2.17000008,-0.02820578,0.00918455,-0.86922270,0.00000000,0.00000000,0.22622682,2.07339883,0.87706172,0.31476739,-2.62164402,0.00000000,0.00000000
0.00831745,-2.17000008,-0.02363280,0.00918131,-0.87126988,0.00000000,0.00000000,0.23818566,2.08547688,0.89412427,0.33726132,-2.61619878,0.00000000,0.00000000
0.01624518,-2.17000008,-0.01848636,0.01421420,-0.87027115,0.00000000,0.00000000,0.24998343,2.09721637,0.91024911,0.36026001,-2.60375476,0.00000000,0.00000000
0.02136465,-2.17000008,-0.01277368,0.02367376,-0.87088948,0.00000000,0.00000000,0.26130790,2.10819244,0.92539620,0.38364729,-2.58995271,0.00000000,0.00000000
0.02421251,-2.17000008,-0.00651476,0.03665951,-0.87196857,0.00000000,0.00000000,0.27205727,2.11822915,0.93949288,0.40734044,-2.57841945,0.00000000,0.00000000
0.02501950,-2.17000008,0.00025905,0.05211560,-0.87097275,0.00000000,0.00000000,0.28198385,2.12739229,0.95238060,0.43113145,-2.57207775,0.00000000,0.00000000
0.02371218,-2.17000008,0.00751165,0.06888746,-0.86862922,0.00000000,0.00000000,0.29055783,2.13601303,0.96378046,0.45464712,-2.56334949,0.00000000,0.00000000
0.01996719,-2.17000008,0.01521026,0.08572005,-0.86407584,0.00000000,0.00000000,0.29693630,2.14455986,0.97331041,0.47729388,-2.55662727,0.00000000,0.00000000
0.01363719,-2.17000008,0.02331017,0.10145894,-0.85949367,0.00000000,0.00000000,0.30012566,2.15290189,0.98068160,0.49802959,-2.54595137,0.00000000,0.00000000
0.00519811,-2.17000008,0.03173185,0.11528271,-0.84994912,0.00000000,0.00000000,0.29934350,2.16009784,0.98583531,0.51554626,-2.52743793,0.00000000,0.00000000
-0.00503832,-2.17000008,0.04041307,0.12609492,-0.84170234,0.00000000,0.00000000,0.29437992,2.16569328,0.98884577,0.52910525,-2.50531960,0.00000000,0.00000000
-0.01648163,-2.17000008,0.04928173,0.13287333,-0.83353227,0.00000000,0.00000000,0.28549483,2.16904402,0.99035800,0.53760940,-2.48448467,0.00000000,0.00000000
-0.02793826,-2.17000008,0.05823167,0.13515529,-0.82804155,0.00000000,0.00000000,0.27352932,2.16994381,0.99172693,0.53971767,-2.46403790,0.00000000,0.00000000
-0.03778676,-2.17000008,0.06713331,0.13334793,-0.81940341,0.00000000,0.00000000,0.25949207,2.17000008,0.99421036,0.53486514,-2.44155812,0.00000000,0.00000000
-0.04464063,-2.17000008,0.07588568,0.12889524,-0.81597710,0.00000000,0.00000000,0.24443746,2.17000008,0.99875039,0.52323663,-2.42250347,0.00000000,0.00000000
-0.04813855,-2.17000008,0.08447272,0.12424897,-0.80589253,0.00000000,0.00000000,0.22822702,2.16989398,1.00557995,0.50506848,-2.40078139,0.00000000,0.00000000
-0.04917095,-2.17000008,0.09296834,0.12204899,-0.80178517,0.00000000,0.00000000,0.20907441,2.16820812,1.01384211,0.48067161,-2.37621236,0.00000000,0.00000000
-0.04969143,-2.17000008,0.10151523,0.12375784,-0.79709262,0.00000000,0.00000000,0.18600793,2.16198564,1.02214432,0.45147282,-2.35501552,0.00000000,0.00000000
-0.05185119,-2.17000008,0.11025957,0.12904803,-0.79029620,0.00000000,0.00000000,0.16126202,2.15162086,1.02981412,0.42007801,-2.33456111,0.00000000,0.00000000
-0.05677557,-2.17000008,0.11924776,0.13717747,-0.78169143,0.00000000,0.00000000,0.13762094,2.13815093,1.03688562,0.38851506,-2.31471777,0.00000000,0.00000000
-0.06431146,-2.17000008,0.12839197,0.14821476,-0.77346331,0.00000000,0.00000000,0.11550236,2.12255049,1.04328287,0.35746607,-2.29493284,0.00000000,0.00000000
-0.07339158,-2.17000008,0.13749212,0.16262443,-0.76375937,0.00000000,0.00000000,0.09343878,2.10644221,1.04865825,0.32690072,-2.27869821,0.00000000,0.00000000
-0.08247643,-2.17000008,0.14626835,0.18048577,-0.75809848,0.00000000,0.00000000,0.06989317,2.09155130,1.05271900,0.29678220,-2.26584911,0.00000000,0.00000000
-0.08993853,-2.17000008,0.15439562,0.20107934,-0.75005978,0.00000000,0.00000000,0.04454218,2.07900572,1.05545413,0.26744741,-2.24314499,0.00000000,0.00000000
-0.09435019,-2.17000008,0.16154329,0.22287031,-0.74544662,0.00000000,0.00000000,0.01885306,2.06907821,1.05715454,0.23982348,-2.21497440,0.00000000,0.00000000
-0.09470794,-2.17000008,0.16742143,0.24390410,-0.73401189,0.00000000,0.00000000,-0.00423085,2.06138492,1.05828822,0.21538521,-2.19426680,0.00000000,0.00000000
-0.09054543,-2.17000008,0.17181802,0.26242667,-0.72086865,0.00000000,0.00000000,-0.02175707,2.05541754,1.05928540,0.19563407,-2.18047929,0.00000000,0.00000000
-0.08191516,-2.17000008,0.17461789,0.27720848,-0.70434934,0.00000000,0.00000000,-0.03187445,2.05087304,1.06042790,0.18163301,-2.16648245,0.00000000,0.00000000
-0.06918564,-2.17000008,0.17578666,0.28752393,-0.69134891,0.00000000,0.00000000,-0.03380498,2.04760122,1.06187427,0.17394704,-2.15125036,0.00000000,0.00000000
-0.05271690,-2.17000008,0.17532071,0.29304126,-0.67902225,0.00000000,0.00000000,-0.02757259,2.04550028,1.06369936,0.17266776,-2.13635755,0.00000000,0.00000000
-0.03275023,-2.17000008,0.17322940,0.29368424,-0.66975969,0.00000000,0.00000000,-0.01378156,2.04444265,1.06591570,0.17743708,-2.11839414,0.00000000,0.00000000
-0.00968316,-2.17000008,0.16958538,0.28956339,-0.65987223,0.00000000,0.00000000,0.00673878,2.04433203,1.06848693,0.18761933,-2.10081863,0.00000000,0.00000000
0.01572589,-2.17000008,0.16455708,0.28101361,-0.64553773,0.00000000,0.00000000,0.03300870,2.04529548,1.07131314,0.20243084,-2.08803296,0.00000000,0.00000000
0.04239905,-2.17000008,0.15838926,0.26867804,-0.63156551,0.00000000,0.00000000,0.06365816,2.04771233,1.07420981,0.22090198,-2.07391143,0.00000000,0.00000000
0.06916954,-2.17000008,0.15134263,0.25368440,-0.61936653,0.00000000,0.00000000,0.09672982,2.05204916,1.07690358,0.24180290,-2.05530572,0.00000000,0.00000000
0.09505606,-2.17000008,0.14363654,0.23761912,-0.61028457,0.00000000,0.00000000,0.13011703,2.05847859,1.07910180,0.26378360,-2.03496099,0.00000000,0.00000000
0.11933847,-2.17000008,0.13544577,0.22205830,-0.60364377,0.00000000,0.00000000,0.16240437,2.06654882,1.08061385,0.28569773,-2.01389933,0.00000000,0.00000000
0.14146325,-2.17000008,0.12692621,0.20801288,-0.60193980,0.00000000,0.00000000,0.19298185,2.07545829,1.08135569,0.30673924,-1.99248421,0.00000000,0.00000000
0.16091749,-2.17000008,0.11823208,0.19573174,-0.59706169,0.00000000,0.00000000,0.22152483,2.08459973,1.08125162,0.32636672,-1.97038019,0.00000000,0.00000000
0.17719607,-2.17000008,0.10951068,0.18488191,-0.59181958,0.00000000,0.00000000,0.24777554,2.09377575,1.08017921,0.34431294,-1.94741225,0.00000000,0.00000000
0.18989612,-2.17000008,0.10088145,0.17489685,-0.58595771,0.00000000,0.00000000,0.27167454,2.10313725,1.07797813,0.36068875,-1.93105733,0.00000000,0.00000000
0.19877668,-2.17000008,0.09242566,0.16523971,-0.58498836,0.00000000,0.00000000,0.29310936,2.11296678,1.07445145,0.37574047,-1.91117978,0.00000000,0.00000000
0.20365432,-2.17000008,0.08419932,0.15549786,-0.58109927,0.00000000,0.00000000,0.31157938,2.12338066,1.06938267,0.38939846,-1.89140975,0.00000000,0.00000000
0.20433773,-2.17000008,0.07624355,0.14538151,-0.58254892,0.00000000,0.00000000,0.32625988,2.13409615,1.06259322,0.40108991,-1.87141919,0.00000000,0.00000000
0.20072824,-2.17000008,0.06858031,0.13470240,-0.57867694,0.00000000,0.00000000,0.33617485,2.14436984,1.05398726,0.40985528,-1.84742045,0.00000000,0.00000000
0.19290824,-2.17000008,0.06121203,0.12333132,-0.58195972,0.00000000,0.00000000,0.34045205,2.15335035,1.04352260,0.41478464,-1.82928121,0.00000000,0.00000000
0.18103051,-2.17000008,0.05413760,0.11110622,-0.57972199,0.00000000,0.00000000,0.33857855,2.16050887,1.03116250,0.41542995,-1.81587398,0.00000000,0.00000000
0.16517623,-2.17000008,0.04736493,0.09777951,-0.58200639,0.00000000,0.00000000,0.33040509,2.16566658,1.01688778,0.41182512,-1.79941356,0.00000000,0.00000000
0.14548850,-2.17000008,0.04089997,0.08314416,-0.59201068,0.00000000,0.00000000,0.31624201,2.16872358,1.00082815,0.40431410,-1.78628647,0.00000000,0.00000000
0.12271868,-2.17000008,0.03471822,0.06744643,-0.60277474,0.00000000,0.00000000,0.29731569,2.16981316,0.98351908,0.39336756,-1.77337480,0.00000000,0.00000000
0.09814896,-2.17000008,0.02877665,0.05135318,-0.61444139,0.00000000,0.00000000,0.27559993,2.16999102,0.96581048,0.37954235,-1.75658190,0.00000000,0.00000000
0.07269461,-2.17000008,0.02306815,0.03532814,-0.62338185,0.00000000,0.00000000,0.25281879,2.17000008,0.94841236,0.36345971,-1.74060106,0.00000000,0.00000000
0.04822340,-2.17000008,0.01757516,0.02082298,-0.63148469,0.00000000,0.00000000,0.23153657,2.17000008,0.93240207,0.34546244,-1.71997130,0.00000000,0.00000000
0.02631979,-2.17000008,0.01230447,0.00937543,-0.63876110,0.00000000,0.00000000,0.21402462,2.17000008,0.91867906,0.32575491,-1.70649385,0.00000000,0.00000000
0.00756225,-2.17000008,0.00728655,0.00206536,-0.64796066,0.00000000,0.00000000,0.20143937,2.17000008,0.90761119,0.30453923,-1.69393981,0.00000000,0.00000000
-0.00833813,-2.17000008,0.00254501,-0.00061967,-0.66156292,0.00000000,0.00000000,0.19368504,2.16991353,0.89904559,0.28208596,-1.68056750,0.00000000,0.00000000
-0.02228437,-2.17000008,-0.00191927,0.00103743,-0.67692894,0.00000000,0.00000000,0.18945962,2.16852570,0.89237374,0.25894955,-1.66401148,0.00000000,0.00000000
-0.03523638,-2.17000008,-0.00612875,0.00620613,-0.69183218,0.00000000,0.00000000,0.18682985,2.16327477,0.88677967,0.23607087,-1.64897060,0.00000000,0.00000000
-0.04773238,-2.17000008,-0.01012342,0.01388612,-0.70282376,0.00000000,0.00000000,0.18442939,2.15442348,0.88166523,0.21451382,-1.63238704,0.00000000,0.00000000
-0.05993498,-2.17000008,-0.01395637,0.02298309,-0.71591240,0.00000000,0.00000000,0.18191177,2.14369774,0.87678719,0.19518885,-1.61166215,0.00000000,0.00000000
-0.07176846,-2.17000008,-0.01769143,0.03235848,-0.72156197,0.00000000,0.00000000,0.17928478,2.13267469,0.87207353,0.17881694,-1.59759843,0.00000000,0.00000000
-0.08302068,-2.17000008,-0.02139960,0.04099409,-0.72936612,0.00000000,0.00000000,0.17644022,2.12275982,0.86748749,0.16599597,-1.58430946,0.00000000,0.00000000
-0.09341475,-2.17000008,-0.02515450,0.04805379,-0.73974878,0.00000000,0.00000000,0.17310019,2.11515641,0.86299884,0.15718694,-1.57183397,0.00000000,0.00000000
-0.10258707,-2.17000008,-0.02902801,0.05286947,-0.75129157,0.00000000,0.00000000,0.16922842,2.11057305,0.85861433,0.15277539,-1.55893087,0.00000000,0.00000000
-0.11026239,-2.17000008,-0.03307879,0.05514114,-0.76095510,0.00000000,0.00000000,0.16552861,2.10944581,0.85437602,0.15338366,-1.54716957,0.00000000,0.00000000
-0.11608109,-2.17000008,-0.03735236,0.05485979,-0.76900411,0.00000000,0.00000000,0.16239364,2.11194229,0.85028857,0.15935066,-1.53636074,0.00000000,0.00000000
-0.11979926,-2.17000008,-0.04187184,0.05214709,-0.77706993,0.00000000,0.00000000,0.15992978,2.11764956,0.84634656,0.17059243,-1.53418612,0.00000000,0.00000000
-0.12134290,-2.17000008,-0.04663581,0.04715207,-0.78280616,0.00000000,0.00000000,0.15795645,2.12580681,0.84252530,0.18668482,-1.53397584,0.00000000,0.00000000
-0.12081293,-2.17000008,-0.05162000,0.03998646,-0.79368103,0.00000000,0.00000000,0.15619442,2.13561702,0.83877611,0.20707557,-1.52952206,0.00000000,0.00000000
-0.11855360,-2.17000008,-0.05677903,0.03070133,-0.80722231,0.00000000,0.00000000,0.15451701,2.14614272,0.83505702,0.23117015,-1.52763259,0.00000000,0.00000000
-0.11511914,-2.17000008,-0.06205240,0.01928226,-0.82125658,0.00000000,0.00000000,0.15304245,2.15615320,0.83136332,0.25832042,-1.51900089,0.00000000,0.00000000
-0.11111134,-2.17000008,-0.06737238,0.00570281,-0.83209646,0.00000000,0.00000000,0.15225774,2.16417885,0.82777798,0.28776374,-1.51341283,0.00000000,0.00000000
-0.10685983,-2.17000008,-0.07266914,-0.00980795,-0.83818102,0.00000000,0.00000000,0.15278080,2.16875029,0.82463884,0.31787154,-1.50627744,0.00000000,0.00000000
-0.10213715,-2.17000008,-0.07786956,-0.02637039,-0.84442699,0.00000000,0.00000000,0.15471657,2.16992760,0.82260394,0.34566486,-1.49893272,0.00000000,0.00000000
-0.09644678,-2.17000008,-0.08289727,-0.04264538,-0.85609311,0.00000000,0.00000000,0.15823483,2.17000008,0.82229435,0.36874256,-1.49331760,0.00000000,0.00000000
-0.08956612,-2.17000008,-0.08768556,-0.05739900,-0.86281151,0.00000000,0.00000000,0.16369621,2.17000008,0.82410997,0.38580558,-1.48266125,0.00000000,0.00000000
-0.08168398,-2.17000008,-0.09219182,-0.06979295,-0.86954564,0.00000000,0.00000000,0.17107525,2.17000008,0.82817191,0.39613169,-1.47097111,0.00000000,0.00000000
-0.07323512,-2.17000008,-0.09640045,-0.07937098,-0.86945164,0.00000000,0.00000000,0.17988841,2.17000008,0.83434123,0.39941123,-1.46085429,0.00000000,0.00000000
-0.06476396,-2.17000008,-0.10031779,-0.08604451,-0.86537713,0.00000000,0.00000000,0.18925209,2.16994023,0.84225869,0.39570698,-1.44691420,0.00000000,0.00000000
-0.05693027,-2.17000008,-0.10396749,-0.09014789,-0.85602421,0.00000000,0.00000000,0.19785671,2.16895819,0.85136694,0.38542679,-1.43037534,0.00000000,0.00000000
-0.05044678,-2.17000008,-0.10738288,-0.09233997,-0.84047270,0.00000000,0.00000000,0.20451339,2.16498303,0.86093313,0.36984602,-1.41351664,0.00000000,0.00000000
-0.04564036,-2.17000008,-0.11058378,-0.09310856,-0.82601750,0.00000000,0.00000000,0.20899768,2.15786695,0.87018377,0.35165653,-1.39340246,0.00000000,0.00000000
-0.04207733,-2.17000008,-0.11355729,-0.09238794,-0.80970293,0.00000000,0.00000000,0.21155091,2.14956188,0.87870169,0.33338028,-1.37594557,0.00000000,0.00000000
-0.03892671,-2.17000008,-0.11627445,-0.08993533,-0.79645628,0.00000000,0.00000000,0.21241932,2.14135265,0.88644189,0.31639633,-1.35751188,0.00000000,0.00000000
-0.03550718,-2.17000008,-0.11871772,-0.08575603,-0.78565240,0.00000000,0.00000000,0.21188848,2.13406491,0.89344257,0.30157825,-1.33849180,0.00000000,0.00000000
-0.03144095,-2.17000008,-0.12088982,-0.08012092,-0.76720500,0.00000000,0.00000000,0.21019454,2.12849712,0.89972150,0.28956798,-1.31623530,0.00000000,0.00000000
-0.02664995,-2.17000008,-0.12281285,-0.07350811,-0.74783039,0.00000000,0.00000000,0.20748965,2.12513661,0.90530938,0.28060773,-1.29455042,0.00000000,0.00000000
-0.02134772,-2.17000008,-0.12452491,-0.06653795,-0.73273861,0.00000000,0.00000000,0.20384978,2.12403536,0.91025972,0.27449095,-1.27485585,0.00000000,0.00000000
-0.01598436,-2.17000008,-0.12607425,-0.05984897,-0.71502185,0.00000000,0.00000000,0.19925261,2.12500095,0.91462129,0.27071381,-1.26233900,0.00000000,0.00000000
-0.01114322,-2.17000008,-0.12751134,-0.05400699,-0.69578832,0.00000000,0.00000000,0.19355793,2.12773442,0.91842419,0.26862121,-1.25273502,0.00000000,0.00000000
-0.00737501,-2.17000008,-0.12888043,-0.04942828,-0.67876059,0.00000000,0.00000000,0.18655565,2.13176250,0.92170167,0.26749167,-1.24007344,0.00000000,0.00000000
-0.00504750,-2.17000008,-0.13021466,-0.04629345,-0.66244966,0.00000000,0.00000000,0.17810617,2.13658452,0.92449516,0.26675788,-1.22855246,0.00000000,0.00000000
-0.00428997,-2.17000008,-0.13153550,-0.04453462,-0.64533544,0.00000000,0.00000000,0.16830738,2.14183760,0.92685640,0.26620325,-1.21632564,0.00000000,0.00000000
-0.00500475,-2.17000008,-0.13285436,-0.04389299,-0.62088203,0.00000000,0.00000000,0.15750962,2.14728069,0.92885226,0.26595113,-1.20794988,0.00000000,0.00000000
-0.00691637,-2.17000008,-0.13417460,-0.04400640,-0.60254103,0.00000000,0.00000000,0.14622475,2.15271068,0.93056422,0.26634797,-1.19755423,0.00000000,0.00000000
-0.00964071,-2.17000008,-0.13549405,-0.04450019,-0.58547610,0.00000000,0.00000000,0.13501421,2.15789270,0.93208098,0.26783016,-1.18480062,0.00000000,0.00000000
-0.01276407,-2.17000008,-0.13680750,-0.04507495,-0.57168001,0.00000000,0.00000000,0.12438004,2.16252041,0.93348700,0.27079314,-1.16815853,0.00000000,0.00000000
-0.01592138,-2.17000008,-0.13810925,-0.04557480,-0.56124926,0.00000000,0.00000000,0.11476321,2.16625237,0.93486732,0.27549043,-1.15495741,0.00000000,0.00000000
-0.01882479,-2.17000008,-0.13939501,-0.04596719,-0.55585164,0.00000000,0.00000000,0.10669287,2.16874361,0.93638337,0.28185737,-1.14565015,0.00000000,0.00000000
-0.02121922,-2.17000008,-0.14066194,-0.04623093,-0.54689282,0.00000000,0.00000000,0.10069221,2.16978502,0.93834066,0.28924450,-1.13980603,0.00000000,0.00000000
-0.02286300,-2.17000008,-0.14190902,-0.04631196,-0.53698063,0.00000000,0.00000000,0.09697728,2.16998887,0.94104862,0.29669344,-1.13812232,0.00000000,0.00000000
-0.02360431,-2.17000008,-0.14313881,-0.04620378,-0.53222865,0.00000000,0.00000000,0.09572369,2.17000008,0.94469434,0.30358434,-1.13347983,0.00000000,0.00000000
-0.02345286,-2.17000008,-0.14435868,-0.04601796,-0.52781469,0.00000000,0.00000000,0.09708377,2.16999698,0.94930893,0.30972189,-1.13048768,0.00000000,0.00000000
-0.02259582,-2.17000008,-0.14557980,-0.04600361,-0.51943958,0.00000000,0.00000000,0.10085521,2.16991329,0.95472455,0.31514141,-1.13171077,0.00000000,0.00000000
-0.02138434,-2.17000008,-0.14681548,-0.04652711,-0.50367659,0.00000000,0.00000000,0.10638135,2.16917753,0.96056694,0.32003409,-1.14035535,0.00000000,0.00000000
-0.02022409,-2.17000008,-0.14807795,-0.04793495,-0.49083886,0.00000000,0.00000000,0.11278450,2.16688323,0.96636462,0.32466090,-1.14682734,0.00000000,0.00000000
-0.01937056,-2.17000008,-0.14937323,-0.05037123,-0.47933769,0.00000000,0.00000000,0.11931600,2.16342902,0.97173536,0.32917911,-1.15370655,0.00000000,0.00000000
-0.01886750,-2.17000008,-0.15069887,-0.05379480,-0.46983543,0.00000000,0.00000000,0.12549667,2.15946269,0.97645950,0.33358815,-1.15351760,0.00000000,0.00000000
-0.01861237,-2.17000008,-0.15204495,-0.05807587,-0.46032968,0.00000000,0.00000000,0.13103934,2.15530157,0.98042625,0.33780095,-1.15435326,0.00000000,0.00000000
-0.01843677,-2.17000008,-0.15339629,-0.06302603,-0.45147684,0.00000000,0.00000000,0.13575549,2.15104723,0.98357785,0.34169316,-1.15777838,0.00000000,0.00000000
-0.01816483,-2.17000008,-0.15473501,-0.06838129,-0.44716471,0.00000000,0.00000000,0.13950723,2.14669824,0.98588222,0.34511611,-1.16675544,0.00000000,0.00000000
-0.01766488,-2.17000008,-0.15604337,-0.07382725,-0.44864511,0.00000000,0.00000000,0.14217225,2.14228702,0.98730463,0.34792510,-1.18058300,0.00000000,0.00000000
-0.01688698,-2.17000008,-0.15730652,-0.07905208,-0.45688742,0.00000000,0.00000000,0.14364652,2.13796449,0.98779351,0.35002357,-1.19635284,0.00000000,0.00000000
-0.01586830,-2.17000008,-0.15851420,-0.08379145,-0.46292591,0.00000000,0.00000000,0.14388157,2.13400483,0.98728406,0.35140455,-1.21167350,0.00000000,0.00000000
-0.01470533,-2.17000008,-0.15966077,-0.08783685,-0.46176037,0.00000000,0.00000000,0.14293756,2.13071370,0.98572236,0.35215503,-1.22905362,0.00000000,0.00000000
-0.01350747,-2.17000008,-0.16074389,-0.09102502,-0.46457094,0.00000000,0.00000000,0.14100432,2.12828732,0.98309553,0.35240760,-1.24916589,0.00000000,0.00000000
-0.01237106,-2.17000008,-0.16176319,-0.09324584,-0.46749118,0.00000000,0.00000000,0.13835543,2.12674642,0.97943860,0.35226956,-1.26964104,0.00000000,0.00000000
-0.01139701,-2.17000008,-0.16272062,-0.09447977,-0.46947536,0.00000000,0.00000000,0.13527307,2.12596846,0.97481984,0.35178038,-1.28541303,0.00000000,0.00000000
-0.01071579,-2.17000008,-0.16362101,-0.09483674,-0.47550115,0.00000000,0.00000000,0.13198870,2.12576032,0.96931857,0.35090920,-1.29585338,0.00000000,0.00000000
-0.01047201,-2.17000008,-0.16447070,-0.09456068,-0.48350972,0.00000000,0.00000000,0.12866125,2.12589931,0.96301317,0.34957203,-1.30478132,0.00000000,0.00000000
-0.01076396,-2.17000008,-0.16527417,-0.09396290,-0.49501941,0.00000000,0.00000000,0.12541091,2.12608576,0.95599413,0.34764180,-1.31531918,0.00000000,0.00000000
-0.01160181,-2.17000008,-0.16603152,-0.09335210,-0.51208097,0.00000000,0.00000000,0.12234475,2.12592030,0.94837159,0.34495696,-1.32382798,0.00000000,0.00000000
-0.01290800,-2.17000008,-0.16673787,-0.09301336,-0.52998722,0.00000000,0.00000000,0.11953771,2.12499452,0.94025946,0.34135333,-1.33485901,0.00000000,0.00000000
-0.01452553,-2.17000008,-0.16738296,-0.09319837,-0.55420530,0.00000000,0.00000000,0.11702597,2.12302232,0.93175280,0.33671966,-1.34902740,0.00000000,0.00000000
-0.01622107,-2.17000008,-0.16795085,-0.09409519,-0.57742047,0.00000000,0.00000000,0.11485277,2.11988902,0.92292523,0.33105054,-1.36285436,0.00000000,0.00000000
-0.01770574,-2.17000008,-0.16842084,-0.09580196,-0.60159642,0.00000000,0.00000000,0.11311171,2.11561131,0.91383976,0.32445821,-1.38010871,0.00000000,0.00000000
-0.01869003,-2.17000008,-0.16877015,-0.09832717,-0.62419832,0.00000000,0.00000000,0.11194111,2.11026263,0.90455747,0.31713119,-1.39612937,0.00000000,0.00000000
-0.01895670,-2.17000008,-0.16897821,-0.10160615,-0.64744616,0.00000000,0.00000000,0.11149827,2.10392094,0.89513981,0.30927488,-1.40591705,0.00000000,0.00000000
-0.01840996,-2.17000008,-0.16902989,-0.10552111,-0.66593057,0.00000000,0.00000000,0.11192984,2.09665871,0.88564318,0.30107206,-1.41690361,0.00000000,0.00000000
-0.01708104,-2.17000008,-0.16891691,-0.10991157,-0.68908221,0.00000000,0.00000000,0.11335058,2.08854413,0.87611508,0.29266810,-1.42913330,0.00000000,0.00000000
-0.01511023,-2.17000008,-0.16863842,-0.11456796,-0.70960212,0.00000000,0.00000000,0.11584546,2.07965946,0.86659306,0.28418845,-1.44194150,0.00000000,0.00000000
-0.01273477,-2.17000008,-0.16820218,-0.11924000,-0.72660404,0.00000000,0.00000000,0.11945970,2.07018399,0.85709333,0.27578372,-1.46248817,0.00000000,0.00000000
-0.01027335,-2.17000008,-0.16762447,-0.12367264,-0.74711394,0.00000000,0.00000000,0.12414216,2.06045818,0.84759629,0.26764378,-1.48558307,0.00000000,0.00000000
-0.00807423,-2.17000008,-0.16692705,-0.12762760,-0.76468068,0.00000000,0.00000000,0.12968843,2.05085778,0.83805275,0.25991267,-1.50934327,0.00000000,0.00000000
-0.00645752,-2.17000008,-0.16613273,-0.13088989,-0.78626621,0.00000000,0.00000000,0.13578807,2.04165411,0.82840562,0.25262558,-1.52310598,0.00000000,0.00000000
-0.00567544,-2.17000008,-0.16526060,-0.13330330,-0.80858892,0.00000000,0.00000000,0.14211425,2.03308368,0.81859773,0.24577385,-1.54168928,0.00000000,0.00000000
-0.00584736,-2.17000008,-0.16431883,-0.13480228,-0.83216232,0.00000000,0.00000000,0.14841749,2.02541900,0.80858219,0.23938359,-1.56287432,0.00000000,0.00000000
-0.00691300,-2.17000008,-0.16329888,-0.13542269,-0.85804415,0.00000000,0.00000000,0.15454923,2.01898026,0.79832739,0.23354183,-1.59097564,0.00000000,0.00000000
-0.00866538,-2.17000008,-0.16217799,-0.13527265,-0.87771648,0.00000000,0.00000000,0.16035207,2.01402879,0.78781718,0.22830597,-1.62146187,0.00000000,0.00000000
-0.01085331,-2.17000008,-0.16092865,-0.13451198,-0.90094078,0.00000000,0.00000000,0.16565245,2.01067972,0.77705318,0.22364150,-1.64792907,0.00000000,0.00000000
-0.01326570,-2.17000008,-0.15952657,-0.13332878,-0.92397058,0.00000000,0.00000000,0.17043844,2.00896621,0.76606083,0.21951680,-1.66995800,0.00000000,0.00000000
-0.01575288,-2.17000008,-0.15795363,-0.13189977,-0.94369227,0.00000000,0.00000000,0.17484304,2.00888705,0.75487727,0.21592805,-1.69275391,0.00000000,0.00000000
-0.01821550,-2.17000008,-0.15619734,-0.13036637,-0.96032482,0.00000000,0.00000000,0.17899033,2.01038194,0.74353409,0.21282889,-1.71619678,0.00000000,0.00000000
-0.02058993,-2.17000008,-0.15424894,-0.12883303,-0.97798705,0.00000000,0.00000000,0.18293141,2.01334429,0.73204863,0.21010517,-1.74012887,0.00000000,0.00000000
-0.02283209,-2.17000008,-0.15210161,-0.12736744,-1.00172293,0.00000000,0.00000000,0.18664868,2.01763988,0.72042382,0.20758820,-1.76542413,0.00000000,0.00000000
-0.02490060,-2.17000008,-0.14974856,-0.12599415,-1.02593815,0.00000000,0.00000000,0.19008709,2.02311349,0.70865417,0.20507842,-1.78849781,0.00000000,0.00000000
-0.02674203,-2.17000008,-0.14718215,-0.12469286,-1.04860878,0.00000000,0.00000000,0.19320500,2.02959275,0.69673526,0.20237927,-1.80819941,0.00000000,0.00000000
-0.02828277,-2.17000008,-0.14439330,-0.12341212,-1.06854534,0.00000000,0.00000000,0.19603318,2.03689837,0.68467379,0.19933735,-1.82402575,0.00000000,0.00000000
-0.02942652,-2.17000008,-0.14137170,-0.12209589,-1.09000552,0.00000000,0.00000000,0.19872060,2.04486871,0.67249244,0.19588010,-1.83943987,0.00000000,0.00000000
-0.03005598,-2.17000008,-0.13810579,-0.12071077,-1.11233902,0.00000000,0.00000000,0.20155244,2.05338478,0.66023034,0.19203983,-1.85769403,0.00000000,0.00000000
-0.03004654,-2.17000008,-0.13458392,-0.11925474,-1.13104880,0.00000000,0.00000000,0.20493753,2.06237340,0.64793998,0.18795340,-1.87293291,0.00000000,0.00000000
-0.02930654,-2.17000008,-0.13079822,-0.11773575,-1.14708781,0.00000000,0.00000000,0.20935938,2.07179117,0.63568401,0.18383466,-1.88756967,0.00000000,0.00000000
-0.02783866,-2.17000008,-0.12675069,-0.11613057,-1.16485608,0.00000000,0.00000000,0.21528436,2.08160067,0.62352759,0.17992683,-1.89760661,0.00000000,0.00000000
-0.02578064,-2.17000008,-0.12245688,-0.11434475,-1.18294430,0.00000000,0.00000000,0.22305335,2.09174752,0.61152875,0.17645320,-1.90169740,0.00000000,0.00000000
-0.02337318,-2.17000008,-0.11794333,-0.11219186,-1.19461441,0.00000000,0.00000000,0.23280710,2.10213518,0.59973228,0.17358358,-1.90439689,0.00000000,0.00000000
-0.02087857,-2.17000008,-0.11324045,-0.10940064,-1.20502353,0.00000000,0.00000000,0.24445440,2.11261559,0.58816659,0.17142642,-1.90635216,0.00000000,0.00000000
