isaac-sim2real/sage/motion_files/wr75s/amass/0-Eyes_Japan_Dataset_kudo_walk-05-backward-kudo_poses_idx62.txt
l_joint1,l_joint2,l_joint3,l_joint4,l_joint5,l_joint6,l_joint7,r_joint1,r_joint2,r_joint3,r_joint4,r_joint5,r_joint6,r_joint7
-0.47327781,-1.20181859,0.25802490,0.60247290,-0.11114497,0.00000000,0.00000000,-1.41234767,0.92118639,-0.59556556,0.22397302,-0.15190077,0.00000000,0.00000000
-0.47391620,-1.20127666,0.25947496,0.60233504,-0.12445174,0.00000000,0.00000000,-1.41176748,0.91944665,-0.59536302,0.22268924,-0.17135632,0.00000000,0.00000000
-0.47443202,-1.20064390,0.26217097,0.60202706,-0.13676482,0.00000000,0.00000000,-1.41059887,0.91722673,-0.59491014,0.22066903,-0.19254521,0.00000000,0.00000000
-0.47450462,-1.20008123,0.26575384,0.60156703,-0.15233055,0.00000000,0.00000000,-1.40889227,0.91538304,-0.59420758,0.21831852,-0.21269467,0.00000000,0.00000000
-0.47432142,-1.19952607,0.26966184,0.60104144,-0.16422920,0.00000000,0.00000000,-1.40681159,0.91416693,-0.59333384,0.21586914,-0.22961652,0.00000000,0.00000000
-0.47417897,-1.19888949,0.27333537,0.60051590,-0.17378372,0.00000000,0.00000000,-1.40452993,0.91359872,-0.59237999,0.21345864,-0.24455689,0.00000000,0.00000000
-0.47423342,-1.19810319,0.27635026,0.59997511,-0.18337755,0.00000000,0.00000000,-1.40216255,0.91379589,-0.59140390,0.21122226,-0.25649792,0.00000000,0.00000000
-0.47453263,-1.19707644,0.27844265,0.59936655,-0.19396125,0.00000000,0.00000000,-1.39978004,0.91492468,-0.59043658,0.20929541,-0.27121606,0.00000000,0.00000000
-0.47513482,-1.19571066,0.27948403,0.59867811,-0.20709576,0.00000000,0.00000000,-1.39743459,0.91699642,-0.58950156,0.20774807,-0.28877169,0.00000000,0.00000000
-0.47609425,-1.19411469,0.27945617,0.59795094,-0.21773560,0.00000000,0.00000000,-1.39514041,0.91984183,-0.58860683,0.20654555,-0.30278346,0.00000000,0.00000000
-0.47738731,-1.19268072,0.27843431,0.59725845,-0.22729506,0.00000000,0.00000000,-1.39287019,0.92323869,-0.58774078,0.20559402,-0.32006374,0.00000000,0.00000000
-0.47889936,-1.19190001,0.27657020,0.59670049,-0.23946328,0.00000000,0.00000000,-1.39058602,0.92698091,-0.58688438,0.20479684,-0.33766121,0.00000000,0.00000000
-0.48046377,-1.19207847,0.27407911,0.59639466,-0.24820785,0.00000000,0.00000000,-1.38824296,0.93092543,-0.58601379,0.20407477,-0.35856727,0.00000000,0.00000000
-0.48199275,-1.19321609,0.27120873,0.59641904,-0.25388560,0.00000000,0.00000000,-1.38575518,0.93502951,-0.58508450,0.20334941,-0.37634498,0.00000000,0.00000000
-0.48333538,-1.19550622,0.26819152,0.59673846,-0.25660384,0.00000000,0.00000000,-1.38301027,0.93926024,-0.58404160,0.20252289,-0.39834863,0.00000000,0.00000000
-0.48416248,-1.19923532,0.26520792,0.59722644,-0.25580814,0.00000000,0.00000000,-1.37996960,0.94344264,-0.58286774,0.20149854,-0.42689726,0.00000000,0.00000000
-0.48446804,-1.20397139,0.26238641,0.59777391,-0.25490126,0.00000000,0.00000000,-1.37671435,0.94726968,-0.58160067,0.20021456,-0.45552629,0.00000000,0.00000000
-0.48441648,-1.20897698,0.25982460,0.59834576,-0.25231785,0.00000000,0.00000000,-1.37339020,0.95045525,-0.58030283,0.19865775,-0.48194528,0.00000000,0.00000000
-0.48409420,-1.21368897,0.25760061,0.59894842,-0.24767178,0.00000000,0.00000000,-1.37013209,0.95284510,-0.57902771,0.19685966,-0.50471032,0.00000000,0.00000000
-0.48354504,-1.21771336,0.25577739,0.59957826,-0.24460912,0.00000000,0.00000000,-1.36705959,0.95438218,-0.57781917,0.19488560,-0.52552366,0.00000000,0.00000000
-0.48282295,-1.22059453,0.25441265,0.60021150,-0.24443284,0.00000000,0.00000000,-1.36429429,0.95507038,-0.57672042,0.19283746,-0.54516810,0.00000000,0.00000000
-0.48194009,-1.22199118,0.25355414,0.60081911,-0.24048230,0.00000000,0.00000000,-1.36193097,0.95499384,-0.57576245,0.19083916,-0.56444991,0.00000000,0.00000000
-0.48085946,-1.22183990,0.25321022,0.60136473,-0.23096633,0.00000000,0.00000000,-1.36000073,0.95430088,-0.57495064,0.18900202,-0.58411884,0.00000000,0.00000000
-0.47955129,-1.22028601,0.25332907,0.60179830,-0.21889690,0.00000000,0.00000000,-1.35848212,0.95314354,-0.57427067,0.18740164,-0.60318631,0.00000000,0.00000000
-0.47800741,-1.21760070,0.25380859,0.60206485,-0.20596194,0.00000000,0.00000000,-1.35732913,0.95164347,-0.57370055,0.18606895,-0.61623734,0.00000000,0.00000000
-0.47620910,-1.21412504,0.25452229,0.60211712,-0.19510794,0.00000000,0.00000000,-1.35648084,0.94993311,-0.57321209,0.18500304,-0.62631756,0.00000000,0.00000000
-0.47410876,-1.21025884,0.25534207,0.60191464,-0.18029769,0.00000000,0.00000000,-1.35586083,0.94817525,-0.57276982,0.18418774,-0.63125259,0.00000000,0.00000000
-0.47166118,-1.20637393,0.25614560,0.60142142,-0.16313253,0.00000000,0.00000000,-1.35540009,0.94651389,-0.57234043,0.18361060,-0.63712919,0.00000000,0.00000000
-0.46885237,-1.20271587,0.25681695,0.60063368,-0.14617817,0.00000000,0.00000000,-1.35507178,0.94502610,-0.57190686,0.18328369,-0.64052308,0.00000000,0.00000000
-0.46569562,-1.19939554,0.25724369,0.59960783,-0.12571372,0.00000000,0.00000000,-1.35489166,0.94371891,-0.57146841,0.18323481,-0.64394414,0.00000000,0.00000000
-0.46217588,-1.19657707,0.25732827,0.59845924,-0.11024638,0.00000000,0.00000000,-1.35488522,0.94259250,-0.57102650,0.18349467,-0.65078539,0.00000000,0.00000000
-0.45822728,-1.19451809,0.25700027,0.59730750,-0.09009482,0.00000000,0.00000000,-1.35507083,0.94169188,-0.57057649,0.18409839,-0.65363324,0.00000000,0.00000000
-0.45377964,-1.19344366,0.25621134,0.59624428,-0.07045293,0.00000000,0.00000000,-1.35546982,0.94109142,-0.57011151,0.18509261,-0.65287679,0.00000000,0.00000000
-0.44898638,-1.19333053,0.25490847,0.59535992,-0.05076650,0.00000000,0.00000000,-1.35609400,0.94074285,-0.56962323,0.18645924,-0.65108478,0.00000000,0.00000000
-0.44424528,-1.19385803,0.25303757,0.59472734,-0.03300721,0.00000000,0.00000000,-1.35693359,0.94041318,-0.56909925,0.18808436,-0.64636081,0.00000000,0.00000000
-0.43969077,-1.19497108,0.25060189,0.59432912,-0.01317167,0.00000000,0.00000000,-1.35798073,0.93987912,-0.56852561,0.18987280,-0.63555539,0.00000000,0.00000000
-0.43534550,-1.19648969,0.24767917,0.59408975,0.00928186,0.00000000,0.00000000,-1.35921693,0.93904513,-0.56787896,0.19178073,-0.62447447,0.00000000,0.00000000
-0.43118477,-1.19805336,0.24440283,0.59396976,0.03680578,0.00000000,0.00000000,-1.36060858,0.93799841,-0.56712240,0.19382624,-0.61309785,0.00000000,0.00000000
-0.42711273,-1.19952130,0.24091238,0.59399211,0.05892823,0.00000000,0.00000000,-1.36211288,0.93683869,-0.56621444,0.19601735,-0.60175568,0.00000000,0.00000000
-0.42306784,-1.20088935,0.23732534,0.59420097,0.07809097,0.00000000,0.00000000,-1.36368370,0.93551308,-0.56511676,0.19828779,-0.59595728,0.00000000,0.00000000
-0.41905883,-1.20202982,0.23373678,0.59461051,0.09596360,0.00000000,0.00000000,-1.36528075,0.93389744,-0.56379479,0.20054641,-0.59470522,0.00000000,0.00000000
-0.41510171,-1.20280671,0.23021181,0.59517372,0.11187363,0.00000000,0.00000000,-1.36685944,0.93194240,-0.56220913,0.20273159,-0.59130728,0.00000000,0.00000000
-0.41117793,-1.20323992,0.22677530,0.59578395,0.13354857,0.00000000,0.00000000,-1.36836386,0.92971528,-0.56031132,0.20481658,-0.58812028,0.00000000,0.00000000
-0.40728343,-1.20350087,0.22340684,0.59631252,0.15371801,0.00000000,0.00000000,-1.36973488,0.92727172,-0.55805105,0.20676140,-0.58773696,0.00000000,0.00000000
-0.40347210,-1.20370650,0.22006586,0.59669888,0.17343715,0.00000000,0.00000000,-1.37092543,0.92455834,-0.55538690,0.20849515,-0.58282310,0.00000000,0.00000000
-0.39978626,-1.20385730,0.21672721,0.59697294,0.19394724,0.00000000,0.00000000,-1.37189555,0.92153096,-0.55227989,0.20996724,-0.57753575,0.00000000,0.00000000
-0.39617670,-1.20388365,0.21340299,0.59719694,0.21158049,0.00000000,0.00000000,-1.37259543,0.91831863,-0.54868048,0.21119310,-0.56828928,0.00000000,0.00000000
-0.39251447,-1.20374417,0.21013808,0.59739321,0.22655934,0.00000000,0.00000000,-1.37296033,0.91516554,-0.54452759,0.21221091,-0.55935878,0.00000000,0.00000000
-0.38870496,-1.20342958,0.20697530,0.59755087,0.23622483,0.00000000,0.00000000,-1.37292826,0.91220558,-0.53976506,0.21299866,-0.54218042,0.00000000,0.00000000
-0.38474911,-1.20291519,0.20392658,0.59767324,0.23977315,0.00000000,0.00000000,-1.37245286,0.90939403,-0.53434837,0.21346873,-0.51471186,0.00000000,0.00000000
-0.38067681,-1.20217967,0.20098038,0.59777617,0.24248150,0.00000000,0.00000000,-1.37149096,0.90666622,-0.52823400,0.21353757,-0.48665071,0.00000000,0.00000000
-0.37648448,-1.20120013,0.19812375,0.59786409,0.24337688,0.00000000,0.00000000,-1.36999297,0.90405470,-0.52137119,0.21316777,-0.46680933,0.00000000,0.00000000
-0.37212738,-1.19998121,0.19536124,0.59791189,0.23721121,0.00000000,0.00000000,-1.36790502,0.90164608,-0.51370466,0.21234846,-0.45527270,0.00000000,0.00000000
-0.36757335,-1.19854009,0.19269407,0.59789705,0.23576255,0.00000000,0.00000000,-1.36517906,0.89946747,-0.50518268,0.21104984,-0.44524395,0.00000000,0.00000000
-0.36284205,-1.19689989,0.19007605,0.59783930,0.23188008,0.00000000,0.00000000,-1.36176932,0.89747536,-0.49575669,0.20920762,-0.43643320,0.00000000,0.00000000
-0.35796493,-1.19515336,0.18742706,0.59779727,0.22164693,0.00000000,0.00000000,-1.35759580,0.89563447,-0.48535940,0.20672196,-0.42929205,0.00000000,0.00000000
-0.35296541,-1.19340968,0.18469408,0.59784186,0.21022168,0.00000000,0.00000000,-1.35253012,0.89391470,-0.47389832,0.20344450,-0.41900820,0.00000000,0.00000000
-0.34785166,-1.19176829,0.18187197,0.59801739,0.19604407,0.00000000,0.00000000,-1.34641504,0.89228112,-0.46126628,0.19919530,-0.41455948,0.00000000,0.00000000
-0.34258610,-1.19031274,0.17898841,0.59830809,0.18249233,0.00000000,0.00000000,-1.33908844,0.89077920,-0.44735318,0.19382396,-0.41164982,0.00000000,0.00000000
-0.33703619,-1.18917108,0.17607526,0.59860545,0.16783954,0.00000000,0.00000000,-1.33039916,0.88963556,-0.43205252,0.18727319,-0.41541222,0.00000000,0.00000000
-0.33105233,-1.18843269,0.17313495,0.59879166,0.15019339,0.00000000,0.00000000,-1.32019997,0.88917845,-0.41526097,0.17954716,-0.41824773,0.00000000,0.00000000
-0.32463127,-1.18804681,0.17010802,0.59887099,0.13129224,0.00000000,0.00000000,-1.30832422,0.88954669,-0.39687547,0.17055891,-0.42100278,0.00000000,0.00000000
-0.31787857,-1.18797016,0.16689700,0.59887975,0.11509477,0.00000000,0.00000000,-1.29459083,0.89075130,-0.37679622,0.16015296,-0.42157206,0.00000000,0.00000000
-0.31087896,-1.18821406,0.16341175,0.59879684,0.09837025,0.00000000,0.00000000,-1.27882850,0.89282912,-0.35493907,0.14819276,-0.42187577,0.00000000,0.00000000
-0.30371979,-1.18862915,0.15954673,0.59861273,0.08151362,0.00000000,0.00000000,-1.26089621,0.89585775,-0.33124861,0.13458839,-0.41658303,0.00000000,0.00000000
-0.29643941,-1.18906415,0.15525885,0.59835118,0.06691968,0.00000000,0.00000000,-1.24068797,0.89986479,-0.30570439,0.11927457,-0.41769302,0.00000000,0.00000000
-0.28897986,-1.18940663,0.15062749,0.59803414,0.05167282,0.00000000,0.00000000,-1.21812987,0.90483975,-0.27832150,0.10222068,-0.41776440,0.00000000,0.00000000
-0.28122213,-1.18954778,0.14581035,0.59760511,0.03429519,0.00000000,0.00000000,-1.19317412,0.91082108,-0.24914904,0.08345414,-0.42176998,0.00000000,0.00000000
-0.27311805,-1.18936360,0.14093833,0.59701765,0.01563995,0.00000000,0.00000000,-1.16579771,0.91779518,-0.21827264,0.06301223,-0.42810777,0.00000000,0.00000000
-0.26479423,-1.18880057,0.13604462,0.59636301,-0.00698970,0.00000000,0.00000000,-1.13599885,0.92552811,-0.18581624,0.04088126,-0.43742797,0.00000000,0.00000000
-0.25648752,-1.18792140,0.13109875,0.59582508,-0.03240303,0.00000000,0.00000000,-1.10379875,0.93362147,-0.15194336,0.01703342,-0.44557413,0.00000000,0.00000000
-0.24838926,-1.18682861,0.12609456,0.59553820,-0.05661974,0.00000000,0.00000000,-1.06925595,0.94173664,-0.11685920,-0.00847904,-0.45586312,0.00000000,0.00000000
-0.24056900,-1.18561530,0.12109306,0.59553164,-0.07757432,0.00000000,0.00000000,-1.03247678,0.94971526,-0.08081087,-0.03548821,-0.46647564,0.00000000,0.00000000
-0.23300076,-1.18440640,0.11620977,0.59576166,-0.09414015,0.00000000,0.00000000,-0.99361563,0.95753425,-0.04408396,-0.06374101,-0.47408500,0.00000000,0.00000000
-0.22562936,-1.18333197,0.11156487,0.59617764,-0.10699567,0.00000000,0.00000000,-0.95286775,0.96523637,-0.00699731,-0.09292739,-0.47760266,0.00000000,0.00000000
-0.21845259,-1.18244755,0.10722768,0.59678024,-0.11566664,0.00000000,0.00000000,-0.91046268,0.97281969,0.03010342,-0.12272259,-0.48048481,0.00000000,0.00000000
-0.21150464,-1.18171322,0.10321535,0.59760129,-0.12951271,0.00000000,0.00000000,-0.86665982,0.98024929,0.06685472,-0.15280254,-0.47728270,0.00000000,0.00000000
-0.20479749,-1.18109930,0.09952977,0.59867424,-0.14363489,0.00000000,0.00000000,-0.82174301,0.98750949,0.10288453,-0.18285035,-0.47755313,0.00000000,0.00000000
-0.19832024,-1.18066239,0.09616837,0.60004681,-0.15881008,0.00000000,0.00000000,-0.77601260,0.99458635,0.13781925,-0.21257396,-0.48381799,0.00000000,0.00000000
-0.19204958,-1.18052757,0.09312606,0.60178185,-0.17264955,0.00000000,0.00000000,-0.72977847,1.00146723,0.17129147,-0.24169829,-0.49215099,0.00000000,0.00000000
-0.18594323,-1.18081951,0.09039887,0.60393298,-0.19005765,0.00000000,0.00000000,-0.68335408,1.00817943,0.20295113,-0.26994619,-0.50253308,0.00000000,0.00000000
-0.17995608,-1.18162596,0.08797161,0.60653311,-0.20756525,0.00000000,0.00000000,-0.63704938,1.01478934,0.23247297,-0.29705581,-0.51325083,0.00000000,0.00000000
-0.17406599,-1.18299758,0.08581053,0.60960877,-0.22222020,0.00000000,0.00000000,-0.59116399,1.02136195,0.25955707,-0.32281873,-0.52788466,0.00000000,0.00000000
-0.16824187,-1.18499744,0.08390287,0.61318552,-0.23693044,0.00000000,0.00000000,-0.54598343,1.02794755,0.28393316,-0.34707850,-0.54914492,0.00000000,0.00000000
-0.16238298,-1.18780565,0.08230766,0.61725307,-0.25538746,0.00000000,0.00000000,-0.50177068,1.03466105,0.30537051,-0.36968780,-0.56630349,0.00000000,0.00000000
-0.15632863,-1.19181716,0.08113945,0.62172341,-0.27318126,0.00000000,0.00000000,-0.45874691,1.04181170,0.32368064,-0.39047208,-0.57753009,0.00000000,0.00000000
-0.14993393,-1.19770551,0.08049648,0.62639636,-0.28589219,0.00000000,0.00000000,-0.41705731,1.05006266,0.33871686,-0.40919697,-0.58581054,0.00000000,0.00000000
-0.14308597,-1.20651460,0.08042636,0.63086700,-0.29871780,0.00000000,0.00000000,-0.37673554,1.06057215,0.35039935,-0.42547530,-0.59101623,0.00000000,0.00000000
-0.13566212,-1.21972895,0.08091743,0.63436699,-0.31038690,0.00000000,0.00000000,-0.33770016,1.07501650,0.35876587,-0.43861300,-0.59161544,0.00000000,0.00000000
-0.12758332,-1.23939562,0.08176729,0.63557601,-0.31829613,0.00000000,0.00000000,-0.29977608,1.09565747,0.36401510,-0.44742861,-0.59281850,0.00000000,0.00000000
-0.11907103,-1.26784945,0.08228411,0.63265651,-0.32115567,0.00000000,0.00000000,-0.26272792,1.12533307,0.36654851,-0.45023227,-0.58861208,0.00000000,0.00000000
-0.11098620,-1.30660295,0.08125858,0.62363493,-0.32515103,0.00000000,0.00000000,-0.22610478,1.16585767,0.36710912,-0.44498807,-0.58219647,0.00000000,0.00000000
-0.10475020,-1.35534322,0.07768890,0.60695112,-0.32633978,0.00000000,0.00000000,-0.18879779,1.21472585,0.36706740,-0.42980421,-0.57669234,0.00000000,0.00000000
-0.10136452,-1.41305375,0.07119100,0.58167702,-0.32370761,0.00000000,0.00000000,-0.14942850,1.26894057,0.36821821,-0.40380934,-0.56835938,0.00000000,0.00000000
-0.10080384,-1.47867751,0.06139914,0.54768592,-0.31476566,0.00000000,0.00000000,-0.10765705,1.32870626,0.37186360,-0.36733457,-0.56479877,0.00000000,0.00000000
-0.10237333,-1.55070972,0.04793876,0.50564367,-0.30372280,0.00000000,0.00000000,-0.06428014,1.39455950,0.37862423,-0.32135755,-0.55780745,0.00000000,0.00000000
-0.10508373,-1.62729001,0.03064139,0.45671549,-0.29494202,0.00000000,0.00000000,-0.02080944,1.46603632,0.38863188,-0.26714155,-0.55148953,0.00000000,0.00000000
-0.10788543,-1.70640659,0.00962059,0.40228111,-0.28923866,0.00000000,0.00000000,0.02085350,1.54200029,0.40166202,-0.20611471,-0.54539245,0.00000000,0.00000000
-0.10992709,-1.78588486,-0.01472916,0.34381360,-0.28467306,0.00000000,0.00000000,0.05862864,1.62086952,0.41723061,-0.13981572,-0.53604996,0.00000000,0.00000000
-0.11075228,-1.86338937,-0.04180542,0.28285593,-0.27865273,0.00000000,0.00000000,0.09059034,1.70072806,0.43467754,-0.06980927,-0.52346510,0.00000000,0.00000000
-0.11000265,-1.93654072,-0.07097919,0.22099784,-0.26536360,0.00000000,0.00000000,0.11607209,1.77965283,0.45326260,0.00270208,-0.51620048,0.00000000,0.00000000
-0.10710452,-2.00281882,-0.10170887,0.15991168,-0.24753606,0.00000000,0.00000000,0.13658340,1.85624075,0.47234291,0.07731469,-0.50637245,0.00000000,0.00000000
-0.10219260,-2.06001878,-0.13343725,0.10100552,-0.23089817,0.00000000,0.00000000,0.15405749,1.92910588,0.49152359,0.15362386,-0.49242571,0.00000000,0.00000000
-0.09626568,-2.10648632,-0.16565306,0.04527978,-0.21290550,0.00000000,0.00000000,0.16962592,1.99648869,0.51061261,0.23065361,-0.47786957,0.00000000,0.00000000
-0.09055562,-2.14069748,-0.19799371,-0.00637300,-0.19533038,0.00000000,0.00000000,0.18374477,2.05654669,0.52951640,0.30707064,-0.45992610,0.00000000,0.00000000
-0.08623651,-2.16110992,-0.23025568,-0.05301270,-0.18258296,0.00000000,0.00000000,0.19584438,2.10700464,0.54810393,0.38095161,-0.43927953,0.00000000,0.00000000
-0.08431735,-2.16862249,-0.26236653,-0.09351993,-0.17527246,0.00000000,0.00000000,0.20670518,2.14437890,0.56680715,0.45047927,-0.41826287,0.00000000,0.00000000
-0.08517109,-2.16993141,-0.29432833,-0.12657495,-0.16916728,0.00000000,0.00000000,0.22164010,2.16460514,0.58761591,0.51532733,-0.39589009,0.00000000,0.00000000
-0.08817411,-2.16988277,-0.32612294,-0.15123366,-0.16366743,0.00000000,0.00000000,0.24129477,2.16968822,0.61209863,0.57293344,-0.37317839,0.00000000,0.00000000
-0.09235862,-2.16793466,-0.35766357,-0.16769691,-0.16069780,0.00000000,0.00000000,0.26297608,2.17000008,0.64109349,0.61822551,-0.35006091,0.00000000,0.00000000
-0.09722965,-2.15970612,-0.38880751,-0.17761071,-0.15507829,0.00000000,0.00000000,0.28387073,2.17000008,0.67433995,0.64867800,-0.33288673,0.00000000,0.00000000
-0.10243917,-2.14351726,-0.41936475,-0.18321776,-0.15103018,0.00000000,0.00000000,0.30243495,2.17000008,0.71122038,0.66429168,-0.31395572,0.00000000,0.00000000
-0.10762260,-2.12187576,-0.44915324,-0.18643492,-0.14547528,0.00000000,0.00000000,0.31720579,2.16981649,0.75090313,0.66572648,-0.29133773,0.00000000,0.00000000
-0.11261401,-2.09778619,-0.47804293,-0.18872643,-0.14045817,0.00000000,0.00000000,0.32658786,2.16697288,0.79228920,0.65415597,-0.27394298,0.00000000,0.00000000
-0.11745291,-2.07357621,-0.50594878,-0.19124860,-0.13370836,0.00000000,0.00000000,0.33067140,2.15739775,0.83379847,0.63387173,-0.25604877,0.00000000,0.00000000
-0.12198664,-2.05090022,-0.53279096,-0.19474353,-0.12951383,0.00000000,0.00000000,0.33011505,2.14436674,0.87311149,0.61230278,-0.24057807,0.00000000,0.00000000
-0.12569006,-2.03077435,-0.55847466,-0.19949920,-0.12599707,0.00000000,0.00000000,0.32266906,2.13120055,0.90849793,0.59216201,-0.22678672,0.00000000,0.00000000
-0.12818678,-2.01403761,-0.58291614,-0.20573007,-0.11789822,0.00000000,0.00000000,0.30726600,2.12055922,0.93915004,0.57419336,-0.20907207,0.00000000,0.00000000
-0.12928945,-2.00142860,-0.60604042,-0.21362878,-0.10789257,0.00000000,0.00000000,0.28410733,2.11452484,0.96478063,0.55823720,-0.19426289,0.00000000,0.00000000
-0.12875505,-1.99334908,-0.62777132,-0.22316973,-0.10276908,0.00000000,0.00000000,0.25459984,2.11277533,0.98599339,0.54333043,-0.17699759,0.00000000,0.00000000
-0.12616090,-1.98971939,-0.64803225,-0.23399608,-0.10012808,0.00000000,0.00000000,0.22128619,2.11382079,1.00389588,0.52913290,-0.15735829,0.00000000,0.00000000
-0.12095103,-1.99010742,-0.66674870,-0.24549600,-0.09762157,0.00000000,0.00000000,0.18654798,2.11623478,1.01950336,0.51572192,-0.13535692,0.00000000,0.00000000
-0.11259392,-1.99392748,-0.68385917,-0.25697103,-0.09218575,0.00000000,0.00000000,0.15168713,2.11888361,1.03354454,0.50293887,-0.11915489,0.00000000,0.00000000
-0.10071389,-2.00050688,-0.69933510,-0.26777694,-0.08718523,0.00000000,0.00000000,0.11722788,2.12114835,1.04648793,0.49056962,-0.09881068,0.00000000,0.00000000
-0.08515882,-2.00904822,-0.71320361,-0.27739152,-0.08398318,0.00000000,0.00000000,0.08348724,2.12279701,1.05866265,0.47861969,-0.08196391,0.00000000,0.00000000
-0.06608967,-2.01863360,-0.72556448,-0.28543916,-0.07961436,0.00000000,0.00000000,0.05080449,2.12339878,1.07040167,0.46723068,-0.06514334,0.00000000,0.00000000
-0.04407883,-2.02831101,-0.73659790,-0.29169753,-0.07147887,0.00000000,0.00000000,0.01980219,2.12190771,1.08215868,0.45660755,-0.05429029,0.00000000,0.00000000
-0.02019262,-2.03716826,-0.74656701,-0.29612082,-0.06845827,0.00000000,0.00000000,-0.00859634,2.11732817,1.09435987,0.44713670,-0.04237882,0.00000000,0.00000000
0.00405427,-2.04432416,-0.75581145,-0.29883456,-0.06855829,0.00000000,0.00000000,-0.03370799,2.10957789,1.10714209,0.43926233,-0.02836098,0.00000000,0.00000000
0.02688986,-2.04894376,-0.76471698,-0.30009344,-0.07054503,0.00000000,0.00000000,-0.05557342,2.09954834,1.12028503,0.43320391,-0.01740643,0.00000000,0.00000000
0.04649745,-2.05035329,-0.77366835,-0.30025637,-0.07048799,0.00000000,0.00000000,-0.07474782,2.08834314,1.13342655,0.42888027,-0.01058590,0.00000000,0.00000000
0.06122232,-2.04820824,-0.78299743,-0.29979864,-0.06759758,0.00000000,0.00000000,-0.09176447,2.07676935,1.14626920,0.42610919,-0.00558457,0.00000000,0.00000000
0.06972976,-2.04259562,-0.79294348,-0.29934993,-0.06136727,0.00000000,0.00000000,-0.10685851,2.06551647,1.15859580,0.42480317,-0.00385706,0.00000000,0.00000000
0.07132788,-2.03402615,-0.80360502,-0.29958621,-0.05682746,0.00000000,0.00000000,-0.12009440,2.05543661,1.17019141,0.42492884,-0.00081360,0.00000000,0.00000000
0.06688324,-2.02337527,-0.81482166,-0.30075604,-0.05494814,0.00000000,0.00000000,-0.13164058,2.04742789,1.18083024,0.42629972,0.00092956,0.00000000,0.00000000
0.05951866,-2.01183248,-0.82609129,-0.30227390,-0.05633950,0.00000000,0.00000000,-0.14188138,2.04212570,1.19033766,0.42850190,0.00221760,0.00000000,0.00000000
0.05224662,-2.00097609,-0.83686143,-0.30371350,-0.05715187,0.00000000,0.00000000,-0.15151608,2.03953266,1.19866955,0.43084523,0.00120499,0.00000000,0.00000000
0.04410866,-1.99215591,-0.84709752,-0.30617276,-0.06110401,0.00000000,0.00000000,-0.16186124,2.03932166,1.20580876,0.43235347,0.00406130,0.00000000,0.00000000
0.03238979,-1.98593199,-0.85707772,-0.31112531,-0.06600849,0.00000000,0.00000000,-0.17341118,2.04141521,1.21176434,0.43263572,0.00629254,0.00000000,0.00000000
0.01558035,-1.98246324,-0.86697072,-0.31933728,-0.07293994,0.00000000,0.00000000,-0.18506886,2.04598618,1.21663976,0.43225560,0.00493415,0.00000000,0.00000000
-0.00720695,-1.98189402,-0.87685704,-0.33129925,-0.07821034,0.00000000,0.00000000,-0.19532277,2.05315542,1.22058523,0.43206370,0.00520095,0.00000000,0.00000000
-0.03643801,-1.98424065,-0.88676602,-0.34727645,-0.08366008,0.00000000,0.00000000,-0.20333385,2.06291485,1.22370934,0.43261075,0.00454267,0.00000000,0.00000000
-0.07043478,-1.98928487,-0.89645743,-0.36647126,-0.09175928,0.00000000,0.00000000,-0.20935607,2.07496238,1.22608006,0.43382964,0.00429838,0.00000000,0.00000000
-0.10550514,-1.99627304,-0.90548056,-0.38690764,-0.09388967,0.00000000,0.00000000,-0.21399081,2.08854890,1.22783601,0.43530038,0.00697006,0.00000000,0.00000000
-0.13927801,-2.00358939,-0.91370749,-0.40675968,-0.09429269,0.00000000,0.00000000,-0.21760917,2.10265899,1.22919881,0.43656200,0.01494237,0.00000000,0.00000000
-0.17100936,-2.00953722,-0.92127699,-0.42481524,-0.09060540,0.00000000,0.00000000,-0.22032245,2.11586022,1.23051846,0.43715236,0.02344375,0.00000000,0.00000000
-0.19912031,-2.01260495,-0.92820352,-0.43951017,-0.08716458,0.00000000,0.00000000,-0.22238348,2.12655234,1.23218226,0.43657431,0.03356117,0.00000000,0.00000000
-0.22028014,-2.01158595,-0.93420339,-0.44862941,-0.07875596,0.00000000,0.00000000,-0.22394851,2.13340521,1.23452795,0.43457782,0.05133878,0.00000000,0.00000000
-0.23114702,-2.00652504,-0.93876028,-0.45068619,-0.07319836,0.00000000,0.00000000,-0.22464028,2.13579321,1.23777306,0.43144318,0.07130495,0.00000000,0.00000000
-0.23171563,-1.99902332,-0.94159514,-0.44683149,-0.06640404,0.00000000,0.00000000,-0.22325400,2.13396239,1.24199069,0.42810810,0.09418960,0.00000000,0.00000000
-0.22459489,-1.98965025,-0.94309038,-0.43899065,-0.05897985,0.00000000,0.00000000,-0.21763708,2.12873316,1.24718833,0.42614979,0.11710808,0.00000000,0.00000000
-0.21147808,-1.97789192,-0.94370228,-0.42739266,-0.05409051,0.00000000,0.00000000,-0.20524611,2.12139964,1.25327897,0.42749274,0.14285249,0.00000000,0.00000000
-0.19239758,-1.96282268,-0.94370013,-0.41105565,-0.04899574,0.00000000,0.00000000,-0.18433058,2.11372757,1.25997031,0.43375909,0.16399163,0.00000000,0.00000000
-0.16733269,-1.94528449,-0.94300783,-0.39015564,-0.03837237,0.00000000,0.00000000,-0.15461899,2.10760784,1.26677299,0.44574589,0.18151568,0.00000000,0.00000000
-0.13611451,-1.92748988,-0.94131833,-0.36560905,-0.02592406,0.00000000,0.00000000,-0.11741513,2.10454726,1.27309608,0.46318901,0.19909583,0.00000000,0.00000000
-0.09821502,-1.91189373,-0.93830532,-0.33834207,-0.01137068,0.00000000,0.00000000,-0.07576776,2.10544300,1.27828419,0.48460713,0.20971057,0.00000000,0.00000000
-0.05501022,-1.90051031,-0.93402600,-0.31008938,-0.00222247,0.00000000,0.00000000,-0.03361559,2.11053848,1.28171861,0.50780272,0.22437182,0.00000000,0.00000000
-0.01149980,-1.89441609,-0.92913729,-0.28400585,0.01343125,0.00000000,0.00000000,0.00646626,2.11938357,1.28305352,0.53111362,0.23431911,0.00000000,0.00000000
0.02730158,-1.89336753,-0.92442954,-0.26280910,0.03134332,0.00000000,0.00000000,0.04392508,2.13094425,1.28229594,0.55378783,0.24398556,0.00000000,0.00000000
0.05905381,-1.89653122,-0.92039800,-0.24773026,0.04871314,0.00000000,0.00000000,0.07836241,2.14364719,1.27967918,0.57499474,0.25108215,0.00000000,0.00000000
0.08326430,-1.90299809,-0.91729808,-0.23905310,0.06049594,0.00000000,0.00000000,0.10888909,2.15554905,1.27557874,0.59358418,0.25985998,0.00000000,0.00000000
0.10037037,-1.91200614,-0.91523975,-0.23656082,0.07508055,0.00000000,0.00000000,0.13420631,2.16448355,1.27046990,0.60824066,0.26851481,0.00000000,0.00000000
0.11147734,-1.92297888,-0.91421270,-0.23959415,0.08998470,0.00000000,0.00000000,0.15243204,2.16891479,1.26486695,0.61742449,0.27754220,0.00000000,0.00000000
0.11813299,-1.93539929,-0.91411877,-0.24708493,0.10347811,0.00000000,0.00000000,0.16137755,2.16985750,1.25927639,0.61949998,0.28827569,0.00000000,0.00000000
0.12179387,-1.94867182,-0.91483974,-0.25778124,0.11771540,0.00000000,0.00000000,0.15939122,2.16854668,1.25406981,0.61321861,0.30093727,0.00000000,0.00000000
0.12284653,-1.96175051,-0.91639078,-0.27059889,0.12577212,0.00000000,0.00000000,0.14621849,2.16258597,1.24923635,0.59830421,0.31383044,0.00000000,0.00000000
0.11989887,-1.97261083,-0.91909373,-0.28481910,0.13494769,0.00000000,0.00000000,0.12328064,2.15055537,1.24429023,0.57570821,0.32446122,0.00000000,0.00000000
0.11053016,-1.97856331,-0.92350870,-0.30001372,0.14207025,0.00000000,0.00000000,0.09239156,2.13462782,1.23846829,0.54692793,0.33385497,0.00000000,0.00000000
0.09280414,-1.97755921,-0.93011594,-0.31595701,0.14548403,0.00000000,0.00000000,0.05463163,2.11742353,1.23113489,0.51320922,0.34509891,0.00000000,0.00000000
0.06591666,-1.96921694,-0.93907171,-0.33266959,0.15358317,0.00000000,0.00000000,0.01085639,2.10058713,1.22205138,0.47558340,0.35636520,0.00000000,0.00000000
0.03036243,-1.95497704,-0.95010674,-0.35029653,0.16185583,0.00000000,0.00000000,-0.03755354,2.08523440,1.21130860,0.43522099,0.36281899,0.00000000,0.00000000
-0.01107633,-1.93732393,-0.96245831,-0.36833242,0.17024180,0.00000000,0.00000000,-0.08785012,2.07242894,1.19923067,0.39393124,0.36449999,0.00000000,0.00000000
-0.05321320,-1.91826153,-0.97506469,-0.38504642,0.18141954,0.00000000,0.00000000,-0.13541749,2.06309462,1.18637776,0.35446927,0.36180058,0.00000000,0.00000000
-0.09323519,-1.89914930,-0.98723119,-0.39961103,0.19633415,0.00000000,0.00000000,-0.17629325,2.05767226,1.17334402,0.31927389,0.36178255,0.00000000,0.00000000
-0.13283996,-1.88177168,-0.99877381,-0.41342729,0.21266957,0.00000000,0.00000000,-0.20937550,2.05661535,1.16044343,0.28948855,0.35502526,0.00000000,0.00000000
-0.17362887,-1.86771095,-1.00953066,-0.42785913,0.22673708,0.00000000,0.00000000,-0.23508188,2.06040549,1.14782774,0.26562655,0.34788239,0.00000000,0.00000000
-0.21309331,-1.85752821,-1.01895642,-0.44210148,0.24029669,0.00000000,0.00000000,-0.25409019,2.06877136,1.13570774,0.24789006,0.33960134,0.00000000,0.00000000
-0.24761769,-1.85092711,-1.02653825,-0.45458663,0.24594876,0.00000000,0.00000000,-0.26662666,2.08069706,1.12437344,0.23638137,0.32759246,0.00000000,0.00000000
-0.27612260,-1.84741759,-1.03221202,-0.46481788,0.25159812,0.00000000,0.00000000,-0.27249640,2.09518695,1.11406720,0.23123759,0.31402558,0.00000000,0.00000000
-0.29836628,-1.84636056,-1.03611636,-0.47255534,0.25452182,0.00000000,0.00000000,-0.27202138,2.11127639,1.10493290,0.23215619,0.30643514,0.00000000,0.00000000
-0.31382337,-1.84689224,-1.03842962,-0.47727248,0.25503206,0.00000000,0.00000000,-0.26644802,2.12788057,1.09702158,0.23818614,0.29455438,0.00000000,0.00000000
-0.32169139,-1.84835899,-1.03924096,-0.47836602,0.25042605,0.00000000,0.00000000,-0.25779819,2.14369488,1.09032583,0.24782944,0.27935052,0.00000000,0.00000000
-0.32131445,-1.85140395,-1.03833342,-0.47588027,0.25244156,0.00000000,0.00000000,-0.24797980,2.15706944,1.08486438,0.25948134,0.25904262,0.00000000,0.00000000
-0.31250203,-1.85717928,-1.03540802,-0.47029886,0.25367916,0.00000000,0.00000000,-0.23777397,2.16594028,1.08078444,0.27192152,0.23770361,0.00000000,0.00000000
-0.29563537,-1.86501408,-1.03065395,-0.46149063,0.25449467,0.00000000,0.00000000,-0.22692578,2.16936588,1.07839572,0.28426328,0.21833599,0.00000000,0.00000000
-0.27287000,-1.87285089,-1.02484322,-0.44976038,0.25858843,0.00000000,0.00000000,-0.21505173,2.16996861,1.07806969,0.29563972,0.19178219,0.00000000,0.00000000
-0.24710406,-1.87837183,-1.01891243,-0.43579838,0.26676717,0.00000000,0.00000000,-0.20199522,2.16989779,1.07999289,0.30547416,0.16533948,0.00000000,0.00000000
-0.22001016,-1.87969577,-1.01351011,-0.41975638,0.27474329,0.00000000,0.00000000,-0.18761556,2.16827536,1.08398438,0.31392705,0.14057359,0.00000000,0.00000000
-0.19203460,-1.87610316,-1.00885272,-0.40146825,0.28544614,0.00000000,0.00000000,-0.17162126,2.16236186,1.08954608,0.32189772,0.11226335,0.00000000,0.00000000
-0.16353534,-1.86837721,-1.00484800,-0.38124946,0.29209650,0.00000000,0.00000000,-0.15381025,2.15317965,1.09608102,0.33050182,0.09154802,0.00000000,0.00000000
-0.13504538,-1.85851574,-1.00122881,-0.36006370,0.30123463,0.00000000,0.00000000,-0.13465333,2.14323473,1.10306621,0.34039402,0.07147936,0.00000000,0.00000000
-0.10685519,-1.84857130,-0.99774647,-0.33894932,0.30313420,0.00000000,0.00000000,-0.11523075,2.13423705,1.11008430,0.35171190,0.05163069,0.00000000,0.00000000
-0.07931114,-1.84005785,-0.99430627,-0.31886336,0.30154955,0.00000000,0.00000000,-0.09605033,2.12708664,1.11688673,0.36463806,0.03191193,0.00000000,0.00000000
-0.05294705,-1.83390152,-0.99095720,-0.30060738,0.30120170,0.00000000,0.00000000,-0.07689633,2.12220240,1.12334895,0.37946701,0.01649471,0.00000000,0.00000000
-0.02826447,-1.83053303,-0.98782110,-0.28469700,0.30061647,0.00000000,0.00000000,-0.05763356,2.11968064,1.12936568,0.39619833,0.00476724,0.00000000,0.00000000
-0.00564253,-1.83016419,-0.98502576,-0.27143234,0.29931208,0.00000000,0.00000000,-0.03864307,2.11914611,1.13484609,0.41426653,-0.00762820,0.00000000,0.00000000
0.01464593,-1.83305132,-0.98266590,-0.26106101,0.29709291,0.00000000,0.00000000,-0.02063689,2.11964488,1.13977218,0.43263376,-0.01818281,0.00000000,0.00000000
0.03235900,-1.83959484,-0.98079860,-0.25392321,0.29532772,0.00000000,0.00000000,-0.00436323,2.11983609,1.14421415,0.45005977,-0.03243939,0.00000000,0.00000000
0.04721805,-1.85022962,-0.97946316,-0.25050107,0.29215163,0.00000000,0.00000000,0.00961746,2.11833668,1.14830053,0.46539798,-0.04642061,0.00000000,0.00000000
0.05884547,-1.86517954,-0.97871268,-0.25135133,0.29885179,0.00000000,0.00000000,0.02103195,2.11400771,1.15217030,0.47777170,-0.05719502,0.00000000,0.00000000
0.06664757,-1.88419461,-0.97864980,-0.25697017,0.30394647,0.00000000,0.00000000,0.02968610,2.10616994,1.15589106,0.48650822,-0.06984979,0.00000000,0.00000000
0.06974601,-1.90633237,-0.97945541,-0.26761863,0.30673072,0.00000000,0.00000000,0.03505321,2.09479141,1.15935493,0.49095994,-0.08660312,0.00000000,0.00000000
0.06719035,-1.92986715,-0.98139042,-0.28311902,0.31025815,0.00000000,0.00000000,0.03606511,2.08046031,1.16225755,0.49045217,-0.10203692,0.00000000,0.00000000
0.05835743,-1.95247066,-0.98475939,-0.30275127,0.31074509,0.00000000,0.00000000,0.03148441,2.06414843,1.16420579,0.48451579,-0.11912869,0.00000000,0.00000000
0.04317452,-1.97184777,-0.98982215,-0.32542765,0.31366849,0.00000000,0.00000000,0.02059577,2.04695511,1.16487122,0.47319078,-0.13370760,0.00000000,0.00000000
0.02203585,-1.98656940,-0.99667919,-0.35005754,0.31471023,0.00000000,0.00000000,0.00345913,2.03001928,1.16405654,0.45704767,-0.14907737,0.00000000,0.00000000
-0.00445340,-1.99631631,-1.00523651,-0.37578431,0.31362095,0.00000000,0.00000000,-0.01927198,2.01462960,1.16165209,0.43705037,-0.16213365,0.00000000,0.00000000
-0.03543639,-2.00155926,-1.01522732,-0.40190947,0.31080207,0.00000000,0.00000000,-0.04656430,2.00224376,1.15760720,0.41444570,-0.17971183,0.00000000,0.00000000
-0.06960794,-2.00305200,-1.02625728,-0.42766792,0.30797297,0.00000000,0.00000000,-0.07704866,1.99431527,1.15195334,0.39072189,-0.19586416,0.00000000,0.00000000
-0.10536086,-2.00149608,-1.03788042,-0.45218524,0.30674484,0.00000000,0.00000000,-0.10898212,1.99201632,1.14485204,0.36754557,-0.21270306,0.00000000,0.00000000
-0.14093895,-1.99749553,-1.04963017,-0.47454178,0.30064797,0.00000000,0.00000000,-0.14046842,1.99593484,1.13660216,0.34651411,-0.22868992,0.00000000,0.00000000
-0.17446145,-1.99164712,-1.06101084,-0.49384105,0.29810598,0.00000000,0.00000000,-0.16991816,2.00589871,1.12759244,0.32880187,-0.24369274,0.00000000,0.00000000
-0.20425965,-1.98466361,-1.07152748,-0.50939935,0.29185045,0.00000000,0.00000000,-0.19623893,2.02098227,1.11825240,0.31501213,-0.25969785,0.00000000,0.00000000
-0.22917925,-1.97735834,-1.08074820,-0.52083284,0.28332382,0.00000000,0.00000000,-0.21878603,2.03972197,1.10900486,0.30524942,-0.28300810,0.00000000,0.00000000
-0.24807169,-1.97038674,-1.08831346,-0.52775180,0.27999368,0.00000000,0.00000000,-0.23746800,2.06054473,1.10018647,0.29922244,-0.30189353,0.00000000,0.00000000
-0.25965425,-1.96395433,-1.09401834,-0.52967763,0.27558717,0.00000000,0.00000000,-0.25235695,2.08224058,1.09201622,0.29664892,-0.31196699,0.00000000,0.00000000
-0.26306400,-1.95794225,-1.09788001,-0.52634466,0.27181530,0.00000000,0.00000000,-0.26340973,2.10405445,1.08461511,0.29744405,-0.32127973,0.00000000,0.00000000
-0.25800875,-1.95245588,-1.10000825,-0.51791161,0.26732481,0.00000000,0.00000000,-0.27088633,2.12522364,1.07804942,0.30131343,-0.33075163,0.00000000,0.00000000
-0.24469963,-1.94792461,-1.10053372,-0.50495499,0.26279306,0.00000000,0.00000000,-0.27513510,2.14433765,1.07245600,0.30762279,-0.34028739,0.00000000,0.00000000
-0.22389992,-1.94468927,-1.09967387,-0.48839259,0.25879851,0.00000000,0.00000000,-0.27622938,2.15926123,1.06809771,0.31556407,-0.35186329,0.00000000,0.00000000
-0.19668911,-1.94293439,-1.09768224,-0.46933958,0.25202182,0.00000000,0.00000000,-0.27394998,2.16769457,1.06534433,0.32427809,-0.35622635,0.00000000,0.00000000
-0.16402461,-1.94288135,-1.09474945,-0.44885457,0.24965504,0.00000000,0.00000000,-0.26795217,2.16986609,1.06459320,0.33297044,-0.35966396,0.00000000,0.00000000
-0.12660749,-1.94488931,-1.09099209,-0.42781064,0.24500859,0.00000000,0.00000000,-0.25800964,2.16992259,1.06605089,0.34117153,-0.35880578,0.00000000,0.00000000
-0.08540178,-1.94945407,-1.08653438,-0.40714142,0.24071035,0.00000000,0.00000000,-0.24400631,2.16867995,1.06948233,0.34914961,-0.36246559,0.00000000,0.00000000
-0.04240502,-1.95715511,-1.08160377,-0.38822418,0.23443121,0.00000000,0.00000000,-0.22579329,2.16398096,1.07431149,0.35779589,-0.36835301,0.00000000,0.00000000
0.00004029,-1.96837974,-1.07649970,-0.37247235,0.22670959,0.00000000,0.00000000,-0.20378803,2.15618753,1.07990122,0.36773017,-0.37230918,0.00000000,0.00000000
0.04017271,-1.98297811,-1.07155335,-0.36079806,0.21668360,0.00000000,0.00000000,-0.17914987,2.14720726,1.08565605,0.37899497,-0.37800649,0.00000000,0.00000000
0.07679652,-2.00035286,-1.06710231,-0.35367164,0.21119426,0.00000000,0.00000000,-0.15330383,2.13853836,1.09106815,0.39125454,-0.38318256,0.00000000,0.00000000
0.10899451,-2.01965404,-1.06347215,-0.35131088,0.20852560,0.00000000,0.00000000,-0.12776591,2.13086724,1.09574890,0.40382314,-0.39469796,0.00000000,0.00000000
0.13610819,-2.03987241,-1.06095612,-0.35367128,0.20774247,0.00000000,0.00000000,-0.10405504,2.12413025,1.09944212,0.41571242,-0.40246978,0.00000000,0.00000000
0.15780334,-2.05996776,-1.05979192,-0.36044762,0.20485413,0.00000000,0.00000000,-0.08318832,2.11772013,1.10205889,0.42596197,-0.41208360,0.00000000,0.00000000
0.17387359,-2.07902050,-1.06016767,-0.37127671,0.20155551,0.00000000,0.00000000,-0.06525917,2.11071205,1.10370004,0.43395254,-0.41971350,0.00000000,0.00000000
0.18385656,-2.09618187,-1.06228507,-0.38597083,0.19672707,0.00000000,0.00000000,-0.04967886,2.10208869,1.10458958,0.43939084,-0.42300943,0.00000000,0.00000000
0.18699041,-2.11040378,-1.06642377,-0.40445152,0.18480118,0.00000000,0.00000000,-0.03572201,2.09105897,1.10493958,0.44214308,-0.42910317,0.00000000,0.00000000
0.18269859,-2.12023997,-1.07293451,-0.42635423,0.17721325,0.00000000,0.00000000,-0.02295403,2.07737279,1.10482013,0.44210902,-0.43254992,0.00000000,0.00000000
0.17123587,-2.12387824,-1.08216405,-0.45059931,0.16940147,0.00000000,0.00000000,-0.01147935,2.06137633,1.10411334,0.43913421,-0.43472570,0.00000000,0.00000000
0.15413831,-2.11972451,-1.09427178,-0.47531503,0.16646396,0.00000000,0.00000000,-0.00193166,2.04371047,1.10258877,0.43297133,-0.44015160,0.00000000,0.00000000
0.13402186,-2.10740662,-1.10899711,-0.49836314,0.16285792,0.00000000,0.00000000,0.00494117,2.02504039,1.10002196,0.42342877,-0.44561231,0.00000000,0.00000000
0.11333241,-2.08806539,-1.12571704,-0.51824945,0.16174802,0.00000000,0.00000000,0.00889941,2.00608659,1.09626782,0.41065192,-0.44565344,0.00000000,0.00000000
0.09336351,-2.06374335,-1.14370191,-0.53454804,0.15924449,0.00000000,0.00000000,0.01008634,1.98763132,1.09124613,0.39502820,-0.44403705,0.00000000,0.00000000
0.07488258,-2.03662491,-1.16222644,-0.54736960,0.15636443,0.00000000,0.00000000,0.00824227,1.97043777,1.08486903,0.37678954,-0.44116390,0.00000000,0.00000000
0.05865038,-2.00820732,-1.18074536,-0.55681956,0.15227872,0.00000000,0.00000000,0.00338047,1.95542896,1.07708097,0.35638475,-0.43420431,0.00000000,0.00000000
0.04519249,-1.97985220,-1.19878054,-0.56324106,0.14916933,0.00000000,0.00000000,-0.00436780,1.94339395,1.06790090,0.33430260,-0.42900234,0.00000000,0.00000000
0.03454598,-1.95302749,-1.21589410,-0.56736684,0.14208460,0.00000000,0.00000000,-0.01468327,1.93492746,1.05743051,0.31107473,-0.42909852,0.00000000,0.00000000
0.02655024,-1.92909443,-1.23171163,-0.57005972,0.14056687,0.00000000,0.00000000,-0.02700549,1.93050039,1.04583657,0.28733480,-0.42683440,0.00000000,0.00000000
0.02123675,-1.90914738,-1.24592221,-0.57201546,0.14587639,0.00000000,0.00000000,-0.04076613,1.93037915,1.03332591,0.26370454,-0.42943195,0.00000000,0.00000000
0.01891266,-1.89402568,-1.25826311,-0.57368284,0.15647694,0.00000000,0.00000000,-0.05556274,1.93447876,1.02013826,0.24065578,-0.43020031,0.00000000,0.00000000
0.01996848,-1.88436854,-1.26852489,-0.57535231,0.16955586,0.00000000,0.00000000,-0.07107420,1.94230998,1.00654435,0.21848713,-0.42934158,0.00000000,0.00000000
0.02457068,-1.88052130,-1.27661765,-0.57726616,0.17779505,0.00000000,0.00000000,-0.08683211,1.95309651,0.99283451,0.19742045,-0.42413816,0.00000000,0.00000000
0.03261579,-1.88247764,-1.28259706,-0.57960689,0.18643963,0.00000000,0.00000000,-0.10217363,1.96592128,0.97929347,0.17765997,-0.42519692,0.00000000,0.00000000
0.04405534,-1.89008296,-1.28656030,-0.58239031,0.19378385,0.00000000,0.00000000,-0.11643577,1.97976422,0.96617806,0.15934800,-0.42352739,0.00000000,0.00000000
0.05865809,-1.90295434,-1.28869438,-0.58562440,0.20261830,0.00000000,0.00000000,-0.12861881,1.99342120,0.95374006,0.14271681,-0.42403433,0.00000000,0.00000000
0.07485831,-1.91923571,-1.28980732,-0.58965242,0.20929849,0.00000000,0.00000000,-0.13637692,2.00549078,0.94227153,0.12852393,-0.42551360,0.00000000,0.00000000
0.09089456,-1.93665195,-1.29082978,-0.59473503,0.21279754,0.00000000,0.00000000,-0.13666354,2.01486325,0.93203080,0.11786793,-0.41984686,0.00000000,0.00000000
0.10701433,-1.95592344,-1.29139686,-0.60059315,0.22269492,0.00000000,0.00000000,-0.12845519,2.02132607,0.92309207,0.11113489,-0.41687533,0.00000000,0.00000000
0.12246275,-1.97694993,-1.29151022,-0.60721540,0.22629426,0.00000000,0.00000000,-0.11317329,2.02529144,0.91537410,0.10779452,-0.41347176,0.00000000,0.00000000
0.13558972,-1.99914992,-1.29143393,-0.61500347,0.22509050,0.00000000,0.00000000,-0.09328623,2.02718759,0.90874869,0.10688111,-0.41245952,0.00000000,0.00000000
0.14636917,-2.02203965,-1.29123461,-0.62348032,0.21589874,0.00000000,0.00000000,-0.07072534,2.02715206,0.90312135,0.10759006,-0.40610373,0.00000000,0.00000000
0.15555093,-2.04474521,-1.29104578,-0.63171190,0.21077244,0.00000000,0.00000000,-0.04644444,2.02524233,0.89843518,0.10952412,-0.39834353,0.00000000,0.00000000
0.16368316,-2.06631970,-1.29106367,-0.63899511,0.20900913,0.00000000,0.00000000,-0.02109148,2.02152348,0.89463896,0.11241040,-0.39112276,0.00000000,0.00000000
0.17112467,-2.08605886,-1.29143238,-0.64492422,0.20990908,0.00000000,0.00000000,0.00435737,2.01606822,0.89166093,0.11581176,-0.38559705,0.00000000,0.00000000
0.17819810,-2.10353804,-1.29222035,-0.64928198,0.20383634,0.00000000,0.00000000,0.02831469,2.00891614,0.88939828,0.11897746,-0.38391289,0.00000000,0.00000000
0.18518358,-2.11844873,-1.29348922,-0.65196091,0.19422247,0.00000000,0.00000000,0.04868254,1.99994433,0.88773167,0.12082522,-0.38066077,0.00000000,0.00000000
0.19209477,-2.13052416,-1.29533446,-0.65301728,0.18755472,0.00000000,0.00000000,0.06340848,1.98886728,0.88655800,0.12016681,-0.37436661,0.00000000,0.00000000
0.19822119,-2.13976526,-1.29781747,-0.65294260,0.18057361,0.00000000,0.00000000,0.07116967,1.97555232,0.88581669,0.11612162,-0.36962971,0.00000000,0.00000000
0.20175286,-2.14654636,-1.30094266,-0.65289706,0.17337844,0.00000000,0.00000000,0.07154120,1.96037173,0.88549203,0.10838104,-0.36530223,0.00000000,0.00000000
0.20029135,-2.15136313,-1.30470765,-0.65438205,0.16680796,0.00000000,0.00000000,0.06448492,1.94415200,0.88560128,0.09710103,-0.36342672,0.00000000,0.00000000
0.19186147,-2.15463877,-1.30908620,-0.65861750,0.16226235,0.00000000,0.00000000,0.05007992,1.92790151,0.88620120,0.08276838,-0.36148676,0.00000000,0.00000000
0.17534934,-2.15670013,-1.31399250,-0.66624111,0.15350574,0.00000000,0.00000000,0.02882404,1.91271198,0.88739944,0.06622141,-0.35846147,0.00000000,0.00000000
0.15053605,-2.15792584,-1.31920099,-0.67728734,0.14982049,0.00000000,0.00000000,0.00179687,1.89977372,0.88934749,0.04856993,-0.35687354,0.00000000,0.00000000
0.11879423,-2.15880203,-1.32423949,-0.69079906,0.14611961,0.00000000,0.00000000,-0.02935114,1.89036655,0.89221907,0.03110371,-0.35620797,0.00000000,0.00000000
0.08376082,-2.15980649,-1.32836974,-0.70447427,0.14638487,0.00000000,0.00000000,-0.06177964,1.88569605,0.89619553,0.01558089,-0.34983432,0.00000000,0.00000000
0.04788334,-2.16125488,-1.33103812,-0.71675324,0.14550439,0.00000000,0.00000000,-0.09140363,1.88662159,0.90143597,0.00429031,-0.34363675,0.00000000,0.00000000
0.01088416,-2.16340804,-1.33201087,-0.72774982,0.14771181,0.00000000,0.00000000,-0.11514761,1.89374566,0.90803587,-0.00091284,-0.34048891,0.00000000,0.00000000
-0.02786243,-2.16610241,-1.33131313,-0.73784161,0.15441866,0.00000000,0.00000000,-0.13164470,1.90761268,0.91602731,0.00109506,-0.34044397,0.00000000,0.00000000
-0.06569716,-2.16832924,-1.32901895,-0.74558330,0.16869624,0.00000000,0.00000000,-0.14110747,1.92852008,0.92538667,0.01065815,-0.33912763,0.00000000,0.00000000
-0.09518032,-2.16888142,-1.32484829,-0.74698550,0.17724413,0.00000000,0.00000000,-0.14474674,1.95588851,0.93603563,0.02735524,-0.33497328,0.00000000,0.00000000
-0.11491091,-2.16779470,-1.31874740,-0.74340427,0.19173791,0.00000000,0.00000000,-0.14343119,1.98842359,0.94785047,0.05058369,-0.32328767,0.00000000,0.00000000
-0.12597553,-2.16836119,-1.30923986,-0.74147141,0.20841327,0.00000000,0.00000000,-0.13871008,2.02430606,0.96067464,0.07913758,-0.31632534,0.00000000,0.00000000
-0.12821159,-2.16958189,-1.29686284,-0.74295926,0.21810597,0.00000000,0.00000000,-0.13189323,2.06109881,0.97437650,0.11160858,-0.30402857,0.00000000,0.00000000
-0.12138703,-2.16997480,-1.28301382,-0.74720329,0.22589642,0.00000000,0.00000000,-0.12275121,2.09570098,0.98894507,0.14695391,-0.29254451,0.00000000,0.00000000
-0.10608557,-2.17000008,-1.26984489,-0.75161606,0.23345490,0.00000000,0.00000000,-0.10966695,2.12479568,1.00453198,0.18456493,-0.27952254,0.00000000,0.00000000
-0.08306738,-2.16995192,-1.26074958,-0.74959981,0.24375743,0.00000000,0.00000000,-0.08982655,2.14617014,1.02137911,0.22461091,-0.27029005,0.00000000,0.00000000
-0.05314697,-2.16908073,-1.25558734,-0.73867410,0.25716141,0.00000000,0.00000000,-0.05987516,2.15970659,1.03965425,0.26808465,-0.25723857,0.00000000,0.00000000
-0.01916927,-2.16453958,-1.25330210,-0.72003299,0.27018315,0.00000000,0.00000000,-0.01928398,2.16685438,1.05915654,0.31504002,-0.24366418,0.00000000,0.00000000
0.01819656,-2.15354848,-1.25237632,-0.69421333,0.28306100,0.00000000,0.00000000,0.02627366,2.16947985,1.07916176,0.36235136,-0.23161925,0.00000000,0.00000000
0.05625552,-2.13715458,-1.25203133,-0.66293937,0.29277596,0.00000000,0.00000000,0.07225908,2.16997290,1.09914994,0.40726471,-0.21057545,0.00000000,0.00000000
0.09182683,-2.11693788,-1.25211906,-0.62843293,0.30282390,0.00000000,0.00000000,0.11896675,2.16998076,1.11903787,0.44963378,-0.18821637,0.00000000,0.00000000
0.12400853,-2.09475565,-1.25206506,-0.59229070,0.30835342,0.00000000,0.00000000,0.16659093,2.16965938,1.13856447,0.48963809,-0.16347733,0.00000000,0.00000000
0.15364116,-2.07298422,-1.25096691,-0.55557108,0.31641769,0.00000000,0.00000000,0.21250561,2.16826200,1.15693617,0.52638328,-0.13823505,0.00000000,0.00000000
0.18095911,-2.05332661,-1.24837840,-0.51949573,0.32710037,0.00000000,0.00000000,0.25361964,2.16546226,1.17317152,0.55895269,-0.11477412,0.00000000,0.00000000
0.20520033,-2.03678179,-1.24432528,-0.48548040,0.34790617,0.00000000,0.00000000,0.28822470,2.16183901,1.18657458,0.58702153,-0.09579626,0.00000000,0.00000000
0.22589824,-2.02428293,-1.23889124,-0.45452753,0.36862370,0.00000000,0.00000000,0.31542498,2.15819097,1.19665825,0.61050802,-0.07884378,0.00000000,0.00000000
0.24331601,-2.01688695,-1.23206866,-0.42707610,0.39048895,0.00000000,0.00000000,0.33361986,2.15534282,1.20287442,0.62883985,-0.06099787,0.00000000,0.00000000
0.25749710,-2.01532030,-1.22393692,-0.40353018,0.40927097,0.00000000,0.00000000,0.34036624,2.15431261,1.20454359,0.64110959,-0.04117924,0.00000000,0.00000000
0.26766559,-2.01950979,-1.21479750,-0.38455072,0.43818107,0.00000000,0.00000000,0.33406368,2.15674353,1.20090246,0.64751577,-0.01925790,0.00000000,0.00000000
0.27178559,-2.02837634,-1.20522058,-0.37124002,0.47166011,0.00000000,0.00000000,0.31279403,2.16254687,1.19177222,0.64749688,0.00407599,0.00000000,0.00000000
0.26646698,-2.04011202,-1.19597089,-0.36522782,0.50093156,0.00000000,0.00000000,0.27460489,2.16812181,1.17831838,0.63800186,0.02010650,0.00000000,0.00000000
0.24873644,-2.05300784,-1.18769300,-0.36787969,0.53450429,0.00000000,0.00000000,0.22294621,2.16988492,1.16306472,0.61790556,0.03902189,0.00000000,0.00000000
0.21736079,-2.06575847,-1.18076205,-0.37959856,0.56894040,0.00000000,0.00000000,0.16328616,2.17000008,1.14776754,0.58853477,0.05990854,0.00000000,0.00000000
0.17314245,-2.07793570,-1.17516100,-0.39972505,0.60495216,0.00000000,0.00000000,0.09883125,2.16993117,1.13358116,0.55061293,0.07679596,0.00000000,0.00000000
0.11797272,-2.09006834,-1.17051315,-0.42709750,0.63794452,0.00000000,0.00000000,0.03168834,2.16874671,1.12120521,0.50461107,0.10312758,0.00000000,0.00000000
0.05517754,-2.10327768,-1.16609216,-0.45986840,0.67280596,0.00000000,0.00000000,-0.03513281,2.16328216,1.11057293,0.45230651,0.12459480,0.00000000,0.00000000
-0.01076669,-2.11813331,-1.16111457,-0.49545416,0.70549202,0.00000000,0.00000000,-0.09588646,2.15133572,1.10142958,0.39778849,0.15462814,0.00000000,0.00000000
-0.07722561,-2.13425112,-1.15518296,-0.53211665,0.73618919,0.00000000,0.00000000,-0.14583416,2.13458252,1.09355509,0.34524629,0.18957973,0.00000000,0.00000000
-0.14314416,-2.15074301,-1.14821172,-0.56898820,0.76680511,0.00000000,0.00000000,-0.18218189,2.11682200,1.08653414,0.29861322,0.22603078,0.00000000,0.00000000
-0.20652486,-2.16386938,-1.14089394,-0.60442990,0.79982120,0.00000000,0.00000000,-0.20465548,2.10215664,1.07978582,0.26064351,0.26002428,0.00000000,0.00000000
-0.26254192,-2.16910553,-1.13400114,-0.63649017,0.83072633,0.00000000,0.00000000,-0.21562730,2.09264135,1.07295406,0.23169541,0.29836160,0.00000000,0.00000000
-0.30892682,-2.16995764,-1.12655044,-0.66730988,0.85527015,0.00000000,0.00000000,-0.21767925,2.08846283,1.06600404,0.21115667,0.34005323,0.00000000,0.00000000
-0.34376529,-2.17000008,-1.11744285,-0.69763148,0.87800831,0.00000000,0.00000000,-0.21289159,2.08956599,1.05897927,0.19847669,0.38456205,0.00000000,0.00000000
-0.36373693,-2.17000008,-1.10579443,-0.72576404,0.90991664,0.00000000,0.00000000,-0.20243989,2.09592509,1.05193830,0.19342172,0.42994925,0.00000000,0.00000000
-0.36725295,-2.17000008,-1.09157979,-0.74985176,0.93797785,0.00000000,0.00000000,-0.18645318,2.10722899,1.04496515,0.19596931,0.47682497,0.00000000,0.00000000
-0.35658947,-2.17000008,-1.07738614,-0.76698184,0.96209109,0.00000000,0.00000000,-0.16461241,2.12259865,1.03815734,0.20590116,0.52513611,0.00000000,0.00000000
-0.33285674,-2.17000008,-1.06506133,-0.77228212,0.98731053,0.00000000,0.00000000,-0.13663298,2.14011765,1.03166234,0.22234733,0.56952327,0.00000000,0.00000000
-0.29966158,-2.17000008,-1.05593777,-0.76529545,1.01805007,0.00000000,0.00000000,-0.10118314,2.15643167,1.02584386,0.24412210,0.61586809,0.00000000,0.00000000
-0.26069063,-2.16997576,-1.05037725,-0.74761498,1.05204797,0.00000000,0.00000000,-0.05637045,2.16693592,1.02138758,0.26960945,0.66281128,0.00000000,0.00000000
-0.21609543,-2.16943765,-1.04755402,-0.71966505,1.08535469,0.00000000,0.00000000,-0.00425277,2.16976786,1.01873851,0.29574579,0.70735455,0.00000000,0.00000000
-0.16472182,-2.16561794,-1.04637480,-0.68156052,1.11965990,0.00000000,0.00000000,0.04733832,2.16973639,1.01704395,0.31923705,0.74597698,0.00000000,0.00000000
-0.11036257,-2.15492582,-1.04610634,-0.63658673,1.14914930,0.00000000,0.00000000,0.09507435,2.16955042,1.01508749,0.34081873,0.78848982,0.00000000,0.00000000
-0.05789139,-2.13997579,-1.04596722,-0.58935434,1.17724764,0.00000000,0.00000000,0.14226878,2.16982841,1.01302230,0.36224136,0.83232933,0.00000000,0.00000000
-0.00759546,-2.12424636,-1.04498851,-0.54209203,1.20736957,0.00000000,0.00000000,0.19107130,2.16994882,1.01199687,0.38155535,0.86524463,0.00000000,0.00000000
0.04183980,-2.11003947,-1.04246902,-0.49594420,1.23574674,0.00000000,0.00000000,0.23931460,2.16921043,1.01235783,0.39522889,0.89284372,0.00000000,0.00000000
0.08856206,-2.09927201,-1.03850484,-0.45341969,1.26095271,0.00000000,0.00000000,0.28443605,2.16495657,1.01366806,0.40148208,0.91419488,0.00000000,0.00000000
0.13009536,-2.09364748,-1.03340125,-0.41705102,1.28458822,0.00000000,0.00000000,0.32396406,2.15336800,1.01534438,0.39954352,0.92958558,0.00000000,0.00000000
0.16520667,-2.09388566,-1.02747548,-0.38806447,1.30926895,0.00000000,0.00000000,0.35509744,2.13454103,1.01681995,0.38887629,0.95008832,0.00000000,0.00000000
0.19416676,-2.09966063,-1.02100158,-0.36624259,1.33031154,0.00000000,0.00000000,0.37651798,2.11260295,1.01730895,0.37139177,0.97223085,0.00000000,0.00000000
0.21879752,-2.10988474,-1.01413572,-0.35010752,1.35101116,0.00000000,0.00000000,0.38897583,2.09097171,1.01646447,0.35106599,0.99927098,0.00000000,0.00000000
0.24023212,-2.12299490,-1.00713265,-0.33830109,1.36718655,0.00000000,0.00000000,0.39250517,2.07019806,1.01437342,0.32911557,1.02608240,0.00000000,0.00000000
0.25826037,-2.13719344,-1.00039220,-0.33010596,1.38227105,0.00000000,0.00000000,0.38752025,2.05091619,1.01109993,0.30614042,1.05369949,0.00000000,0.00000000
0.27212337,-2.15057611,-0.99436408,-0.32515383,1.39006531,0.00000000,0.00000000,0.37469524,2.03381777,1.00670159,0.28284150,1.08099866,0.00000000,0.00000000
0.28105709,-2.16130686,-0.98946571,-0.32319218,1.39497280,0.00000000,0.00000000,0.35455126,2.01935673,1.00127780,0.25971654,1.11183047,0.00000000,0.00000000
0.28437066,-2.16775870,-0.98605680,-0.32400975,1.40027392,0.00000000,0.00000000,0.32742259,2.00802660,0.99494082,0.23704213,1.14451003,0.00000000,0.00000000
0.28135815,-2.16975498,-0.98444897,-0.32744873,1.40128005,0.00000000,0.00000000,0.29463381,1.99972928,0.98796928,0.21520023,1.17572105,0.00000000,0.00000000
0.27092311,-2.16999102,-0.98495150,-0.33360410,1.40273929,0.00000000,0.00000000,0.26065272,1.99248850,0.98106307,0.19527321,1.20385671,0.00000000,0.00000000
0.25174254,-2.17000008,-0.98790342,-0.34266952,1.40100646,0.00000000,0.00000000,0.22875232,1.98502719,0.97470540,0.17765833,1.23770857,0.00000000,0.00000000
0.22418587,-2.16996503,-0.99329627,-0.35431644,1.40004921,0.00000000,0.00000000,0.19680771,1.97906518,0.96865702,0.16106452,1.26245773,0.00000000,0.00000000
0.19026259,-2.16940999,-1.00047410,-0.36828485,1.40072894,0.00000000,0.00000000,0.16777487,1.97381365,0.96319836,0.14635830,1.29060388,0.00000000,0.00000000
0.15130217,-2.16740370,-1.00876927,-0.38474920,1.40650654,0.00000000,0.00000000,0.14416066,1.96843576,0.95857906,0.13436519,1.31179488,0.00000000,0.00000000
0.10838165,-2.16440558,-1.01766396,-0.40367755,1.41119063,0.00000000,0.00000000,0.12562673,1.96287477,0.95481491,0.12479652,1.32773376,0.00000000,0.00000000
0.06286440,-2.16158509,-1.02666473,-0.42468059,1.41626453,0.00000000,0.00000000,0.11120656,1.95715439,0.95188785,0.11711838,1.33806098,0.00000000,0.00000000
0.01630677,-2.16003656,-1.03524959,-0.44718847,1.41592336,0.00000000,0.00000000,0.10005456,1.95126116,0.94979089,0.11087455,1.35208511,0.00000000,0.00000000
-0.02967545,-2.16044235,-1.04293597,-0.47043473,1.41811538,0.00000000,0.00000000,0.09167317,1.94507420,0.94853801,0.10579728,1.36576033,0.00000000,0.00000000
-0.07332934,-2.16238499,-1.04945862,-0.49312595,1.42135358,0.00000000,0.00000000,0.08617784,1.93844736,0.94816613,0.10198716,1.38066804,0.00000000,0.00000000
-0.11277452,-2.16409731,-1.05487394,-0.51336581,1.42117822,0.00000000,0.00000000,0.08412023,1.93166721,0.94870389,0.09996317,1.38844049,0.00000000,0.00000000
-0.14638212,-2.16345882,-1.05939627,-0.52927858,1.41692150,0.00000000,0.00000000,0.08547388,1.92611456,0.95009869,0.10038607,1.39615536,0.00000000,0.00000000
-0.17323163,-2.15900111,-1.06321359,-0.53963637,1.41147625,0.00000000,0.00000000,0.08953201,1.92430627,0.95220482,0.10408924,1.40382743,0.00000000,0.00000000
-0.19315203,-2.15005755,-1.06644905,-0.54391450,1.40603673,0.00000000,0.00000000,0.09570562,1.92836344,0.95487374,0.11196826,1.40575647,0.00000000,0.00000000
-0.20648034,-2.13653421,-1.06917739,-0.54207855,1.39782166,0.00000000,0.00000000,0.10422118,1.93816066,0.95807278,0.12452908,1.40854704,0.00000000,0.00000000
-0.21391967,-2.11877584,-1.07142496,-0.53450412,1.37881279,0.00000000,0.00000000,0.11639205,1.95089388,0.96195233,0.14163940,1.40349674,0.00000000,0.00000000
-0.21648492,-2.09753680,-1.07316005,-0.52201605,1.35739017,0.00000000,0.00000000,0.13408834,1.96245718,0.96679634,0.16263907,1.39981616,0.00000000,0.00000000
-0.21522577,-2.07385349,-1.07430375,-0.50576127,1.33401072,0.00000000,0.00000000,0.15817250,1.96977746,0.97281176,0.18643050,1.39521182,0.00000000,0.00000000
-0.21075141,-2.04889369,-1.07472944,-0.48687568,1.30695307,0.00000000,0.00000000,0.18722889,1.97161806,0.97995639,0.21123900,1.39305711,0.00000000,0.00000000
-0.20308727,-2.02409315,-1.07422614,-0.46633658,1.28184557,0.00000000,0.00000000,0.21868010,1.96726251,0.98807186,0.23484287,1.38752949,0.00000000,0.00000000
-0.19200806,-2.00122452,-1.07252979,-0.44504574,1.26313388,0.00000000,0.00000000,0.25087985,1.95610571,0.99705255,0.25558603,1.38486731,0.00000000,0.00000000
-0.17713562,-1.98204732,-1.06940913,-0.42372367,1.25001335,0.00000000,0.00000000,0.28278807,1.93855953,1.00672019,0.27257106,1.38726175,0.00000000,0.00000000
-0.15819837,-1.96785760,-1.06477511,-0.40289432,1.23489010,0.00000000,0.00000000,0.31296387,1.91649389,1.01667070,0.28530869,1.39108586,0.00000000,0.00000000
-0.13555522,-1.95937383,-1.05873203,-0.38315529,1.22296083,0.00000000,0.00000000,0.33999431,1.89277899,1.02636003,0.29377180,1.39074397,0.00000000,0.00000000
-0.11007018,-1.95701289,-1.05148077,-0.36528727,1.20967448,0.00000000,0.00000000,0.36312154,1.87024522,1.03531051,0.29838184,1.39512336,0.00000000,0.00000000
-0.08242039,-1.96097124,-1.04321551,-0.34995264,1.19826412,0.00000000,0.00000000,0.38158906,1.85097897,1.04315770,0.29949161,1.40060568,0.00000000,0.00000000
-0.05265989,-1.97106647,-1.03410435,-0.33733961,1.18909693,0.00000000,0.00000000,0.39340812,1.83630311,1.04954052,0.29674712,1.40624714,0.00000000,0.00000000
-0.02048762,-1.98666012,-1.02432144,-0.32715595,1.17502630,0.00000000,0.00000000,0.39615622,1.82840502,1.05395746,0.29045394,1.40922177,0.00000000,0.00000000
0.01403142,-2.00665212,-1.01411235,-0.31893006,1.16087162,0.00000000,0.00000000,0.39049372,1.82949305,1.05624354,0.28358445,1.40772867,0.00000000,0.00000000
0.05002964,-2.02957439,-1.00382876,-0.31230709,1.14952672,0.00000000,0.00000000,0.37879071,1.83615983,1.05723345,0.27749643,1.40825415,0.00000000,0.00000000
0.08606341,-2.05370069,-0.99389911,-0.30708790,1.13645113,0.00000000,0.00000000,0.36284766,1.84580183,1.05755484,0.27278918,1.41103494,0.00000000,0.00000000
0.12057570,-2.07710767,-0.98477989,-0.30309752,1.12212133,0.00000000,0.00000000,0.34379768,1.85693026,1.05757189,0.26982892,1.41668665,0.00000000,0.00000000
0.15214384,-2.09802461,-0.97688001,-0.30020371,1.10635126,0.00000000,0.00000000,0.32254919,1.86796021,1.05762160,0.26862547,1.42570710,0.00000000,0.00000000
0.17940842,-2.11519098,-0.97051734,-0.29848418,1.08953190,0.00000000,0.00000000,0.29985663,1.87742150,1.05800688,0.26890171,1.43715191,0.00000000,0.00000000
0.20098238,-2.12786603,-0.96593267,-0.29828858,1.07354271,0.00000000,0.00000000,0.27617532,1.88411415,1.05897355,0.27013475,1.45311463,0.00000000,0.00000000
0.21546361,-2.13566828,-0.96331453,-0.30015710,1.06369245,0.00000000,0.00000000,0.25149193,1.88738990,1.06065214,0.27169821,1.46426892,0.00000000,0.00000000
0.22144593,-2.13853788,-0.96280318,-0.30475086,1.05825865,0.00000000,0.00000000,0.22548033,1.88761067,1.06298470,0.27321237,1.47368979,0.00000000,0.00000000
0.21758389,-2.13686824,-0.96446145,-0.31283513,1.05345011,0.00000000,0.00000000,0.19878012,1.88603854,1.06582868,0.27529126,1.48376930,0.00000000,0.00000000
0.20364191,-2.13171053,-0.96812493,-0.32486853,1.04235637,0.00000000,0.00000000,0.17392701,1.88479650,1.06903505,0.27997747,1.49718165,0.00000000,0.00000000
0.18206026,-2.12491179,-0.97318780,-0.34033608,1.03009403,0.00000000,0.00000000,0.15260345,1.88711405,1.07219088,0.28883415,1.51785815,0.00000000,0.00000000
0.15591288,-2.11862469,-0.97886950,-0.35854152,1.01534879,0.00000000,0.00000000,0.13494702,1.89273179,1.07524717,0.30075940,1.53898704,0.00000000,0.00000000
0.12693061,-2.11455154,-0.98455215,-0.37925062,1.00402641,0.00000000,0.00000000,0.11901662,1.89893603,1.07833707,0.31272987,1.55295646,0.00000000,0.00000000
0.09565558,-2.11360002,-0.98984724,-0.40248123,0.99375373,0.00000000,0.00000000,0.10424007,1.90525079,1.08139062,0.32374576,1.56579363,0.00000000,0.00000000
0.06220185,-2.11598849,-0.99451298,-0.42816904,0.97945386,0.00000000,0.00000000,0.09115990,1.91177964,1.08436358,0.33380854,1.57237422,0.00000000,0.00000000
0.02685626,-2.12153888,-0.99834043,-0.45597243,0.96700060,0.00000000,0.00000000,0.07976398,1.91852081,1.08718073,0.34260762,1.58164406,0.00000000,0.00000000
-0.00950304,-2.12986946,-1.00106573,-0.48513037,0.95202452,0.00000000,0.00000000,0.06946163,1.92576480,1.08966446,0.34972310,1.59003294,0.00000000,0.00000000
-0.04531394,-2.14025831,-1.00239658,-0.51435184,0.93960309,0.00000000,0.00000000,0.05949485,1.93379557,1.09162176,0.35482574,1.59477174,0.00000000,0.00000000
-0.07848290,-2.15117431,-1.00217402,-0.54170108,0.93113667,0.00000000,0.00000000,0.04907629,1.94258535,1.09291506,0.35764033,1.60638928,0.00000000,0.00000000
-0.10667536,-2.16004610,-1.00052905,-0.56467003,0.92580646,0.00000000,0.00000000,0.03730647,1.95193624,1.09344018,0.35786909,1.61546087,0.00000000,0.00000000
-0.12763007,-2.16405392,-0.99778175,-0.58068603,0.92089361,0.00000000,0.00000000,0.02336203,1.96160090,1.09313202,0.35525000,1.62620735,0.00000000,0.00000000
-0.13946882,-2.16142297,-0.99414378,-0.58782303,0.91681409,0.00000000,0.00000000,0.00706137,1.97104287,1.09207022,0.34973806,1.63491929,0.00000000,0.00000000
-0.14063078,-2.15150237,-0.98960191,-0.58491528,0.91061199,0.00000000,0.00000000,-0.01122791,1.97955668,1.09044564,0.34149334,1.64664125,0.00000000,0.00000000
-0.12982704,-2.13412762,-0.98398775,-0.57136196,0.90627199,0.00000000,0.00000000,-0.03094621,1.98660767,1.08845747,0.33080962,1.65936947,0.00000000,0.00000000
-0.10675061,-2.10979390,-0.97706240,-0.54735589,0.89989072,0.00000000,0.00000000,-0.05104842,1.99187410,1.08632672,0.31829822,1.67016888,0.00000000,0.00000000
-0.07309922,-2.08049273,-0.96856052,-0.51447564,0.88909602,0.00000000,0.00000000,-0.06909642,1.99480033,1.08444357,0.30527872,1.67982805,0.00000000,0.00000000
-0.03201462,-2.04940414,-0.95826453,-0.47545519,0.87610573,0.00000000,0.00000000,-0.08146023,1.99433696,1.08336210,0.29366216,1.68887341,0.00000000,0.00000000
0.01354770,-2.01946568,-0.94612539,-0.43309513,0.86429530,0.00000000,0.00000000,-0.08497059,1.98969924,1.08351552,0.28529438,1.69818985,0.00000000,0.00000000
0.06173129,-1.99272215,-0.93225682,-0.38954490,0.84986889,0.00000000,0.00000000,-0.07808530,1.98124671,1.08499265,0.28149745,1.71066761,0.00000000,0.00000000
0.11143365,-1.97080982,-0.91685045,-0.34648585,0.83651370,0.00000000,0.00000000,-0.06046931,1.97036147,1.08761442,0.28317362,1.72001278,0.00000000,0.00000000
0.16194128,-1.95536137,-0.90011674,-0.30540955,0.82604623,0.00000000,0.00000000,-0.03264840,1.95873916,1.09106827,0.29074299,1.72650564,0.00000000,0.00000000
0.21270438,-1.94778967,-0.88231319,-0.26768652,0.80904371,0.00000000,0.00000000,0.00264579,1.94811618,1.09481561,0.30332083,1.72970009,0.00000000,0.00000000
0.26207390,-1.94887221,-0.86389148,-0.23494840,0.79908031,0.00000000,0.00000000,0.04063094,1.94045591,1.09804845,0.31890664,1.72854161,0.00000000,0.00000000
0.30662411,-1.95849490,-0.84550959,-0.20919691,0.79194790,0.00000000,0.00000000,0.07886125,1.93719316,1.10018694,0.33659926,1.72945106,0.00000000,0.00000000
0.34279042,-1.97566235,-0.82779980,-0.19202244,0.78519940,0.00000000,0.00000000,0.11733478,1.93870890,1.10100591,0.35644215,1.72587383,0.00000000,0.00000000
0.36816096,-1.99883795,-0.81121624,-0.18412653,0.78370929,0.00000000,0.00000000,0.15656698,1.94450760,1.10046911,0.37839109,1.71991181,0.00000000,0.00000000
0.38181797,-2.02642751,-0.79600757,-0.18536551,0.78368163,0.00000000,0.00000000,0.19658826,1.95332468,1.09864151,0.40179217,1.71456480,0.00000000,0.00000000
0.38450998,-2.05699635,-0.78222698,-0.19482371,0.78532887,0.00000000,0.00000000,0.23511963,1.96372223,1.09537375,0.42463809,1.70837176,0.00000000,0.00000000
0.37810621,-2.08879566,-0.76983500,-0.21092285,0.78757936,0.00000000,0.00000000,0.26719671,1.97518373,1.09001720,0.44383478,1.70262837,0.00000000,0.00000000
0.36440802,-2.11943579,-0.75883192,-0.23180595,0.78570414,0.00000000,0.00000000,0.28986698,1.98700023,1.08223116,0.45731896,1.69301736,0.00000000,0.00000000
0.34545732,-2.14570665,-0.74925923,-0.25510490,0.78596711,0.00000000,0.00000000,0.30297279,1.99822867,1.07210624,0.46442121,1.68836904,0.00000000,0.00000000
0.32289061,-2.16303635,-0.74135965,-0.27785447,0.78625554,0.00000000,0.00000000,0.30838707,2.00888014,1.05979860,0.46586573,1.68334591,0.00000000,0.00000000
0.29623789,-2.16908503,-0.73583204,-0.29713139,0.78351742,0.00000000,0.00000000,0.30791664,2.01872635,1.04552853,0.46231574,1.67617226,0.00000000,0.00000000
0.26368010,-2.16995978,-0.73354036,-0.31090611,0.78034824,0.00000000,0.00000000,0.30221260,2.02663636,1.02958429,0.45365769,1.66896236,0.00000000,0.00000000
0.22325084,-2.16984916,-0.73506296,-0.31868157,0.77889705,0.00000000,0.00000000,0.29166248,2.03095865,1.01235020,0.43965319,1.66033387,0.00000000,0.00000000
0.17417642,-2.16734028,-0.74039942,-0.32110441,0.77820814,0.00000000,0.00000000,0.27510607,2.03108215,0.99377126,0.41993713,1.65086579,0.00000000,0.00000000
0.11753391,-2.15677953,-0.74888301,-0.31947359,0.77886379,0.00000000,0.00000000,0.25021911,2.02808952,0.97331703,0.39438558,1.64710772,0.00000000,0.00000000
0.05644812,-2.13621449,-0.75930387,-0.31514311,0.77957767,0.00000000,0.00000000,0.21664421,2.02434635,0.95056915,0.36426023,1.63792837,0.00000000,0.00000000
-0.00624180,-2.10929084,-0.77054983,-0.30945441,0.78208417,0.00000000,0.00000000,0.17779545,2.02236938,0.92567891,0.33243850,1.62751102,0.00000000,0.00000000
-0.07034050,-2.08021307,-0.78207189,-0.30420282,0.78288156,0.00000000,0.00000000,0.13646223,2.02298713,0.89906335,0.30073971,1.62005472,0.00000000,0.00000000
-0.13564292,-2.05227566,-0.79346818,-0.30083492,0.78709036,0.00000000,0.00000000,0.09319320,2.02647758,0.87096864,0.26975507,1.61005807,0.00000000,0.00000000
-0.20014387,-2.02809238,-0.80419964,-0.29984504,0.79332030,0.00000000,0.00000000,0.04812403,2.03318286,0.84158051,0.23997726,1.60232508,0.00000000,0.00000000
-0.26112926,-2.00935650,-0.81374866,-0.30099565,0.79532743,0.00000000,0.00000000,0.00265358,2.04322028,0.81123126,0.21242340,1.58994460,0.00000000,0.00000000
-0.31634375,-1.99679196,-0.82176226,-0.30367053,0.79625332,0.00000000,0.00000000,-0.04123865,2.05645156,0.78030246,0.18831548,1.58458567,0.00000000,0.00000000
-0.36369824,-1.99037433,-0.82798761,-0.30682084,0.79795820,0.00000000,0.00000000,-0.08200032,2.07278299,0.74908638,0.16876309,1.58224738,0.00000000,0.00000000
-0.40064758,-1.98979175,-0.83214420,-0.30896679,0.79739070,0.00000000,0.00000000,-0.11864264,2.09228158,0.71777266,0.15474775,1.57569563,0.00000000,0.00000000
-0.42557043,-1.99555230,-0.83396995,-0.30985165,0.79699302,0.00000000,0.00000000,-0.15108341,2.11453199,0.68648165,0.14669040,1.57375419,0.00000000,0.00000000
-0.43985993,-2.00735950,-0.83371615,-0.31113490,0.79971451,0.00000000,0.00000000,-0.18057509,2.13736248,0.65531063,0.14362890,1.57161319,0.00000000,0.00000000
-0.44477111,-2.02154946,-0.83205026,-0.31236458,0.80227637,0.00000000,0.00000000,-0.20781809,2.15642834,0.62447047,0.14358088,1.57066572,0.00000000,0.00000000
-0.44137537,-2.03685951,-0.82923394,-0.31328997,0.80551726,0.00000000,0.00000000,-0.23142977,2.16713691,0.59435445,0.14423889,1.56778514,0.00000000,0.00000000
-0.43060574,-2.05384898,-0.82521874,-0.31349847,0.81217879,0.00000000,0.00000000,-0.24889369,2.16983461,0.56543738,0.14301933,1.55902600,0.00000000,0.00000000
-0.41205484,-2.06818819,-0.82045221,-0.30905348,0.82186848,0.00000000,0.00000000,-0.25864142,2.17000008,0.53804862,0.13721767,1.54825151,0.00000000,0.00000000
-0.38734907,-2.07707739,-0.81547582,-0.29869151,0.83277661,0.00000000,0.00000000,-0.26072505,2.17000008,0.51223505,0.12471574,1.53813004,0.00000000,0.00000000
-0.35842401,-2.08038425,-0.81054896,-0.28308043,0.84299904,0.00000000,0.00000000,-0.25569266,2.17000008,0.48782817,0.10459178,1.52617919,0.00000000,0.00000000
-0.32609910,-2.07833457,-0.80577910,-0.26272163,0.84657913,0.00000000,0.00000000,-0.24406716,2.17000008,0.46453726,0.07698869,1.51097226,0.00000000,0.00000000
-0.29083917,-2.07141948,-0.80123365,-0.23828898,0.85308629,0.00000000,0.00000000,-0.22648638,2.17000008,0.44201115,0.04282932,1.49843788,0.00000000,0.00000000
-0.25397986,-2.06056786,-0.79705167,-0.21122897,0.85421771,0.00000000,0.00000000,-0.20387296,2.16988349,0.41990232,0.00376474,1.49245465,0.00000000,0.00000000
-0.21839245,-2.04703069,-0.79349589,-0.18393156,0.85189331,0.00000000,0.00000000,-0.17727409,2.16795802,0.39794776,-0.03791953,1.48883533,0.00000000,0.00000000
-0.18715841,-2.03228903,-0.79080886,-0.15900077,0.85215729,0.00000000,0.00000000,-0.14733247,2.15993881,0.37601703,-0.07986082,1.48903680,0.00000000,0.00000000
-0.16121137,-2.01819563,-0.78901917,-0.13814421,0.84984219,0.00000000,0.00000000,-0.11445659,2.14408731,0.35410306,-0.12034613,1.48755157,0.00000000,0.00000000
-0.13931805,-2.00707841,-0.78798187,-0.12215726,0.84784758,0.00000000,0.00000000,-0.07988334,2.12159300,0.33235219,-0.15857232,1.47798824,0.00000000,0.00000000
-0.11964466,-2.00090241,-0.78755671,-0.11129598,0.84457755,0.00000000,0.00000000,-0.04615104,2.09400868,0.31113195,-0.19439150,1.46982551,0.00000000,0.00000000
-0.10124378,-2.00036097,-0.78771335,-0.10551696,0.84574419,0.00000000,0.00000000,-0.01595503,2.06294966,0.29098406,-0.22776027,1.45739877,0.00000000,0.00000000
-0.08443268,-2.00492430,-0.78850853,-0.10459873,0.84501529,0.00000000,0.00000000,0.00919643,2.03028584,0.27246067,-0.25845397,1.44233441,0.00000000,0.00000000
-0.07035509,-2.01339412,-0.79003066,-0.10829204,0.84010726,0.00000000,0.00000000,0.02899129,1.99802792,0.25602874,-0.28610069,1.42816281,0.00000000,0.00000000
-0.06042629,-2.02442980,-0.79236996,-0.11655417,0.83173108,0.00000000,0.00000000,0.04350028,1.96809006,0.24210529,-0.31033790,1.41758657,0.00000000,0.00000000
-0.05574890,-2.03685141,-0.79559290,-0.12950908,0.82751691,0.00000000,0.00000000,0.05223372,1.94173968,0.23117824,-0.33119813,1.40718150,0.00000000,0.00000000
-0.05684861,-2.04956532,-0.79973429,-0.14707647,0.82480639,0.00000000,0.00000000,0.05359215,1.91930640,0.22391692,-0.34938058,1.39445281,0.00000000,0.00000000
-0.06476241,-2.06130075,-0.80486882,-0.16902408,0.82072687,0.00000000,0.00000000,0.04608598,1.90144110,0.22097772,-0.36535782,1.38283169,0.00000000,0.00000000
-0.08049347,-2.07133675,-0.81101418,-0.19506769,0.81529921,0.00000000,0.00000000,0.03108727,1.89038050,0.22240597,-0.37796038,1.37229514,0.00000000,0.00000000
-0.10114822,-2.08013821,-0.81778836,-0.22378236,0.80762798,0.00000000,0.00000000,0.01169304,1.88815260,0.22769481,-0.38539478,1.35540378,0.00000000,0.00000000
-0.12346120,-2.08863664,-0.82467020,-0.25374958,0.79910433,0.00000000,0.00000000,-0.00995744,1.89525700,0.23636456,-0.38673958,1.34809351,0.00000000,0.00000000
-0.14612173,-2.09766960,-0.83124286,-0.28420055,0.79278547,0.00000000,0.00000000,-0.03268320,1.91123796,0.24804147,-0.38175520,1.34566116,0.00000000,0.00000000
-0.16944316,-2.10759187,-0.83728272,-0.31475785,0.78931773,0.00000000,0.00000000,-0.05484819,1.93592262,0.26218966,-0.36993775,1.33968568,0.00000000,0.00000000
-0.19400690,-2.11811566,-0.84267598,-0.34495676,0.78859079,0.00000000,0.00000000,-0.07358667,1.96918130,0.27793264,-0.35048583,1.33557701,0.00000000,0.00000000
-0.21780844,-2.12866545,-0.84701914,-0.37334242,0.78550720,0.00000000,0.00000000,-0.08659716,2.00761962,0.29436201,-0.32440478,1.32968509,0.00000000,0.00000000
-0.23851356,-2.13847923,-0.84989184,-0.39828512,0.78717881,0.00000000,0.00000000,-0.09342881,2.04759431,0.31107566,-0.29324636,1.32426798,0.00000000,0.00000000
-0.25479299,-2.14641547,-0.85110122,-0.41839018,0.78891122,0.00000000,0.00000000,-0.09443086,2.08563137,0.32790166,-0.25873318,1.31975698,0.00000000,0.00000000
-0.26550156,-2.15091777,-0.85060585,-0.43224669,0.79137468,0.00000000,0.00000000,-0.09074432,2.11842179,0.34482056,-0.22279106,1.31387091,0.00000000,0.00000000
-0.26941445,-2.15038252,-0.84842861,-0.43849126,0.79795367,0.00000000,0.00000000,-0.08430051,2.14375210,0.36195749,-0.18701404,1.30953646,0.00000000,0.00000000
-0.26533926,-2.14362741,-0.84459072,-0.43605769,0.80558181,0.00000000,0.00000000,-0.07758723,2.16037703,0.37947670,-0.15263699,1.30250454,0.00000000,0.00000000
-0.25228605,-2.13026929,-0.83905685,-0.42447487,0.80908448,0.00000000,0.00000000,-0.07316666,2.16813278,0.39746791,-0.12090055,1.29089367,0.00000000,0.00000000
-0.22986411,-2.11099768,-0.83173251,-0.40420458,0.81574827,0.00000000,0.00000000,-0.07275825,2.16989565,0.41588077,-0.09318836,1.28102291,0.00000000,0.00000000
-0.19875817,-2.08755636,-0.82256019,-0.37683037,0.82228559,0.00000000,0.00000000,-0.07661983,2.17000008,0.43456078,-0.07087556,1.27089989,0.00000000,0.00000000
-0.16105835,-2.06231594,-0.81167036,-0.34494060,0.82575041,0.00000000,0.00000000,-0.08375213,2.17000008,0.45333993,-0.05516852,1.26153553,0.00000000,0.00000000
-0.12006637,-2.03738570,-0.79946899,-0.31151161,0.82438070,0.00000000,0.00000000,-0.09261605,2.17000008,0.47210127,-0.04695282,1.25341809,0.00000000,0.00000000
-0.07903053,-2.01357532,-0.78652996,-0.27875558,0.82359922,0.00000000,0.00000000,-0.10182445,2.16982651,0.49080244,-0.04628633,1.24898386,0.00000000,0.00000000
-0.04019494,-1.99043524,-0.77338958,-0.24760817,0.82545197,0.00000000,0.00000000,-0.10997567,2.16703725,0.50945830,-0.05178746,1.25076079,0.00000000,0.00000000
-0.00506602,-1.96722329,-0.76044607,-0.21823917,0.83067548,0.00000000,0.00000000,-0.11484236,2.15640354,0.52810460,-0.06055950,1.25773704,0.00000000,0.00000000
0.02523463,-1.94398034,-0.74793059,-0.19079390,0.83775228,0.00000000,0.00000000,-0.11385882,2.13830996,0.54678714,-0.06919927,1.27060843,0.00000000,0.00000000
0.05027784,-1.92199659,-0.73589408,-0.16570748,0.84765095,0.00000000,0.00000000,-0.10638261,2.11632586,0.56560653,-0.07523292,1.27958214,0.00000000,0.00000000
0.06985699,-1.90310013,-0.72434485,-0.14377189,0.85788345,0.00000000,0.00000000,-0.09257922,2.09337807,0.58467054,-0.07697734,1.28421926,0.00000000,0.00000000
0.08380231,-1.88893580,-0.71331763,-0.12592752,0.86861408,0.00000000,0.00000000,-0.07130482,2.07107925,0.60400391,-0.07302383,1.28307998,0.00000000,0.00000000
0.09262399,-1.88086879,-0.70282161,-0.11288461,0.87739784,0.00000000,0.00000000,-0.04146399,2.04977036,0.62359774,-0.06273044,1.28558683,0.00000000,0.00000000
0.09787045,-1.88003731,-0.69281048,-0.10490522,0.88153756,0.00000000,0.00000000,-0.00359589,2.02892256,0.64346844,-0.04654156,1.29076624,0.00000000,0.00000000
0.10203838,-1.88717973,-0.68319148,-0.10171229,0.88474280,0.00000000,0.00000000,0.03938054,2.00773191,0.66366065,-0.02597620,1.29108775,0.00000000,0.00000000
0.10788506,-1.90225112,-0.67386818,-0.10258134,0.88803017,0.00000000,0.00000000,0.08285998,1.98605728,0.68418968,-0.00308793,1.28998959,0.00000000,0.00000000
0.11729123,-1.92441022,-0.66478944,-0.10671835,0.89340460,0.00000000,0.00000000,0.12260365,1.96476340,0.70497376,0.02034931,1.29452825,0.00000000,0.00000000
0.13054663,-1.95223677,-0.65597820,-0.11352917,0.89706588,0.00000000,0.00000000,0.15602516,1.94501626,0.72583228,0.04312888,1.29739308,0.00000000,0.00000000
0.14618053,-1.98370302,-0.64756149,-0.12261779,0.90033531,0.00000000,0.00000000,0.18195491,1.92777336,0.74654198,0.06451175,1.30292070,0.00000000,0.00000000
0.16128184,-2.01598024,-0.63979369,-0.13360347,0.89889777,0.00000000,0.00000000,0.20009615,1.91357672,0.76689100,0.08403611,1.31292653,0.00000000,0.00000000
0.17256545,-2.04558277,-0.63301724,-0.14585288,0.89809293,0.00000000,0.00000000,0.21096234,1.90254211,0.78672129,0.10147857,1.32449770,0.00000000,0.00000000
0.17797388,-2.06918168,-0.62752724,-0.15832256,0.89676428,0.00000000,0.00000000,0.21544783,1.89433265,0.80594057,0.11664932,1.33606195,0.00000000,0.00000000
0.17728816,-2.08464861,-0.62344944,-0.16985613,0.89546156,0.00000000,0.00000000,0.21404251,1.88831818,0.82449275,0.12914757,1.34742713,0.00000000,0.00000000
0.17120168,-2.09152651,-0.62074900,-0.17977576,0.88614720,0.00000000,0.00000000,0.20661201,1.88403523,0.84232175,0.13847883,1.35834181,0.00000000,0.00000000
0.16046640,-2.09081936,-0.61929047,-0.18815005,0.87686974,0.00000000,0.00000000,0.19288546,1.88147223,0.85937619,0.14439927,1.36204767,0.00000000,0.00000000
0.14568223,-2.08459997,-0.61887324,-0.19571453,0.87127817,0.00000000,0.00000000,0.17374052,1.88117814,0.87567341,0.14754228,1.36671555,0.00000000,0.00000000
0.12713464,-2.07530999,-0.61928904,-0.20355588,0.86132669,0.00000000,0.00000000,0.15194532,1.88406849,0.89134645,0.14969011,1.37359929,0.00000000,0.00000000
0.10511888,-2.06475854,-0.62035644,-0.21246116,0.85063523,0.00000000,0.00000000,0.13021058,1.89059353,0.90656310,0.15254571,1.38746357,0.00000000,0.00000000
0.08033018,-2.05390239,-0.62189412,-0.22262964,0.83802605,0.00000000,0.00000000,0.10994077,1.90050483,0.92145389,0.15695068,1.40430260,0.00000000,0.00000000
0.05393654,-2.04311752,-0.62369013,-0.23375764,0.82549763,0.00000000,0.00000000,0.09148537,1.91296244,0.93611962,0.16294020,1.42133915,0.00000000,0.00000000
0.02767935,-2.03254724,-0.62546039,-0.24519376,0.81606364,0.00000000,0.00000000,0.07460972,1.92673337,0.95065051,0.17002627,1.43149209,0.00000000,0.00000000
0.00383915,-2.02226233,-0.62684095,-0.25607222,0.80615485,0.00000000,0.00000000,0.05886764,1.94066083,0.96512002,0.17761035,1.43989515,0.00000000,0.00000000
-0.01510572,-2.01216054,-0.62744474,-0.26542142,0.79037046,0.00000000,0.00000000,0.04376296,1.95406651,0.97956502,0.18529023,1.44750333,0.00000000,0.00000000
-0.02688369,-2.00175977,-0.62694591,-0.27220511,0.77917701,0.00000000,0.00000000,0.02891493,1.96694219,0.99397647,0.19304597,1.45234108,0.00000000,0.00000000
-0.02985019,-1.99034965,-0.62513787,-0.27550027,0.76805091,0.00000000,0.00000000,0.01459927,1.97961998,1.00835991,0.20135576,1.46033895,0.00000000,0.00000000
-0.02353677,-1.97774613,-0.62194812,-0.27499515,0.76381606,0.00000000,0.00000000,0.00240772,1.99154997,1.02289462,0.21101680,1.46607316,0.00000000,0.00000000
-0.00840028,-1.96456575,-0.61738986,-0.27106887,0.76019990,0.00000000,0.00000000,-0.00506177,2.00073361,1.03798008,0.22274698,1.46973932,0.00000000,0.00000000
0.01504978,-1.95163143,-0.61150837,-0.26429754,0.75482196,0.00000000,0.00000000,-0.00552504,2.00521302,1.05400431,0.23702340,1.47558224,0.00000000,0.00000000
0.04620139,-1.93985319,-0.60439742,-0.25541580,0.75462002,0.00000000,0.00000000,0.00237027,2.00412369,1.07118142,0.25414616,1.48056030,0.00000000,0.00000000
0.08392528,-1.93042338,-0.59622508,-0.24549390,0.75915617,0.00000000,0.00000000,0.01896223,1.99754691,1.08954048,0.27419060,1.48376381,0.00000000,0.00000000
0.12653942,-1.92464364,-0.58723712,-0.23582152,0.76168138,0.00000000,0.00000000,0.04301917,1.98637736,1.10885620,0.29667222,1.48530245,0.00000000,0.00000000
0.17187631,-1.92339504,-0.57777518,-0.22763023,0.76594615,0.00000000,0.00000000,0.07118667,1.97261083,1.12851346,0.32031658,1.48420167,0.00000000,0.00000000
0.21715324,-1.92706013,-0.56828332,-0.22213377,0.76953530,0.00000000,0.00000000,0.10102302,1.95804286,1.14794350,0.34428668,1.48143291,0.00000000,0.00000000
0.25950515,-1.93590617,-0.55920708,-0.22059466,0.77125722,0.00000000,0.00000000,0.13307677,1.94304621,1.16703773,0.36891386,1.47762322,0.00000000,0.00000000
0.29676399,-1.94987404,-0.55091953,-0.22396216,0.77183533,0.00000000,0.00000000,0.16764662,1.92754316,1.18573427,0.39424506,1.48191476,0.00000000,0.00000000
0.32806742,-1.96822000,-0.54367918,-0.23241438,0.77006662,0.00000000,0.00000000,0.20247366,1.91174710,1.20366776,0.41900015,1.48953807,0.00000000,0.00000000
0.35351878,-1.98925412,-0.53768551,-0.24523276,0.76650554,0.00000000,0.00000000,0.23427345,1.89645600,1.22024214,0.44150797,1.49765694,0.00000000,0.00000000
0.37302473,-2.01119328,-0.53315347,-0.26157853,0.76937151,0.00000000,0.00000000,0.26175988,1.88171065,1.23524070,0.46094418,1.50615656,0.00000000,0.00000000
0.38654140,-2.03266788,-0.53024799,-0.28072184,0.77358854,0.00000000,0.00000000,0.28474423,1.86697781,1.24873185,0.47689611,1.51974785,0.00000000,0.00000000
0.39437914,-2.05257010,-0.52905512,-0.30190745,0.77550596,0.00000000,0.00000000,0.30265912,1.85240126,1.26064301,0.48895958,1.53628159,0.00000000,0.00000000
0.39697033,-2.06990385,-0.52962458,-0.32436812,0.78352040,0.00000000,0.00000000,0.31434038,1.83932853,1.27058995,0.49682590,1.54976833,0.00000000,0.00000000
0.39470783,-2.08360434,-0.53200614,-0.34727642,0.79026151,0.00000000,0.00000000,0.31841406,1.82988191,1.27796686,0.50041556,1.55874896,0.00000000,0.00000000
0.38799262,-2.09226894,-0.53625953,-0.36955446,0.80224222,0.00000000,0.00000000,0.31382710,1.82612419,1.28215981,0.49991742,1.56283736,0.00000000,0.00000000
0.37738428,-2.09417701,-0.54241955,-0.38982707,0.81752986,0.00000000,0.00000000,0.30039042,1.82905984,1.28287721,0.49569324,1.56262267,0.00000000,0.00000000
0.36358666,-2.08791757,-0.55044240,-0.40681082,0.83173114,0.00000000,0.00000000,0.27907825,1.83796954,1.28040802,0.48813266,1.56429565,0.00000000,0.00000000
0.34721008,-2.07316470,-0.56018442,-0.41989443,0.84652001,0.00000000,0.00000000,0.25121215,1.85099494,1.27540278,0.47744724,1.56322432,0.00000000,0.00000000
0.32862151,-2.05095029,-0.57141143,-0.42940733,0.85974747,0.00000000,0.00000000,0.21795684,1.86575878,1.26867115,0.46363994,1.55988503,0.00000000,0.00000000
0.30799502,-2.02334404,-0.58381897,-0.43644473,0.88059342,0.00000000,0.00000000,0.17998372,1.87983429,1.26102114,0.44644400,1.56632602,0.00000000,0.00000000
0.28510219,-1.99302673,-0.59710193,-0.44264004,0.89868993,0.00000000,0.00000000,0.13789502,1.89088798,1.25322711,0.42555717,1.57205892,0.00000000,0.00000000
0.25904357,-1.96268189,-0.61106765,-0.44983184,0.91282266,0.00000000,0.00000000,0.09337615,1.89744043,1.24590385,0.40144885,1.57660747,0.00000000,0.00000000
0.22919342,-1.93388522,-0.62558347,-0.45911434,0.92789549,0.00000000,0.00000000,0.04771718,1.90151441,1.23877144,0.37522933,1.58240902,0.00000000,0.00000000
0.19637364,-1.90728319,-0.64030010,-0.47055280,0.93430203,0.00000000,0.00000000,0.00097389,1.90683103,1.23110545,0.34777462,1.58190203,0.00000000,0.00000000
0.16281351,-1.88393188,-0.65445119,-0.48395294,0.94432133,0.00000000,0.00000000,-0.04549124,1.91519260,1.22276998,0.32026473,1.57813668,0.00000000,0.00000000
0.13052472,-1.86542928,-0.66718620,-0.49948591,0.95115280,0.00000000,0.00000000,-0.08857042,1.92595577,1.21428144,0.29435480,1.57531893,0.00000000,0.00000000
0.10099558,-1.85276985,-0.67782784,-0.51714045,0.95760161,0.00000000,0.00000000,-0.12599865,1.93780768,1.20619011,0.27121490,1.57748222,0.00000000,0.00000000
0.07533735,-1.84609532,-0.68588936,-0.53649491,0.97027576,0.00000000,0.00000000,-0.15713736,1.94975901,1.19883490,0.25127754,1.58249617,0.00000000,0.00000000
0.05423469,-1.84503186,-0.69104207,-0.55689901,0.98264337,0.00000000,0.00000000,-0.18240400,1.96115386,1.19240332,0.23450509,1.59467375,0.00000000,0.00000000
0.03811586,-1.84882283,-0.69307441,-0.57750791,0.99465263,0.00000000,0.00000000,-0.20237245,1.97156119,1.18702066,0.22085090,1.60450125,0.00000000,0.00000000
0.02753476,-1.85620272,-0.69184595,-0.59712774,1.00825191,0.00000000,0.00000000,-0.21680440,1.98074925,1.18281364,0.21078618,1.61708975,0.00000000,0.00000000
0.02321276,-1.86539352,-0.68730229,-0.61424816,1.01231444,0.00000000,0.00000000,-0.22466515,1.98884094,1.17988992,0.20531783,1.63230002,0.00000000,0.00000000
0.02574301,-1.87445307,-0.67950588,-0.62737852,1.01585960,0.00000000,0.00000000,-0.22479522,1.99634445,1.17829955,0.20560677,1.64925992,0.00000000,0.00000000
0.03526404,-1.88170707,-0.66865587,-0.63541943,1.01805592,0.00000000,0.00000000,-0.21644694,2.00381804,1.17804348,0.21254820,1.67027903,0.00000000,0.00000000
0.05124255,-1.88590324,-0.65512711,-0.63780200,1.01693511,0.00000000,0.00000000,-0.19962321,2.01130700,1.17911029,0.22633660,1.69558716,0.00000000,0.00000000
0.07249849,-1.88615000,-0.63947207,-0.63441294,1.01005852,0.00000000,0.00000000,-0.17516159,2.01793647,1.18151343,0.24616826,1.71777570,0.00000000,0.00000000
0.09759301,-1.88204741,-0.62226677,-0.62553293,0.99916893,0.00000000,0.00000000,-0.14440899,2.02199173,1.18531203,0.27036375,1.73877311,0.00000000,0.00000000
0.12538373,-1.87405539,-0.60386866,-0.61190349,0.98523647,0.00000000,0.00000000,-0.10868867,2.02174735,1.19056308,0.29696438,1.76009476,0.00000000,0.00000000
0.15527305,-1.86356854,-0.58434862,-0.59473479,0.97056055,0.00000000,0.00000000,-0.06911527,2.01638007,1.19722188,0.32427633,1.77841318,0.00000000,0.00000000
0.18710434,-1.85232115,-0.56364644,-0.57538790,0.95600802,0.00000000,0.00000000,-0.02691667,2.00620866,1.20505917,0.35094273,1.79675090,0.00000000,0.00000000
0.22105563,-1.84169281,-0.54171133,-0.55493802,0.94428247,0.00000000,0.00000000,0.01625603,1.99249017,1.21362913,0.37581295,1.81498897,0.00000000,0.00000000
0.25738963,-1.83264399,-0.51856291,-0.53416800,0.93265843,0.00000000,0.00000000,0.05852985,1.97719681,1.22228658,0.39802924,1.83683300,0.00000000,0.00000000
0.29573649,-1.82614803,-0.49442291,-0.51403397,0.92345560,0.00000000,0.00000000,0.09846741,1.96237862,1.23036695,0.41721645,1.85373294,0.00000000,0.00000000
0.33464435,-1.82340145,-0.46980506,-0.49592215,0.91215944,0.00000000,0.00000000,0.13544539,1.94918454,1.23746276,0.43339646,1.87168980,0.00000000,0.00000000
0.37207213,-1.82535064,-0.44541728,-0.48120633,0.89796686,0.00000000,0.00000000,0.16949826,1.93761730,1.24352098,0.44681016,1.88548338,0.00000000,0.00000000
0.40600497,-1.83217180,-0.42202121,-0.47071245,0.88437849,0.00000000,0.00000000,0.20124692,1.92671514,1.24882960,0.45787627,1.90214932,0.00000000,0.00000000
0.43485969,-1.84318435,-0.40030819,-0.46452788,0.86368471,0.00000000,0.00000000,0.23128243,1.91499376,1.25385189,0.46686494,1.92061448,0.00000000,0.00000000
0.45800889,-1.85730708,-0.38070759,-0.46216682,0.84717041,0.00000000,0.00000000,0.25822839,1.90215003,1.25857484,0.47312078,1.94042766,0.00000000,0.00000000
0.47553021,-1.87356603,-0.36340830,-0.46298158,0.82819480,0.00000000,0.00000000,0.27850947,1.89027083,1.26214790,0.47523075,1.96361947,0.00000000,0.00000000
0.48753989,-1.89133179,-0.34852421,-0.46650496,0.81261510,0.00000000,0.00000000,0.29017311,1.88092601,1.26403141,0.47255787,1.98549485,0.00000000,0.00000000
0.49454322,-1.91007078,-0.33603781,-0.47223613,0.80342209,0.00000000,0.00000000,0.29337448,1.87479913,1.26415730,0.46571437,2.00297260,0.00000000,0.00000000
0.49737513,-1.92884505,-0.32585070,-0.47933564,0.79417628,0.00000000,0.00000000,0.28883114,1.87233841,1.26261449,0.45586717,2.02169061,0.00000000,0.00000000
0.49665916,-1.94636500,-0.31790701,-0.48676535,0.78483105,0.00000000,0.00000000,0.27724048,1.87442350,1.25942421,0.44438487,2.04476547,0.00000000,0.00000000
0.49266055,-1.96134675,-0.31220868,-0.49355531,0.77278394,0.00000000,0.00000000,0.25868046,1.88206303,1.25454569,0.43229544,2.06205249,0.00000000,0.00000000
0.48558939,-1.97265351,-0.30874377,-0.49885380,0.76534581,0.00000000,0.00000000,0.23277503,1.89510596,1.24817085,0.41981563,2.08278656,0.00000000,0.00000000
0.47551689,-1.97939610,-0.30750957,-0.50200927,0.75682938,0.00000000,0.00000000,0.20062175,1.91210568,1.24087620,0.40749365,2.10153413,0.00000000,0.00000000
0.46194953,-1.98101127,-0.30861345,-0.50267792,0.74811727,0.00000000,0.00000000,0.16433579,1.93086112,1.23343325,0.39619410,2.11849833,0.00000000,0.00000000
0.44399044,-1.97724366,-0.31222287,-0.50078094,0.75330740,0.00000000,0.00000000,0.12592083,1.94923472,1.22654057,0.38659012,2.13613129,0.00000000,0.00000000
0.42086998,-1.96828580,-0.31841487,-0.49651164,0.75124639,0.00000000,0.00000000,0.08724610,1.96537483,1.22080028,0.37922406,2.15232897,0.00000000,0.00000000
0.39210379,-1.95468938,-0.32715860,-0.49027848,0.75133431,0.00000000,0.00000000,0.04954201,1.97818828,1.21659935,0.37441394,2.16657352,0.00000000,0.00000000
0.35705391,-1.93710732,-0.33846724,-0.48264396,0.75513357,0.00000000,0.00000000,0.01307098,1.98741400,1.21407413,0.37207627,2.17843604,0.00000000,0.00000000
0.31484807,-1.91610122,-0.35243031,-0.47421750,0.75442433,0.00000000,0.00000000,-0.02089342,1.99390721,1.21319985,0.37249103,2.18727112,0.00000000,0.00000000
0.26567498,-1.89239812,-0.36883619,-0.46553084,0.75591958,0.00000000,0.00000000,-0.05021943,1.99996841,1.21365929,0.37583196,2.18918824,0.00000000,0.00000000
0.21198288,-1.86723149,-0.38683468,-0.45696342,0.75343186,0.00000000,0.00000000,-0.07565685,2.00744367,1.21488953,0.38056695,2.19424987,0.00000000,0.00000000
0.15730770,-1.84205997,-0.40528065,-0.44877872,0.75089973,0.00000000,0.00000000,-0.09729036,2.01465034,1.21706617,0.38570786,2.19752550,0.00000000,0.00000000
0.10433616,-1.81798232,-0.42328808,-0.44114256,0.75166696,0.00000000,0.00000000,-0.11495286,2.01985407,1.22040892,0.39097852,2.19976044,0.00000000,0.00000000
0.05494309,-1.79557467,-0.44023162,-0.43400380,0.75244278,0.00000000,0.00000000,-0.12961504,2.02341151,1.22463179,0.39608750,2.19991732,0.00000000,0.00000000
0.01064564,-1.77510154,-0.45560533,-0.42712674,0.75770754,0.00000000,0.00000000,-0.14308342,2.02701783,1.22911978,0.40062451,2.19846034,0.00000000,0.00000000
-0.02743164,-1.75692677,-0.46898866,-0.42035565,0.76302129,0.00000000,0.00000000,-0.15707019,2.03216457,1.23332989,0.40423897,2.19768405,0.00000000,0.00000000
-0.05853847,-1.74162245,-0.48004463,-0.41370946,0.77026039,0.00000000,0.00000000,-0.17225064,2.03915310,1.23709023,0.40696409,2.20426369,0.00000000,0.00000000
-0.08194780,-1.72951186,-0.48850334,-0.40708148,0.78400046,0.00000000,0.00000000,-0.18804434,2.04711461,1.24062228,0.40929008,2.21381640,0.00000000,0.00000000
-0.09678777,-1.72027886,-0.49416426,-0.39997819,0.80193782,0.00000000,0.00000000,-0.20278448,2.05444431,1.24442816,0.41202879,2.22305322,0.00000000,0.00000000
-0.10233501,-1.71320283,-0.49692079,-0.39167449,0.82169884,0.00000000,0.00000000,-0.21390846,2.05937743,1.24913239,0.41622841,2.23000789,0.00000000,0.00000000
-0.09854601,-1.70780969,-0.49680090,-0.38166478,0.84097749,0.00000000,0.00000000,-0.21917647,2.06068373,1.25520861,0.42266142,2.23923874,0.00000000,0.00000000
-0.08621326,-1.70424461,-0.49397504,-0.36994934,0.85863411,0.00000000,0.00000000,-0.21852235,2.05817556,1.26269913,0.43105704,2.23907733,0.00000000,0.00000000
-0.06654576,-1.70299661,-0.48871028,-0.35689744,0.87839556,0.00000000,0.00000000,-0.21337064,2.05260777,1.27128100,0.44064301,2.23691511,0.00000000,0.00000000
-0.04073171,-1.70455170,-0.48131227,-0.34303242,0.89709729,0.00000000,0.00000000,-0.20466028,2.04534221,1.28050482,0.45125312,2.23543000,0.00000000,0.00000000
-0.00989451,-1.70934582,-0.47210181,-0.32895759,0.91723061,0.00000000,0.00000000,-0.19205745,2.03774643,1.29001009,0.46361697,2.23355174,0.00000000,0.00000000
0.02485983,-1.71778107,-0.46140704,-0.31531510,0.94153631,0.00000000,0.00000000,-0.17443115,2.03045106,1.29967034,0.47884199,2.23024631,0.00000000,0.00000000
0.06254222,-1.73029292,-0.44954589,-0.30288324,0.96137637,0.00000000,0.00000000,-0.15197200,2.02400327,1.30924988,0.49714208,2.22158957,0.00000000,0.00000000
0.10237622,-1.74724245,-0.43680793,-0.29243037,0.98418772,0.00000000,0.00000000,-0.12599336,2.01861000,1.31848228,0.51784724,2.21156383,0.00000000,0.00000000
0.14388071,-1.76888704,-0.42343280,-0.28460008,1.00779867,0.00000000,0.00000000,-0.09858932,2.01416755,1.32709444,0.53963947,2.20559072,0.00000000,0.00000000
0.18679483,-1.79541266,-0.40961710,-0.27991337,1.02891624,0.00000000,0.00000000,-0.07272095,2.01032639,1.33480442,0.56054968,2.19707561,0.00000000,0.00000000
0.23050325,-1.82684267,-0.39561376,-0.27882665,1.04300165,0.00000000,0.00000000,-0.05177928,2.00636411,1.34143209,0.57822746,2.18693447,0.00000000,0.00000000
0.27392861,-1.86274540,-0.38176501,-0.28157407,1.05146074,0.00000000,0.00000000,-0.03836868,2.00151920,1.34691691,0.59075606,2.18388748,0.00000000,0.00000000
0.31608763,-1.90190947,-0.36842823,-0.28782916,1.05804205,0.00000000,0.00000000,-0.03396276,1.99576128,1.35109448,0.59705806,2.18298769,0.00000000,0.00000000
0.35577354,-1.94249177,-0.35600981,-0.29682177,1.06189644,0.00000000,0.00000000,-0.03897737,1.98934400,1.35383689,0.59673148,2.17805767,0.00000000,0.00000000
0.39142016,-1.98244941,-0.34496516,-0.30762333,1.06283271,0.00000000,0.00000000,-0.05238475,1.98280776,1.35507894,0.59023470,2.17235923,0.00000000,0.00000000
0.42138278,-2.01985931,-0.33575153,-0.31932297,1.06527174,0.00000000,0.00000000,-0.07159265,1.97728074,1.35472345,0.57906204,2.16769004,0.00000000,0.00000000
0.44392985,-2.05269074,-0.32886076,-0.33094952,1.07381034,0.00000000,0.00000000,-0.09435694,1.97376335,1.35272765,0.56466115,2.16052461,0.00000000,0.00000000
0.45814699,-2.07905889,-0.32463929,-0.34146515,1.08209336,0.00000000,0.00000000,-0.11919821,1.97279894,1.34916258,0.54817265,2.15760994,0.00000000,0.00000000
0.46410203,-2.09761190,-0.32320765,-0.34995973,1.08566153,0.00000000,0.00000000,-0.14484774,1.97443831,1.34425950,0.53066742,2.15123916,0.00000000,0.00000000
0.46193352,-2.10770893,-0.32460040,-0.35593143,1.09345984,0.00000000,0.00000000,-0.17014474,1.97819614,1.33842432,0.51308292,2.14842057,0.00000000,0.00000000
0.45112845,-2.10937905,-0.32890928,-0.35942143,1.09874976,0.00000000,0.00000000,-0.19401979,1.98327363,1.33214951,0.49619442,2.14702463,0.00000000,0.00000000
0.43066984,-2.10315418,-0.33627382,-0.36090556,1.09888124,0.00000000,0.00000000,-0.21501759,1.98922157,1.32581913,0.48099074,2.14706850,0.00000000,0.00000000
0.40010038,-2.09047985,-0.34663782,-0.36132431,1.09861195,0.00000000,0.00000000,-0.23059301,1.99582124,1.31977975,0.46902603,2.15025353,0.00000000,0.00000000
0.36026239,-2.07394409,-0.35957730,-0.36204380,1.09802127,0.00000000,0.00000000,-0.23847814,2.00196648,1.31455505,0.46135178,2.15775228,0.00000000,0.00000000
0.31246412,-2.05563927,-0.37458134,-0.36403006,1.10092354,0.00000000,0.00000000,-0.23873433,2.00672841,1.31040585,0.45758978,2.16981888,0.00000000,0.00000000
0.25825518,-2.03664207,-0.39113253,-0.36753795,1.10381866,0.00000000,0.00000000,-0.23279716,2.01005793,1.30721915,0.45672175,2.17903924,0.00000000,0.00000000
0.19970863,-2.01742244,-0.40862039,-0.37226522,1.10754573,0.00000000,0.00000000,-0.22266503,2.01239586,1.30469191,0.45751885,2.18820095,0.00000000,0.00000000
0.13946195,-1.99820483,-0.42631438,-0.37756354,1.11025846,0.00000000,0.00000000,-0.21084832,2.01442933,1.30241001,0.45855334,2.20036077,0.00000000,0.00000000
0.08065513,-1.97913361,-0.44338021,-0.38259631,1.11222160,0.00000000,0.00000000,-0.20025320,2.01687765,1.29992390,0.45826697,2.21065307,0.00000000,0.00000000
0.02679623,-1.96015584,-0.45893934,-0.38636324,1.11702430,0.00000000,0.00000000,-0.19330052,2.02027750,1.29688478,0.45544913,2.21873093,0.00000000,0.00000000
-0.01849819,-1.94079268,-0.47216702,-0.38767585,1.12160814,0.00000000,0.00000000,-0.19086850,2.02512217,1.29309750,0.44984806,2.22625542,0.00000000,0.00000000
-0.05230588,-1.92037570,-0.48245269,-0.38545388,1.12592638,0.00000000,0.00000000,-0.19218631,2.03202057,1.28848803,0.44225916,2.22719264,0.00000000,0.00000000
-0.07339691,-1.89889693,-0.48951539,-0.37932822,1.12729979,0.00000000,0.00000000,-0.19492063,2.04110193,1.28324544,0.43429106,2.22663188,0.00000000,0.00000000
-0.08204509,-1.87721086,-0.49333808,-0.36968940,1.13010156,0.00000000,0.00000000,-0.19614011,2.05130577,1.27790964,0.42756614,2.22853041,0.00000000,0.00000000
-0.07895644,-1.85619521,-0.49404171,-0.35706881,1.13491142,0.00000000,0.00000000,-0.19361781,2.06090140,1.27311802,0.42302868,2.23133159,0.00000000,0.00000000
-0.06515622,-1.83667171,-0.49185905,-0.34206226,1.13783741,0.00000000,0.00000000,-0.18574882,2.06786609,1.26950788,0.42106250,2.24028730,0.00000000,0.00000000
-0.04203014,-1.81963003,-0.48710760,-0.32544437,1.13923907,0.00000000,0.00000000,-0.17172496,2.07053328,1.26754344,0.42161196,2.24930573,0.00000000,0.00000000
-0.01098820,-1.80609345,-0.48013607,-0.30807853,1.14008081,0.00000000,0.00000000,-0.15300465,2.06871986,1.26712692,0.42371890,2.25949931,0.00000000,0.00000000
0.02641256,-1.79710913,-0.47134024,-0.29098114,1.13790858,0.00000000,0.00000000,-0.13272263,2.06373453,1.26764929,0.42594931,2.26793027,0.00000000,0.00000000
0.06853524,-1.79361951,-0.46115068,-0.27526227,1.13914156,0.00000000,0.00000000,-0.11135409,2.05697298,1.26868105,0.42845038,2.27624440,0.00000000,0.00000000
0.11396168,-1.79629660,-0.44998550,-0.26197934,1.14412153,0.00000000,0.00000000,-0.08641596,2.04933476,1.27015316,0.43295559,2.28502321,0.00000000,0.00000000
0.16146286,-1.80555618,-0.43824649,-0.25211477,1.15023696,0.00000000,0.00000000,-0.05604036,2.04131055,1.27207124,0.44087338,2.29630327,0.00000000,0.00000000
0.21002333,-1.82149351,-0.42631182,-0.24645928,1.15145350,0.00000000,0.00000000,-0.02097960,2.03328562,1.27427375,0.45215121,2.30313349,0.00000000,0.00000000
0.25855887,-1.84374046,-0.41457370,-0.24549505,1.15487361,0.00000000,0.00000000,0.01527044,2.02588534,1.27630639,0.46515122,2.31064987,0.00000000,0.00000000
0.30544016,-1.87143815,-0.40349421,-0.24940467,1.15903664,0.00000000,0.00000000,0.04911849,2.01942253,1.27776241,0.47797525,2.32002449,0.00000000,0.00000000
0.34900236,-1.90345263,-0.39352536,-0.25807616,1.15893912,0.00000000,0.00000000,0.07888319,2.01322770,1.27863848,0.48938596,2.32599473,0.00000000,0.00000000
0.38804957,-1.93846810,-0.38505328,-0.27109045,1.16468418,0.00000000,0.00000000,0.10369111,2.00623894,1.27912867,0.49835974,2.32935762,0.00000000,0.00000000
0.42188427,-1.97486210,-0.37841651,-0.28767607,1.17492390,0.00000000,0.00000000,0.12264740,1.99780297,1.27935803,0.50391585,2.33259225,0.00000000,0.00000000
0.45011026,-2.01069355,-0.37393010,-0.30674040,1.18768549,0.00000000,0.00000000,0.13486974,1.98803687,1.27927125,0.50533134,2.33998656,0.00000000,0.00000000
0.47240368,-2.04401231,-0.37188384,-0.32709107,1.19904578,0.00000000,0.00000000,0.13968791,1.97771692,1.27864850,0.50231546,2.34350491,0.00000000,0.00000000
0.48849270,-2.07313418,-0.37251833,-0.34762239,1.20652735,0.00000000,0.00000000,0.13716103,1.96805787,1.27720082,0.49540645,2.35455966,0.00000000,0.00000000
0.49837902,-2.09655166,-0.37600011,-0.36726466,1.21432519,0.00000000,0.00000000,0.12841231,1.96066606,1.27461600,0.48635447,2.36271739,0.00000000,0.00000000
0.50237447,-2.11282682,-0.38242972,-0.38495275,1.21387768,0.00000000,0.00000000,0.11463255,1.95675576,1.27070498,0.47711742,2.37135506,0.00000000,0.00000000
0.50077128,-2.12088251,-0.39187682,-0.39987785,1.21186268,0.00000000,0.00000000,0.09658358,1.95637500,1.26558566,0.46875453,2.37665009,0.00000000,0.00000000
0.49349338,-2.12047672,-0.40440127,-0.41183254,1.20876634,0.00000000,0.00000000,0.07486887,1.95890749,1.25957763,0.46156606,2.38057685,0.00000000,0.00000000
0.47992775,-2.11245465,-0.42006058,-0.42139876,1.20059454,0.00000000,0.00000000,0.05046976,1.96283793,1.25330734,0.45545352,2.38210082,0.00000000,0.00000000
0.45903045,-2.09846759,-0.43890691,-0.42977592,1.19423163,0.00000000,0.00000000,0.02507768,1.96534801,1.24780464,0.45003954,2.38191819,0.00000000,0.00000000
0.42985287,-2.08024240,-0.46093300,-0.43822587,1.18787980,0.00000000,0.00000000,-0.00028111,1.96447468,1.24375832,0.44452900,2.37693644,0.00000000,0.00000000
0.39238438,-2.05923986,-0.48590234,-0.44761646,1.17633271,0.00000000,0.00000000,-0.02638184,1.96167779,1.24073005,0.43809268,2.36799169,0.00000000,0.00000000
0.34810412,-2.03697896,-0.51317137,-0.45840162,1.16186333,0.00000000,0.00000000,-0.05336646,1.96050632,1.23773730,0.43123433,2.36438775,0.00000000,0.00000000
0.29945531,-2.01523733,-0.54177433,-0.47084102,1.14737844,0.00000000,0.00000000,-0.07901352,1.96221817,1.23453033,0.42538902,2.35603356,0.00000000,0.00000000
0.24868244,-1.99561477,-0.57075095,-0.48506171,1.13076222,0.00000000,0.00000000,-0.10099155,1.96515310,1.23157454,0.42127576,2.33947492,0.00000000,0.00000000
0.19761784,-1.97905052,-0.59928042,-0.50084817,1.11327434,0.00000000,0.00000000,-0.11815427,1.96813548,1.22913671,0.41911900,2.32463264,0.00000000,0.00000000
0.14825155,-1.96583533,-0.62657005,-0.51751375,1.09574640,0.00000000,0.00000000,-0.13020770,1.97123528,1.22714126,0.41904262,2.31080914,0.00000000,0.00000000
0.10260975,-1.95578778,-0.65188217,-0.53405929,1.07384872,0.00000000,0.00000000,-0.13733003,1.97436595,1.22553623,0.42086607,2.29619789,0.00000000,0.00000000
