isaac-sim2real/sage/motion_files/wr75s/amass/0-Eyes_Japan_Dataset_hamada_walk-12-underarm bag-hamada_poses_idx48.txt
l_joint1,l_joint2,l_joint3,l_joint4,l_joint5,l_joint6,l_joint7,r_joint1,r_joint2,r_joint3,r_joint4,r_joint5,r_joint6,r_joint7
-1.63860178,-0.80823302,-0.22985324,-0.07033455,-0.06570879,0.00000000,0.00000000,-0.79673004,0.93307173,0.20872103,-0.44804952,0.04034338,0.00000000,0.00000000
-1.63784826,-0.80907702,-0.22944714,-0.06988997,-0.06146389,0.00000000,0.00000000,-0.79651469,0.93214482,0.20846608,-0.44808775,0.04112248,0.00000000,0.00000000
-1.63634932,-0.81044453,-0.22863787,-0.06881655,-0.05660158,0.00000000,0.00000000,-0.79613662,0.93133724,0.20780690,-0.44813436,0.03953895,0.00000000,0.00000000
-1.63408184,-0.81219065,-0.22741581,-0.06697667,-0.05402507,0.00000000,0.00000000,-0.79563940,0.93152082,0.20655817,-0.44827071,0.03811981,0.00000000,0.00000000
-1.63105774,-0.81474280,-0.22579479,-0.06458053,-0.05444629,0.00000000,0.00000000,-0.79505050,0.93286353,0.20459343,-0.44848830,0.03739533,0.00000000,0.00000000
-1.62730944,-0.81859833,-0.22380368,-0.06195582,-0.05136445,0.00000000,0.00000000,-0.79438984,0.93518901,0.20185125,-0.44877684,0.03706828,0.00000000,0.00000000
-1.62289476,-0.82408768,-0.22148554,-0.05939955,-0.05205958,0.00000000,0.00000000,-0.79363322,0.93827254,0.19837917,-0.44921353,0.03756659,0.00000000,0.00000000
-1.61789668,-0.83135521,-0.21889390,-0.05714917,-0.04836534,0.00000000,0.00000000,-0.79268754,0.94192439,0.19436561,-0.44997600,0.03933555,0.00000000,0.00000000
-1.61242270,-0.84038901,-0.21608517,-0.05541810,-0.04659966,0.00000000,0.00000000,-0.79140598,0.94591701,0.19014560,-0.45122853,0.04037918,0.00000000,0.00000000
-1.60663366,-0.85082918,-0.21312536,-0.05429663,-0.04721759,0.00000000,0.00000000,-0.78973395,0.94979155,0.18610270,-0.45293000,0.04320426,0.00000000,0.00000000
-1.60075283,-0.86151505,-0.21009068,-0.05346686,-0.04822282,0.00000000,0.00000000,-0.78788936,0.95301270,0.18250147,-0.45481580,0.04180820,0.00000000,0.00000000
-1.59502995,-0.87089378,-0.20705333,-0.05238603,-0.05020131,0.00000000,0.00000000,-0.78625119,0.95510602,0.17949107,-0.45653614,0.03871688,0.00000000,0.00000000
-1.58966696,-0.87787336,-0.20406228,-0.05066907,-0.04899586,0.00000000,0.00000000,-0.78510869,0.95569777,0.17716594,-0.45781001,0.03504040,0.00000000,0.00000000
-1.58475435,-0.88204908,-0.20113443,-0.04815269,-0.05060651,0.00000000,0.00000000,-0.78456813,0.95471483,0.17555444,-0.45855334,0.03463386,0.00000000,0.00000000
-1.58023560,-0.88367283,-0.19825405,-0.04486857,-0.05099411,0.00000000,0.00000000,-0.78452945,0.95258707,0.17460614,-0.45885509,0.03544194,0.00000000,0.00000000
-1.57593167,-0.88339454,-0.19538513,-0.04097272,-0.05674952,0.00000000,0.00000000,-0.78475904,0.95023179,0.17419897,-0.45890030,0.03604417,0.00000000,0.00000000
-1.57163441,-0.88204157,-0.19249482,-0.03671069,-0.06578078,0.00000000,0.00000000,-0.78503090,0.94863880,0.17416544,-0.45884141,0.03778672,0.00000000,0.00000000
-1.56718969,-0.88031876,-0.18956974,-0.03230029,-0.07335215,0.00000000,0.00000000,-0.78525084,0.94847447,0.17430389,-0.45873827,0.04200295,0.00000000,0.00000000
-1.56253576,-0.87865162,-0.18661983,-0.02787212,-0.08568128,0.00000000,0.00000000,-0.78546250,0.94985300,0.17443028,-0.45865473,0.04373995,0.00000000,0.00000000
-1.55767536,-0.87739748,-0.18366826,-0.02357744,-0.09385777,0.00000000,0.00000000,-0.78567153,0.95248652,0.17450076,-0.45867133,0.04550539,0.00000000,0.00000000
-1.55264091,-0.87691599,-0.18074232,-0.01960175,-0.09511171,0.00000000,0.00000000,-0.78582239,0.95577055,0.17460844,-0.45886654,0.04978023,0.00000000,0.00000000
-1.54749882,-0.87723660,-0.17787158,-0.01600557,-0.09556413,0.00000000,0.00000000,-0.78595054,0.95882231,0.17480837,-0.45929930,0.05141906,0.00000000,0.00000000
-1.54232144,-0.87817138,-0.17508239,-0.01275097,-0.09092004,0.00000000,0.00000000,-0.78601146,0.96103752,0.17510194,-0.45994276,0.04891738,0.00000000,0.00000000
-1.53715169,-0.87972420,-0.17239371,-0.00987136,-0.08789627,0.00000000,0.00000000,-0.78590089,0.96258217,0.17555241,-0.46072459,0.03865009,0.00000000,0.00000000
-1.53201544,-0.88204628,-0.16982006,-0.00746959,-0.08498114,0.00000000,0.00000000,-0.78597337,0.96375418,0.17622681,-0.46154827,0.02927492,0.00000000,0.00000000
-1.52694285,-0.88482851,-0.16737469,-0.00543345,-0.08317254,0.00000000,0.00000000,-0.78624952,0.96410060,0.17707619,-0.46235290,0.01609327,0.00000000,0.00000000
-1.52194452,-0.88798618,-0.16506770,-0.00376301,-0.08779000,0.00000000,0.00000000,-0.78676724,0.96402717,0.17810608,-0.46305361,0.00272702,0.00000000,0.00000000
-1.51703334,-0.89091039,-0.16290767,-0.00216880,-0.09358463,0.00000000,0.00000000,-0.78712475,0.96337271,0.17920886,-0.46370682,-0.00473808,0.00000000,0.00000000
-1.51220274,-0.89332438,-0.16090173,-0.00050193,-0.10213543,0.00000000,0.00000000,-0.78753525,0.96288294,0.18037635,-0.46443114,-0.01123175,0.00000000,0.00000000
-1.50744998,-0.89493674,-0.15905765,0.00138736,-0.11512166,0.00000000,0.00000000,-0.78823435,0.96289253,0.18160857,-0.46524748,-0.01863173,0.00000000,0.00000000
-1.50278664,-0.89570469,-0.15738454,0.00350866,-0.13091578,0.00000000,0.00000000,-0.78917402,0.96297413,0.18291788,-0.46602532,-0.03125861,0.00000000,0.00000000
-1.49822438,-0.89578038,-0.15589271,0.00576723,-0.15586556,0.00000000,0.00000000,-0.79029167,0.96268320,0.18436249,-0.46667936,-0.04368848,0.00000000,0.00000000
-1.49372935,-0.89530444,-0.15459520,0.00812188,-0.18253613,0.00000000,0.00000000,-0.79158169,0.96187800,0.18597823,-0.46718863,-0.05269885,0.00000000,0.00000000
-1.48919892,-0.89472777,-0.15350953,0.01046027,-0.20965411,0.00000000,0.00000000,-0.79301357,0.96070689,0.18778414,-0.46743280,-0.06074708,0.00000000,0.00000000
-1.48458099,-0.89420819,-0.15265313,0.01274233,-0.23697107,0.00000000,0.00000000,-0.79464918,0.95930809,0.18972930,-0.46747234,-0.07434803,0.00000000,0.00000000
-1.47984600,-0.89397693,-0.15204410,0.01484778,-0.26446468,0.00000000,0.00000000,-0.79644465,0.95778197,0.19176237,-0.46743658,-0.08698130,0.00000000,0.00000000
-1.47495484,-0.89423037,-0.15170169,0.01671653,-0.28578129,0.00000000,0.00000000,-0.79820138,0.95622593,0.19381458,-0.46747324,-0.10183747,0.00000000,0.00000000
-1.46985185,-0.89515227,-0.15164673,0.01837401,-0.31430182,0.00000000,0.00000000,-0.79973799,0.95509863,0.19581601,-0.46772414,-0.11468320,0.00000000,0.00000000
-1.46446371,-0.89713717,-0.15190226,0.01974180,-0.34341285,0.00000000,0.00000000,-0.80125153,0.95545149,0.19774686,-0.46830782,-0.12902303,0.00000000,0.00000000
-1.45874178,-0.90019268,-0.15248744,0.02084083,-0.36616591,0.00000000,0.00000000,-0.80283493,0.95756304,0.19956023,-0.46926573,-0.14267768,0.00000000,0.00000000
-1.45267928,-0.90390313,-0.15341501,0.02185767,-0.38892493,0.00000000,0.00000000,-0.80440557,0.96148866,0.20124079,-0.47055691,-0.14934377,0.00000000,0.00000000
-1.44631159,-0.90804648,-0.15469268,0.02285934,-0.41278777,0.00000000,0.00000000,-0.80585688,0.96693188,0.20292978,-0.47205529,-0.15529063,0.00000000,0.00000000
-1.43974221,-0.91246861,-0.15631983,0.02381512,-0.43916780,0.00000000,0.00000000,-0.80728143,0.97308838,0.20481189,-0.47354615,-0.16012599,0.00000000,0.00000000
-1.43313277,-0.91667938,-0.15828775,0.02479729,-0.45867792,0.00000000,0.00000000,-0.80902994,0.97866791,0.20700982,-0.47483471,-0.16629826,0.00000000,0.00000000
-1.42664051,-0.92000055,-0.16058823,0.02596329,-0.47844586,0.00000000,0.00000000,-0.81142777,0.98280668,0.20961529,-0.47587869,-0.17324066,0.00000000,0.00000000
-1.42036605,-0.92212170,-0.16322170,0.02732810,-0.49053761,0.00000000,0.00000000,-0.81461883,0.98524266,0.21269117,-0.47672153,-0.17883280,0.00000000,0.00000000
-1.41432726,-0.92324388,-0.16620189,0.02871984,-0.50303942,0.00000000,0.00000000,-0.81859428,0.98600000,0.21627881,-0.47740987,-0.18463472,0.00000000,0.00000000
-1.40844214,-0.92380565,-0.16955779,0.02994599,-0.52184904,0.00000000,0.00000000,-0.82320952,0.98566592,0.22036934,-0.47801191,-0.19137201,0.00000000,0.00000000
-1.40257525,-0.92437387,-0.17332739,0.03081392,-0.52906036,0.00000000,0.00000000,-0.82825255,0.98505449,0.22491241,-0.47859365,-0.20417091,0.00000000,0.00000000
-1.39658773,-0.92537564,-0.17754789,0.03120365,-0.53963256,0.00000000,0.00000000,-0.83364809,0.98477203,0.22981131,-0.47918025,-0.22030242,0.00000000,0.00000000
-1.39035904,-0.92698914,-0.18225046,0.03110321,-0.55341512,0.00000000,0.00000000,-0.83943224,0.98533201,0.23494786,-0.47979221,-0.23546396,0.00000000,0.00000000
-1.38380218,-0.92931843,-0.18745703,0.03052235,-0.57553220,0.00000000,0.00000000,-0.84557730,0.98711497,0.24029246,-0.48043820,-0.24615712,0.00000000,0.00000000
-1.37689340,-0.93242413,-0.19317560,0.02943872,-0.59873199,0.00000000,0.00000000,-0.85209531,0.99011332,0.24589729,-0.48107722,-0.25797036,0.00000000,0.00000000
-1.36967671,-0.93607640,-0.19939931,0.02790213,-0.62380534,0.00000000,0.00000000,-0.85915053,0.99408221,0.25185022,-0.48164743,-0.26582801,0.00000000,0.00000000
-1.36225760,-0.93969017,-0.20610997,0.02607412,-0.64932460,0.00000000,0.00000000,-0.86696506,0.99868923,0.25824296,-0.48207152,-0.26971459,0.00000000,0.00000000
-1.35476708,-0.94263023,-0.21328670,0.02410350,-0.67471999,0.00000000,0.00000000,-0.87580562,1.00325036,0.26518613,-0.48229000,-0.26845986,0.00000000,0.00000000
-1.34730935,-0.94466621,-0.22091435,0.02194387,-0.69704574,0.00000000,0.00000000,-0.88632774,1.00642335,0.27283365,-0.48228452,-0.26625729,0.00000000,0.00000000
-1.33993280,-0.94529432,-0.22898376,0.01974837,-0.71648693,0.00000000,0.00000000,-0.89856714,1.00826693,0.28120479,-0.48206767,-0.26586211,0.00000000,0.00000000
-1.33261347,-0.94447452,-0.23749305,0.01751566,-0.73773336,0.00000000,0.00000000,-0.91227680,1.00940609,0.29029801,-0.48151779,-0.26357573,0.00000000,0.00000000
-1.32520902,-0.94246823,-0.24644881,0.01519582,-0.75502628,0.00000000,0.00000000,-0.92809868,1.00872374,0.30010927,-0.48056045,-0.25839588,0.00000000,0.00000000
-1.31759262,-0.93935376,-0.25585333,0.01283873,-0.77240717,0.00000000,0.00000000,-0.94588751,1.00783682,0.31052455,-0.47890946,-0.25518483,0.00000000,0.00000000
-1.30957353,-0.93530643,-0.26571018,0.01051434,-0.78257179,0.00000000,0.00000000,-0.96586901,1.00579047,0.32141182,-0.47647971,-0.24964170,0.00000000,0.00000000
-1.30100679,-0.93057787,-0.27601829,0.00822377,-0.79409939,0.00000000,0.00000000,-0.98793423,1.00414300,0.33257729,-0.47314784,-0.24398974,0.00000000,0.00000000
-1.29177022,-0.92550629,-0.28677368,0.00592372,-0.79906237,0.00000000,0.00000000,-1.01234961,1.00176287,0.34393993,-0.46893534,-0.23816785,0.00000000,0.00000000
-1.28186488,-0.92033762,-0.29796648,0.00349273,-0.79783267,0.00000000,0.00000000,-1.03919792,0.99883538,0.35547188,-0.46356270,-0.23118186,0.00000000,0.00000000
-1.27132726,-0.91524285,-0.30958438,0.00079543,-0.79736447,0.00000000,0.00000000,-1.06846595,0.99527144,0.36728230,-0.45684394,-0.22412102,0.00000000,0.00000000
-1.26019871,-0.91024816,-0.32161322,-0.00225161,-0.79973853,0.00000000,0.00000000,-1.10010421,0.99077141,0.37957552,-0.44877413,-0.21170203,0.00000000,0.00000000
-1.24852955,-0.90523201,-0.33403710,-0.00566828,-0.79505163,0.00000000,0.00000000,-1.13400376,0.98526067,0.39262044,-0.43942693,-0.19974041,0.00000000,0.00000000
-1.23638892,-0.90002590,-0.34683943,-0.00947958,-0.79330146,0.00000000,0.00000000,-1.17003322,0.97860593,0.40672523,-0.42897186,-0.18972211,0.00000000,0.00000000
-1.22385812,-0.89444357,-0.36000407,-0.01375616,-0.79537445,0.00000000,0.00000000,-1.20805335,0.97069651,0.42217857,-0.41764560,-0.18547173,0.00000000,0.00000000
-1.21101117,-0.88830137,-0.37351537,-0.01860702,-0.79954100,0.00000000,0.00000000,-1.24791503,0.96156162,0.43920729,-0.40564591,-0.18490180,0.00000000,0.00000000
-1.19789422,-0.88151574,-0.38735572,-0.02416658,-0.80414581,0.00000000,0.00000000,-1.28946245,0.95133406,0.45795742,-0.39307761,-0.18374667,0.00000000,0.00000000
-1.18451822,-0.87428260,-0.40150267,-0.03066564,-0.81276357,0.00000000,0.00000000,-1.33255506,0.94009507,0.47847214,-0.38001439,-0.18576623,0.00000000,0.00000000
-1.17087305,-0.86718082,-0.41592595,-0.03852221,-0.82654893,0.00000000,0.00000000,-1.37708235,0.92769426,0.50069326,-0.36657944,-0.18954603,0.00000000,0.00000000
-1.15692723,-0.86116886,-0.43058324,-0.04838297,-0.83975768,0.00000000,0.00000000,-1.42296028,0.91371453,0.52448338,-0.35295111,-0.19151637,0.00000000,0.00000000
-1.14260948,-0.85765767,-0.44540599,-0.06109511,-0.85025132,0.00000000,0.00000000,-1.47013962,0.89736408,0.54962456,-0.33941367,-0.19532093,0.00000000,0.00000000
-1.12771618,-0.85879308,-0.46025038,-0.07752410,-0.86181307,0.00000000,0.00000000,-1.51862371,0.87738866,0.57577771,-0.32629505,-0.20420058,0.00000000,0.00000000
-1.11176085,-0.86717874,-0.47481987,-0.09800908,-0.86733890,0.00000000,0.00000000,-1.56845438,0.85249758,0.60249239,-0.31366423,-0.21435015,0.00000000,0.00000000
-1.09395504,-0.88489532,-0.48865399,-0.12195954,-0.87780988,0.00000000,0.00000000,-1.61968374,0.82175452,0.62930167,-0.30127364,-0.22252111,0.00000000,0.00000000
-1.07337654,-0.91269219,-0.50123078,-0.14806080,-0.88794816,0.00000000,0.00000000,-1.67234051,0.78466743,0.65583968,-0.28875306,-0.22572048,0.00000000,0.00000000
-1.04913950,-0.95010304,-0.51207769,-0.17476399,-0.90304720,0.00000000,0.00000000,-1.72640824,0.74114776,0.68188924,-0.27567196,-0.22736828,0.00000000,0.00000000
-1.02048552,-0.99606657,-0.52082199,-0.20065144,-0.91356659,0.00000000,0.00000000,-1.78182793,0.69133228,0.70736879,-0.26150414,-0.22811642,0.00000000,0.00000000
-0.98684919,-1.04928923,-0.52720451,-0.22459844,-0.92652041,0.00000000,0.00000000,-1.83846974,0.63558197,0.73233283,-0.24561441,-0.23147161,0.00000000,0.00000000
-0.94795573,-1.10845041,-0.53109258,-0.24582762,-0.93517017,0.00000000,0.00000000,-1.89605224,0.57451481,0.75698477,-0.22731453,-0.23016952,0.00000000,0.00000000
-0.90398055,-1.17217565,-0.53251141,-0.26387325,-0.94615293,0.00000000,0.00000000,-1.95406067,0.50898772,0.78166604,-0.20596129,-0.23100406,0.00000000,0.00000000
-0.85573786,-1.23893380,-0.53167820,-0.27856329,-0.95686370,0.00000000,0.00000000,-2.01170158,0.43996248,0.80680627,-0.18105926,-0.23848425,0.00000000,0.00000000
-0.80479854,-1.30702770,-0.52900821,-0.29001713,-0.96575427,0.00000000,0.00000000,-2.06784320,0.36841550,0.83288032,-0.15234739,-0.24723530,0.00000000,0.00000000
-0.75339043,-1.37462389,-0.52506495,-0.29856950,-0.97730750,0.00000000,0.00000000,-2.12097478,0.29542062,0.86035913,-0.11987036,-0.25406888,0.00000000,0.00000000
-0.70400238,-1.43996739,-0.52044511,-0.30464086,-0.98221105,0.00000000,0.00000000,-2.16937399,0.22214907,0.88964367,-0.08387171,-0.25826606,0.00000000,0.00000000
-0.65877324,-1.50161040,-0.51562959,-0.30862722,-0.99270332,0.00000000,0.00000000,-2.21153307,0.14972465,0.92101216,-0.04449572,-0.26538977,0.00000000,0.00000000
-0.61912870,-1.55856895,-0.51091051,-0.31088966,-1.00445890,0.00000000,0.00000000,-2.24646306,0.07895626,0.95462328,-0.00171335,-0.26662585,0.00000000,0.00000000
-0.58573020,-1.61053956,-0.50638199,-0.31182522,-1.01791942,0.00000000,0.00000000,-2.27374196,0.01023555,0.99056417,0.04459739,-0.26806173,0.00000000,0.00000000
-0.55877370,-1.65776587,-0.50201988,-0.31187499,-1.03071177,0.00000000,0.00000000,-2.29340649,-0.05613402,1.02890527,0.09469879,-0.27023107,0.00000000,0.00000000
-0.53857684,-1.70073533,-0.49781692,-0.31155679,-1.04679739,0.00000000,0.00000000,-2.30566597,-0.11953730,1.06969953,0.14893724,-0.27314183,0.00000000,0.00000000
-0.52572155,-1.74023390,-0.49379724,-0.31149843,-1.06606209,0.00000000,0.00000000,-2.31045079,-0.17879425,1.11290050,0.20750952,-0.27009955,0.00000000,0.00000000
-0.52032477,-1.77720034,-0.48988774,-0.31211492,-1.08884847,0.00000000,0.00000000,-2.30740404,-0.23164602,1.15818036,0.27056649,-0.26561210,0.00000000,0.00000000
-0.52135032,-1.81238484,-0.48582149,-0.31323510,-1.10699165,0.00000000,0.00000000,-2.29545808,-0.27472100,1.20473158,0.33789653,-0.26656619,0.00000000,0.00000000
-0.52662331,-1.84521639,-0.48124269,-0.31356138,-1.12349212,0.00000000,0.00000000,-2.27102256,-0.30373368,1.25095963,0.40843675,-0.27204484,0.00000000,0.00000000
-0.53329080,-1.87380254,-0.47580341,-0.31093109,-1.13191354,0.00000000,0.00000000,-2.22985220,-0.31276587,1.29435098,0.48214021,-0.27474943,0.00000000,0.00000000
-0.53877425,-1.89892340,-0.46901852,-0.30483332,-1.13667774,0.00000000,0.00000000,-2.17084551,-0.29774275,1.33266413,0.55860120,-0.26956430,0.00000000,0.00000000
-0.54116976,-1.92142487,-0.46054935,-0.29524314,-1.14093351,0.00000000,0.00000000,-2.09382129,-0.25691041,1.36412990,0.63640273,-0.26347554,0.00000000,0.00000000
-0.53880781,-1.94242775,-0.45013019,-0.28327534,-1.14051378,0.00000000,0.00000000,-1.99906337,-0.18953294,1.38725114,0.71389401,-0.26019043,0.00000000,0.00000000
-0.53201526,-1.96922743,-0.43743119,-0.27499548,-1.13823915,0.00000000,0.00000000,-1.88743889,-0.09570133,1.40083241,0.78925925,-0.25379786,0.00000000,0.00000000
-0.52291000,-2.00161624,-0.42298743,-0.27173606,-1.13487577,0.00000000,0.00000000,-1.76014566,0.02333533,1.40411675,0.86026996,-0.24484800,0.00000000,0.00000000
-0.51213479,-2.03645253,-0.40731454,-0.27229238,-1.13368070,0.00000000,0.00000000,-1.61889124,0.16500309,1.39691210,0.92436916,-0.23886757,0.00000000,0.00000000
-0.49975467,-2.07125592,-0.39077353,-0.27571309,-1.14358163,0.00000000,0.00000000,-1.46620941,0.32546476,1.37966096,0.97899044,-0.22855829,0.00000000,0.00000000
-0.48684084,-2.10351610,-0.37385082,-0.28123033,-1.14910817,0.00000000,0.00000000,-1.30539858,0.49958113,1.35353208,1.02171993,-0.21566947,0.00000000,0.00000000
-0.47472799,-2.13103533,-0.35703018,-0.28817683,-1.15493572,0.00000000,0.00000000,-1.14040864,0.68117011,1.32037377,1.05053532,-0.20172873,0.00000000,0.00000000
-0.46419051,-2.15197468,-0.34067023,-0.29586393,-1.15993333,0.00000000,0.00000000,-0.97565985,0.86359972,1.28246844,1.06410027,-0.18695047,0.00000000,0.00000000
-0.45533466,-2.16465473,-0.32499495,-0.30353257,-1.15801597,0.00000000,0.00000000,-0.81566375,1.04042351,1.24221754,1.06194246,-0.17680372,0.00000000,0.00000000
-0.44791690,-2.16920948,-0.31014356,-0.31035575,-1.15057278,0.00000000,0.00000000,-0.66453665,1.20595360,1.20184779,1.04453528,-0.17099069,0.00000000,0.00000000
-0.44165260,-2.16996193,-0.29621038,-0.31557930,-1.14439416,0.00000000,0.00000000,-0.52548808,1.35576344,1.16318047,1.01335824,-0.16745526,0.00000000,0.00000000
-0.43635756,-2.17000008,-0.28325060,-0.31875327,-1.13596261,0.00000000,0.00000000,-0.40036267,1.48712575,1.12747586,0.97091603,-0.16240379,0.00000000,0.00000000
-0.43192813,-2.17000008,-0.27127364,-0.31980360,-1.13076890,0.00000000,0.00000000,-0.28951928,1.59938598,1.09529305,0.92052662,-0.15802541,0.00000000,0.00000000
-0.42827138,-2.17000008,-0.26023817,-0.31900111,-1.12440729,0.00000000,0.00000000,-0.19226983,1.69388366,1.06646216,0.86568969,-0.15220185,0.00000000,0.00000000
-0.42521167,-2.17000008,-0.25005552,-0.31682187,-1.11872542,0.00000000,0.00000000,-0.10760642,1.77315831,1.04031861,0.80931050,-0.14024617,0.00000000,0.00000000
-0.42252266,-2.17000008,-0.24062128,-0.31375548,-1.11337245,0.00000000,0.00000000,-0.03449107,1.83994591,1.01612246,0.75342733,-0.13170171,0.00000000,0.00000000
-0.42009452,-2.17000008,-0.23185274,-0.31022549,-1.10978389,0.00000000,0.00000000,0.02829195,1.89656746,0.99335736,0.69941139,-0.12295541,0.00000000,0.00000000
-0.41794360,-2.17000008,-0.22369346,-0.30653384,-1.11186445,0.00000000,0.00000000,0.08205627,1.94484055,0.97173071,0.64815652,-0.11839358,0.00000000,0.00000000
-0.41605759,-2.17000008,-0.21608785,-0.30284715,-1.10162437,0.00000000,0.00000000,0.12799934,1.98617423,0.95107126,0.60018164,-0.11643671,0.00000000,0.00000000
-0.41435200,-2.17000008,-0.20897244,-0.29925823,-1.08699048,0.00000000,0.00000000,0.16715667,2.02165604,0.93128067,0.55574816,-0.11054691,0.00000000,0.00000000
-0.41275913,-2.17000008,-0.20229539,-0.29578623,-1.07414329,0.00000000,0.00000000,0.20043536,2.05210066,0.91231877,0.51495373,-0.10384963,0.00000000,0.00000000
-0.41128069,-2.17000008,-0.19602503,-0.29239920,-1.06432128,0.00000000,0.00000000,0.22861469,2.07810712,0.89418161,0.47778258,-0.09662700,0.00000000,0.00000000
-0.40998390,-2.17000008,-0.19014168,-0.28907144,-1.05566359,0.00000000,0.00000000,0.25234208,2.10016847,0.87687564,0.44415098,-0.09043090,0.00000000,0.00000000
-0.40893257,-2.17000008,-0.18462732,-0.28577444,-1.04750264,0.00000000,0.00000000,0.27209169,2.11873245,0.86039764,0.41391557,-0.09190413,0.00000000,0.00000000
-0.40809429,-2.17000008,-0.17945389,-0.28250498,-1.02946651,0.00000000,0.00000000,0.28825486,2.13415003,0.84475273,0.38692051,-0.09720196,0.00000000,0.00000000
-0.40736404,-2.17000008,-0.17458554,-0.27929443,-1.01566505,0.00000000,0.00000000,0.30117038,2.14668345,0.82995498,0.36301288,-0.10049921,0.00000000,0.00000000
-0.40662441,-2.17000008,-0.16998905,-0.27617547,-1.00722265,0.00000000,0.00000000,0.31114560,2.15648079,0.81603074,0.34204531,-0.10323815,0.00000000,0.00000000
-0.40576613,-2.17000008,-0.16563743,-0.27315092,-1.00281143,0.00000000,0.00000000,0.31848004,2.16356111,0.80302143,0.32388940,-0.10413583,0.00000000,0.00000000
-0.40472561,-2.17000008,-0.16151190,-0.27022228,-1.00517309,0.00000000,0.00000000,0.32349810,2.16786432,0.79098213,0.30843571,-0.10842524,0.00000000,0.00000000
-0.40349495,-2.17000008,-0.15760341,-0.26739833,-1.01090884,0.00000000,0.00000000,0.32657838,2.16962528,0.77999073,0.29557636,-0.10698358,0.00000000,0.00000000
-0.40208724,-2.17000008,-0.15390909,-0.26469857,-1.01435232,0.00000000,0.00000000,0.32811549,2.16998005,0.77014154,0.28518859,-0.09968050,0.00000000,0.00000000
-0.40054235,-2.17000008,-0.15042926,-0.26217386,-1.01394963,0.00000000,0.00000000,0.32843798,2.17000008,0.76151490,0.27714425,-0.09450854,0.00000000,0.00000000
-0.39894426,-2.17000008,-0.14716718,-0.25991502,-1.01301646,0.00000000,0.00000000,0.32774836,2.17000008,0.75415146,0.27133265,-0.09675329,0.00000000,0.00000000
-0.39741313,-2.17000008,-0.14413080,-0.25801745,-1.00574183,0.00000000,0.00000000,0.32611522,2.17000008,0.74805838,0.26768196,-0.09616847,0.00000000,0.00000000
-0.39607456,-2.17000008,-0.14132848,-0.25656316,-0.99454910,0.00000000,0.00000000,0.32359189,2.17000008,0.74324214,0.26617587,-0.10262280,0.00000000,0.00000000
-0.39505473,-2.17000008,-0.13876767,-0.25562036,-0.98257422,0.00000000,0.00000000,0.32029784,2.17000008,0.73972774,0.26684338,-0.10895971,0.00000000,0.00000000
-0.39444599,-2.17000008,-0.13645062,-0.25523263,-0.97054946,0.00000000,0.00000000,0.31638429,2.17000008,0.73755825,0.26972958,-0.11428015,0.00000000,0.00000000
-0.39426452,-2.17000008,-0.13436972,-0.25541094,-0.95643806,0.00000000,0.00000000,0.31193385,2.17000008,0.73677289,0.27487928,-0.11915323,0.00000000,0.00000000
-0.39443561,-2.17000008,-0.13250554,-0.25616515,-0.95316797,0.00000000,0.00000000,0.30685976,2.16997242,0.73737973,0.28234404,-0.12626632,0.00000000,0.00000000
-0.39478922,-2.17000008,-0.13082471,-0.25754404,-0.95270956,0.00000000,0.00000000,0.30089322,2.16949797,0.73934567,0.29220855,-0.12907638,0.00000000,0.00000000
-0.39509049,-2.17000008,-0.12928557,-0.25964999,-0.95210928,0.00000000,0.00000000,0.29362333,2.16728854,0.74260718,0.30460140,-0.13287118,0.00000000,0.00000000
-0.39511275,-2.17000008,-0.12785102,-0.26261726,-0.95323110,0.00000000,0.00000000,0.28457421,2.16221070,0.74709225,0.31968063,-0.13448727,0.00000000,0.00000000
-0.39467430,-2.17000008,-0.12649420,-0.26657125,-0.94924760,0.00000000,0.00000000,0.27325004,2.15405226,0.75273776,0.33760196,-0.14075440,0.00000000,0.00000000
-0.39364612,-2.17000008,-0.12519763,-0.27161148,-0.94358659,0.00000000,0.00000000,0.25913951,2.14284754,0.75949097,0.35851046,-0.14958487,0.00000000,0.00000000
-0.39195538,-2.17000008,-0.12395160,-0.27781293,-0.94035083,0.00000000,0.00000000,0.24171965,2.12853503,0.76730680,0.38254657,-0.15945417,0.00000000,0.00000000
-0.38961402,-2.17000008,-0.12275915,-0.28521696,-0.93204498,0.00000000,0.00000000,0.22046328,2.11093974,0.77615207,0.40984613,-0.16630682,0.00000000,0.00000000
-0.38673773,-2.17000008,-0.12164152,-0.29381627,-0.91821730,0.00000000,0.00000000,0.19484816,2.08974600,0.78601623,0.44053328,-0.17351188,0.00000000,0.00000000
-0.38350248,-2.17000008,-0.12063282,-0.30357039,-0.90158606,0.00000000,0.00000000,0.16435789,2.06445360,0.79692352,0.47470579,-0.18221447,0.00000000,0.00000000
-0.38012987,-2.17000008,-0.11977749,-0.31443059,-0.89219385,0.00000000,0.00000000,0.12843843,2.03431630,0.80893224,0.51239610,-0.18240328,0.00000000,0.00000000
-0.37691486,-2.17000008,-0.11913683,-0.32629213,-0.88205349,0.00000000,0.00000000,0.08644215,1.99825585,0.82213926,0.55351806,-0.18876530,0.00000000,0.00000000
-0.37425390,-2.17000008,-0.11879760,-0.33892733,-0.87140977,0.00000000,0.00000000,0.03753614,1.95481157,0.83668059,0.59778857,-0.19548050,0.00000000,0.00000000
-0.37261409,-2.17000008,-0.11886855,-0.35200211,-0.86112243,0.00000000,0.00000000,-0.01935541,1.90215373,0.85273325,0.64466310,-0.20277853,0.00000000,0.00000000
-0.37245113,-2.17000008,-0.11946914,-0.36512935,-0.85733706,0.00000000,0.00000000,-0.08558685,1.83811033,0.87051898,0.69326949,-0.21414271,0.00000000,0.00000000
-0.37416700,-2.17000008,-0.12072216,-0.37786809,-0.84959859,0.00000000,0.00000000,-0.16278626,1.76019251,0.89029598,0.74233443,-0.21798669,0.00000000,0.00000000
-0.37809086,-2.17000008,-0.12274976,-0.38969794,-0.85028058,0.00000000,0.00000000,-0.25278276,1.66566801,0.91233027,0.79009897,-0.21868709,0.00000000,0.00000000
-0.38444698,-2.17000008,-0.12566425,-0.40001506,-0.85196614,0.00000000,0.00000000,-0.35744932,1.55179381,0.93680799,0.83424735,-0.22115965,0.00000000,0.00000000
-0.39335123,-2.17000008,-0.12956135,-0.40817249,-0.85936373,0.00000000,0.00000000,-0.47836807,1.41631317,0.96368146,0.87195605,-0.22522406,0.00000000,0.00000000
-0.40478671,-2.17000008,-0.13450679,-0.41356960,-0.86707699,0.00000000,0.00000000,-0.61629605,1.25817823,0.99247688,0.90015191,-0.23239732,0.00000000,0.00000000
-0.41856283,-2.17000008,-0.14051874,-0.41577670,-0.87322348,0.00000000,0.00000000,-0.77056700,1.07829654,1.02212894,0.91597325,-0.23894857,0.00000000,0.00000000
-0.43430263,-2.17000008,-0.14755483,-0.41464588,-0.87216073,0.00000000,0.00000000,-0.93865538,0.87994683,1.05095363,0.91728920,-0.25030622,0.00000000,0.00000000
-0.45148209,-2.17000008,-0.15551363,-0.41035429,-0.87681204,0.00000000,0.00000000,-1.11616230,0.66866505,1.07679212,0.90309072,-0.26386669,0.00000000,0.00000000
-0.46960288,-2.17000008,-0.16426724,-0.40338665,-0.88184351,0.00000000,0.00000000,-1.29725540,0.45158750,1.09731817,0.87363726,-0.27587497,0.00000000,0.00000000
-0.48834133,-2.17000008,-0.17370175,-0.39439172,-0.89046413,0.00000000,0.00000000,-1.47543573,0.23652650,1.11040902,0.83036244,-0.28062919,0.00000000,0.00000000
-0.50746369,-2.17000008,-0.18372464,-0.38394335,-0.89990664,0.00000000,0.00000000,-1.64442348,0.03108150,1.11446261,0.77562702,-0.29425684,0.00000000,0.00000000
-0.52679980,-2.17000008,-0.19426550,-0.37248170,-0.91348827,0.00000000,0.00000000,-1.79890871,-0.15819219,1.10862410,0.71236831,-0.30795109,0.00000000,0.00000000
-0.54622018,-2.17000008,-0.20526989,-0.36031073,-0.92797327,0.00000000,0.00000000,-1.93504214,-0.32638517,1.09285927,0.64370948,-0.32137135,0.00000000,0.00000000
-0.56552577,-2.17000008,-0.21667603,-0.34760118,-0.94313890,0.00000000,0.00000000,-2.05066085,-0.47048363,1.06786525,0.57265842,-0.33379158,0.00000000,0.00000000
-0.58441067,-2.17000008,-0.22840582,-0.33441550,-0.95953983,0.00000000,0.00000000,-2.14527845,-0.58933651,1.03488636,0.50192553,-0.34379137,0.00000000,0.00000000
-0.60245502,-2.17000008,-0.24035878,-0.32077658,-0.96921575,0.00000000,0.00000000,-2.21986198,-0.68344432,0.99549884,0.43380922,-0.35751870,0.00000000,0.00000000
-0.61910594,-2.17000008,-0.25240368,-0.30676889,-0.97627872,0.00000000,0.00000000,-2.27648664,-0.75463355,0.95140296,0.37012798,-0.37227917,0.00000000,0.00000000
-0.63374984,-2.17000008,-0.26438659,-0.29260987,-0.97867978,0.00000000,0.00000000,-2.31794071,-0.80570608,0.90425128,0.31217265,-0.38644528,0.00000000,0.00000000
-0.64594406,-2.17000008,-0.27616376,-0.27867043,-0.98267674,0.00000000,0.00000000,-2.34731507,-0.84012383,0.85552341,0.26066101,-0.39955685,0.00000000,0.00000000
-0.65561080,-2.17000008,-0.28763428,-0.26543772,-0.98484439,0.00000000,0.00000000,-2.36767530,-0.86162198,0.80643588,0.21576923,-0.40975055,0.00000000,0.00000000
-0.66302526,-2.17000008,-0.29874936,-0.25339928,-0.98192811,0.00000000,0.00000000,-2.38183904,-0.87369150,0.75788766,0.17730236,-0.41651183,0.00000000,0.00000000
-0.66866547,-2.17000008,-0.30949417,-0.24288331,-0.97740740,0.00000000,0.00000000,-2.39219475,-0.87919056,0.71047139,0.14487994,-0.42632985,0.00000000,0.00000000
-0.67325562,-2.17000008,-0.31989208,-0.23402099,-0.98017126,0.00000000,0.00000000,-2.40042400,-0.88024980,0.66452610,0.11799792,-0.43785739,0.00000000,0.00000000
-0.67736113,-2.17000008,-0.32994691,-0.22682889,-0.98808849,0.00000000,0.00000000,-2.40776515,-0.87841684,0.62022984,0.09616761,-0.45088744,0.00000000,0.00000000
-0.68145722,-2.17000008,-0.33965150,-0.22125222,-0.99577069,0.00000000,0.00000000,-2.41461420,-0.87470281,0.57764173,0.07886034,-0.46119067,0.00000000,0.00000000
-0.68644863,-2.17000008,-0.34903732,-0.21724184,-1.00376856,0.00000000,0.00000000,-2.41943979,-0.86968541,0.53670883,0.06524716,-0.47944704,0.00000000,0.00000000
-0.69269633,-2.17000008,-0.35805622,-0.21498607,-1.01368165,0.00000000,0.00000000,-2.42088103,-0.86386514,0.49737808,0.05456204,-0.49720868,0.00000000,0.00000000
-0.70039958,-2.17000008,-0.36661530,-0.21514384,-1.02213609,0.00000000,0.00000000,-2.41799068,-0.85771334,0.45960850,0.04617573,-0.51572019,0.00000000,0.00000000
-0.70927721,-2.17000008,-0.37457258,-0.21815537,-1.03164017,0.00000000,0.00000000,-2.41042423,-0.85120916,0.42336583,0.03989215,-0.53729826,0.00000000,0.00000000
-0.71784639,-2.17000008,-0.38180366,-0.22194453,-1.03520489,0.00000000,0.00000000,-2.39854670,-0.84451336,0.38862666,0.03553808,-0.55544752,0.00000000,0.00000000
-0.72650629,-2.17000008,-0.38844883,-0.22410044,-1.04234493,0.00000000,0.00000000,-2.38251114,-0.84049737,0.35537338,0.03128201,-0.57782853,0.00000000,0.00000000
-0.73548925,-2.17000008,-0.39448863,-0.22420023,-1.04951608,0.00000000,0.00000000,-2.36340141,-0.83941150,0.32357118,0.02682156,-0.60430890,0.00000000,0.00000000
-0.74437988,-2.17000008,-0.39985478,-0.22238463,-1.05527723,0.00000000,0.00000000,-2.34442067,-0.84131742,0.29320458,0.02230202,-0.62970465,0.00000000,0.00000000
-0.75189263,-2.17000008,-0.40443590,-0.21897373,-1.05414104,0.00000000,0.00000000,-2.32895255,-0.84695554,0.26425654,0.01747952,-0.65287638,0.00000000,0.00000000
-0.75639617,-2.17000008,-0.40800998,-0.21540853,-1.04886544,0.00000000,0.00000000,-2.31746626,-0.85322315,0.23665749,0.01387907,-0.66826880,0.00000000,0.00000000
-0.75878513,-2.17000008,-0.41064626,-0.21343558,-1.04671586,0.00000000,0.00000000,-2.30887079,-0.85891098,0.21032998,0.01179229,-0.68703246,0.00000000,0.00000000
-0.75965393,-2.17000008,-0.41253605,-0.21253762,-1.04839873,0.00000000,0.00000000,-2.30297947,-0.86377037,0.18521610,0.01115402,-0.70667458,0.00000000,0.00000000
-0.75909603,-2.17000008,-0.41378620,-0.21211392,-1.04649794,0.00000000,0.00000000,-2.29957819,-0.86776817,0.16126676,0.01172841,-0.72457141,0.00000000,0.00000000
-0.75751120,-2.17000008,-0.41448277,-0.21211852,-1.04599726,0.00000000,0.00000000,-2.29793310,-0.87111610,0.13843609,0.01307724,-0.73817939,0.00000000,0.00000000
-0.75543642,-2.17000008,-0.41473225,-0.21245378,-1.04236317,0.00000000,0.00000000,-2.29733276,-0.87363327,0.11668184,0.01509793,-0.75314426,0.00000000,0.00000000
-0.75345516,-2.17000008,-0.41464332,-0.21306959,-1.04338121,0.00000000,0.00000000,-2.29750299,-0.87510961,0.09596834,0.01783689,-0.75666839,0.00000000,0.00000000
-0.75221485,-2.17000008,-0.41432184,-0.21407026,-1.03885996,0.00000000,0.00000000,-2.29834557,-0.87553960,0.07626420,0.02126365,-0.76036227,0.00000000,0.00000000
-0.75233334,-2.17000008,-0.41386667,-0.21558222,-1.03454828,0.00000000,0.00000000,-2.29948449,-0.87494481,0.05753598,0.02529552,-0.76242846,0.00000000,0.00000000
-0.75412673,-2.17000008,-0.41333598,-0.21767879,-1.03100574,0.00000000,0.00000000,-2.30029941,-0.87331837,0.03974668,0.02981592,-0.76331985,0.00000000,0.00000000
-0.75729477,-2.17000008,-0.41269043,-0.22056435,-1.03323829,0.00000000,0.00000000,-2.30069423,-0.87100053,0.02286697,0.03449906,-0.76539880,0.00000000,0.00000000
-0.76105899,-2.17000008,-0.41181630,-0.22453670,-1.03702283,0.00000000,0.00000000,-2.30111122,-0.86855435,0.00687777,0.03889934,-0.75871801,0.00000000,0.00000000
-0.76454377,-2.17000008,-0.41058335,-0.22991386,-1.04551554,0.00000000,0.00000000,-2.30207229,-0.86657226,-0.00823671,0.04257051,-0.75320429,0.00000000,0.00000000
-0.76709610,-2.17000008,-0.40889961,-0.23691721,-1.05610287,0.00000000,0.00000000,-2.30399728,-0.86542189,-0.02249331,0.04520815,-0.75077116,0.00000000,0.00000000
-0.76849240,-2.17000008,-0.40675214,-0.24557292,-1.06905460,0.00000000,0.00000000,-2.30711627,-0.86505508,-0.03591268,0.04676670,-0.74969739,0.00000000,0.00000000
-0.76895905,-2.17000008,-0.40422148,-0.25568259,-1.08683622,0.00000000,0.00000000,-2.31164789,-0.86501443,-0.04851529,0.04745005,-0.75019032,0.00000000,0.00000000
-0.76901317,-2.17000008,-0.40145645,-0.26689619,-1.11078453,0.00000000,0.00000000,-2.31781983,-0.86473882,-0.06032124,0.04751125,-0.74999231,0.00000000,0.00000000
-0.76920271,-2.17000008,-0.39863300,-0.27872071,-1.13185084,0.00000000,0.00000000,-2.32532406,-0.86380029,-0.07136482,0.04714224,-0.74933571,0.00000000,0.00000000
-0.77023178,-2.17000008,-0.39596823,-0.29064834,-1.15485561,0.00000000,0.00000000,-2.33294010,-0.86208218,-0.08170526,0.04639690,-0.74672097,0.00000000,0.00000000
-0.77297276,-2.17000008,-0.39371142,-0.30228546,-1.17355657,0.00000000,0.00000000,-2.33909202,-0.85969913,-0.09141313,0.04521731,-0.74538314,0.00000000,0.00000000
-0.77794492,-2.17000008,-0.39206672,-0.31318444,-1.19790316,0.00000000,0.00000000,-2.34316206,-0.85669458,-0.10053471,0.04356110,-0.74402368,0.00000000,0.00000000
-0.78483021,-2.17000008,-0.39110550,-0.32276905,-1.22442007,0.00000000,0.00000000,-2.34567976,-0.85302752,-0.10908647,0.04143822,-0.74313807,0.00000000,0.00000000
-0.79264736,-2.17000008,-0.39078772,-0.33036044,-1.24813473,0.00000000,0.00000000,-2.34755969,-0.84842765,-0.11707447,0.03903814,-0.73926365,0.00000000,0.00000000
-0.80016756,-2.17000008,-0.39102432,-0.33523589,-1.27111995,0.00000000,0.00000000,-2.34933448,-0.84231466,-0.12451229,0.03682732,-0.73950487,0.00000000,0.00000000
-0.80625969,-2.17000008,-0.39170864,-0.33683980,-1.29118681,0.00000000,0.00000000,-2.35119390,-0.83427262,-0.13142003,0.03524410,-0.73604512,0.00000000,0.00000000
-0.81030506,-2.17000008,-0.39277047,-0.33489868,-1.30696249,0.00000000,0.00000000,-2.35361981,-0.82439804,-0.13781136,0.03442076,-0.73398340,0.00000000,0.00000000
-0.81223434,-2.17000008,-0.39419901,-0.32943439,-1.32294011,0.00000000,0.00000000,-2.35695076,-0.81327158,-0.14370365,0.03423005,-0.73254830,0.00000000,0.00000000
-0.81224734,-2.17000008,-0.39599422,-0.32080296,-1.34116018,0.00000000,0.00000000,-2.36116433,-0.80188560,-0.14912252,0.03430212,-0.73234135,0.00000000,0.00000000
-0.81063116,-2.17000008,-0.39813516,-0.30958825,-1.36287022,0.00000000,0.00000000,-2.36613297,-0.79138452,-0.15409635,0.03412787,-0.72940081,0.00000000,0.00000000
-0.80754799,-2.17000008,-0.40056056,-0.29640624,-1.38817537,0.00000000,0.00000000,-2.37154508,-0.78269500,-0.15865761,0.03332405,-0.72788727,0.00000000,0.00000000
-0.80307639,-2.17000008,-0.40318814,-0.28181434,-1.42202961,0.00000000,0.00000000,-2.37686157,-0.77640492,-0.16284315,0.03173540,-0.73649102,0.00000000,0.00000000
-0.79721248,-2.17000008,-0.40592203,-0.26626229,-1.45379639,0.00000000,0.00000000,-2.38153076,-0.77282143,-0.16668986,0.02932342,-0.74468368,0.00000000,0.00000000
-0.78975207,-2.17000008,-0.40864766,-0.25004908,-1.48263311,0.00000000,0.00000000,-2.38529968,-0.77200830,-0.17022912,0.02612314,-0.75227553,0.00000000,0.00000000
-0.78044832,-2.17000008,-0.41125700,-0.23335965,-1.51419091,0.00000000,0.00000000,-2.38837719,-0.77382606,-0.17348497,0.02224490,-0.76484513,0.00000000,0.00000000
-0.76927304,-2.17000008,-0.41368330,-0.21626130,-1.54969299,0.00000000,0.00000000,-2.39122415,-0.77782845,-0.17647795,0.01796638,-0.78129447,0.00000000,0.00000000
-0.75631583,-2.17000008,-0.41588706,-0.19869250,-1.59064555,0.00000000,0.00000000,-2.39406919,-0.78327048,-0.17923161,0.01375149,-0.79670608,0.00000000,0.00000000
-0.74158525,-2.17000008,-0.41783202,-0.18048202,-1.62843454,0.00000000,0.00000000,-2.39696026,-0.78937173,-0.18177155,0.01005034,-0.81821102,0.00000000,0.00000000
-0.72494435,-2.17000008,-0.41946554,-0.16152495,-1.66747463,0.00000000,0.00000000,-2.40003872,-0.79564226,-0.18412216,0.00708503,-0.82785761,0.00000000,0.00000000
-0.70653421,-2.17000008,-0.42074230,-0.14212254,-1.70130956,0.00000000,0.00000000,-2.40361118,-0.80192435,-0.18630524,0.00485602,-0.83757436,0.00000000,0.00000000
-0.68829107,-2.16997075,-0.42174873,-0.12328779,-1.73545575,0.00000000,0.00000000,-2.40750599,-0.80816275,-0.18834110,0.00334958,-0.85527736,0.00000000,0.00000000
-0.67417455,-2.16949224,-0.42271048,-0.10647472,-1.76663899,0.00000000,0.00000000,-2.41068459,-0.81422043,-0.19024841,0.00269423,-0.87633145,0.00000000,0.00000000
-0.66725206,-2.16757202,-0.42377543,-0.09281825,-1.79684687,0.00000000,0.00000000,-2.41234374,-0.81997031,-0.19204177,0.00297786,-0.89697540,0.00000000,0.00000000
-0.66773784,-2.16440034,-0.42490983,-0.08295051,-1.82527542,0.00000000,0.00000000,-2.41233397,-0.82538873,-0.19373189,0.00415006,-0.91990709,0.00000000,0.00000000
-0.67355925,-2.16154552,-0.42598093,-0.07695808,-1.85093522,0.00000000,0.00000000,-2.41072416,-0.83046019,-0.19532700,0.00613939,-0.94306046,0.00000000,0.00000000
-0.68146491,-2.15956903,-0.42685142,-0.07390130,-1.87441063,0.00000000,0.00000000,-2.40792680,-0.83524209,-0.19683184,0.00877647,-0.96285427,0.00000000,0.00000000
-0.68820488,-2.15810585,-0.42741069,-0.07236394,-1.89765358,0.00000000,0.00000000,-2.40469432,-0.83996975,-0.19824663,0.01173003,-0.98322976,0.00000000,0.00000000
-0.69196385,-2.15665340,-0.42760211,-0.07129167,-1.91950071,0.00000000,0.00000000,-2.40186596,-0.84501988,-0.19956769,0.01459031,-1.00459659,0.00000000,0.00000000
-0.69327003,-2.15402246,-0.42746636,-0.06989924,-1.94597673,0.00000000,0.00000000,-2.40035582,-0.85073179,-0.20078868,0.01697845,-1.02539468,0.00000000,0.00000000
-0.69175386,-2.15021181,-0.42700031,-0.06792813,-1.96846557,0.00000000,0.00000000,-2.40079665,-0.85699844,-0.20190459,0.01878449,-1.04977894,0.00000000,0.00000000
-0.68582386,-2.14699054,-0.42613876,-0.06594207,-1.99228776,0.00000000,0.00000000,-2.40326023,-0.86304319,-0.20291471,0.02027042,-1.07356405,0.00000000,0.00000000
-0.67642158,-2.14656639,-0.42490110,-0.06545787,-2.01332402,0.00000000,0.00000000,-2.40738344,-0.86790478,-0.20382403,0.02179665,-1.09718251,0.00000000,0.00000000
-0.66702646,-2.14821768,-0.42344180,-0.06694270,-2.03337336,0.00000000,0.00000000,-2.41229630,-0.87055594,-0.20464489,0.02383909,-1.11446095,0.00000000,0.00000000
-0.66007626,-2.14963675,-0.42190599,-0.06972095,-2.05968904,0.00000000,0.00000000,-2.41688585,-0.87039262,-0.20539510,0.02676665,-1.13353729,0.00000000,0.00000000
-0.65553635,-2.15073872,-0.42031312,-0.07383546,-2.08945465,0.00000000,0.00000000,-2.42061949,-0.86792225,-0.20608824,0.03037877,-1.14706337,0.00000000,0.00000000
-0.65251982,-2.15248418,-0.41862792,-0.07973462,-2.11349201,0.00000000,0.00000000,-2.42367649,-0.86390102,-0.20672758,0.03427772,-1.16573000,0.00000000,0.00000000
-0.65035748,-2.15526915,-0.41682291,-0.08760390,-2.14067864,0.00000000,0.00000000,-2.42649126,-0.85867751,-0.20730886,0.03821487,-1.18297064,0.00000000,0.00000000
-0.64858216,-2.15892315,-0.41487810,-0.09743633,-2.16909575,0.00000000,0.00000000,-2.42962408,-0.85230374,-0.20782031,0.04212096,-1.19462121,0.00000000,0.00000000
-0.64687991,-2.16303658,-0.41278023,-0.10919313,-2.19227624,0.00000000,0.00000000,-2.43370175,-0.84498876,-0.20824595,0.04585459,-1.20970809,0.00000000,0.00000000
-0.64543813,-2.16686678,-0.41054809,-0.12274852,-2.21171308,0.00000000,0.00000000,-2.43914056,-0.83745050,-0.20857348,0.04897240,-1.22773099,0.00000000,0.00000000
-0.64483267,-2.16929960,-0.40823722,-0.13789080,-2.22959852,0.00000000,0.00000000,-2.44551110,-0.83065605,-0.20881167,0.05100328,-1.24658906,0.00000000,0.00000000
-0.64550930,-2.16995883,-0.40592867,-0.15414265,-2.24081421,0.00000000,0.00000000,-2.45136189,-0.82507223,-0.20899747,0.05191460,-1.26194489,0.00000000,0.00000000
-0.64776611,-2.17000008,-0.40373245,-0.17072871,-2.24933696,0.00000000,0.00000000,-2.45515156,-0.82054210,-0.20917057,0.05204262,-1.27774382,0.00000000,0.00000000
-0.65179461,-2.17000008,-0.40175214,-0.18710487,-2.26204920,0.00000000,0.00000000,-2.45615029,-0.81711882,-0.20934927,0.05148898,-1.29161525,0.00000000,0.00000000
-0.65747529,-2.17000008,-0.40006575,-0.20280835,-2.27237034,0.00000000,0.00000000,-2.45430326,-0.81470919,-0.20953210,0.05035445,-1.30260038,0.00000000,0.00000000
-0.66458642,-2.17000008,-0.39877102,-0.21709473,-2.27956629,0.00000000,0.00000000,-2.45013237,-0.81260538,-0.20969863,0.04901031,-1.31121886,0.00000000,0.00000000
-0.67269731,-2.17000008,-0.39793357,-0.22922669,-2.27808976,0.00000000,0.00000000,-2.44430733,-0.81000447,-0.20982382,0.04786710,-1.32110584,0.00000000,0.00000000
-0.68118417,-2.17000008,-0.39755443,-0.23873080,-2.28055477,0.00000000,0.00000000,-2.43735981,-0.80653256,-0.20988835,0.04713893,-1.32723963,0.00000000,0.00000000
-0.68934751,-2.17000008,-0.39758918,-0.24532978,-2.28107810,0.00000000,0.00000000,-2.42989135,-0.80228281,-0.20987262,0.04680030,-1.34578288,0.00000000,0.00000000
-0.69625133,-2.17000008,-0.39791417,-0.24908876,-2.28797174,0.00000000,0.00000000,-2.42263865,-0.79800248,-0.20975591,0.04645437,-1.36269212,0.00000000,0.00000000
-0.70124847,-2.17000008,-0.39841250,-0.25035709,-2.29803729,0.00000000,0.00000000,-2.41615129,-0.79484600,-0.20952457,0.04549753,-1.36969674,0.00000000,0.00000000
-0.70424330,-2.17000008,-0.39904451,-0.24936965,-2.30210638,0.00000000,0.00000000,-2.41047096,-0.79359674,-0.20917971,0.04358609,-1.36940861,0.00000000,0.00000000
-0.70526230,-2.17000008,-0.39980277,-0.24606346,-2.30039406,0.00000000,0.00000000,-2.40561414,-0.79435837,-0.20872471,0.04072611,-1.37470376,0.00000000,0.00000000
-0.70426875,-2.17000008,-0.40068349,-0.24016501,-2.29725432,0.00000000,0.00000000,-2.40153885,-0.79672378,-0.20816763,0.03720995,-1.37670791,0.00000000,0.00000000
-0.70127267,-2.17000008,-0.40167493,-0.23151328,-2.29788303,0.00000000,0.00000000,-2.39795423,-0.80040854,-0.20752801,0.03328215,-1.37321949,0.00000000,0.00000000
-0.69644618,-2.17000008,-0.40275812,-0.22018307,-2.29750347,0.00000000,0.00000000,-2.39467359,-0.80555683,-0.20682795,0.02892060,-1.37614846,0.00000000,0.00000000
-0.69003427,-2.17000008,-0.40390477,-0.20635995,-2.30178714,0.00000000,0.00000000,-2.39178300,-0.81243938,-0.20608528,0.02400472,-1.37747931,0.00000000,0.00000000
-0.68229795,-2.17000008,-0.40508687,-0.19020592,-2.31367302,0.00000000,0.00000000,-2.38945913,-0.82106197,-0.20531504,0.01853474,-1.37831712,0.00000000,0.00000000
-0.67332584,-2.17000008,-0.40625608,-0.17188267,-2.32266307,0.00000000,0.00000000,-2.38801098,-0.83122921,-0.20453022,0.01256647,-1.38195872,0.00000000,0.00000000
-0.66291094,-2.16999555,-0.40732560,-0.15167807,-2.32991505,0.00000000,0.00000000,-2.38782263,-0.84265977,-0.20374408,0.00618511,-1.37909245,0.00000000,0.00000000
-0.65135020,-2.16985083,-0.40824533,-0.13022387,-2.34073973,0.00000000,0.00000000,-2.38898468,-0.85489041,-0.20297140,-0.00036234,-1.37257874,0.00000000,0.00000000
-0.64037645,-2.16840839,-0.40906411,-0.10881423,-2.34610224,0.00000000,0.00000000,-2.39068747,-0.86739260,-0.20222501,-0.00668313,-1.37266529,0.00000000,0.00000000
-0.63300002,-2.16369200,-0.40990618,-0.08929196,-2.35312986,0.00000000,0.00000000,-2.39129210,-0.88001740,-0.20150836,-0.01253523,-1.37645030,0.00000000,0.00000000
-0.63141900,-2.15643382,-0.41084710,-0.07305022,-2.35471892,0.00000000,0.00000000,-2.38934851,-0.89263737,-0.20081536,-0.01773765,-1.38556862,0.00000000,0.00000000
-0.63585109,-2.14825439,-0.41187143,-0.06067112,-2.35692453,0.00000000,0.00000000,-2.38447785,-0.90478182,-0.20014198,-0.02205112,-1.39633822,0.00000000,0.00000000
-0.64460444,-2.14092970,-0.41290715,-0.05237662,-2.36491656,0.00000000,0.00000000,-2.37758970,-0.91587615,-0.19949824,-0.02536582,-1.40339923,0.00000000,0.00000000
-0.65353906,-2.13592553,-0.41383404,-0.04761451,-2.36978221,0.00000000,0.00000000,-2.37031054,-0.92492205,-0.19890830,-0.02745931,-1.40667319,0.00000000,0.00000000
-0.65939385,-2.13261771,-0.41459525,-0.04492227,-2.37168741,0.00000000,0.00000000,-2.36417294,-0.93106806,-0.19839817,-0.02814722,-1.41274071,0.00000000,0.00000000
-0.66184157,-2.12983680,-0.41521347,-0.04331541,-2.37850618,0.00000000,0.00000000,-2.36024666,-0.93429130,-0.19798577,-0.02760177,-1.41330469,0.00000000,0.00000000
-0.66098285,-2.12864614,-0.41569021,-0.04324744,-2.38780427,0.00000000,0.00000000,-2.35899734,-0.93511039,-0.19767672,-0.02620450,-1.41520357,0.00000000,0.00000000
-0.65770936,-2.13060260,-0.41602796,-0.04574822,-2.40077710,0.00000000,0.00000000,-2.35966158,-0.93386006,-0.19745719,-0.02413836,-1.41516519,0.00000000,0.00000000
-0.65462893,-2.13492751,-0.41628361,-0.05103526,-2.41522169,0.00000000,0.00000000,-2.36148548,-0.93087780,-0.19731231,-0.02157493,-1.41127241,0.00000000,0.00000000
-0.65319937,-2.14048433,-0.41648662,-0.05882513,-2.42921925,0.00000000,0.00000000,-2.36444640,-0.92655414,-0.19723637,-0.01873290,-1.40527034,0.00000000,0.00000000
-0.65326077,-2.14663124,-0.41661304,-0.06880216,-2.44182062,0.00000000,0.00000000,-2.36853576,-0.92081416,-0.19722453,-0.01552580,-1.39951694,0.00000000,0.00000000
-0.65407038,-2.15291929,-0.41660881,-0.08073637,-2.45857024,0.00000000,0.00000000,-2.37382364,-0.91335547,-0.19727145,-0.01176097,-1.39413416,0.00000000,0.00000000
-0.65495843,-2.15916944,-0.41640604,-0.09460291,-2.47557259,0.00000000,0.00000000,-2.38077426,-0.90432268,-0.19737273,-0.00759101,-1.39213884,0.00000000,0.00000000
-0.65507686,-2.16483164,-0.41592339,-0.11015255,-2.49726868,0.00000000,0.00000000,-2.38907766,-0.89363313,-0.19751737,-0.00293669,-1.39199400,0.00000000,0.00000000
-0.65402216,-2.16868830,-0.41512227,-0.12692097,-2.51896334,0.00000000,0.00000000,-2.39802718,-0.88145137,-0.19769208,0.00222864,-1.39734769,0.00000000,0.00000000
-0.65272182,-2.16988206,-0.41410518,-0.14420186,-2.54121757,0.00000000,0.00000000,-2.40673542,-0.86868948,-0.19788623,0.00754164,-1.40005386,0.00000000,0.00000000
-0.65264481,-2.16999698,-0.41308248,-0.16102390,-2.56264663,0.00000000,0.00000000,-2.41361189,-0.85649800,-0.19809619,0.01257672,-1.40309668,0.00000000,0.00000000
-0.65439463,-2.17000008,-0.41221106,-0.17667109,-2.58239603,0.00000000,0.00000000,-2.41697645,-0.84580475,-0.19832632,0.01704320,-1.41604543,0.00000000,0.00000000
-0.65754700,-2.17000008,-0.41153932,-0.19072646,-2.60411954,0.00000000,0.00000000,-2.41629457,-0.83706445,-0.19857782,0.02078299,-1.43728578,0.00000000,0.00000000
-0.66149664,-2.17000008,-0.41107708,-0.20293097,-2.63476610,0.00000000,0.00000000,-2.41280198,-0.83065486,-0.19883445,0.02345471,-1.45291710,0.00000000,0.00000000
-0.66556543,-2.17000008,-0.41079503,-0.21316560,-2.66681504,0.00000000,0.00000000,-2.40842748,-0.82708883,-0.19906911,0.02455332,-1.46975398,0.00000000,0.00000000
-0.66876698,-2.17000008,-0.41060463,-0.22124161,-2.69531322,0.00000000,0.00000000,-2.40459847,-0.82654560,-0.19925907,0.02384415,-1.48449278,0.00000000,0.00000000
-0.67031211,-2.17000008,-0.41043642,-0.22674252,-2.72837210,0.00000000,0.00000000,-2.40229464,-0.82866269,-0.19938888,0.02148222,-1.49331188,0.00000000,0.00000000
-0.66997647,-2.17000008,-0.41028059,-0.22924970,-2.75474906,0.00000000,0.00000000,-2.40192509,-0.83283955,-0.19945584,0.01779900,-1.50371182,0.00000000,0.00000000
-0.66839325,-2.17000008,-0.41023052,-0.22844881,-2.76850796,0.00000000,0.00000000,-2.40327692,-0.83823502,-0.19947092,0.01323216,-1.51825798,0.00000000,0.00000000
-0.66646606,-2.17000008,-0.41040656,-0.22412942,-2.77923250,0.00000000,0.00000000,-2.40583038,-0.84378606,-0.19945231,0.00834321,-1.52803719,0.00000000,0.00000000
-0.66429549,-2.17000008,-0.41079378,-0.21639504,-2.78709674,0.00000000,0.00000000,-2.40910840,-0.84874552,-0.19941968,0.00357338,-1.53876805,0.00000000,0.00000000
-0.66105652,-2.17000008,-0.41120777,-0.20581792,-2.79444695,0.00000000,0.00000000,-2.41286063,-0.85327774,-0.19939105,-0.00111193,-1.55419707,0.00000000,0.00000000
-0.65532070,-2.17000008,-0.41137287,-0.19312741,-2.80822444,0.00000000,0.00000000,-2.41720414,-0.85810584,-0.19938219,-0.00608311,-1.56401634,0.00000000,0.00000000
-0.64569998,-2.17000008,-0.41105309,-0.17882988,-2.82343984,0.00000000,0.00000000,-2.42240691,-0.86374253,-0.19940847,-0.01159678,-1.56878650,0.00000000,0.00000000
-0.63156468,-2.17000008,-0.41014883,-0.16328584,-2.84153175,0.00000000,0.00000000,-2.42872834,-0.87029868,-0.19948645,-0.01766757,-1.57019365,0.00000000,0.00000000
-0.61364466,-2.17000008,-0.40873420,-0.14684093,-2.85629988,0.00000000,0.00000000,-2.43643665,-0.87755662,-0.19963428,-0.02414321,-1.57729399,0.00000000,0.00000000
-0.59426516,-2.17000008,-0.40702543,-0.12993143,-2.86662316,0.00000000,0.00000000,-2.44556618,-0.88509613,-0.19986729,-0.03077171,-1.58015156,0.00000000,0.00000000
-0.57653970,-2.17000008,-0.40526313,-0.11324097,-2.87809372,0.00000000,0.00000000,-2.45548964,-0.89241970,-0.20018816,-0.03719196,-1.58106494,0.00000000,0.00000000
-0.56321895,-2.16996121,-0.40361464,-0.09755383,-2.87979317,0.00000000,0.00000000,-2.46513438,-0.89897835,-0.20058574,-0.04295912,-1.58101189,0.00000000,0.00000000
-0.55595511,-2.16933179,-0.40214550,-0.08356325,-2.87979317,0.00000000,0.00000000,-2.47353411,-0.90436363,-0.20104417,-0.04774446,-1.57541072,0.00000000,0.00000000
-0.55494130,-2.16685867,-0.40082631,-0.07193550,-2.87979317,0.00000000,0.00000000,-2.48009205,-0.90852106,-0.20154975,-0.05148786,-1.56619036,0.00000000,0.00000000
-0.55936962,-2.16257858,-0.39959058,-0.06322441,-2.87979317,0.00000000,0.00000000,-2.48444867,-0.91150016,-0.20209117,-0.05420335,-1.55811143,0.00000000,0.00000000
-0.56792527,-2.15779161,-0.39837214,-0.05784767,-2.87979317,0.00000000,0.00000000,-2.48630476,-0.91323262,-0.20265849,-0.05579519,-1.55464530,0.00000000,0.00000000
-0.57906878,-2.15386105,-0.39711174,-0.05604296,-2.87979317,0.00000000,0.00000000,-2.48541689,-0.91349268,-0.20324606,-0.05603775,-1.55016482,0.00000000,0.00000000
-0.59137040,-2.15161729,-0.39575997,-0.05781305,-2.87979317,0.00000000,0.00000000,-2.48212194,-0.91218948,-0.20386599,-0.05483736,-1.54589498,0.00000000,0.00000000
-0.60401434,-2.15113068,-0.39428970,-0.06292211,-2.87979317,0.00000000,0.00000000,-2.47736669,-0.90937722,-0.20454727,-0.05232931,-1.54304314,0.00000000,0.00000000
-0.61656398,-2.15216446,-0.39267811,-0.07110707,-2.87979317,0.00000000,0.00000000,-2.47217298,-0.90518248,-0.20531845,-0.04877441,-1.53738022,0.00000000,0.00000000
-0.62826681,-2.15467262,-0.39087084,-0.08227773,-2.87979317,0.00000000,0.00000000,-2.46724343,-0.89983225,-0.20619504,-0.04445669,-1.53034472,0.00000000,0.00000000
-0.63825148,-2.15854597,-0.38879180,-0.09642817,-2.87979317,0.00000000,0.00000000,-2.46261048,-0.89357084,-0.20717154,-0.03952088,-1.51594424,0.00000000,0.00000000
-0.64599693,-2.16316414,-0.38637921,-0.11342379,-2.87979317,0.00000000,0.00000000,-2.45776629,-0.88647681,-0.20822872,-0.03392352,-1.50195634,0.00000000,0.00000000
-0.65158641,-2.16723776,-0.38362005,-0.13289049,-2.87979317,0.00000000,0.00000000,-2.45242286,-0.87851608,-0.20935212,-0.02769022,-1.48856044,0.00000000,0.00000000
-0.65547299,-2.16944027,-0.38055113,-0.15420884,-2.87979317,0.00000000,0.00000000,-2.44677854,-0.86962456,-0.21053430,-0.02097879,-1.47596216,0.00000000,0.00000000
-0.65799624,-2.16996837,-0.37722483,-0.17672941,-2.87979317,0.00000000,0.00000000,-2.44118094,-0.85981709,-0.21176650,-0.01386400,-1.46234190,0.00000000,0.00000000
-0.65945035,-2.17000008,-0.37372708,-0.19983162,-2.87979317,0.00000000,0.00000000,-2.43614078,-0.84899992,-0.21303827,-0.00633304,-1.45360661,0.00000000,0.00000000
-0.66031528,-2.17000008,-0.37020430,-0.22298501,-2.87979317,0.00000000,0.00000000,-2.43216777,-0.83726287,-0.21433499,0.00150839,-1.44141126,0.00000000,0.00000000
-0.66140670,-2.17000008,-0.36687088,-0.24579571,-2.87979317,0.00000000,0.00000000,-2.42914009,-0.82514673,-0.21563821,0.00939870,-1.43543088,0.00000000,0.00000000
-0.66368437,-2.17000008,-0.36398032,-0.26794115,-2.87979317,0.00000000,0.00000000,-2.42626619,-0.81349188,-0.21693307,0.01701417,-1.42858398,0.00000000,0.00000000
-0.66779792,-2.17000008,-0.36177418,-0.28899568,-2.87979317,0.00000000,0.00000000,-2.42290902,-0.80297309,-0.21820970,0.02411516,-1.42424166,0.00000000,0.00000000
-0.67379022,-2.17000008,-0.36041939,-0.30843595,-2.87979317,0.00000000,0.00000000,-2.41893220,-0.79398066,-0.21945827,0.03055510,-1.41121233,0.00000000,0.00000000
-0.68104810,-2.17000008,-0.35996571,-0.32576013,-2.87979317,0.00000000,0.00000000,-2.41470408,-0.78679419,-0.22066391,0.03618602,-1.40233755,0.00000000,0.00000000
-0.68858737,-2.17000008,-0.36037332,-0.34054598,-2.87979317,0.00000000,0.00000000,-2.41074419,-0.78153688,-0.22180820,0.04092216,-1.39161944,0.00000000,0.00000000
-0.69547951,-2.17000008,-0.36157104,-0.35253158,-2.87979317,0.00000000,0.00000000,-2.40738964,-0.77818590,-0.22287393,0.04475576,-1.37823713,0.00000000,0.00000000
-0.70114905,-2.17000008,-0.36350840,-0.36167657,-2.87979317,0.00000000,0.00000000,-2.40484715,-0.77675265,-0.22384611,0.04762683,-1.36459398,0.00000000,0.00000000
-0.70537037,-2.17000008,-0.36617333,-0.36806312,-2.87979317,0.00000000,0.00000000,-2.40305281,-0.77720386,-0.22471838,0.04950244,-1.35501146,0.00000000,0.00000000
-0.70801193,-2.17000008,-0.36955160,-0.37181592,-2.87979317,0.00000000,0.00000000,-2.40180707,-0.77950966,-0.22549261,0.05036403,-1.34611440,0.00000000,0.00000000
-0.70913827,-2.17000008,-0.37366110,-0.37302980,-2.87850165,0.00000000,0.00000000,-2.40085244,-0.78361779,-0.22617677,0.05022143,-1.33145285,0.00000000,0.00000000
-0.70894927,-2.17000008,-0.37854341,-0.37175557,-2.87501526,0.00000000,0.00000000,-2.39978695,-0.78944612,-0.22678566,0.04914660,-1.31845796,0.00000000,0.00000000
-0.70760560,-2.17000008,-0.38422927,-0.36798653,-2.87216902,0.00000000,0.00000000,-2.39813972,-0.79686844,-0.22733776,0.04727544,-1.30965137,0.00000000,0.00000000
-0.70518982,-2.17000008,-0.39072251,-0.36165839,-2.86377811,0.00000000,0.00000000,-2.39550090,-0.80568177,-0.22784989,0.04478996,-1.30465233,0.00000000,0.00000000
-0.70194477,-2.17000008,-0.39805424,-0.35261393,-2.85665774,0.00000000,0.00000000,-2.39185333,-0.81554931,-0.22832763,0.04191171,-1.30007327,0.00000000,0.00000000
-0.69828093,-2.17000008,-0.40626293,-0.34078020,-2.84850931,0.00000000,0.00000000,-2.38767028,-0.82617414,-0.22876507,0.03879903,-1.29982054,0.00000000,0.00000000
-0.69475651,-2.17000008,-0.41535041,-0.32647389,-2.84133148,0.00000000,0.00000000,-2.38352752,-0.83748597,-0.22915652,0.03546299,-1.30064631,0.00000000,0.00000000
-0.69200379,-2.17000008,-0.42528448,-0.31026325,-2.83298111,0.00000000,0.00000000,-2.37981677,-0.84937614,-0.22950128,0.03190947,-1.29908621,0.00000000,0.00000000
-0.69023234,-2.17000008,-0.43594527,-0.29269066,-2.82502198,0.00000000,0.00000000,-2.37677574,-0.86155516,-0.22980167,0.02824247,-1.30280626,0.00000000,0.00000000
-0.68887037,-2.17000008,-0.44708884,-0.27413657,-2.82238197,0.00000000,0.00000000,-2.37489343,-0.87376636,-0.23005709,0.02453192,-1.31052625,0.00000000,0.00000000
-0.68668920,-2.17000008,-0.45837611,-0.25487775,-2.82487440,0.00000000,0.00000000,-2.37501359,-0.88589102,-0.23026517,0.02073555,-1.31420088,0.00000000,0.00000000
-0.68250370,-2.17000008,-0.46947867,-0.23528004,-2.83093190,0.00000000,0.00000000,-2.37767029,-0.89775342,-0.23043057,0.01687057,-1.32057858,0.00000000,0.00000000
-0.67605811,-2.16999531,-0.48019245,-0.21602386,-2.84237289,0.00000000,0.00000000,-2.38241220,-0.90892363,-0.23056845,0.01320382,-1.33084071,0.00000000,0.00000000
-0.66837931,-2.16990733,-0.49047154,-0.19817853,-2.85130262,0.00000000,0.00000000,-2.38790321,-0.91885537,-0.23069851,0.01018410,-1.34662139,0.00000000,0.00000000
-0.66157943,-2.16941094,-0.50041425,-0.18294628,-2.86489749,0.00000000,0.00000000,-2.39260840,-0.92717713,-0.23083676,0.00819949,-1.35923839,0.00000000,0.00000000
-0.65793514,-2.16804552,-0.51017636,-0.17119484,-2.87874675,0.00000000,0.00000000,-2.39511752,-0.93375272,-0.23099372,0.00750434,-1.37532616,0.00000000,0.00000000
-0.65874171,-2.16570711,-0.51984823,-0.16323355,-2.87979317,0.00000000,0.00000000,-2.39442277,-0.93870932,-0.23117529,0.00817810,-1.39165461,0.00000000,0.00000000
-0.66451061,-2.16268301,-0.52945149,-0.15905245,-2.87979317,0.00000000,0.00000000,-2.39032865,-0.94251341,-0.23138301,0.01002775,-1.40741706,0.00000000,0.00000000
-0.67498273,-2.15910912,-0.53895390,-0.15806784,-2.87979317,0.00000000,0.00000000,-2.38345408,-0.94567221,-0.23161326,0.01275120,-1.42102981,0.00000000,0.00000000
-0.68643630,-2.15478754,-0.54805076,-0.15843140,-2.87979317,0.00000000,0.00000000,-2.37549424,-0.94860780,-0.23185197,0.01595658,-1.43453813,0.00000000,0.00000000
-0.69303167,-2.15048385,-0.55621940,-0.15826359,-2.87979317,0.00000000,0.00000000,-2.36894369,-0.95158273,-0.23207287,0.01921413,-1.44801116,0.00000000,0.00000000
-0.69444919,-2.14618468,-0.56344825,-0.15713525,-2.87979317,0.00000000,0.00000000,-2.36505818,-0.95475852,-0.23225498,0.02228327,-1.46131134,0.00000000,0.00000000
-0.69277614,-2.14239860,-0.56990975,-0.15588848,-2.87979317,0.00000000,0.00000000,-2.36419153,-0.95811963,-0.23238383,0.02509400,-1.47148240,0.00000000,0.00000000
-0.68924969,-2.13993645,-0.57569259,-0.15538843,-2.87979317,0.00000000,0.00000000,-2.36639023,-0.96139485,-0.23244888,0.02768376,-1.48255122,0.00000000,0.00000000
-0.68472552,-2.13895941,-0.58087736,-0.15600237,-2.87979317,0.00000000,0.00000000,-2.37109852,-0.96418107,-0.23244971,0.03018995,-1.49355090,0.00000000,0.00000000
-0.67980820,-2.13981986,-0.58550793,-0.15817451,-2.87979317,0.00000000,0.00000000,-2.37725592,-0.96599638,-0.23239636,0.03285503,-1.50651610,0.00000000,0.00000000
-0.67434019,-2.14257431,-0.58958715,-0.16212466,-2.87979317,0.00000000,0.00000000,-2.38376951,-0.96617222,-0.23230214,0.03604746,-1.51962459,0.00000000,0.00000000
-0.66824955,-2.14644790,-0.59317946,-0.16765842,-2.87979317,0.00000000,0.00000000,-2.38914061,-0.96431923,-0.23219351,0.04005392,-1.53348589,0.00000000,0.00000000
-0.66271466,-2.15083098,-0.59645158,-0.17499806,-2.87979317,0.00000000,0.00000000,-2.39190292,-0.96099067,-0.23210260,0.04469498,-1.54297709,0.00000000,0.00000000
-0.65860707,-2.15571737,-0.59950924,-0.18456931,-2.87979317,0.00000000,0.00000000,-2.39257598,-0.95707774,-0.23201625,0.04940427,-1.54744053,0.00000000,0.00000000
-0.65563387,-2.16098595,-0.60235333,-0.19645970,-2.87979317,0.00000000,0.00000000,-2.39287806,-0.95280313,-0.23188013,0.05384970,-1.55379224,0.00000000,0.00000000
-0.65323675,-2.16579604,-0.60498905,-0.21041453,-2.87979317,0.00000000,0.00000000,-2.39433122,-0.94776732,-0.23163134,0.05806809,-1.55805552,0.00000000,0.00000000
-0.65081418,-2.16894341,-0.60744172,-0.22596169,-2.87979317,0.00000000,0.00000000,-2.39784074,-0.94156790,-0.23121655,0.06213724,-1.56083298,0.00000000,0.00000000
-0.64778805,-2.16990185,-0.60979438,-0.24235766,-2.87979317,0.00000000,0.00000000,-2.40349746,-0.93401086,-0.23060855,0.06610200,-1.56275427,0.00000000,0.00000000
-0.64450687,-2.16999722,-0.61233330,-0.25876638,-2.87979317,0.00000000,0.00000000,-2.41021347,-0.92531174,-0.22982949,0.06996100,-1.56737578,0.00000000,0.00000000
-0.64215249,-2.17000008,-0.61550182,-0.27457890,-2.87979317,0.00000000,0.00000000,-2.41571498,-0.91610324,-0.22895704,0.07368466,-1.57188010,0.00000000,0.00000000
-0.64155537,-2.17000008,-0.61967915,-0.28943273,-2.87979317,0.00000000,0.00000000,-2.41811728,-0.90693510,-0.22806095,0.07725798,-1.57374477,0.00000000,0.00000000
-0.64266062,-2.17000008,-0.62506837,-0.30313528,-2.87979317,0.00000000,0.00000000,-2.41727686,-0.89821255,-0.22714029,0.08053296,-1.57544231,0.00000000,0.00000000
-0.64472753,-2.17000008,-0.63174003,-0.31548205,-2.87979317,0.00000000,0.00000000,-2.41448092,-0.89023668,-0.22612689,0.08326250,-1.57424462,0.00000000,0.00000000
-0.64684373,-2.17000008,-0.63971734,-0.32626215,-2.87979317,0.00000000,0.00000000,-2.41169500,-0.88361359,-0.22491832,0.08495879,-1.56765175,0.00000000,0.00000000
-0.64818174,-2.17000008,-0.64903665,-0.33514670,-2.87979317,0.00000000,0.00000000,-2.40991211,-0.87902749,-0.22345632,0.08524194,-1.56432366,0.00000000,0.00000000
-0.64795554,-2.17000008,-0.65974796,-0.34158829,-2.87979317,0.00000000,0.00000000,-2.40794373,-0.87645119,-0.22177982,0.08444738,-1.55655980,0.00000000,0.00000000
-0.64590442,-2.17000008,-0.67192531,-0.34523141,-2.87979317,0.00000000,0.00000000,-2.40465426,-0.87580895,-0.21992113,0.08286741,-1.54575241,0.00000000,0.00000000
-0.64234918,-2.17000008,-0.68564594,-0.34613636,-2.87979317,0.00000000,0.00000000,-2.40030575,-0.87757313,-0.21784860,0.08021047,-1.53375638,0.00000000,0.00000000
-0.63792413,-2.17000008,-0.70093334,-0.34474042,-2.87979317,0.00000000,0.00000000,-2.39569020,-0.88226354,-0.21551237,0.07605004,-1.52331638,0.00000000,0.00000000
-0.63379908,-2.17000008,-0.71778220,-0.34189871,-2.87979317,0.00000000,0.00000000,-2.39097047,-0.88884789,-0.21289076,0.07089169,-1.50866163,0.00000000,0.00000000
-0.63105655,-2.16997552,-0.73615348,-0.33844486,-2.87979317,0.00000000,0.00000000,-2.38579655,-0.89469045,-0.20998468,0.06619692,-1.49535739,0.00000000,0.00000000
-0.62899810,-2.16957164,-0.75558686,-0.33507276,-2.87979317,0.00000000,0.00000000,-2.38030267,-0.89900035,-0.20679733,0.06232388,-1.47724366,0.00000000,0.00000000
-0.62594920,-2.16793847,-0.77529436,-0.33262762,-2.87979317,0.00000000,0.00000000,-2.37480092,-0.90221107,-0.20333292,0.05890942,-1.45941520,0.00000000,0.00000000
-0.62041897,-2.16564536,-0.79445970,-0.33185858,-2.87979317,0.00000000,0.00000000,-2.36953926,-0.90410048,-0.19959316,0.05592092,-1.44285417,0.00000000,0.00000000
-0.61281204,-2.16475248,-0.81270212,-0.33303347,-2.87979317,0.00000000,0.00000000,-2.36534476,-0.90442318,-0.19555891,0.05325598,-1.42066491,0.00000000,0.00000000
-0.60318106,-2.16424918,-0.82998079,-0.33457318,-2.87979317,0.00000000,0.00000000,-2.36225033,-0.90441906,-0.19124965,0.05015752,-1.39984250,0.00000000,0.00000000
-0.59277958,-2.16174984,-0.84657037,-0.33530036,-2.87979317,0.00000000,0.00000000,-2.35948920,-0.90493321,-0.18670937,0.04635412,-1.38024569,0.00000000,0.00000000
-0.58517587,-2.15653658,-0.86294448,-0.33603013,-2.87979317,0.00000000,0.00000000,-2.35507417,-0.90609378,-0.18201318,0.04215534,-1.36824632,0.00000000,0.00000000
-0.58370942,-2.14946556,-0.87938911,-0.33839890,-2.87979317,0.00000000,0.00000000,-2.34687161,-0.90768290,-0.17723490,0.03804016,-1.35228837,0.00000000,0.00000000
-0.58821201,-2.14175868,-0.89567429,-0.34276676,-2.87979317,0.00000000,0.00000000,-2.33441830,-0.90934092,-0.17240036,0.03434359,-1.34171343,0.00000000,0.00000000
-0.59595293,-2.13431811,-0.91127372,-0.34822050,-2.87979317,0.00000000,0.00000000,-2.31943512,-0.91039628,-0.16748320,0.03133548,-1.32997835,0.00000000,0.00000000
-0.60348028,-2.12792253,-0.92557853,-0.35345158,-2.87979317,0.00000000,0.00000000,-2.30620217,-0.91047484,-0.16240869,0.02882622,-1.32089448,0.00000000,0.00000000
-0.60878658,-2.12320185,-0.93817568,-0.35770112,-2.87979317,0.00000000,0.00000000,-2.29799032,-0.90970391,-0.15712993,0.02640078,-1.31836343,0.00000000,0.00000000
-0.61196363,-2.12033033,-0.94899076,-0.36093661,-2.87979317,0.00000000,0.00000000,-2.29343629,-0.90849549,-0.15168774,0.02392747,-1.32159328,0.00000000,0.00000000
-0.61337948,-2.11879134,-0.95812136,-0.36300540,-2.87979317,0.00000000,0.00000000,-2.29058433,-0.90711045,-0.14612930,0.02146894,-1.32963443,0.00000000,0.00000000
-0.61322963,-2.11822033,-0.96564686,-0.36375353,-2.87979317,0.00000000,0.00000000,-2.29044056,-0.90594023,-0.14045510,0.01867870,-1.33727479,0.00000000,0.00000000
-0.61171514,-2.11859059,-0.97161430,-0.36315989,-2.87979317,0.00000000,0.00000000,-2.29336023,-0.90516371,-0.13467534,0.01529686,-1.34716737,0.00000000,0.00000000
-0.60958230,-2.11947203,-0.97622031,-0.36134008,-2.87979317,0.00000000,0.00000000,-2.29805183,-0.90496063,-0.12882227,0.01122961,-1.35614777,0.00000000,0.00000000
-0.60761416,-2.12026072,-0.97971064,-0.35840532,-2.87979317,0.00000000,0.00000000,-2.30298758,-0.90569419,-0.12293053,0.00635525,-1.36499810,0.00000000,0.00000000
-0.60598361,-2.12062025,-0.98222792,-0.35434592,-2.87979317,0.00000000,0.00000000,-2.30664945,-0.90713727,-0.11703224,0.00086669,-1.37362993,0.00000000,0.00000000
-0.60464460,-2.12072182,-0.98382246,-0.34928760,-2.87979317,0.00000000,0.00000000,-2.30876517,-0.90853858,-0.11115492,-0.00488983,-1.38671136,0.00000000,0.00000000
-0.60343373,-2.12123632,-0.98447579,-0.34349170,-2.87979317,0.00000000,0.00000000,-2.31097746,-0.90941930,-0.10532933,-0.01082464,-1.39761722,0.00000000,0.00000000
-0.60105389,-2.12309098,-0.98402518,-0.33674926,-2.87979317,0.00000000,0.00000000,-2.31516051,-0.90969229,-0.09959286,-0.01703378,-1.40633571,0.00000000,0.00000000
-0.59664631,-2.12748909,-0.98231465,-0.32945400,-2.87979317,0.00000000,0.00000000,-2.32184792,-0.90915036,-0.09398163,-0.02345866,-1.41712785,0.00000000,0.00000000
-0.59310359,-2.13461804,-0.97975248,-0.32425955,-2.87979317,0.00000000,0.00000000,-2.33060694,-0.90694368,-0.08852297,-0.02969857,-1.42862105,0.00000000,0.00000000
-0.59238559,-2.14224052,-0.97698981,-0.32273927,-2.87979317,0.00000000,0.00000000,-2.33885002,-0.90159959,-0.08320697,-0.03495307,-1.44329858,0.00000000,0.00000000
-0.59454125,-2.14894533,-0.97428501,-0.32562977,-2.87979317,0.00000000,0.00000000,-2.34426856,-0.89346230,-0.07801022,-0.03944727,-1.45639861,0.00000000,0.00000000
-0.59788948,-2.15427089,-0.97150612,-0.33281076,-2.87979317,0.00000000,0.00000000,-2.34616828,-0.88307297,-0.07292963,-0.04342153,-1.47029209,0.00000000,0.00000000
-0.60032135,-2.15880370,-0.96825141,-0.34396577,-2.87979317,0.00000000,0.00000000,-2.34545565,-0.87047988,-0.06799884,-0.04670519,-1.48602331,0.00000000,0.00000000
-0.60090858,-2.16313958,-0.96419919,-0.35906264,-2.87979317,0.00000000,0.00000000,-2.34412456,-0.85627455,-0.06328449,-0.04937749,-1.50684035,0.00000000,0.00000000
-0.60036749,-2.16708922,-0.95940119,-0.37788063,-2.87979317,0.00000000,0.00000000,-2.34379601,-0.84249830,-0.05885037,-0.05230985,-1.52045083,0.00000000,0.00000000
-0.60007972,-2.16938972,-0.95463580,-0.39858389,-2.87979317,0.00000000,0.00000000,-2.34483266,-0.83047098,-0.05473117,-0.05589926,-1.53316236,0.00000000,0.00000000
-0.60034633,-2.16996527,-0.95115453,-0.41755918,-2.87979317,0.00000000,0.00000000,-2.34600973,-0.81902671,-0.05091373,-0.05909169,-1.54554451,0.00000000,0.00000000
-0.60049486,-2.17000008,-0.94969344,-0.43202788,-2.87979317,0.00000000,0.00000000,-2.34574294,-0.80653274,-0.04736489,-0.06068822,-1.56122100,0.00000000,0.00000000
-0.60120255,-2.17000008,-0.95027483,-0.44220853,-2.87979317,0.00000000,0.00000000,-2.34364796,-0.79311919,-0.04407698,-0.06066202,-1.57796431,0.00000000,0.00000000
-0.60249186,-2.17000008,-0.95236439,-0.44906518,-2.87979317,0.00000000,0.00000000,-2.34010744,-0.78019857,-0.04105493,-0.05980630,-1.59469533,0.00000000,0.00000000
-0.60302663,-2.17000008,-0.95515740,-0.45309168,-2.87979317,0.00000000,0.00000000,-2.33562827,-0.76922327,-0.03830352,-0.05909250,-1.61169839,0.00000000,0.00000000
-0.60119975,-2.17000008,-0.95787901,-0.45458341,-2.87979317,0.00000000,0.00000000,-2.33058381,-0.76112759,-0.03582625,-0.05933919,-1.62107944,0.00000000,0.00000000
-0.59695309,-2.17000008,-0.96027070,-0.45397004,-2.87979317,0.00000000,0.00000000,-2.32515407,-0.75587732,-0.03362603,-0.06069577,-1.63155627,0.00000000,0.00000000
-0.59138548,-2.17000008,-0.96253657,-0.45162332,-2.87979317,0.00000000,0.00000000,-2.31957507,-0.75294298,-0.03171287,-0.06281123,-1.63921189,0.00000000,0.00000000
-0.58559912,-2.17000008,-0.96486485,-0.44793689,-2.87979317,0.00000000,0.00000000,-2.31447506,-0.75220525,-0.03011417,-0.06552117,-1.64749289,0.00000000,0.00000000
-0.57987118,-2.17000008,-0.96710098,-0.44330683,-2.87979317,0.00000000,0.00000000,-2.31081557,-0.75411385,-0.02887263,-0.06902927,-1.64998281,0.00000000,0.00000000
-0.57417250,-2.17000008,-0.96918494,-0.43775839,-2.87979317,0.00000000,0.00000000,-2.30917048,-0.75748086,-0.02802135,-0.07254557,-1.65271485,0.00000000,0.00000000
-0.56935519,-2.17000008,-0.97113228,-0.43181980,-2.87979317,0.00000000,0.00000000,-2.30942893,-0.76044136,-0.02756543,-0.07490537,-1.65664911,0.00000000,0.00000000
-0.56703377,-2.17000008,-0.97285163,-0.42674562,-2.87979317,0.00000000,0.00000000,-2.31064606,-0.76239252,-0.02746465,-0.07569870,-1.65176702,0.00000000,0.00000000
-0.56841648,-2.17000008,-0.97429311,-0.42339960,-2.87979317,0.00000000,0.00000000,-2.31130362,-0.76444435,-0.02764084,-0.07555564,-1.64798617,0.00000000,0.00000000
-0.57388610,-2.16999960,-0.97551757,-0.42183959,-2.87979317,0.00000000,0.00000000,-2.30996180,-0.76776826,-0.02801691,-0.07534638,-1.63711584,0.00000000,0.00000000
-0.58257669,-2.16999149,-0.97629720,-0.42170256,-2.87979317,0.00000000,0.00000000,-2.30620956,-0.77246284,-0.02856988,-0.07534090,-1.62670219,0.00000000,0.00000000
-0.59304625,-2.16993999,-0.97615814,-0.42261475,-2.87979317,0.00000000,0.00000000,-2.30029392,-0.77810693,-0.02931599,-0.07536559,-1.62012219,0.00000000,0.00000000
-0.60405213,-2.16988039,-0.97456998,-0.42448097,-2.87979317,0.00000000,0.00000000,-2.29217219,-0.78374028,-0.03026151,-0.07477798,-1.61101067,0.00000000,0.00000000
-0.61529744,-2.16995287,-0.97138906,-0.42723352,-2.87979317,0.00000000,0.00000000,-2.28286934,-0.78858942,-0.03145559,-0.07299505,-1.59973431,0.00000000,0.00000000
-0.62691015,-2.16999674,-0.96684295,-0.43045220,-2.87979317,0.00000000,0.00000000,-2.27416945,-0.79278994,-0.03296992,-0.07006651,-1.58632588,0.00000000,0.00000000
-0.63849699,-2.17000008,-0.96109313,-0.43347785,-2.87979317,0.00000000,0.00000000,-2.26741147,-0.79705006,-0.03484578,-0.06651194,-1.57297623,0.00000000,0.00000000
-0.64908761,-2.17000008,-0.95416713,-0.43551722,-2.87979317,0.00000000,0.00000000,-2.26287961,-0.80192697,-0.03707156,-0.06277813,-1.56222582,0.00000000,0.00000000
-0.65825099,-2.17000008,-0.94623643,-0.43594390,-2.87979317,0.00000000,0.00000000,-2.26003981,-0.80748814,-0.03959946,-0.05897668,-1.55039597,0.00000000,0.00000000
-0.66675836,-2.17000008,-0.93786514,-0.43428415,-2.87979317,0.00000000,0.00000000,-2.25809312,-0.81339151,-0.04237350,-0.05497715,-1.53754818,0.00000000,0.00000000
-0.67570937,-2.16998649,-0.92979062,-0.42995375,-2.87979317,0.00000000,0.00000000,-2.25635552,-0.81928498,-0.04534436,-0.05071060,-1.52361965,0.00000000,0.00000000
-0.68546957,-2.16972542,-0.92225569,-0.42273653,-2.87979317,0.00000000,0.00000000,-2.25486827,-0.82487321,-0.04848658,-0.04617711,-1.51122296,0.00000000,0.00000000
-0.69539124,-2.16826129,-0.91478795,-0.41326216,-2.87979317,0.00000000,0.00000000,-2.25443101,-0.83035773,-0.05179448,-0.04161198,-1.49365258,0.00000000,0.00000000
-0.70312494,-2.16538143,-0.90625179,-0.40280741,-2.87979317,0.00000000,0.00000000,-2.25610662,-0.83660769,-0.05526526,-0.03755496,-1.47517931,0.00000000,0.00000000
-0.70556641,-2.16409612,-0.89547879,-0.39287689,-2.87979317,0.00000000,0.00000000,-2.26095676,-0.84365791,-0.05889660,-0.03405846,-1.45494175,0.00000000,0.00000000
-0.70272905,-2.16594505,-0.88229519,-0.38536862,-2.87979317,0.00000000,0.00000000,-2.26890922,-0.85061306,-0.06266504,-0.03064956,-1.44049013,0.00000000,0.00000000
-0.69669050,-2.16888952,-0.86744928,-0.38128471,-2.87979317,0.00000000,0.00000000,-2.27804899,-0.85719061,-0.06651350,-0.02720730,-1.42634165,0.00000000,0.00000000
-0.69031048,-2.16993046,-0.85238832,-0.38035789,-2.87979317,0.00000000,0.00000000,-2.28603053,-0.86347550,-0.07038151,-0.02387679,-1.41220367,0.00000000,0.00000000
-0.68637383,-2.17000008,-0.83871382,-0.38172841,-2.87979317,0.00000000,0.00000000,-2.29210734,-0.86900175,-0.07424095,-0.02057900,-1.39267778,0.00000000,0.00000000
-0.68589622,-2.17000008,-0.82750589,-0.38404402,-2.87979317,0.00000000,0.00000000,-2.29619217,-0.87313569,-0.07807314,-0.01710845,-1.37189519,0.00000000,0.00000000
-0.68756640,-2.17000008,-0.81909186,-0.38565311,-2.87979317,0.00000000,0.00000000,-2.29819250,-0.87564224,-0.08185688,-0.01337350,-1.34761035,0.00000000,0.00000000
-0.69000411,-2.17000008,-0.81339347,-0.38576633,-2.87979317,0.00000000,0.00000000,-2.29846287,-0.87712580,-0.08557649,-0.00970852,-1.32498705,0.00000000,0.00000000
-0.69250047,-2.17000008,-0.81027877,-0.38423416,-2.87979317,0.00000000,0.00000000,-2.29779482,-0.87842715,-0.08922250,-0.00656699,-1.30449212,0.00000000,0.00000000
-0.69483787,-2.17000008,-0.80969149,-0.38106233,-2.87979317,0.00000000,0.00000000,-2.29696226,-0.87996095,-0.09278798,-0.00414466,-1.28163147,0.00000000,0.00000000
-0.69698441,-2.17000008,-0.81156862,-0.37634283,-2.87979317,0.00000000,0.00000000,-2.29622984,-0.88178641,-0.09626771,-0.00241177,-1.26201165,0.00000000,0.00000000
-0.69875646,-2.17000008,-0.81574190,-0.37021729,-2.87979317,0.00000000,0.00000000,-2.29512525,-0.88366860,-0.09965975,-0.00115037,-1.24658322,0.00000000,0.00000000
-0.69991595,-2.17000008,-0.82196581,-0.36288884,-2.87979317,0.00000000,0.00000000,-2.29310179,-0.88511652,-0.10296848,0.00001837,-1.22848547,0.00000000,0.00000000
-0.70047975,-2.17000008,-0.82990569,-0.35498619,-2.87979317,0.00000000,0.00000000,-2.29060769,-0.88531512,-0.10620296,0.00165053,-1.20810759,0.00000000,0.00000000
-0.70058966,-2.17000008,-0.83899462,-0.34791327,-2.87979317,0.00000000,0.00000000,-2.28851962,-0.88309866,-0.10936460,0.00448060,-1.19201720,0.00000000,0.00000000
-0.69974476,-2.17000008,-0.84851402,-0.34295121,-2.87979317,0.00000000,0.00000000,-2.28740001,-0.87811798,-0.11243698,0.00874458,-1.17727828,0.00000000,0.00000000
-0.69754094,-2.17000008,-0.85792339,-0.34092340,-2.87979317,0.00000000,0.00000000,-2.28821564,-0.87162405,-0.11538952,0.01368548,-1.16637933,0.00000000,0.00000000
-0.69460136,-2.17000008,-0.86696821,-0.34268427,-2.87979317,0.00000000,0.00000000,-2.29125237,-0.86562032,-0.11819287,0.01813881,-1.16057038,0.00000000,0.00000000
-0.69103640,-2.17000008,-0.87547785,-0.34823108,-2.87979317,0.00000000,0.00000000,-2.29526782,-0.86124885,-0.12083643,0.02153540,-1.15189660,0.00000000,0.00000000
-0.68454856,-2.17000008,-0.88326639,-0.35508415,-2.87979317,0.00000000,0.00000000,-2.29889655,-0.85941708,-0.12332156,0.02342457,-1.14492142,0.00000000,0.00000000
-0.67407775,-2.17000008,-0.89035612,-0.36093000,-2.87979317,0.00000000,0.00000000,-2.30247593,-0.86120361,-0.12564245,0.02312809,-1.14040315,0.00000000,0.00000000
-0.65914178,-2.17000008,-0.89672208,-0.36431414,-2.87979317,0.00000000,0.00000000,-2.30790710,-0.86629176,-0.12778772,0.02073775,-1.14665806,0.00000000,0.00000000
-0.64057714,-2.17000008,-0.90252239,-0.36484402,-2.87979317,0.00000000,0.00000000,-2.31603384,-0.87293917,-0.12977129,0.01733860,-1.15618145,0.00000000,0.00000000
-0.62224686,-2.17000008,-0.90838456,-0.36376297,-2.87979317,0.00000000,0.00000000,-2.32438564,-0.87973756,-0.13165107,0.01411407,-1.16263568,0.00000000,0.00000000
-0.61014849,-2.17000008,-0.91528118,-0.36337629,-2.87979317,0.00000000,0.00000000,-2.32914543,-0.88643539,-0.13349204,0.01166246,-1.16821957,0.00000000,0.00000000
-0.60741723,-2.16992044,-0.92386991,-0.36466888,-2.87979317,0.00000000,0.00000000,-2.32773328,-0.89272845,-0.13533066,0.01048160,-1.17234111,0.00000000,0.00000000
-0.61167926,-2.16866994,-0.93371266,-0.36691752,-2.87979317,0.00000000,0.00000000,-2.32059646,-0.89834988,-0.13717028,0.01075921,-1.18106019,0.00000000,0.00000000
-0.61781818,-2.16426253,-0.94363779,-0.36889839,-2.87979317,0.00000000,0.00000000,-2.31157994,-0.90326941,-0.13898951,0.01223456,-1.18963814,0.00000000,0.00000000
-0.62320304,-2.15772605,-0.95281428,-0.37037122,-2.87979317,0.00000000,0.00000000,-2.30385208,-0.90781182,-0.14076735,0.01447492,-1.20169294,0.00000000,0.00000000
-0.62723976,-2.15049577,-0.96089542,-0.37144953,-2.87979317,0.00000000,0.00000000,-2.29805660,-0.91215211,-0.14249517,0.01734242,-1.21152389,0.00000000,0.00000000
-0.62905431,-2.14359856,-0.96756577,-0.37193337,-2.87979317,0.00000000,0.00000000,-2.29461384,-0.91628987,-0.14416026,0.02078679,-1.22030854,0.00000000,0.00000000
-0.62772357,-2.13876867,-0.97237313,-0.37187687,-2.87979317,0.00000000,0.00000000,-2.29469776,-0.92083973,-0.14573690,0.02425675,-1.22222614,0.00000000,0.00000000
-0.62335867,-2.13716912,-0.97509730,-0.37155780,-2.87979317,0.00000000,0.00000000,-2.29886246,-0.92642027,-0.14720283,0.02714085,-1.22401977,0.00000000,0.00000000
-0.61713308,-2.13875699,-0.97586185,-0.37128255,-2.87979317,0.00000000,0.00000000,-2.30601978,-0.93298322,-0.14855888,0.02929945,-1.22716689,0.00000000,0.00000000
-0.61025876,-2.14254189,-0.97497010,-0.37109771,-2.87979317,0.00000000,0.00000000,-2.31473804,-0.93985540,-0.14981683,0.03100650,-1.23538637,0.00000000,0.00000000
-0.60322416,-2.14718652,-0.97272253,-0.37069938,-2.87979317,0.00000000,0.00000000,-2.32402062,-0.94606823,-0.15098454,0.03273465,-1.24481452,0.00000000,0.00000000
-0.59676820,-2.15162373,-0.96942431,-0.37012482,-2.87979317,0.00000000,0.00000000,-2.33301282,-0.95135903,-0.15207151,0.03461331,-1.25442648,0.00000000,0.00000000
-0.59191203,-2.15577197,-0.96525973,-0.36990932,-2.87979317,0.00000000,0.00000000,-2.34032631,-0.95588684,-0.15309875,0.03658359,-1.27199841,0.00000000,0.00000000
-0.58898824,-2.15992928,-0.96026993,-0.37037843,-2.87979317,0.00000000,0.00000000,-2.34702158,-0.95942885,-0.15403597,0.03857386,-1.28162110,0.00000000,0.00000000
-0.58720493,-2.16426015,-0.95437610,-0.37130156,-2.87979317,0.00000000,0.00000000,-2.35471106,-0.96128929,-0.15483530,0.04076765,-1.29323530,0.00000000,0.00000000
-0.58565164,-2.16793251,-0.94763112,-0.37212774,-2.87979317,0.00000000,0.00000000,-2.36420345,-0.96110517,-0.15546362,0.04326032,-1.30149722,0.00000000,0.00000000
-0.58463264,-2.16963768,-0.94054282,-0.37238219,-2.87979317,0.00000000,0.00000000,-2.37481809,-0.95905751,-0.15592799,0.04597434,-1.30926657,0.00000000,0.00000000
-0.58657783,-2.16998100,-0.93419039,-0.37220737,-2.87979317,0.00000000,0.00000000,-2.38338232,-0.95519793,-0.15630771,0.04913805,-1.32052970,0.00000000,0.00000000
-0.59301656,-2.17000008,-0.92930096,-0.37202156,-2.87979317,0.00000000,0.00000000,-2.38661766,-0.95020521,-0.15669896,0.05266088,-1.33040333,0.00000000,0.00000000
-0.60192961,-2.17000008,-0.92566323,-0.37203938,-2.87979317,0.00000000,0.00000000,-2.38366985,-0.94506556,-0.15713501,0.05610062,-1.34218109,0.00000000,0.00000000
-0.61152774,-2.17000008,-0.92257887,-0.37418228,-2.87979317,0.00000000,0.00000000,-2.37709522,-0.94001257,-0.15753534,0.05917420,-1.35380650,0.00000000,0.00000000
-0.61924636,-2.17000008,-0.91944760,-0.37888098,-2.87979317,0.00000000,0.00000000,-2.37031078,-0.93547863,-0.15777761,0.06138623,-1.37196422,0.00000000,0.00000000
-0.62263197,-2.17000008,-0.91569442,-0.38605282,-2.87979317,0.00000000,0.00000000,-2.36560392,-0.93192202,-0.15776710,0.06229308,-1.38722932,0.00000000,0.00000000
-0.62203562,-2.17000008,-0.91137266,-0.39600971,-2.87979317,0.00000000,0.00000000,-2.36340380,-0.92849106,-0.15746564,0.06238772,-1.40623927,0.00000000,0.00000000
-0.61862391,-2.17000008,-0.90684181,-0.40869310,-2.87979317,0.00000000,0.00000000,-2.36353588,-0.92437738,-0.15685974,0.06221076,-1.42494357,0.00000000,0.00000000
-0.61264741,-2.17000008,-0.90217662,-0.42380300,-2.87979317,0.00000000,0.00000000,-2.36572504,-0.92026728,-0.15595372,0.06146236,-1.43755114,0.00000000,0.00000000
-0.60458893,-2.17000008,-0.89776188,-0.44035676,-2.87979317,0.00000000,0.00000000,-2.36963439,-0.91642153,-0.15475884,0.06009712,-1.44449878,0.00000000,0.00000000
-0.59403211,-2.17000008,-0.89397550,-0.45591497,-2.87979317,0.00000000,0.00000000,-2.37426233,-0.91333485,-0.15331686,0.05794177,-1.44818294,0.00000000,0.00000000
-0.58088845,-2.17000008,-0.89134359,-0.46765393,-2.87979317,0.00000000,0.00000000,-2.37864614,-0.91067356,-0.15166794,0.05528358,-1.45049620,0.00000000,0.00000000
-0.56753278,-2.17000008,-0.89068127,-0.47469550,-2.87979317,0.00000000,0.00000000,-2.38205051,-0.90756047,-0.14984456,0.05275749,-1.45476544,0.00000000,0.00000000
-0.55615705,-2.17000008,-0.89227855,-0.47778106,-2.87979317,0.00000000,0.00000000,-2.38409066,-0.90423465,-0.14787337,0.05030981,-1.45956099,0.00000000,0.00000000
-0.54732549,-2.17000008,-0.89581347,-0.47780660,-2.87979317,0.00000000,0.00000000,-2.38522029,-0.90186012,-0.14575957,0.04723850,-1.46387017,0.00000000,0.00000000
-0.53994554,-2.17000008,-0.90072536,-0.47478938,-2.87979317,0.00000000,0.00000000,-2.38638186,-0.90087229,-0.14349547,0.04324874,-1.46524787,0.00000000,0.00000000
-0.53200966,-2.17000008,-0.90639657,-0.46810356,-2.87979317,0.00000000,0.00000000,-2.38852477,-0.90101153,-0.14107946,0.03854087,-1.47027028,0.00000000,0.00000000
-0.52254719,-2.17000008,-0.91245639,-0.45747280,-2.87979317,0.00000000,0.00000000,-2.39207220,-0.90190339,-0.13853097,0.03345506,-1.47275221,0.00000000,0.00000000
-0.51285529,-2.16994333,-0.91880453,-0.44385472,-2.87979317,0.00000000,0.00000000,-2.39623785,-0.90348476,-0.13589911,0.02820011,-1.47686231,0.00000000,0.00000000
-0.50624484,-2.16903424,-0.92545331,-0.42957070,-2.87979317,0.00000000,0.00000000,-2.39876723,-0.90602553,-0.13325530,0.02287149,-1.48388207,0.00000000,0.00000000
-0.50518787,-2.16558266,-0.93224716,-0.41669157,-2.87979317,0.00000000,0.00000000,-2.39738059,-0.90970927,-0.13066046,0.01758605,-1.49466014,0.00000000,0.00000000
-0.50991029,-2.15979815,-0.93883395,-0.40599072,-2.87979317,0.00000000,0.00000000,-2.39156651,-0.91442525,-0.12814240,0.01246355,-1.50189495,0.00000000,0.00000000
-0.51945257,-2.15316629,-0.94478834,-0.39751771,-2.87979317,0.00000000,0.00000000,-2.38211036,-0.91985041,-0.12571236,0.00761185,-1.51310301,0.00000000,0.00000000
-0.53208190,-2.14728689,-0.94960546,-0.39091456,-2.87979317,0.00000000,0.00000000,-2.37035799,-0.92552805,-0.12338118,0.00315103,-1.52288675,0.00000000,0.00000000
-0.54530752,-2.14315200,-0.95279288,-0.38526395,-2.87979317,0.00000000,0.00000000,-2.35878420,-0.93067294,-0.12116235,-0.00069067,-1.53140879,0.00000000,0.00000000
-0.55649751,-2.14111638,-0.95395756,-0.37936941,-2.87979317,0.00000000,0.00000000,-2.35036254,-0.93431407,-0.11907487,-0.00359875,-1.53471804,0.00000000,0.00000000
-0.56441724,-2.14094210,-0.95300949,-0.37247252,-2.87979317,0.00000000,0.00000000,-2.34656835,-0.93562615,-0.11713800,-0.00521215,-1.54630303,0.00000000,0.00000000
-0.56943029,-2.14223981,-0.95011610,-0.36449790,-2.87979317,0.00000000,0.00000000,-2.34729433,-0.93485218,-0.11536208,-0.00568362,-1.55791080,0.00000000,0.00000000
-0.57268900,-2.14464760,-0.94555438,-0.35571250,-2.87979317,0.00000000,0.00000000,-2.35163021,-0.93353069,-0.11374617,-0.00594502,-1.57142246,0.00000000,0.00000000
-0.57541806,-2.14757347,-0.93964958,-0.34633636,-2.87979317,0.00000000,0.00000000,-2.35758400,-0.93185550,-0.11227902,-0.00609176,-1.58467901,0.00000000,0.00000000
-0.57846218,-2.15061283,-0.93265450,-0.33657736,-2.87979317,0.00000000,0.00000000,-2.36378527,-0.92913759,-0.11094829,-0.00570453,-1.59593153,0.00000000,0.00000000
-0.58275497,-2.15359116,-0.92480099,-0.32686314,-2.87979317,0.00000000,0.00000000,-2.36994886,-0.92571169,-0.10974310,-0.00501086,-1.60801089,0.00000000,0.00000000
-0.58923393,-2.15606236,-0.91636097,-0.31758162,-2.87979317,0.00000000,0.00000000,-2.37554932,-0.92195010,-0.10865016,-0.00423167,-1.61645567,0.00000000,0.00000000
-0.59768307,-2.15740681,-0.90749514,-0.30848843,-2.87979317,0.00000000,0.00000000,-2.37958050,-0.91858715,-0.10765310,-0.00380323,-1.62678826,0.00000000,0.00000000
-0.60696071,-2.15759754,-0.89818501,-0.29905474,-2.87979317,0.00000000,0.00000000,-2.38137555,-0.91742820,-0.10673510,-0.00485827,-1.63120937,0.00000000,0.00000000
-0.61599314,-2.15678549,-0.88840002,-0.28896755,-2.87979317,0.00000000,0.00000000,-2.38095021,-0.91859823,-0.10588448,-0.00752374,-1.63182259,0.00000000,0.00000000
-0.62349886,-2.15444446,-0.87817818,-0.27806306,-2.87979317,0.00000000,0.00000000,-2.37912059,-0.92040610,-0.10510068,-0.01082775,-1.62944841,0.00000000,0.00000000
-0.62855285,-2.15201926,-0.86734241,-0.26766783,-2.87979317,0.00000000,0.00000000,-2.37722158,-0.92098022,-0.10439326,-0.01376044,-1.62765098,0.00000000,0.00000000
-0.63164157,-2.15300417,-0.85560083,-0.26058462,-2.87979317,0.00000000,0.00000000,-2.37638903,-0.91931474,-0.10377379,-0.01578896,-1.62471390,0.00000000,0.00000000
-0.63408792,-2.15789723,-0.84308791,-0.25827032,-2.87979317,0.00000000,0.00000000,-2.37758708,-0.91505516,-0.10325062,-0.01672108,-1.62113130,0.00000000,0.00000000
-0.63672268,-2.16415977,-0.83022064,-0.26037228,-2.87979317,0.00000000,0.00000000,-2.38037157,-0.90852785,-0.10281403,-0.01665907,-1.61469305,0.00000000,0.00000000
-0.63996768,-2.16864681,-0.81743753,-0.26589721,-2.87979317,0.00000000,0.00000000,-2.38324976,-0.90088004,-0.10244010,-0.01620760,-1.61275685,0.00000000,0.00000000
-0.64420980,-2.16991949,-0.80517888,-0.27376664,-2.87979317,0.00000000,0.00000000,-2.38514447,-0.89305025,-0.10210839,-0.01600532,-1.60766387,0.00000000,0.00000000
-0.64982873,-2.17000008,-0.79385674,-0.28308740,-2.87979317,0.00000000,0.00000000,-2.38531303,-0.88498729,-0.10180365,-0.01610848,-1.60278034,0.00000000,0.00000000
-0.65646493,-2.17000008,-0.78363121,-0.29324064,-2.87979317,0.00000000,0.00000000,-2.38336444,-0.87652516,-0.10151563,-0.01643910,-1.59661591,0.00000000,0.00000000
-0.66322982,-2.17000008,-0.77446324,-0.30378640,-2.87979317,0.00000000,0.00000000,-2.37975812,-0.86785585,-0.10124367,-0.01712589,-1.58898365,0.00000000,0.00000000
-0.66907108,-2.17000008,-0.76623893,-0.31436917,-2.87979317,0.00000000,0.00000000,-2.37547708,-0.85938656,-0.10099501,-0.01842405,-1.57617462,0.00000000,0.00000000
-0.67317289,-2.17000008,-0.75886542,-0.32470036,-2.87979317,0.00000000,0.00000000,-2.37161541,-0.85168707,-0.10078313,-0.02065481,-1.56629086,0.00000000,0.00000000
-0.67513001,-2.17000008,-0.75230581,-0.33458424,-2.87979317,0.00000000,0.00000000,-2.36951518,-0.84522265,-0.10063259,-0.02405481,-1.55957639,0.00000000,0.00000000
-0.67507219,-2.17000008,-0.74657702,-0.34407696,-2.87979317,0.00000000,0.00000000,-2.37042689,-0.83972156,-0.10057621,-0.02838995,-1.55642867,0.00000000,0.00000000
-0.67308986,-2.17000008,-0.74171311,-0.35290921,-2.87979317,0.00000000,0.00000000,-2.37413359,-0.83396488,-0.10063393,-0.03276035,-1.54887640,0.00000000,0.00000000
-0.66930598,-2.17000008,-0.73793221,-0.35939249,-2.87979317,0.00000000,0.00000000,-2.37921166,-0.82724845,-0.10080653,-0.03652683,-1.54477167,0.00000000,0.00000000
-0.66558683,-2.17000008,-0.73561609,-0.36223173,-2.87979317,0.00000000,0.00000000,-2.38429618,-0.81988627,-0.10108612,-0.03968026,-1.53986001,0.00000000,0.00000000
-0.66273689,-2.17000008,-0.73449934,-0.36215532,-2.87979317,0.00000000,0.00000000,-2.38800550,-0.81200927,-0.10145540,-0.04201077,-1.53100324,0.00000000,0.00000000
-0.66012716,-2.17000008,-0.73388976,-0.36070007,-2.87979317,0.00000000,0.00000000,-2.38878298,-0.80401987,-0.10188598,-0.04338677,-1.52603602,0.00000000,0.00000000
-0.65729588,-2.17000008,-0.73325306,-0.35922852,-2.87979317,0.00000000,0.00000000,-2.38613391,-0.79689085,-0.10236467,-0.04411526,-1.52333486,0.00000000,0.00000000
-0.65368170,-2.17000008,-0.73225665,-0.35837018,-2.87979317,0.00000000,0.00000000,-2.38032699,-0.79185516,-0.10288872,-0.04478002,-1.52394748,0.00000000,0.00000000
-0.64908075,-2.17000008,-0.73081422,-0.35812005,-2.87979317,0.00000000,0.00000000,-2.37161970,-0.78914994,-0.10345529,-0.04550401,-1.52427638,0.00000000,0.00000000
-0.64416295,-2.17000008,-0.72948903,-0.35728061,-2.87979317,0.00000000,0.00000000,-2.36166382,-0.78889632,-0.10409847,-0.04651932,-1.52191341,0.00000000,0.00000000
-0.63947493,-2.17000008,-0.72892129,-0.35441357,-2.87979317,0.00000000,0.00000000,-2.35188890,-0.79076499,-0.10485546,-0.04777335,-1.52017713,0.00000000,0.00000000
-0.63521051,-2.17000008,-0.72936279,-0.34898105,-2.87979317,0.00000000,0.00000000,-2.34381509,-0.79485381,-0.10577016,-0.04939722,-1.51715338,0.00000000,0.00000000
-0.63055998,-2.17000008,-0.73074937,-0.34038690,-2.87979317,0.00000000,0.00000000,-2.33772612,-0.80163699,-0.10685145,-0.05162275,-1.50873983,0.00000000,0.00000000
-0.62484562,-2.16990685,-0.73277974,-0.32879299,-2.87979317,0.00000000,0.00000000,-2.33351135,-0.80970943,-0.10809889,-0.05357558,-1.50070059,0.00000000,0.00000000
-0.61914074,-2.16859651,-0.73561436,-0.31456262,-2.87979317,0.00000000,0.00000000,-2.33012247,-0.81883770,-0.10947619,-0.05509664,-1.48984754,0.00000000,0.00000000
-0.61440873,-2.16578317,-0.73907852,-0.29916117,-2.87979317,0.00000000,0.00000000,-2.32624578,-0.82852340,-0.11093602,-0.05594717,-1.47987103,0.00000000,0.00000000
-0.61550319,-2.16575646,-0.74325216,-0.28624031,-2.87979317,0.00000000,0.00000000,-2.32094193,-0.83792531,-0.11244103,-0.05569676,-1.46397722,0.00000000,0.00000000
-0.62283206,-2.16665912,-0.74817353,-0.27540222,-2.87979317,0.00000000,0.00000000,-2.31478190,-0.84651917,-0.11399687,-0.05413674,-1.45386052,0.00000000,0.00000000
-0.63338524,-2.16650820,-0.75323349,-0.26608229,-2.87979317,0.00000000,0.00000000,-2.30897093,-0.85473967,-0.11562070,-0.05166021,-1.44087303,0.00000000,0.00000000
-0.64501154,-2.16568089,-0.75787801,-0.25844419,-2.87979317,0.00000000,0.00000000,-2.30446196,-0.86310154,-0.11731588,-0.04873228,-1.43104649,0.00000000,0.00000000
-0.65676945,-2.16416740,-0.76194996,-0.25207892,-2.87979317,0.00000000,0.00000000,-2.30154109,-0.87194455,-0.11906249,-0.04571293,-1.41811061,0.00000000,0.00000000
-0.66799867,-2.16139436,-0.76543522,-0.24632668,-2.87979317,0.00000000,0.00000000,-2.30017877,-0.88119048,-0.12083308,-0.04271225,-1.41170776,0.00000000,0.00000000
-0.67786533,-2.15750194,-0.76825225,-0.24082294,-2.87979317,0.00000000,0.00000000,-2.30035496,-0.89071953,-0.12260516,-0.03979640,-1.40350747,0.00000000,0.00000000
-0.68543130,-2.15328026,-0.77026379,-0.23548049,-2.87979317,0.00000000,0.00000000,-2.30202842,-0.90039182,-0.12436037,-0.03697251,-1.39553702,0.00000000,0.00000000
-0.68953091,-2.14981794,-0.77128953,-0.23030990,-2.87979317,0.00000000,0.00000000,-2.30504036,-0.90970850,-0.12608130,-0.03399163,-1.38959157,0.00000000,0.00000000
-0.69005072,-2.14819527,-0.77126443,-0.22585493,-2.87979317,0.00000000,0.00000000,-2.30950737,-0.91821980,-0.12775721,-0.03067600,-1.38346052,0.00000000,0.00000000
-0.68801916,-2.14913344,-0.77027369,-0.22305116,-2.87979317,0.00000000,0.00000000,-2.31560826,-0.92557782,-0.12937817,-0.02697563,-1.38148439,0.00000000,0.00000000
-0.68486577,-2.15247202,-0.76851124,-0.22251368,-2.87979317,0.00000000,0.00000000,-2.32321906,-0.93137866,-0.13092929,-0.02285250,-1.37833512,0.00000000,0.00000000
-0.68184429,-2.15734744,-0.76619714,-0.22436926,-2.87979317,0.00000000,0.00000000,-2.33146954,-0.93524194,-0.13238651,-0.01821709,-1.37491715,0.00000000,0.00000000
-0.68104523,-2.16230583,-0.76368475,-0.22881961,-2.87979317,0.00000000,0.00000000,-2.33806777,-0.93703049,-0.13371503,-0.01288673,-1.37040257,0.00000000,0.00000000
-0.68638080,-2.16538858,-0.76157969,-0.23674652,-2.87979317,0.00000000,0.00000000,-2.33975315,-0.93708295,-0.13487922,-0.00677456,-1.35988343,0.00000000,0.00000000
-0.69561797,-2.16696072,-0.75963235,-0.24788077,-2.87979317,0.00000000,0.00000000,-2.33647990,-0.93622732,-0.13586858,-0.00033046,-1.35113132,0.00000000,0.00000000
-0.70288408,-2.16806102,-0.75708681,-0.26087728,-2.87979317,0.00000000,0.00000000,-2.33130646,-0.93540382,-0.13667490,0.00563885,-1.34090281,0.00000000,0.00000000
-0.70475161,-2.16916370,-0.75346607,-0.27499196,-2.87979317,0.00000000,0.00000000,-2.32781100,-0.93515384,-0.13726957,0.01049527,-1.33039308,0.00000000,0.00000000
-0.70040554,-2.16982889,-0.74874979,-0.28975862,-2.87979317,0.00000000,0.00000000,-2.32859921,-0.93509042,-0.13761027,0.01420584,-1.32434666,0.00000000,0.00000000
-0.69121730,-2.16999054,-0.74340957,-0.30479544,-2.87979317,0.00000000,0.00000000,-2.33402252,-0.93437606,-0.13766475,0.01718880,-1.31753600,0.00000000,0.00000000
-0.68110579,-2.17000008,-0.73850209,-0.31997985,-2.87979317,0.00000000,0.00000000,-2.34112978,-0.93228245,-0.13743567,0.02009300,-1.30759108,0.00000000,0.00000000
-0.67498320,-2.17000008,-0.73539168,-0.33518299,-2.87979317,0.00000000,0.00000000,-2.34564209,-0.92846340,-0.13695027,0.02346324,-1.28826702,0.00000000,0.00000000
-0.67380416,-2.17000008,-0.73478121,-0.34940633,-2.87979317,0.00000000,0.00000000,-2.34664845,-0.92347354,-0.13620307,0.02702471,-1.26863015,0.00000000,0.00000000
-0.67448825,-2.17000008,-0.73650795,-0.36128399,-2.87979317,0.00000000,0.00000000,-2.34606719,-0.91842169,-0.13515168,0.02994651,-1.25392854,0.00000000,0.00000000
-0.67469841,-2.17000008,-0.74027735,-0.37048489,-2.87979317,0.00000000,0.00000000,-2.34462619,-0.91433036,-0.13377234,0.03157963,-1.23991013,0.00000000,0.00000000
-0.67358524,-2.17000008,-0.74589735,-0.37742314,-2.87979317,0.00000000,0.00000000,-2.34219289,-0.91233748,-0.13205849,0.03131353,-1.22662389,0.00000000,0.00000000
-0.67094886,-2.17000008,-0.75320983,-0.38275278,-2.87979317,0.00000000,0.00000000,-2.33881831,-0.91371894,-0.13000406,0.02847914,-1.21239316,0.00000000,0.00000000
-0.66687858,-2.17000008,-0.76207131,-0.38714492,-2.87979317,0.00000000,0.00000000,-2.33523417,-0.91854626,-0.12759355,0.02307136,-1.19868505,0.00000000,0.00000000
-0.66136044,-2.17000008,-0.77228814,-0.39116442,-2.87979317,0.00000000,0.00000000,-2.33243203,-0.92507833,-0.12481771,0.01613160,-1.19380522,0.00000000,0.00000000
-0.65435028,-2.17000008,-0.78353953,-0.39557129,-2.87979317,0.00000000,0.00000000,-2.33099771,-0.93193674,-0.12169740,0.00850387,-1.19174063,0.00000000,0.00000000
-0.64687955,-2.17000008,-0.79552412,-0.40189183,-2.87979317,0.00000000,0.00000000,-2.33100438,-0.93763632,-0.11827596,0.00108570,-1.19464231,0.00000000,0.00000000
-0.63969940,-2.17000008,-0.80810589,-0.41058508,-2.87979317,0.00000000,0.00000000,-2.33186841,-0.94078815,-0.11460172,-0.00524646,-1.19179511,0.00000000,0.00000000
-0.62893444,-2.17000008,-0.82106394,-0.41750109,-2.87979317,0.00000000,0.00000000,-2.33316445,-0.94122064,-0.11071399,-0.01027546,-1.18810630,0.00000000,0.00000000
-0.61416501,-2.17000008,-0.83456713,-0.42064485,-2.87979317,0.00000000,0.00000000,-2.33477163,-0.93981189,-0.10664251,-0.01436738,-1.18042123,0.00000000,0.00000000
-0.60391831,-2.17000008,-0.84969693,-0.42415655,-2.87979317,0.00000000,0.00000000,-2.33640051,-0.93776184,-0.10240440,-0.01811923,-1.17620075,0.00000000,0.00000000
-0.59644914,-2.17000008,-0.86581117,-0.42781678,-2.87979317,0.00000000,0.00000000,-2.33689165,-0.93571389,-0.09800449,-0.02183768,-1.17072737,0.00000000,0.00000000
-0.58941698,-2.17000008,-0.88233280,-0.43037090,-2.87979317,0.00000000,0.00000000,-2.33657217,-0.93448502,-0.09346357,-0.02603822,-1.16194332,0.00000000,0.00000000
-0.58180362,-2.17000008,-0.89910322,-0.43052649,-2.87979317,0.00000000,0.00000000,-2.33691287,-0.93439609,-0.08882372,-0.03095112,-1.15355003,0.00000000,0.00000000
-0.57244349,-2.16996694,-0.91585898,-0.42722997,-2.87979317,0.00000000,0.00000000,-2.33878589,-0.93544370,-0.08412617,-0.03648912,-1.14732111,0.00000000,0.00000000
-0.56323147,-2.16943479,-0.93248063,-0.42189854,-2.87979317,0.00000000,0.00000000,-2.34092188,-0.93763143,-0.07936970,-0.04238614,-1.13620770,0.00000000,0.00000000
-0.55927247,-2.16740704,-0.94918090,-0.41799688,-2.87979317,0.00000000,0.00000000,-2.33934426,-0.94048816,-0.07447834,-0.04796065,-1.12405074,0.00000000,0.00000000
-0.56290829,-2.16406512,-0.96588176,-0.41745496,-2.87979317,0.00000000,0.00000000,-2.33120775,-0.94278622,-0.06938773,-0.05219384,-1.11001134,0.00000000,0.00000000
-0.57163137,-2.16058540,-0.98189670,-0.41966969,-2.87979317,0.00000000,0.00000000,-2.31857872,-0.94356251,-0.06416140,-0.05453022,-1.09403813,0.00000000,0.00000000
-0.58102554,-2.15805244,-0.99637967,-0.42294410,-2.87979317,0.00000000,0.00000000,-2.30656695,-0.94284946,-0.05895002,-0.05523948,-1.08161211,0.00000000,0.00000000
-0.58814770,-2.15641093,-1.00895333,-0.42582890,-2.87979317,0.00000000,0.00000000,-2.29838300,-0.94132584,-0.05384116,-0.05498299,-1.07334352,0.00000000,0.00000000
-0.59210265,-2.15519309,-1.01962280,-0.42766455,-2.87979317,0.00000000,0.00000000,-2.29425216,-0.94013560,-0.04882509,-0.05459632,-1.07010341,0.00000000,0.00000000
-0.59312201,-2.15405464,-1.02852297,-0.42835799,-2.87979317,0.00000000,0.00000000,-2.29329538,-0.94020361,-0.04385960,-0.05468524,-1.06232512,0.00000000,0.00000000
-0.59153813,-2.15278459,-1.03576839,-0.42791569,-2.87979317,0.00000000,0.00000000,-2.29490232,-0.94140458,-0.03891719,-0.05517493,-1.05339146,0.00000000,0.00000000
-0.58735740,-2.15140152,-1.04138613,-0.42625514,-2.87979317,0.00000000,0.00000000,-2.29887128,-0.94324124,-0.03398709,-0.05578771,-1.04998839,0.00000000,0.00000000
-0.58144444,-2.15031886,-1.04541981,-0.42382452,-2.87979317,0.00000000,0.00000000,-2.30531406,-0.94549841,-0.02907081,-0.05646347,-1.04497600,0.00000000,0.00000000
-0.57558471,-2.14984059,-1.04803646,-0.42146209,-2.87979317,0.00000000,0.00000000,-2.31386399,-0.94763827,-0.02415846,-0.05695968,-1.03950620,0.00000000,0.00000000
-0.57100075,-2.14987183,-1.04940605,-0.41962236,-2.87979317,0.00000000,0.00000000,-2.32441211,-0.94931239,-0.01924804,-0.05715573,-1.03970158,0.00000000,0.00000000
-0.56763542,-2.15033984,-1.04955208,-0.41826001,-2.87979317,0.00000000,0.00000000,-2.33612704,-0.95033610,-0.01430668,-0.05707572,-1.03662562,0.00000000,0.00000000
-0.56552309,-2.15159273,-1.04846144,-0.41762042,-2.87979317,0.00000000,0.00000000,-2.34482431,-0.95049441,-0.00918385,-0.05674363,-1.02727866,0.00000000,0.00000000
-0.56550634,-2.15386009,-1.04626644,-0.41831750,-2.87979317,0.00000000,0.00000000,-2.34828997,-0.95049793,-0.00379075,-0.05673831,-1.01618564,0.00000000,0.00000000
-0.56753355,-2.15700269,-1.04305184,-0.42037731,-2.87979317,0.00000000,0.00000000,-2.34877825,-0.95065379,0.00181145,-0.05738522,-1.00838542,0.00000000,0.00000000
-0.57036400,-2.16075635,-1.03874874,-0.42317006,-2.87979317,0.00000000,0.00000000,-2.34969592,-0.95043159,0.00751483,-0.05843822,-1.00683677,0.00000000,0.00000000
-0.57152414,-2.16477919,-1.03312862,-0.42539141,-2.87979317,0.00000000,0.00000000,-2.35336423,-0.94913936,0.01323898,-0.05943914,-1.00211418,0.00000000,0.00000000
-0.56916028,-2.16814041,-1.02630758,-0.42564875,-2.87979317,0.00000000,0.00000000,-2.36004043,-0.94706970,0.01897326,-0.06046433,-0.98573822,0.00000000,0.00000000
-0.56617558,-2.16967773,-1.01961672,-0.42422584,-2.87979317,0.00000000,0.00000000,-2.36584234,-0.94448590,0.02486069,-0.06166020,-0.96765023,0.00000000,0.00000000
-0.56776440,-2.16998339,-1.01479030,-0.42289144,-2.87979317,0.00000000,0.00000000,-2.36586642,-0.94072479,0.03109239,-0.06276900,-0.94788748,0.00000000,0.00000000
-0.57512027,-2.16997480,-1.01217878,-0.42329693,-2.87979317,0.00000000,0.00000000,-2.35895419,-0.93472588,0.03773026,-0.06336346,-0.92873585,0.00000000,0.00000000
-0.58571738,-2.16960716,-1.01112902,-0.42652386,-2.87979317,0.00000000,0.00000000,-2.34864926,-0.92676944,0.04466325,-0.06370784,-0.91145653,0.00000000,0.00000000
-0.59380990,-2.16868043,-1.01052606,-0.43174216,-2.87979317,0.00000000,0.00000000,-2.34025645,-0.91802251,0.05171096,-0.06443321,-0.89721757,0.00000000,0.00000000
-0.59501725,-2.16843200,-1.00917399,-0.43817726,-2.87979317,0.00000000,0.00000000,-2.33524132,-0.90913641,0.05882475,-0.06582732,-0.88182217,0.00000000,0.00000000
-0.59069109,-2.16912556,-1.00699949,-0.44676745,-2.87979317,0.00000000,0.00000000,-2.33314180,-0.90147889,0.06600998,-0.06856337,-0.86654967,0.00000000,0.00000000
-0.58383971,-2.16979551,-1.00477052,-0.45804662,-2.87979317,0.00000000,0.00000000,-2.33448362,-0.89552140,0.07321975,-0.07273985,-0.85685915,0.00000000,0.00000000
-0.57582676,-2.16998816,-1.00314331,-0.47156510,-2.87979317,0.00000000,0.00000000,-2.33942533,-0.89033753,0.08041457,-0.07763444,-0.84406471,0.00000000,0.00000000
-0.56677926,-2.17000008,-1.00234914,-0.48661840,-2.87979317,0.00000000,0.00000000,-2.34678173,-0.88541216,0.08760880,-0.08284572,-0.82719356,0.00000000,0.00000000
