isaac-sim2real/sage/motion_files/wr75s/amass/0-Eyes_Japan_Dataset_kaiwa_greeting-01-hello-kaiwa_poses_idx66.txt
l_joint1,l_joint2,l_joint3,l_joint4,l_joint5,l_joint6,l_joint7,r_joint1,r_joint2,r_joint3,r_joint4,r_joint5,r_joint6,r_joint7
-0.84044403,-1.10627770,0.39380097,0.22883207,0.06069763,0.00000000,0.00000000,-1.81005645,0.58991629,-0.53140533,0.16642801,0.04123472,0.00000000,0.00000000
-0.84068221,-1.10540366,0.39383358,0.22886306,0.06032975,0.00000000,0.00000000,-1.80925035,0.59031218,-0.53143841,0.16645585,0.05807387,0.00000000,0.00000000
-0.84113723,-1.10381150,0.39390159,0.22890985,0.05904786,0.00000000,0.00000000,-1.80768847,0.59097332,-0.53150821,0.16647322,0.07722498,0.00000000,0.00000000
-0.84177434,-1.10173476,0.39400434,0.22894478,0.06182732,0.00000000,0.00000000,-1.80538332,0.59170848,-0.53161663,0.16638920,0.09999663,0.00000000,0.00000000
-0.84252709,-1.09942412,0.39412665,0.22894791,0.06136106,0.00000000,0.00000000,-1.80235589,0.59239423,-0.53175223,0.16613021,0.12606519,0.00000000,0.00000000
-0.84331393,-1.09703088,0.39424324,0.22890353,0.05852654,0.00000000,0.00000000,-1.79861987,0.59308028,-0.53188741,0.16571350,0.15218285,0.00000000,0.00000000
-0.84405547,-1.09462178,0.39433062,0.22878799,0.05987391,0.00000000,0.00000000,-1.79417908,0.59391314,-0.53198528,0.16521300,0.17952453,0.00000000,0.00000000
-0.84468651,-1.09220386,0.39437187,0.22860636,0.06397613,0.00000000,0.00000000,-1.78902900,0.59502953,-0.53200567,0.16467838,0.20775752,0.00000000,0.00000000
-0.84516233,-1.08972788,0.39435285,0.22843324,0.06854139,0.00000000,0.00000000,-1.78316140,0.59652638,-0.53190750,0.16411585,0.23566300,0.00000000,0.00000000
-0.84545487,-1.08715701,0.39426035,0.22836939,0.07502745,0.00000000,0.00000000,-1.77657080,0.59844053,-0.53164810,0.16352478,0.26320097,0.00000000,0.00000000
-0.84553587,-1.08457482,0.39408496,0.22845104,0.07922754,0.00000000,0.00000000,-1.76926994,0.60071403,-0.53118157,0.16290697,0.29240784,0.00000000,0.00000000
-0.84536755,-1.08218253,0.39382416,0.22862667,0.08301809,0.00000000,0.00000000,-1.76128602,0.60321426,-0.53045797,0.16223802,0.32246467,0.00000000,0.00000000
-0.84490532,-1.08020389,0.39348319,0.22880197,0.08859407,0.00000000,0.00000000,-1.75264668,0.60580689,-0.52942270,0.16145997,0.34952751,0.00000000,0.00000000
-0.84410328,-1.07887685,0.39307532,0.22885460,0.09905729,0.00000000,0.00000000,-1.74337494,0.60835749,-0.52801806,0.16050224,0.38073400,0.00000000,0.00000000
-0.84292024,-1.07851148,0.39262182,0.22862008,0.11624438,0.00000000,0.00000000,-1.73350692,0.61065316,-0.52618539,0.15928960,0.40992829,0.00000000,0.00000000
-0.84134245,-1.07940912,0.39215475,0.22794716,0.12980095,0.00000000,0.00000000,-1.72309625,0.61240572,-0.52386755,0.15774332,0.44250506,0.00000000,0.00000000
-0.83941370,-1.08161247,0.39171901,0.22682376,0.14466496,0.00000000,0.00000000,-1.71218753,0.61340970,-0.52100992,0.15581134,0.47843343,0.00000000,0.00000000
-0.83724111,-1.08477652,0.39137033,0.22543138,0.15517926,0.00000000,0.00000000,-1.70079017,0.61368454,-0.51756167,0.15350251,0.51468730,0.00000000,0.00000000
-0.83495808,-1.08831763,0.39116305,0.22405590,0.16292396,0.00000000,0.00000000,-1.68888617,0.61345267,-0.51347643,0.15086927,0.55366868,0.00000000,0.00000000
-0.83268023,-1.09164643,0.39113408,0.22296216,0.17191346,0.00000000,0.00000000,-1.67645288,0.61301452,-0.50871420,0.14796142,0.59585196,0.00000000,0.00000000
-0.83048534,-1.09428430,0.39129543,0.22233260,0.18229567,0.00000000,0.00000000,-1.66347444,0.61265129,-0.50324535,0.14481011,0.63908303,0.00000000,0.00000000
-0.82841754,-1.09589374,0.39163935,0.22225681,0.19356459,0.00000000,0.00000000,-1.64993823,0.61258578,-0.49705249,0.14144783,0.68312389,0.00000000,0.00000000
-0.82649410,-1.09633195,0.39215043,0.22272854,0.19775133,0.00000000,0.00000000,-1.63583672,0.61294866,-0.49012813,0.13791250,0.72175640,0.00000000,0.00000000
-0.82470953,-1.09567940,0.39281580,0.22367285,0.20515378,0.00000000,0.00000000,-1.62117267,0.61375636,-0.48246962,0.13422753,0.75413436,0.00000000,0.00000000
-0.82304251,-1.09418416,0.39363003,0.22499678,0.21449879,0.00000000,0.00000000,-1.60595715,0.61493075,-0.47407535,0.13038808,0.78156507,0.00000000,0.00000000
-0.82145715,-1.09217823,0.39459270,0.22660498,0.22304717,0.00000000,0.00000000,-1.59020138,0.61634463,-0.46494365,0.12636136,0.81052089,0.00000000,0.00000000
-0.81990033,-1.09000897,0.39569938,0.22837925,0.23121388,0.00000000,0.00000000,-1.57391274,0.61787933,-0.45507306,0.12209019,0.83896810,0.00000000,0.00000000
-0.81830376,-1.08798051,0.39693484,0.23018576,0.24452436,0.00000000,0.00000000,-1.55709004,0.61947650,-0.44446442,0.11750349,0.86959356,0.00000000,0.00000000
-0.81659830,-1.08631647,0.39827672,0.23192228,0.25946251,0.00000000,0.00000000,-1.53972638,0.62115008,-0.43312278,0.11253610,0.90256953,0.00000000,0.00000000
-0.81473106,-1.08517039,0.39970636,0.23354569,0.27735195,0.00000000,0.00000000,-1.52181661,0.62294269,-0.42105812,0.10714072,0.93478531,0.00000000,0.00000000
-0.81267774,-1.08465481,0.40121448,0.23505455,0.29193667,0.00000000,0.00000000,-1.50336277,0.62487829,-0.40828484,0.10128441,0.96508455,0.00000000,0.00000000
-0.81044197,-1.08482134,0.40279624,0.23647025,0.30679011,0.00000000,0.00000000,-1.48437297,0.62696952,-0.39482307,0.09494994,0.99160349,0.00000000,0.00000000
-0.80804729,-1.08561933,0.40444556,0.23783596,0.32433033,0.00000000,0.00000000,-1.46485269,0.62925726,-0.38070112,0.08814644,1.01366842,0.00000000,0.00000000
-0.80552560,-1.08692765,0.40615565,0.23919773,0.34319022,0.00000000,0.00000000,-1.44480729,0.63181919,-0.36595541,0.08090466,1.03143668,0.00000000,0.00000000
-0.80290937,-1.08863366,0.40792498,0.24056986,0.36372200,0.00000000,0.00000000,-1.42424548,0.63474232,-0.35062894,0.07325251,1.05097926,0.00000000,0.00000000
-0.80023760,-1.09065831,0.40975955,0.24193968,0.38863623,0.00000000,0.00000000,-1.40317833,0.63809621,-0.33477169,0.06520503,1.07631779,0.00000000,0.00000000
-0.79756784,-1.09290791,0.41167140,0.24331799,0.40926722,0.00000000,0.00000000,-1.38161111,0.64192587,-0.31844243,0.05678425,1.10363817,0.00000000,0.00000000
-0.79497713,-1.09524441,0.41367567,0.24476270,0.42699102,0.00000000,0.00000000,-1.35953772,0.64625287,-0.30170920,0.04803285,1.12968421,0.00000000,0.00000000
-0.79254764,-1.09753954,0.41579071,0.24633545,0.44757202,0.00000000,0.00000000,-1.33694577,0.65106523,-0.28464630,0.03899252,1.15445423,0.00000000,0.00000000
-0.79035264,-1.09974253,0.41804129,0.24805123,0.46844202,0.00000000,0.00000000,-1.31382048,0.65631020,-0.26733071,0.02967396,1.17705798,0.00000000,0.00000000
-0.78845191,-1.10186672,0.42045638,0.24989030,0.49281311,0.00000000,0.00000000,-1.29014814,0.66192299,-0.24984105,0.02006706,1.19928849,0.00000000,0.00000000
-0.78689158,-1.10392678,0.42305955,0.25184643,0.51575524,0.00000000,0.00000000,-1.26591516,0.66786659,-0.23225683,0.01017626,1.22708344,0.00000000,0.00000000
-0.78570163,-1.10593247,0.42585975,0.25393832,0.53485912,0.00000000,0.00000000,-1.24111044,0.67413545,-0.21465813,0.00004017,1.25776279,0.00000000,0.00000000
-0.78489387,-1.10794199,0.42885113,0.25618547,0.55146885,0.00000000,0.00000000,-1.21572518,0.68070853,-0.19712447,-0.01028155,1.27942765,0.00000000,0.00000000
-0.78446472,-1.11006916,0.43201599,0.25860372,0.55587369,0.00000000,0.00000000,-1.18975115,0.68752360,-0.17973374,-0.02072539,1.30522740,0.00000000,0.00000000
-0.78440017,-1.11241555,0.43532267,0.26121655,0.56319404,0.00000000,0.00000000,-1.16317844,0.69452065,-0.16256078,-0.03122578,1.32679296,0.00000000,0.00000000
-0.78467321,-1.11503851,0.43872631,0.26403186,0.56969631,0.00000000,0.00000000,-1.13599682,0.70169741,-0.14567643,-0.04171164,1.34739172,0.00000000,0.00000000
-0.78524452,-1.11799586,0.44217950,0.26700005,0.58380133,0.00000000,0.00000000,-1.10819471,0.70908105,-0.12914653,-0.05211832,1.36984849,0.00000000,0.00000000
-0.78607589,-1.12136960,0.44564462,0.27002746,0.59159380,0.00000000,0.00000000,-1.07975912,0.71665037,-0.11303003,-0.06239920,1.38816416,0.00000000,0.00000000
-0.78714728,-1.12519586,0.44909140,0.27305123,0.59522510,0.00000000,0.00000000,-1.05066788,0.72431958,-0.09737594,-0.07251377,1.40260053,0.00000000,0.00000000
-0.78845614,-1.12939429,0.45248646,0.27608675,0.59294075,0.00000000,0.00000000,-1.02088988,0.73199403,-0.08222059,-0.08240730,1.42287660,0.00000000,0.00000000
-0.78999680,-1.13381553,0.45579365,0.27919397,0.59129059,0.00000000,0.00000000,-0.99038887,0.73959768,-0.06758743,-0.09202141,1.44468713,0.00000000,0.00000000
-0.79174298,-1.13835645,0.45898619,0.28242454,0.59099579,0.00000000,0.00000000,-0.95913488,0.74703938,-0.05349139,-0.10133138,1.47079635,0.00000000,0.00000000
-0.79364735,-1.14297771,0.46204397,0.28582945,0.59666097,0.00000000,0.00000000,-0.92711276,0.75421834,-0.03994469,-0.11034918,1.50248742,0.00000000,0.00000000
-0.79565346,-1.14764488,0.46493626,0.28948715,0.60105908,0.00000000,0.00000000,-0.89432448,0.76108646,-0.02696116,-0.11908613,1.53233767,0.00000000,0.00000000
-0.79769886,-1.15233362,0.46761712,0.29347387,0.60939515,0.00000000,0.00000000,-0.86078870,0.76767766,-0.01455909,-0.12752804,1.56205904,0.00000000,0.00000000
-0.79971129,-1.15709817,0.47003934,0.29780820,0.61412603,0.00000000,0.00000000,-0.82653773,0.77405906,-0.00276161,-0.13565005,1.59323680,0.00000000,0.00000000
-0.80160809,-1.16207540,0.47216451,0.30245709,0.61516410,0.00000000,0.00000000,-0.79160917,0.78027278,0.00840782,-0.14343865,1.62438929,0.00000000,0.00000000
-0.80329531,-1.16743219,0.47395352,0.30737680,0.61517453,0.00000000,0.00000000,-0.75603980,0.78635472,0.01893021,-0.15088327,1.65995479,0.00000000,0.00000000
-0.80466431,-1.17328405,0.47534895,0.31255430,0.61384833,0.00000000,0.00000000,-0.71985698,0.79236954,0.02880033,-0.15797143,1.69320643,0.00000000,0.00000000
-0.80558354,-1.17965925,0.47627136,0.31801224,0.61676651,0.00000000,0.00000000,-0.68307161,0.79840738,0.03803588,-0.16471118,1.72668552,0.00000000,0.00000000
-0.80589265,-1.18655443,0.47662985,0.32377863,0.62588251,0.00000000,0.00000000,-0.64568442,0.80456293,0.04667433,-0.17114042,1.75278401,0.00000000,0.00000000
-0.80541039,-1.19394684,0.47632742,0.32989222,0.63366336,0.00000000,0.00000000,-0.60769343,0.81092447,0.05476800,-0.17730103,1.78013301,0.00000000,0.00000000
-0.80395573,-1.20177019,0.47526225,0.33642063,0.63694865,0.00000000,0.00000000,-0.56909919,0.81756866,0.06238098,-0.18321227,1.80348468,0.00000000,0.00000000
-0.80136567,-1.20994079,0.47333837,0.34344631,0.63884115,0.00000000,0.00000000,-0.52990866,0.82453394,0.06958556,-0.18890342,1.82347345,0.00000000,0.00000000
-0.79749840,-1.21839988,0.47047797,0.35104883,0.63701600,0.00000000,0.00000000,-0.49013254,0.83179772,0.07646324,-0.19448146,1.83707500,0.00000000,0.00000000
-0.79220957,-1.22711885,0.46660918,0.35929632,0.63543463,0.00000000,0.00000000,-0.44977874,0.83933151,0.08311318,-0.20013946,1.84955120,0.00000000,0.00000000
-0.78530324,-1.23611796,0.46163288,0.36820161,0.63725126,0.00000000,0.00000000,-0.40884796,0.84724200,0.08965893,-0.20607013,1.86209595,0.00000000,0.00000000
-0.77647734,-1.24556351,0.45539817,0.37762454,0.63417131,0.00000000,0.00000000,-0.36733928,0.85592973,0.09624576,-0.21235855,1.87962711,0.00000000,0.00000000
-0.76530194,-1.25591099,0.44770727,0.38718671,0.63197690,0.00000000,0.00000000,-0.32525581,0.86617994,0.10303706,-0.21894127,1.89687908,0.00000000,0.00000000
-0.75124174,-1.26795459,0.43833250,0.39626923,0.62393105,0.00000000,0.00000000,-0.28260472,0.87917221,0.11022541,-0.22560386,1.91722381,0.00000000,0.00000000
-0.73369330,-1.28273857,0.42702869,0.40408102,0.61786777,0.00000000,0.00000000,-0.23940773,0.89642125,0.11805375,-0.23194881,1.92637873,0.00000000,0.00000000
-0.71202016,-1.30143046,0.41355941,0.40974039,0.61492807,0.00000000,0.00000000,-0.19573909,0.91964430,0.12682296,-0.23737079,1.93668270,0.00000000,0.00000000
-0.68562609,-1.32524943,0.39776555,0.41236326,0.60890043,0.00000000,0.00000000,-0.15178007,0.95052713,0.13687222,-0.24112925,1.94684589,0.00000000,0.00000000
-0.65410614,-1.35536206,0.37964469,0.41119546,0.60620433,0.00000000,0.00000000,-0.10786705,0.99039894,0.14854056,-0.24249004,1.95639241,0.00000000,0.00000000
-0.61743343,-1.39266872,0.35938537,0.40574530,0.60457677,0.00000000,0.00000000,-0.06451647,1.03990495,0.16212444,-0.24081217,1.96614027,0.00000000,0.00000000
-0.57613266,-1.43760312,0.33735836,0.39580959,0.60479629,0.00000000,0.00000000,-0.02239818,1.09874141,0.17783903,-0.23554459,1.97321761,0.00000000,0.00000000
-0.53140038,-1.49003506,0.31408641,0.38137665,0.60385525,0.00000000,0.00000000,0.01776102,1.16554272,0.19578719,-0.22622889,1.97810531,0.00000000,0.00000000
-0.48498014,-1.54919946,0.29012984,0.36249971,0.60372663,0.00000000,0.00000000,0.05522284,1.23832941,0.21594687,-0.21258028,1.97917151,0.00000000,0.00000000
-0.43874758,-1.61373460,0.26593179,0.33919761,0.60426444,0.00000000,0.00000000,0.08911967,1.31539130,0.23818210,-0.19457202,1.98143458,0.00000000,0.00000000
-0.39436108,-1.68181551,0.24176818,0.31148601,0.61436367,0.00000000,0.00000000,0.11835124,1.39551604,0.26226580,-0.17245297,1.97568595,0.00000000,0.00000000
-0.35316008,-1.75146890,0.21780327,0.27946407,0.62846142,0.00000000,0.00000000,0.14174706,1.47757077,0.28788590,-0.14673510,1.96680093,0.00000000,0.00000000
-0.31617427,-1.82083619,0.19412977,0.24340901,0.64136618,0.00000000,0.00000000,0.15841305,1.56036055,0.31464782,-0.11808443,1.95611525,0.00000000,0.00000000
-0.28417224,-1.88810515,0.17077188,0.20388249,0.65527892,0.00000000,0.00000000,0.16808251,1.64268732,0.34209648,-0.08714454,1.94459546,0.00000000,0.00000000
-0.25759318,-1.95144904,0.14769083,0.16169478,0.66855711,0.00000000,0.00000000,0.17131126,1.72334111,0.36976421,-0.05443292,1.93705428,0.00000000,0.00000000
-0.23632789,-2.00922561,0.12480376,0.11768007,0.67643052,0.00000000,0.00000000,0.16935797,1.80095053,0.39723372,-0.02042413,1.93155622,0.00000000,0.00000000
-0.21966250,-2.06018305,0.10202671,0.07251734,0.68175286,0.00000000,0.00000000,0.16380849,1.87398052,0.42418700,0.01434263,1.92455006,0.00000000,0.00000000
-0.20655395,-2.10330963,0.07932325,0.02682157,0.68794805,0.00000000,0.00000000,0.15626474,1.94098806,0.45041737,0.04933201,1.91254699,0.00000000,0.00000000
-0.19607455,-2.13721681,0.05672371,-0.01846471,0.68797225,0.00000000,0.00000000,0.14828938,2.00083876,0.47581634,0.08417338,1.89744234,0.00000000,0.00000000
-0.18762010,-2.15926552,0.03431046,-0.06154240,0.69067460,0.00000000,0.00000000,0.14142947,2.05282259,0.50035530,0.11878289,1.88097703,0.00000000,0.00000000
-0.18065645,-2.16820097,0.01220460,-0.09982655,0.69026548,0.00000000,0.00000000,0.13701260,2.09639454,0.52406180,0.15315704,1.86344612,0.00000000,0.00000000
-0.17505561,-2.16990662,-0.00947811,-0.13115193,0.68019480,0.00000000,0.00000000,0.13586296,2.13060784,0.54699409,0.18690665,1.85206485,0.00000000,0.00000000
-0.17060533,-2.17000008,-0.03059839,-0.15464613,0.67077464,0.00000000,0.00000000,0.13834649,2.15432644,0.56921011,0.21926236,1.84218824,0.00000000,0.00000000
-0.16557206,-2.17000008,-0.05090940,-0.17009659,0.66118830,0.00000000,0.00000000,0.14433815,2.16672373,0.59077054,0.24887180,1.83906281,0.00000000,0.00000000
-0.16141205,-2.17000008,-0.07054694,-0.17621401,0.65160131,0.00000000,0.00000000,0.15334471,2.16981125,0.61180431,0.27355662,1.83846283,0.00000000,0.00000000
-0.15812247,-2.17000008,-0.08952996,-0.17453800,0.64590341,0.00000000,0.00000000,0.16464809,2.16998076,0.63236630,0.29145220,1.83485901,0.00000000,0.00000000
-0.15475720,-2.17000008,-0.10776836,-0.16720738,0.64537466,0.00000000,0.00000000,0.17731611,2.16960168,0.65215814,0.30240968,1.83188558,0.00000000,0.00000000
-0.15079325,-2.17000008,-0.12521927,-0.15669690,0.64215577,0.00000000,0.00000000,0.19047606,2.16730595,0.67055076,0.30798066,1.83233297,0.00000000,0.00000000
-0.14647016,-2.17000008,-0.14194608,-0.14530951,0.63608491,0.00000000,0.00000000,0.20332330,2.16130733,0.68687207,0.31010401,1.82702482,0.00000000,0.00000000
-0.14282131,-2.17000008,-0.15809976,-0.13448156,0.62558639,0.00000000,0.00000000,0.21511483,2.15287757,0.70064956,0.31009120,1.82361042,0.00000000,0.00000000
-0.14070299,-2.17000008,-0.17380275,-0.12514263,0.61963004,0.00000000,0.00000000,0.22518547,2.14400005,0.71158510,0.30873907,1.81210959,0.00000000,0.00000000
-0.14056821,-2.17000008,-0.18913150,-0.11779413,0.62023687,0.00000000,0.00000000,0.23301928,2.13605595,0.71949393,0.30660543,1.80118084,0.00000000,0.00000000
-0.14257810,-2.17000008,-0.20413816,-0.11231540,0.61946207,0.00000000,0.00000000,0.23828079,2.12986135,0.72429478,0.30402496,1.79226136,0.00000000,0.00000000
-0.14678407,-2.17000008,-0.21886238,-0.10819511,0.62288260,0.00000000,0.00000000,0.24077256,2.12592983,0.72596967,0.30118677,1.78306723,0.00000000,0.00000000
-0.15310560,-2.17000008,-0.23332478,-0.10486741,0.62805587,0.00000000,0.00000000,0.24043864,2.12474203,0.72453314,0.29827407,1.77275896,0.00000000,0.00000000
-0.16086565,-2.17000008,-0.24749979,-0.10171288,0.63698733,0.00000000,0.00000000,0.23741388,2.12665772,0.72005248,0.29548043,1.76268935,0.00000000,0.00000000
-0.16918516,-2.17000008,-0.26133561,-0.09852261,0.64396191,0.00000000,0.00000000,0.23223442,2.13175416,0.71269518,0.29304841,1.75177753,0.00000000,0.00000000
-0.17761011,-2.17000008,-0.27479699,-0.09560256,0.65019268,0.00000000,0.00000000,0.22627053,2.13973141,0.70279616,0.29138446,1.74679899,0.00000000,0.00000000
-0.18583222,-2.17000008,-0.28786653,-0.09310853,0.65553051,0.00000000,0.00000000,0.22232918,2.14948654,0.69098407,0.29104155,1.74735165,0.00000000,0.00000000
-0.19353198,-2.17000008,-0.30053443,-0.09098893,0.66166115,0.00000000,0.00000000,0.22530153,2.15860391,0.67832690,0.29267135,1.74759483,0.00000000,0.00000000
-0.20033647,-2.16999578,-0.31279135,-0.08912175,0.66145760,0.00000000,0.00000000,0.24189243,2.16362882,0.66627419,0.29701802,1.75653088,0.00000000,0.00000000
-0.20581767,-2.16991520,-0.32462296,-0.08746815,0.65056044,0.00000000,0.00000000,0.27835158,2.16173434,0.65617770,0.30483320,1.76883090,0.00000000,0.00000000
-0.20967731,-2.16945624,-0.33601540,-0.08618927,0.64347696,0.00000000,0.00000000,0.33756900,2.15230751,0.64871699,0.31650272,1.77855074,0.00000000,0.00000000
-0.21200286,-2.16836143,-0.34697077,-0.08552889,0.62697792,0.00000000,0.00000000,0.41806433,2.13688993,0.64372450,0.33167925,1.78278840,0.00000000,0.00000000
-0.21335015,-2.16702700,-0.35751438,-0.08568381,0.61230671,0.00000000,0.00000000,0.51442099,2.11830449,0.64026672,0.34918985,1.78509736,0.00000000,0.00000000
-0.21450564,-2.16578031,-0.36768448,-0.08673115,0.59513718,0.00000000,0.00000000,0.61880398,2.09954691,0.63692635,0.36724705,1.78109217,0.00000000,0.00000000
-0.21607971,-2.16462302,-0.37751314,-0.08856697,0.58702421,0.00000000,0.00000000,0.72379959,2.08252716,0.63240302,0.38394016,1.77917707,0.00000000,0.00000000
-0.21835583,-2.16342449,-0.38701698,-0.09097149,0.58020562,0.00000000,0.00000000,0.82455754,2.06769776,0.62598860,0.39775109,1.77635443,0.00000000,0.00000000
-0.22142088,-2.16214371,-0.39619994,-0.09376732,0.58022952,0.00000000,0.00000000,0.91879606,2.05471587,0.61756015,0.40780821,1.77528238,0.00000000,0.00000000
-0.22529650,-2.16096759,-0.40505680,-0.09693018,0.58151954,0.00000000,0.00000000,1.00581181,2.04314280,0.60734785,0.41387704,1.77531302,0.00000000,0.00000000
-0.22990742,-2.16028810,-0.41357121,-0.10056327,0.58494705,0.00000000,0.00000000,1.08561587,2.03272128,0.59574354,0.41621068,1.77903759,0.00000000,0.00000000
-0.23493986,-2.16049576,-0.42171106,-0.10473416,0.59063745,0.00000000,0.00000000,1.15838778,2.02337885,0.58319396,0.41536534,1.78143287,0.00000000,0.00000000
-0.23976804,-2.16168666,-0.42943028,-0.10927726,0.59601068,0.00000000,0.00000000,1.22412920,2.01516843,0.57014740,0.41203848,1.78156650,0.00000000,0.00000000
-0.24357943,-2.16357613,-0.43667933,-0.11377370,0.60202485,0.00000000,0.00000000,1.28241837,2.00824714,0.55702633,0.40695012,1.77847075,0.00000000,0.00000000
-0.24552929,-2.16569233,-0.44341296,-0.11771363,0.61185694,0.00000000,0.00000000,1.33226836,2.00288701,0.54421407,0.40076283,1.77014220,0.00000000,0.00000000
-0.24491659,-2.16759992,-0.44959950,-0.12069702,0.62118316,0.00000000,0.00000000,1.37228239,1.99941778,0.53204924,0.39403754,1.76425886,0.00000000,0.00000000
-0.24143860,-2.16900873,-0.45523775,-0.12257851,0.62325990,0.00000000,0.00000000,1.40122509,1.99804533,0.52082372,0.38721979,1.75314426,0.00000000,0.00000000
-0.23531559,-2.16978693,-0.46036553,-0.12348783,0.62134665,0.00000000,0.00000000,1.41865516,1.99867296,0.51077932,0.38064501,1.74063909,0.00000000,0.00000000
-0.22709866,-2.16998768,-0.46505007,-0.12366080,0.62368250,0.00000000,0.00000000,1.42510569,2.00086617,0.50210541,0.37454584,1.73118830,0.00000000,0.00000000
-0.21742605,-2.17000008,-0.46937129,-0.12332280,0.62888861,0.00000000,0.00000000,1.42174804,2.00397396,0.49493673,0.36905497,1.72243512,0.00000000,0.00000000
-0.20694265,-2.17000008,-0.47341257,-0.12270122,0.62994289,0.00000000,0.00000000,1.40985811,2.00736761,0.48935023,0.36420506,1.71559572,0.00000000,0.00000000
-0.19630155,-2.17000008,-0.47725862,-0.12203657,0.62479985,0.00000000,0.00000000,1.39046121,2.01065207,0.48536056,0.35993046,1.71386027,0.00000000,0.00000000
-0.18612705,-2.17000008,-0.48099095,-0.12157231,0.61983377,0.00000000,0.00000000,1.36425054,2.01372194,0.48291650,0.35606322,1.70692551,0.00000000,0.00000000
-0.17695886,-2.17000008,-0.48468220,-0.12153476,0.60597903,0.00000000,0.00000000,1.33161974,2.01670170,0.48190275,0.35232452,1.70516992,0.00000000,0.00000000
-0.16925700,-2.17000008,-0.48839712,-0.12208854,0.59295934,0.00000000,0.00000000,1.29270077,2.01984930,0.48214546,0.34832346,1.70332897,0.00000000,0.00000000
-0.16337425,-2.17000008,-0.49219060,-0.12330659,0.57262862,0.00000000,0.00000000,1.24739790,2.02345634,0.48342252,0.34357283,1.70231056,0.00000000,0.00000000
-0.15942568,-2.17000008,-0.49609476,-0.12519515,0.54837388,0.00000000,0.00000000,1.19544351,2.02776790,0.48547918,0.33752131,1.70959651,0.00000000,0.00000000
-0.15718618,-2.17000008,-0.50010723,-0.12773395,0.52582973,0.00000000,0.00000000,1.13649857,2.03295112,0.48805168,0.32959831,1.71223891,0.00000000,0.00000000
-0.15619576,-2.17000008,-0.50419974,-0.13087355,0.49925813,0.00000000,0.00000000,1.07028043,2.03910089,0.49089593,0.31926543,1.71523917,0.00000000,0.00000000
-0.15599148,-2.17000008,-0.50834066,-0.13450831,0.47216362,0.00000000,0.00000000,0.99667120,2.04621315,0.49381438,0.30605003,1.71414614,0.00000000,0.00000000
-0.15615632,-2.17000008,-0.51250190,-0.13848317,0.44755182,0.00000000,0.00000000,0.91579616,2.05405641,0.49667788,0.28956029,1.71225250,0.00000000,0.00000000
-0.15629970,-2.17000008,-0.51665950,-0.14259528,0.42807266,0.00000000,0.00000000,0.82800657,2.06216574,0.49941531,0.26961312,1.70391190,0.00000000,0.00000000
-0.15608191,-2.16999221,-0.52079499,-0.14663249,0.40783286,0.00000000,0.00000000,0.73383301,2.07019567,0.50197977,0.24661054,1.69464457,0.00000000,0.00000000
-0.15536503,-2.16987371,-0.52489352,-0.15056849,0.38730165,0.00000000,0.00000000,0.63425666,2.07866740,0.50435877,0.22217973,1.68977749,0.00000000,0.00000000
-0.15443620,-2.16950464,-0.52893579,-0.15488580,0.36376613,0.00000000,0.00000000,0.53168756,2.08940268,0.50669658,0.19956735,1.68493652,0.00000000,0.00000000
-0.15385552,-2.16924620,-0.53289527,-0.16042259,0.34303534,0.00000000,0.00000000,0.43063250,2.10428882,0.50939274,0.18260761,1.68177998,0.00000000,0.00000000
-0.15359759,-2.16949463,-0.53671944,-0.16752455,0.32109818,0.00000000,0.00000000,0.33608848,2.12291980,0.51294047,0.17340448,1.67584193,0.00000000,0.00000000
-0.15262882,-2.16986942,-0.54031181,-0.17569791,0.29313719,0.00000000,0.00000000,0.25104260,2.14199829,0.51767176,0.17124529,1.66582739,0.00000000,0.00000000
-0.14965446,-2.16999197,-0.54357529,-0.18404986,0.26436704,0.00000000,0.00000000,0.17673723,2.15762949,0.52376097,0.17406894,1.65172696,0.00000000,0.00000000
-0.14425766,-2.17000008,-0.54651231,-0.19177909,0.23401183,0.00000000,0.00000000,0.11628772,2.16721344,0.53168088,0.17957181,1.63914156,0.00000000,0.00000000
-0.13724951,-2.17000008,-0.54927611,-0.19829872,0.20635617,0.00000000,0.00000000,0.07543068,2.16983485,0.54251456,0.18350476,1.62521458,0.00000000,0.00000000
-0.12983626,-2.17000008,-0.55204272,-0.20347436,0.18390164,0.00000000,0.00000000,0.05510757,2.16997361,0.55674624,0.18186602,1.61221123,0.00000000,0.00000000
-0.12285750,-2.17000008,-0.55484658,-0.20805067,0.16300298,0.00000000,0.00000000,0.04999550,2.16949797,0.57347351,0.17552000,1.60597050,0.00000000,0.00000000
-0.11667311,-2.17000008,-0.55765319,-0.21279284,0.14157309,0.00000000,0.00000000,0.05465300,2.16704178,0.59137642,0.16877006,1.60154831,0.00000000,0.00000000
-0.11161182,-2.17000008,-0.56052613,-0.21762611,0.12236271,0.00000000,0.00000000,0.06516704,2.16103292,0.60953450,0.16415991,1.59881437,0.00000000,0.00000000
-0.10826864,-2.17000008,-0.56361204,-0.22212896,0.10290913,0.00000000,0.00000000,0.07894414,2.15195227,0.62748337,0.16168806,1.59871781,0.00000000,0.00000000
-0.10699815,-2.17000008,-0.56699699,-0.22607498,0.08862847,0.00000000,0.00000000,0.09447866,2.14134884,0.64493304,0.16111001,1.59769273,0.00000000,0.00000000
-0.10770563,-2.17000008,-0.57065082,-0.22957928,0.07680865,0.00000000,0.00000000,0.11068630,2.13090706,0.66163087,0.16245766,1.59449589,0.00000000,0.00000000
-0.10994718,-2.17000008,-0.57445782,-0.23293144,0.06318748,0.00000000,0.00000000,0.12677695,2.12178564,0.67737627,0.16568406,1.58599257,0.00000000,0.00000000
-0.11316530,-2.17000008,-0.57827204,-0.23642668,0.04755689,0.00000000,0.00000000,0.14228815,2.11447406,0.69202536,0.17059283,1.57823193,0.00000000,0.00000000
-0.11688977,-2.17000008,-0.58194649,-0.24037866,0.03682938,0.00000000,0.00000000,0.15695363,2.10932136,0.70544916,0.17703359,1.57223117,0.00000000,0.00000000
-0.12078117,-2.17000008,-0.58535165,-0.24506776,0.02508768,0.00000000,0.00000000,0.17056647,2.10672092,0.71751010,0.18494456,1.56355941,0.00000000,0.00000000
-0.12452384,-2.17000008,-0.58838904,-0.25056604,0.01850985,0.00000000,0.00000000,0.18292233,2.10682034,0.72807795,0.19419314,1.55723429,0.00000000,0.00000000
-0.12776043,-2.17000008,-0.59098744,-0.25671914,0.01600247,0.00000000,0.00000000,0.19385663,2.10941386,0.73704225,0.20451474,1.55211353,0.00000000,0.00000000
-0.13018154,-2.17000008,-0.59309745,-0.26330912,0.01173655,0.00000000,0.00000000,0.20328969,2.11412883,0.74430591,0.21558261,1.54540324,0.00000000,0.00000000
-0.13162924,-2.17000008,-0.59469885,-0.27014652,0.01483163,0.00000000,0.00000000,0.21120457,2.12055397,0.74977756,0.22705007,1.53627920,0.00000000,0.00000000
-0.13205265,-2.17000008,-0.59580469,-0.27702326,0.02353674,0.00000000,0.00000000,0.21759714,2.12823415,0.75337070,0.23856954,1.51871037,0.00000000,0.00000000
-0.13142262,-2.17000008,-0.59644729,-0.28369659,0.03176255,0.00000000,0.00000000,0.22246106,2.13667274,0.75500584,0.24983148,1.50546455,0.00000000,0.00000000
-0.12975936,-2.17000008,-0.59666824,-0.28994778,0.04814328,0.00000000,0.00000000,0.22579701,2.14536595,0.75461018,0.26058623,1.49087846,0.00000000,0.00000000
-0.12721778,-2.17000008,-0.59653097,-0.29559740,0.06124144,0.00000000,0.00000000,0.22759770,2.15379333,0.75211632,0.27060840,1.48551226,0.00000000,0.00000000
-0.12409287,-2.17000008,-0.59613341,-0.30048108,0.07186569,0.00000000,0.00000000,0.22780785,2.16127729,0.74747443,0.27960238,1.47321153,0.00000000,0.00000000
-0.12074312,-2.17000008,-0.59558672,-0.30450335,0.07634736,0.00000000,0.00000000,0.22632240,2.16677713,0.74066430,0.28712940,1.46299231,0.00000000,0.00000000
-0.11744657,-2.17000008,-0.59496981,-0.30768284,0.08255122,0.00000000,0.00000000,0.22313674,2.16938877,0.73172033,0.29259896,1.45135534,0.00000000,0.00000000
-0.11433955,-2.17000008,-0.59434599,-0.30998638,0.09378628,0.00000000,0.00000000,0.21901427,2.16996622,0.72085279,0.29541221,1.43812966,0.00000000,0.00000000
-0.11164766,-2.17000008,-0.59383529,-0.31125310,0.10833842,0.00000000,0.00000000,0.21547140,2.17000008,0.70848161,0.29483891,1.42312264,0.00000000,0.00000000
-0.10964368,-2.17000008,-0.59352440,-0.31154063,0.12509814,0.00000000,0.00000000,0.21285835,2.17000008,0.69484764,0.28973025,1.40671897,0.00000000,0.00000000
-0.10838244,-2.17000008,-0.59340852,-0.31104186,0.13415746,0.00000000,0.00000000,0.21076806,2.17000008,0.67987776,0.27950203,1.39114392,0.00000000,0.00000000
-0.10765040,-2.17000008,-0.59339207,-0.30996192,0.14163560,0.00000000,0.00000000,0.20930825,2.17000008,0.66343731,0.26445886,1.38459134,0.00000000,0.00000000
-0.10721116,-2.17000008,-0.59334868,-0.30849412,0.14370550,0.00000000,0.00000000,0.20918505,2.16999125,0.64537507,0.24576721,1.38723230,0.00000000,0.00000000
-0.10691090,-2.17000008,-0.59313393,-0.30691710,0.14693309,0.00000000,0.00000000,0.21088201,2.16983461,0.62541753,0.22516441,1.38887191,0.00000000,0.00000000
-0.10678969,-2.17000008,-0.59263074,-0.30556151,0.14806119,0.00000000,0.00000000,0.21402521,2.16905642,0.60325348,0.20384860,1.38612390,0.00000000,0.00000000
-0.10685117,-2.17000008,-0.59182048,-0.30430478,0.14543641,0.00000000,0.00000000,0.21799488,2.16738844,0.57863224,0.18246959,1.38485909,0.00000000,0.00000000
-0.10698383,-2.17000008,-0.59067476,-0.30299878,0.13597624,0.00000000,0.00000000,0.22268811,2.16551948,0.55144316,0.16139536,1.37693155,0.00000000,0.00000000
-0.10712996,-2.17000008,-0.58915484,-0.30163860,0.12645529,0.00000000,0.00000000,0.22826791,2.16412091,0.52164376,0.14085095,1.37016797,0.00000000,0.00000000
-0.10743511,-2.17000008,-0.58722430,-0.30044708,0.11405985,0.00000000,0.00000000,0.23473723,2.16337013,0.48919189,0.12078419,1.36677182,0.00000000,0.00000000
-0.10828494,-2.17000008,-0.58484298,-0.29995951,0.10210811,0.00000000,0.00000000,0.24181774,2.16339946,0.45401558,0.10102702,1.36462069,0.00000000,0.00000000
-0.11009508,-2.17000008,-0.58198422,-0.30071899,0.08389585,0.00000000,0.00000000,0.25007057,2.16513896,0.41606125,0.08202191,1.36315203,0.00000000,0.00000000
-0.11305704,-2.17000008,-0.57864290,-0.30297390,0.06862103,0.00000000,0.00000000,0.26124942,2.16802311,0.37536317,0.06330626,1.35773349,0.00000000,0.00000000
-0.11702625,-2.17000008,-0.57488251,-0.30638251,0.05448719,0.00000000,0.00000000,0.27683157,2.16964102,0.33195430,0.04162404,1.35720348,0.00000000,0.00000000
-0.12196773,-2.17000008,-0.57093865,-0.31014806,0.04297182,0.00000000,0.00000000,0.29759592,2.16998100,0.28578284,0.01226303,1.35333776,0.00000000,0.00000000
-0.12804918,-2.17000008,-0.56703883,-0.31398922,0.03289207,0.00000000,0.00000000,0.32118213,2.16986227,0.23671129,-0.02870407,1.34895217,0.00000000,0.00000000
-0.13445869,-2.17000008,-0.56315327,-0.31773129,0.02358130,0.00000000,0.00000000,0.34153742,2.16748500,0.18477802,-0.08357895,1.34763408,0.00000000,0.00000000
-0.14051931,-2.17000008,-0.55919290,-0.32136074,0.00547837,0.00000000,0.00000000,0.35300636,2.15632772,0.13045146,-0.15244246,1.34337473,0.00000000,0.00000000
-0.14624897,-2.17000008,-0.55507308,-0.32548374,-0.00959689,0.00000000,0.00000000,0.35292876,2.13054013,0.07457633,-0.23437472,1.34103644,0.00000000,0.00000000
-0.15225361,-2.17000008,-0.55070925,-0.33144331,-0.02414599,0.00000000,0.00000000,0.34088221,2.08928728,0.01823480,-0.32831720,1.33958912,0.00000000,0.00000000
-0.15967320,-2.17000008,-0.54607368,-0.34095332,-0.04433931,0.00000000,0.00000000,0.31738105,2.03324413,-0.03731870,-0.43298507,1.34280646,0.00000000,0.00000000
-0.16926438,-2.17000008,-0.54123163,-0.35475791,-0.06824271,0.00000000,0.00000000,0.28307471,1.96278334,-0.09071091,-0.54667258,1.34959757,0.00000000,0.00000000
-0.18065520,-2.17000008,-0.53633523,-0.37184665,-0.09425361,0.00000000,0.00000000,0.23816441,1.87789810,-0.14054169,-0.66719407,1.34984303,0.00000000,0.00000000
-0.19238846,-2.17000008,-0.53165787,-0.38940877,-0.12250177,0.00000000,0.00000000,0.18227516,1.77851546,-0.18551283,-0.79193372,1.34618616,0.00000000,0.00000000
-0.20278479,-2.17000008,-0.52755356,-0.40405363,-0.14726801,0.00000000,0.00000000,0.11537302,1.66560388,-0.22456761,-0.91799676,1.33533406,0.00000000,0.00000000
-0.21092248,-2.17000008,-0.52430743,-0.41362077,-0.17393683,0.00000000,0.00000000,0.03895942,1.54213679,-0.25699422,-1.04241800,1.32793927,0.00000000,0.00000000
-0.21668921,-2.17000008,-0.52201378,-0.41769129,-0.19118129,0.00000000,0.00000000,-0.04385067,1.41264665,-0.28246501,-1.16233838,1.32175136,0.00000000,0.00000000
-0.22028221,-2.17000008,-0.52056819,-0.41693071,-0.21607959,0.00000000,0.00000000,-0.12915909,1.28206754,-0.30102953,-1.27512991,1.31908584,0.00000000,0.00000000
-0.22187936,-2.17000008,-0.51973486,-0.41239443,-0.24241590,0.00000000,0.00000000,-0.21310073,1.15499794,-0.31307441,-1.37849057,1.31878185,0.00000000,0.00000000
-0.22161417,-2.17000008,-0.51924282,-0.40514290,-0.27301523,0.00000000,0.00000000,-0.29231790,1.03542113,-0.31926304,-1.47049999,1.32198334,0.00000000,0.00000000
-0.21965234,-2.17000008,-0.51886326,-0.39606923,-0.30843499,0.00000000,0.00000000,-0.36418009,0.92663008,-0.32047904,-1.54960799,1.32692206,0.00000000,0.00000000
-0.21617927,-2.17000008,-0.51842761,-0.38584253,-0.33897078,0.00000000,0.00000000,-0.42685670,0.83123517,-0.31778377,-1.61458504,1.33358836,0.00000000,0.00000000
-0.21136853,-2.17000008,-0.51781881,-0.37493351,-0.36521879,0.00000000,0.00000000,-0.47928602,0.75119203,-0.31237093,-1.66445696,1.33608079,0.00000000,0.00000000
-0.20545146,-2.17000008,-0.51697403,-0.36368743,-0.38264921,0.00000000,0.00000000,-0.52106768,0.68781573,-0.30550173,-1.69846606,1.33000445,0.00000000,0.00000000
-0.19888972,-2.17000008,-0.51589948,-0.35245055,-0.40243971,0.00000000,0.00000000,-0.55230683,0.64175200,-0.29841998,-1.71609139,1.32549536,0.00000000,0.00000000
-0.19247919,-2.17000008,-0.51466411,-0.34169984,-0.42267650,0.00000000,0.00000000,-0.57324439,0.61346292,-0.29210168,-1.71657443,1.32584012,0.00000000,0.00000000
-0.18715829,-2.17000008,-0.51335472,-0.33201090,-0.44655058,0.00000000,0.00000000,-0.58481240,0.60115409,-0.28773117,-1.70363438,1.32027304,0.00000000,0.00000000
-0.18350047,-2.17000008,-0.51200897,-0.32379895,-0.46905965,0.00000000,0.00000000,-0.58957416,0.59716421,-0.28746423,-1.69219995,1.31882310,0.00000000,0.00000000
-0.18143916,-2.17000008,-0.51058781,-0.31715891,-0.49337819,0.00000000,0.00000000,-0.58783144,0.59893757,-0.29149908,-1.68885541,1.31748414,0.00000000,0.00000000
-0.18084256,-2.17000008,-0.50901884,-0.31234288,-0.51673830,0.00000000,0.00000000,-0.57959366,0.60645068,-0.29983073,-1.69365931,1.31459939,0.00000000,0.00000000
-0.18186034,-2.17000008,-0.50724161,-0.30993119,-0.54268622,0.00000000,0.00000000,-0.56587893,0.62089550,-0.31340301,-1.70296884,1.31239390,0.00000000,0.00000000
-0.18487544,-2.17000008,-0.50524247,-0.31057978,-0.56613714,0.00000000,0.00000000,-0.54728806,0.64685380,-0.33286434,-1.70787942,1.31378663,0.00000000,0.00000000
-0.18940310,-2.17000008,-0.50296754,-0.31420189,-0.59356964,0.00000000,0.00000000,-0.51893717,0.68787259,-0.35351512,-1.69836557,1.31991255,0.00000000,0.00000000
-0.19468665,-2.17000008,-0.50038749,-0.32031149,-0.62486625,0.00000000,0.00000000,-0.47939944,0.74463773,-0.37341955,-1.67218530,1.32216525,0.00000000,0.00000000
-0.20009461,-2.17000008,-0.49752566,-0.32833141,-0.66035050,0.00000000,0.00000000,-0.42882752,0.81694394,-0.39168468,-1.62983108,1.32671773,0.00000000,0.00000000
-0.20518489,-2.17000008,-0.49446231,-0.33764836,-0.70364070,0.00000000,0.00000000,-0.36739469,0.90395808,-0.40694380,-1.57187665,1.33276761,0.00000000,0.00000000
-0.20967199,-2.17000008,-0.49134672,-0.34752086,-0.74843341,0.00000000,0.00000000,-0.29589388,1.00408208,-0.41784063,-1.49914718,1.33933508,0.00000000,0.00000000
-0.21335715,-2.17000008,-0.48840892,-0.35694969,-0.78747380,0.00000000,0.00000000,-0.21585460,1.11502147,-0.42310047,-1.41270435,1.35304844,0.00000000,0.00000000
-0.21608275,-2.17000008,-0.48595706,-0.36463621,-0.82493192,0.00000000,0.00000000,-0.12957036,1.23385584,-0.42156139,-1.31390119,1.36654341,0.00000000,0.00000000
-0.21769257,-2.17000008,-0.48433208,-0.36911181,-0.85550296,0.00000000,0.00000000,-0.04007120,1.35720181,-0.41223341,-1.20443857,1.37835491,0.00000000,0.00000000
-0.21803543,-2.17000008,-0.48381194,-0.36911806,-0.88525862,0.00000000,0.00000000,0.04899487,1.48158002,-0.39437804,-1.08639765,1.39104331,0.00000000,0.00000000
-0.21706067,-2.17000008,-0.48450619,-0.36414033,-0.91190749,0.00000000,0.00000000,0.13351910,1.60399294,-0.36760756,-0.96224123,1.40313470,0.00000000,0.00000000
-0.21490729,-2.17000008,-0.48632464,-0.35464594,-0.94622827,0.00000000,0.00000000,0.20897928,1.72224307,-0.33202237,-0.83474821,1.42338169,0.00000000,0.00000000
-0.21180439,-2.17000008,-0.48904711,-0.34169036,-0.98214316,0.00000000,0.00000000,0.27049986,1.83438134,-0.28831181,-0.70681554,1.44895160,0.00000000,0.00000000
-0.20774476,-2.17000008,-0.49244112,-0.32601771,-1.01641977,0.00000000,0.00000000,0.31322655,1.93738222,-0.23771536,-0.58111298,1.47777879,0.00000000,0.00000000
-0.20278998,-2.17000008,-0.49639627,-0.30773678,-1.04581010,0.00000000,0.00000000,0.33429265,2.02588058,-0.18183285,-0.45970440,1.50935018,0.00000000,0.00000000
-0.19814596,-2.17000008,-0.50084656,-0.28811508,-1.08044791,0.00000000,0.00000000,0.33513355,2.09400201,-0.12237943,-0.34407559,1.54032993,0.00000000,0.00000000
-0.19467004,-2.17000008,-0.50547862,-0.26964799,-1.11580086,0.00000000,0.00000000,0.31753203,2.14000559,-0.06111294,-0.23562068,1.56830692,0.00000000,0.00000000
-0.19169462,-2.17000008,-0.50992262,-0.25358334,-1.15515637,0.00000000,0.00000000,0.28348383,2.16375113,0.00020829,-0.13596034,1.59347856,0.00000000,0.00000000
-0.18756507,-2.17000008,-0.51387322,-0.23982029,-1.18931603,0.00000000,0.00000000,0.23742373,2.16963959,0.05996582,-0.04754405,1.62369967,0.00000000,0.00000000
-0.18100904,-2.17000008,-0.51714087,-0.22809738,-1.21452415,0.00000000,0.00000000,0.18709987,2.17000008,0.11710420,0.02657327,1.65439105,0.00000000,0.00000000
-0.17160740,-2.17000008,-0.51974869,-0.21764800,-1.24005854,0.00000000,0.00000000,0.14056011,2.17000008,0.17150658,0.08453846,1.68683851,0.00000000,0.00000000
-0.16059268,-2.17000008,-0.52194989,-0.20797180,-1.26251829,0.00000000,0.00000000,0.10327399,2.17000008,0.22372027,0.12614605,1.72571766,0.00000000,0.00000000
-0.14970638,-2.17000008,-0.52400774,-0.19923985,-1.28755176,0.00000000,0.00000000,0.07807770,2.17000008,0.27445421,0.15219252,1.76682401,0.00000000,0.00000000
-0.14010082,-2.17000008,-0.52609724,-0.19166462,-1.31320906,0.00000000,0.00000000,0.06594875,2.16989946,0.32424587,0.16440308,1.80466640,0.00000000,0.00000000
-0.13240893,-2.17000008,-0.52830136,-0.18552133,-1.33700359,0.00000000,0.00000000,0.06572684,2.16831374,0.37317425,0.16643374,1.84010005,0.00000000,0.00000000
-0.12719382,-2.17000008,-0.53064108,-0.18139841,-1.35849273,0.00000000,0.00000000,0.07429329,2.16260314,0.42076546,0.16458754,1.87759781,0.00000000,0.00000000
-0.12505381,-2.17000008,-0.53318137,-0.17941646,-1.37671947,0.00000000,0.00000000,0.08883865,2.15356851,0.46649632,0.16424239,1.91224277,0.00000000,0.00000000
-0.12618367,-2.17000008,-0.53596777,-0.17930879,-1.39692926,0.00000000,0.00000000,0.10743593,2.14280558,0.51010728,0.16719975,1.93997002,0.00000000,0.00000000
-0.13034660,-2.17000008,-0.53896683,-0.18096077,-1.41673028,0.00000000,0.00000000,0.12839027,2.13217735,0.55142909,0.17376965,1.96599185,0.00000000,0.00000000
-0.13699277,-2.17000008,-0.54210049,-0.18425733,-1.43227589,0.00000000,0.00000000,0.15009718,2.12304425,0.59030956,0.18370330,1.98560166,0.00000000,0.00000000
-0.14534280,-2.17000008,-0.54526109,-0.18903857,-1.44659746,0.00000000,0.00000000,0.17118488,2.11600590,0.62662029,0.19635890,2.00467324,0.00000000,0.00000000
-0.15453744,-2.17000008,-0.54831481,-0.19521090,-1.45528865,0.00000000,0.00000000,0.19065452,2.11135387,0.66025358,0.21105488,2.02570820,0.00000000,0.00000000
-0.16381025,-2.17000008,-0.55112118,-0.20271836,-1.45634246,0.00000000,0.00000000,0.20788607,2.10927391,0.69112003,0.22723591,2.04800820,0.00000000,0.00000000
-0.17258304,-2.17000008,-0.55355668,-0.21143936,-1.45362270,0.00000000,0.00000000,0.22255264,2.10980844,0.71915245,0.24445125,2.07257295,0.00000000,0.00000000
-0.18042433,-2.17000008,-0.55551624,-0.22118574,-1.44677603,0.00000000,0.00000000,0.23454340,2.11296344,0.74429595,0.26238480,2.09612799,0.00000000,0.00000000
-0.18694577,-2.17000008,-0.55689675,-0.23179166,-1.43905604,0.00000000,0.00000000,0.24360642,2.11880136,0.76646370,0.28076515,2.11989880,0.00000000,0.00000000
-0.19181083,-2.17000008,-0.55759883,-0.24315198,-1.43497026,0.00000000,0.00000000,0.24902640,2.12692666,0.78556198,0.29905805,2.14234686,0.00000000,0.00000000
-0.19477077,-2.17000008,-0.55756563,-0.25501028,-1.43502998,0.00000000,0.00000000,0.25050375,2.13636208,0.80162960,0.31681639,2.16237545,0.00000000,0.00000000
-0.19572112,-2.17000008,-0.55680007,-0.26695436,-1.44127035,0.00000000,0.00000000,0.24839307,2.14638352,0.81477588,0.33403233,2.18396902,0.00000000,0.00000000
-0.19467252,-2.17000008,-0.55532926,-0.27867401,-1.44479680,0.00000000,0.00000000,0.24282429,2.15605688,0.82512069,0.35050082,2.20170474,0.00000000,0.00000000
-0.19197145,-2.17000008,-0.55323011,-0.29016641,-1.44960284,0.00000000,0.00000000,0.23368207,2.16397429,0.83283389,0.36579096,2.21378279,0.00000000,0.00000000
-0.18836373,-2.17000008,-0.55068284,-0.30154809,-1.44836569,0.00000000,0.00000000,0.22162624,2.16867495,0.83839190,0.37967300,2.22176743,0.00000000,0.00000000
-0.18404795,-2.17000008,-0.54800659,-0.31177911,-1.44572675,0.00000000,0.00000000,0.20860560,2.16992235,0.84292388,0.39163297,2.23286986,0.00000000,0.00000000
-0.17957550,-2.17000008,-0.54586226,-0.31844649,-1.43962681,0.00000000,0.00000000,0.19555014,2.17000008,0.84772390,0.39989248,2.24718094,0.00000000,0.00000000
-0.17552707,-2.17000008,-0.54461807,-0.32064974,-1.43109894,0.00000000,0.00000000,0.18278436,2.17000008,0.85407841,0.40223947,2.25369406,0.00000000,0.00000000
-0.17226675,-2.17000008,-0.54432684,-0.31876075,-1.42529082,0.00000000,0.00000000,0.17138603,2.17000008,0.86284733,0.39809978,2.25755358,0.00000000,0.00000000
-0.16926354,-2.17000008,-0.54467487,-0.31385577,-1.41301191,0.00000000,0.00000000,0.16237593,2.17000008,0.87424153,0.38821137,2.26375818,0.00000000,0.00000000
-0.16569424,-2.17000008,-0.54517943,-0.30742109,-1.39519823,0.00000000,0.00000000,0.15580025,2.17000008,0.88780302,0.37388805,2.27446294,0.00000000,0.00000000
-0.16135207,-2.17000008,-0.54550964,-0.30073762,-1.37228310,0.00000000,0.00000000,0.15110584,2.16994238,0.90261585,0.35697716,2.27929282,0.00000000,0.00000000
-0.15657333,-2.17000008,-0.54552555,-0.29457942,-1.35087204,0.00000000,0.00000000,0.14769910,2.16902781,0.91763288,0.33965686,2.27930498,0.00000000,0.00000000
-0.15154117,-2.17000008,-0.54513586,-0.28929317,-1.32876897,0.00000000,0.00000000,0.14510974,2.16567397,0.93204534,0.32366034,2.28139162,0.00000000,0.00000000
-0.14640062,-2.17000008,-0.54432207,-0.28494987,-1.30557692,0.00000000,0.00000000,0.14302781,2.16034293,0.94546199,0.30978164,2.28267622,0.00000000,0.00000000
-0.14145587,-2.17000008,-0.54315710,-0.28146389,-1.28314114,0.00000000,0.00000000,0.14134172,2.15420985,0.95777845,0.29821578,2.28361511,0.00000000,0.00000000
-0.13710572,-2.17000008,-0.54175794,-0.27866799,-1.25604343,0.00000000,0.00000000,0.14002559,2.14804792,0.96899676,0.28892714,2.28244591,0.00000000,0.00000000
-0.13378578,-2.17000008,-0.54024929,-0.27636501,-1.23335111,0.00000000,0.00000000,0.13909127,2.14239216,0.97914678,0.28179666,2.28290606,0.00000000,0.00000000
-0.13184337,-2.17000008,-0.53872782,-0.27436444,-1.20816815,0.00000000,0.00000000,0.13861699,2.13765287,0.98826790,0.27669415,2.28540277,0.00000000,0.00000000
-0.13137105,-2.17000008,-0.53722942,-0.27250928,-1.18420482,0.00000000,0.00000000,0.13869029,2.13415074,0.99639809,0.27350280,2.28979659,0.00000000,0.00000000
-0.13217472,-2.17000008,-0.53573161,-0.27066758,-1.15908277,0.00000000,0.00000000,0.13932528,2.13200736,1.00357974,0.27205080,2.29580975,0.00000000,0.00000000
-0.13393454,-2.17000008,-0.53419048,-0.26870379,-1.13450766,0.00000000,0.00000000,0.14054734,2.13106132,1.00988042,0.27210522,2.30165076,0.00000000,0.00000000
-0.13630871,-2.17000008,-0.53256589,-0.26641408,-1.11089659,0.00000000,0.00000000,0.14260654,2.13090944,1.01540864,0.27350602,2.31104994,0.00000000,0.00000000
-0.13886634,-2.17000008,-0.53080791,-0.26350138,-1.08868170,0.00000000,0.00000000,0.14602745,2.13114858,1.02028799,0.27633360,2.32955694,0.00000000,0.00000000
-0.14111397,-2.17000008,-0.52884871,-0.25968319,-1.07075405,0.00000000,0.00000000,0.15137826,2.13166976,1.02459586,0.28092009,2.34660554,0.00000000,0.00000000
-0.14273463,-2.17000008,-0.52663481,-0.25485820,-1.05688274,0.00000000,0.00000000,0.15899406,2.13262105,1.02834034,0.28761986,2.36933327,0.00000000,0.00000000
-0.14366263,-2.17000008,-0.52413881,-0.24918219,-1.04467821,0.00000000,0.00000000,0.16881123,2.13397694,1.03149962,0.29643956,2.39360857,0.00000000,0.00000000
-0.14377499,-2.17000008,-0.52130765,-0.24302034,-1.03105295,0.00000000,0.00000000,0.18028861,2.13535070,1.03404450,0.30684885,2.41729712,0.00000000,0.00000000
-0.14266980,-2.17000008,-0.51803499,-0.23680970,-1.01742172,0.00000000,0.00000000,0.19242010,2.13633966,1.03589475,0.31796244,2.43667006,0.00000000,0.00000000
-0.14001702,-2.17000008,-0.51424104,-0.23086515,-0.99983126,0.00000000,0.00000000,0.20395167,2.13674951,1.03691471,0.32889664,2.45645761,0.00000000,0.00000000
-0.13607569,-2.17000008,-0.50997531,-0.22520313,-0.97956508,0.00000000,0.00000000,0.21387744,2.13646674,1.03698504,0.33913600,2.47871971,0.00000000,0.00000000
-0.13157715,-2.17000008,-0.50540268,-0.21948470,-0.95779663,0.00000000,0.00000000,0.22171251,2.13541031,1.03603244,0.34872633,2.49929380,0.00000000,0.00000000
-0.12700862,-2.17000008,-0.50069958,-0.21300274,-0.93927491,0.00000000,0.00000000,0.22714023,2.13375831,1.03394532,0.35814941,2.52092862,0.00000000,0.00000000
-0.12218934,-2.17000008,-0.49600187,-0.20474768,-0.92082798,0.00000000,0.00000000,0.22961402,2.13239264,1.03043747,0.36817348,2.54353786,0.00000000,0.00000000
-0.11703103,-2.17000008,-0.49142560,-0.19435391,-0.89961725,0.00000000,0.00000000,0.22853985,2.13290572,1.02505076,0.37982607,2.56657720,0.00000000,0.00000000
-0.11144020,-2.17000008,-0.48698524,-0.18258114,-0.88229674,0.00000000,0.00000000,0.22358808,2.13589501,1.01750362,0.39386457,2.58936310,0.00000000,0.00000000
-0.10480724,-2.17000008,-0.48261330,-0.17023297,-0.87064433,0.00000000,0.00000000,0.21456356,2.14097595,1.00768149,0.41050145,2.61070275,0.00000000,0.00000000
-0.09793058,-2.17000008,-0.47836420,-0.15845694,-0.85986280,0.00000000,0.00000000,0.20146286,2.14779186,0.99546051,0.42964557,2.63217068,0.00000000,0.00000000
-0.09255937,-2.17000008,-0.47441474,-0.14795764,-0.84261411,0.00000000,0.00000000,0.18446362,2.15578771,0.98075920,0.45089847,2.65437984,0.00000000,0.00000000
-0.09023003,-2.17000008,-0.47091052,-0.13931815,-0.82992780,0.00000000,0.00000000,0.16362669,2.16354680,0.96367043,0.47323903,2.67850947,0.00000000,0.00000000
-0.09206310,-2.17000008,-0.46793097,-0.13337158,-0.81751108,0.00000000,0.00000000,0.13907973,2.16855526,0.94482803,0.49461499,2.69879913,0.00000000,0.00000000
-0.09807774,-2.17000008,-0.46551290,-0.13007362,-0.81153381,0.00000000,0.00000000,0.11276680,2.16991472,0.92624801,0.51210910,2.71875048,0.00000000,0.00000000
-0.10718961,-2.17000008,-0.46367809,-0.12809616,-0.81301033,0.00000000,0.00000000,0.08991458,2.17000008,0.91176075,0.52307236,2.74216223,0.00000000,0.00000000
-0.11841725,-2.17000008,-0.46244967,-0.12615928,-0.81636506,0.00000000,0.00000000,0.07572777,2.17000008,0.90467829,0.52658939,2.76077151,0.00000000,0.00000000
-0.13084203,-2.17000008,-0.46179646,-0.12384699,-0.82086456,0.00000000,0.00000000,0.07187167,2.17000008,0.90591359,0.52260834,2.77799177,0.00000000,0.00000000
-0.14349717,-2.17000008,-0.46162081,-0.12169341,-0.82701290,0.00000000,0.00000000,0.07633825,2.16991615,0.91396368,0.51124221,2.79514766,0.00000000,0.00000000
-0.15644684,-2.17000008,-0.46185273,-0.12109822,-0.83446115,0.00000000,0.00000000,0.08463412,2.16861987,0.92524618,0.49384144,2.81729126,0.00000000,0.00000000
-0.17070526,-2.17000008,-0.46251324,-0.12312801,-0.83555722,0.00000000,0.00000000,0.09311079,2.16430736,0.93617940,0.47316125,2.83662391,0.00000000,0.00000000
-0.18682106,-2.17000008,-0.46365654,-0.12757343,-0.83727449,0.00000000,0.00000000,0.10028047,2.15876269,0.94494969,0.45135775,2.84996319,0.00000000,0.00000000
-0.20460825,-2.17000008,-0.46531051,-0.13355635,-0.83467793,0.00000000,0.00000000,0.10562167,2.15378237,0.95108211,0.42928836,2.86110306,0.00000000,0.00000000
-0.22358699,-2.17000008,-0.46746796,-0.14021377,-0.82973796,0.00000000,0.00000000,0.10879143,2.14987803,0.95459163,0.40711680,2.87979317,0.00000000,0.00000000
-0.24324408,-2.17000008,-0.47009268,-0.14689845,-0.82816684,0.00000000,0.00000000,0.10951410,2.14703298,0.95563328,0.38477585,2.87979317,0.00000000,0.00000000
-0.26313299,-2.17000008,-0.47312593,-0.15321864,-0.83158487,0.00000000,0.00000000,0.10756455,2.14506173,0.95439923,0.36213154,2.87979317,0.00000000,0.00000000
-0.28289214,-2.17000008,-0.47648922,-0.15906678,-0.83316612,0.00000000,0.00000000,0.10268445,2.14377642,0.95107305,0.33901432,2.87979317,0.00000000,0.00000000
-0.30219743,-2.17000008,-0.48007768,-0.16467254,-0.83192611,0.00000000,0.00000000,0.09455454,2.14307952,0.94581181,0.31524459,2.87979317,0.00000000,0.00000000
-0.32073316,-2.17000008,-0.48374441,-0.17074461,-0.83094615,0.00000000,0.00000000,0.08291221,2.14304614,0.93875235,0.29073066,2.87979317,0.00000000,0.00000000
-0.33799860,-2.17000008,-0.48727700,-0.17839722,-0.82906854,0.00000000,0.00000000,0.06789660,2.14400434,0.93004310,0.26568589,2.87979317,0.00000000,0.00000000
-0.35234997,-2.17000008,-0.49039358,-0.18765983,-0.82629621,0.00000000,0.00000000,0.05057148,2.14653969,0.91989255,0.24092585,2.87979317,0.00000000,0.00000000
-0.36110649,-2.17000008,-0.49284214,-0.19618689,-0.82150656,0.00000000,0.00000000,0.03257922,2.15121126,0.90856314,0.21775727,2.87979317,0.00000000,0.00000000
-0.36330283,-2.17000008,-0.49452099,-0.20195319,-0.81894159,0.00000000,0.00000000,0.01516472,2.15775466,0.89635450,0.19737987,2.87979317,0.00000000,0.00000000
-0.35936636,-2.17000008,-0.49541575,-0.20436987,-0.81786078,0.00000000,0.00000000,0.00026845,2.16450381,0.88370866,0.18084590,2.87979317,0.00000000,0.00000000
-0.34899652,-2.17000008,-0.49548277,-0.20290264,-0.82082391,0.00000000,0.00000000,-0.00949238,2.16879082,0.87121916,0.16822065,2.87979317,0.00000000,0.00000000
-0.33133116,-2.17000008,-0.49461970,-0.19735987,-0.81879395,0.00000000,0.00000000,-0.01289877,2.16990495,0.85940289,0.15773985,2.87979317,0.00000000,0.00000000
-0.30707696,-2.16999936,-0.49286038,-0.18861426,-0.81786805,0.00000000,0.00000000,-0.00911124,2.16957021,0.84843338,0.14846604,2.87979317,0.00000000,0.00000000
-0.28060386,-2.16999078,-0.49057528,-0.17914236,-0.81348616,0.00000000,0.00000000,0.00410188,2.16786790,0.83809233,0.14263946,2.87979317,0.00000000,0.00000000
-0.25487942,-2.16997743,-0.48801953,-0.17096750,-0.80325270,0.00000000,0.00000000,0.02714482,2.16452169,0.82804263,0.14186306,2.87979317,0.00000000,0.00000000
-0.22957903,-2.16999102,-0.48518491,-0.16470927,-0.79612279,0.00000000,0.00000000,0.05795939,2.16006541,0.81797910,0.14566240,2.87979317,0.00000000,0.00000000
-0.20373765,-2.16999960,-0.48204160,-0.16029561,-0.78774744,0.00000000,0.00000000,0.09401656,2.15544939,0.80760485,0.15305184,2.87979317,0.00000000,0.00000000
-0.17678577,-2.17000008,-0.47860533,-0.15743111,-0.77895802,0.00000000,0.00000000,0.13296539,2.15174437,0.79659688,0.16314733,2.87707734,0.00000000,0.00000000
-0.14838997,-2.17000008,-0.47489846,-0.15581627,-0.76865417,0.00000000,0.00000000,0.17237119,2.15001130,0.78458595,0.17503220,2.87149906,0.00000000,0.00000000
-0.11835929,-2.17000008,-0.47094405,-0.15518180,-0.76029521,0.00000000,0.00000000,0.20949925,2.15111446,0.77115321,0.18761384,2.87066960,0.00000000,0.00000000
-0.08720230,-2.17000008,-0.46683314,-0.15524140,-0.74458688,0.00000000,0.00000000,0.24170817,2.15515471,0.75591326,0.19961275,2.86689329,0.00000000,0.00000000
-0.05743888,-2.17000008,-0.46284628,-0.15590475,-0.72451192,0.00000000,0.00000000,0.26775616,2.16077805,0.73870510,0.20986606,2.86159801,0.00000000,0.00000000
-0.03317067,-2.17000008,-0.45941937,-0.15717307,-0.70243865,0.00000000,0.00000000,0.28872675,2.16573715,0.71966022,0.21793176,2.86145449,0.00000000,0.00000000
-0.01666294,-2.17000008,-0.45684099,-0.15849547,-0.68314058,0.00000000,0.00000000,0.30652663,2.16873479,0.69893700,0.22410642,2.85503054,0.00000000,0.00000000
-0.00735022,-2.17000008,-0.45513231,-0.15890616,-0.66331947,0.00000000,0.00000000,0.32265952,2.16980839,0.67661136,0.22876386,2.85304999,0.00000000,0.00000000
-0.00342397,-2.17000008,-0.45416451,-0.15760258,-0.64327669,0.00000000,0.00000000,0.33807755,2.16994905,0.65267903,0.23211767,2.85340905,0.00000000,0.00000000
-0.00335515,-2.17000008,-0.45378834,-0.15435781,-0.62455237,0.00000000,0.00000000,0.35348457,2.16939735,0.62714821,0.23390891,2.85685587,0.00000000,0.00000000
-0.00627637,-2.17000008,-0.45386410,-0.14972584,-0.60460156,0.00000000,0.00000000,0.36803120,2.16843653,0.59988511,0.23293063,2.86714268,0.00000000,0.00000000
-0.01148487,-2.17000008,-0.45425037,-0.14453605,-0.58481210,0.00000000,0.00000000,0.37784010,2.16911936,0.57002890,0.22876830,2.87277770,0.00000000,0.00000000
-0.01979816,-2.17000008,-0.45493749,-0.13991989,-0.56742615,0.00000000,0.00000000,0.38718185,2.16984129,0.53803152,0.22138669,2.86943030,0.00000000,0.00000000
-0.03153434,-2.17000008,-0.45588982,-0.13677612,-0.55131668,0.00000000,0.00000000,0.39725590,2.16999197,0.50403607,0.21008039,2.86419153,0.00000000,0.00000000
-0.04558298,-2.17000008,-0.45703006,-0.13481274,-0.53429788,0.00000000,0.00000000,0.41118431,2.17000008,0.46832448,0.19511890,2.86476874,0.00000000,0.00000000
-0.06051138,-2.17000008,-0.45829281,-0.13328022,-0.51289111,0.00000000,0.00000000,0.43362305,2.16994834,0.43138376,0.17634301,2.86563253,0.00000000,0.00000000
-0.07608556,-2.17000008,-0.45964527,-0.13243276,-0.49592218,0.00000000,0.00000000,0.46748689,2.16900587,0.39342666,0.15315601,2.86121178,0.00000000,0.00000000
-0.09274570,-2.17000008,-0.46107048,-0.13296643,-0.47782418,0.00000000,0.00000000,0.51285571,2.16402936,0.35428047,0.12506020,2.85916686,0.00000000,0.00000000
-0.11072841,-2.17000008,-0.46256518,-0.13505641,-0.45819387,0.00000000,0.00000000,0.56678349,2.15139604,0.31353167,0.09174260,2.85274458,0.00000000,0.00000000
-0.12966862,-2.17000008,-0.46412197,-0.13820782,-0.43500564,0.00000000,0.00000000,0.62362838,2.13073134,0.27078387,0.05243667,2.84241796,0.00000000,0.00000000
-0.14925186,-2.17000008,-0.46573412,-0.14201149,-0.41340205,0.00000000,0.00000000,0.67740279,2.10225534,0.22593360,0.00615254,2.83401489,0.00000000,0.00000000
-0.16945888,-2.16997910,-0.46741012,-0.14622796,-0.39472002,0.00000000,0.00000000,0.72420442,2.06586409,0.17927170,-0.04756188,2.82591367,0.00000000,0.00000000
-0.18989855,-2.16964889,-0.46909747,-0.15095408,-0.37864500,0.00000000,0.00000000,0.76279426,2.02163720,0.13139412,-0.10838944,2.82370734,0.00000000,0.00000000
-0.21030469,-2.16849017,-0.47071502,-0.15677360,-0.36086702,0.00000000,0.00000000,0.79369771,1.96997941,0.08306550,-0.17539240,2.82722759,0.00000000,0.00000000
-0.23051497,-2.16697073,-0.47217676,-0.16436870,-0.34929723,0.00000000,0.00000000,0.81831020,1.91156924,0.03512445,-0.24717717,2.82617116,0.00000000,0.00000000
-0.25011885,-2.16611266,-0.47338074,-0.17417021,-0.33581614,0.00000000,0.00000000,0.83862031,1.84719968,-0.01157740,-0.32201296,2.82857895,0.00000000,0.00000000
-0.26833495,-2.16675472,-0.47419432,-0.18633902,-0.32040176,0.00000000,0.00000000,0.85545522,1.77778757,-0.05622032,-0.39795148,2.83592486,0.00000000,0.00000000
-0.28381515,-2.16866899,-0.47447458,-0.20032749,-0.30045176,0.00000000,0.00000000,0.86513257,1.70583355,-0.09805005,-0.47294027,2.83889222,0.00000000,0.00000000
-0.29491603,-2.16977310,-0.47419101,-0.21414661,-0.27417639,0.00000000,0.00000000,0.86487818,1.63607764,-0.13640039,-0.54492885,2.83884978,0.00000000,0.00000000
-0.30158183,-2.16998863,-0.47349340,-0.22632872,-0.24659730,0.00000000,0.00000000,0.85548252,1.57117689,-0.17069903,-0.61204034,2.84332728,0.00000000,0.00000000
-0.30446926,-2.17000008,-0.47257215,-0.23614556,-0.21943656,0.00000000,0.00000000,0.83937073,1.51236820,-0.20046768,-0.67261440,2.85121942,0.00000000,0.00000000
-0.30413106,-2.17000008,-0.47159401,-0.24305452,-0.19166547,0.00000000,0.00000000,0.81907886,1.46071458,-0.22531945,-0.72520030,2.85812998,0.00000000,0.00000000
-0.30108303,-2.17000008,-0.47070727,-0.24666984,-0.15852633,0.00000000,0.00000000,0.79687917,1.41721022,-0.24495520,-0.76856500,2.86418962,0.00000000,0.00000000
-0.29590756,-2.17000008,-0.47004411,-0.24684189,-0.13435534,0.00000000,0.00000000,0.77468902,1.38276947,-0.25915915,-0.80170590,2.87345076,0.00000000,0.00000000
-0.28918836,-2.17000008,-0.46970096,-0.24367897,-0.11297093,0.00000000,0.00000000,0.75400221,1.35821438,-0.26779586,-0.82385141,2.87979317,0.00000000,0.00000000
-0.28133667,-2.17000008,-0.46970540,-0.23754005,-0.08995780,0.00000000,0.00000000,0.73583764,1.34427142,-0.27080515,-0.83445704,2.87979317,0.00000000,0.00000000
-0.27251112,-2.17000008,-0.47000343,-0.22906697,-0.06727537,0.00000000,0.00000000,0.72072208,1.34154689,-0.26819497,-0.83320218,2.87979317,0.00000000,0.00000000
-0.26272038,-2.17000008,-0.47048560,-0.21919867,-0.04800442,0.00000000,0.00000000,0.70870882,1.35045791,-0.26003164,-0.81999731,2.87979317,0.00000000,0.00000000
-0.25197089,-2.16998672,-0.47103155,-0.20904203,-0.03398663,0.00000000,0.00000000,0.69941777,1.37114656,-0.24642161,-0.79500204,2.87979317,0.00000000,0.00000000
-0.24035698,-2.16978240,-0.47154164,-0.19967870,-0.01895221,0.00000000,0.00000000,0.69208181,1.40344250,-0.22748721,-0.75865203,2.87979317,0.00000000,0.00000000
-0.22814178,-2.16909814,-0.47194973,-0.19207402,-0.00169576,0.00000000,0.00000000,0.68560278,1.44687498,-0.20334937,-0.71168649,2.87979317,0.00000000,0.00000000
-0.21585467,-2.16834497,-0.47222865,-0.18708274,0.01677728,0.00000000,0.00000000,0.67864615,1.50064719,-0.17413291,-0.65517330,2.87979317,0.00000000,0.00000000
-0.20415697,-2.16816163,-0.47238034,-0.18534780,0.03302274,0.00000000,0.00000000,0.66987395,1.56351292,-0.13999718,-0.59050727,2.87979317,0.00000000,0.00000000
-0.19381088,-2.16871166,-0.47244233,-0.18717176,0.05202077,0.00000000,0.00000000,0.65848470,1.63344276,-0.10118396,-0.51937771,2.87979317,0.00000000,0.00000000
-0.18604791,-2.16963387,-0.47251689,-0.19271900,0.07407977,0.00000000,0.00000000,0.64489043,1.70714235,-0.05807456,-0.44370714,2.87979317,0.00000000,0.00000000
-0.18150315,-2.16997671,-0.47270495,-0.20131284,0.09121634,0.00000000,0.00000000,0.62986028,1.78075898,-0.01124039,-0.36550301,2.87979317,0.00000000,0.00000000
-0.17960443,-2.17000008,-0.47302139,-0.21150118,0.11111585,0.00000000,0.00000000,0.61213487,1.85195708,0.03854968,-0.28664938,2.87979317,0.00000000,0.00000000
-0.17979126,-2.17000008,-0.47344056,-0.22222942,0.13801172,0.00000000,0.00000000,0.58912694,1.91952467,0.09037278,-0.20886151,2.87979317,0.00000000,0.00000000
-0.18114251,-2.17000008,-0.47385079,-0.23250099,0.16091563,0.00000000,0.00000000,0.55822450,1.98247051,0.14320688,-0.13372692,2.87979317,0.00000000,0.00000000
-0.18271348,-2.17000008,-0.47406605,-0.24164873,0.17735691,0.00000000,0.00000000,0.51725304,2.03980875,0.19599526,-0.06270239,2.87979317,0.00000000,0.00000000
-0.18461689,-2.17000008,-0.47398356,-0.24978107,0.19342081,0.00000000,0.00000000,0.46472913,2.09059095,0.24772575,0.00296231,2.87979317,0.00000000,0.00000000
-0.18715964,-2.17000008,-0.47356346,-0.25708336,0.21324757,0.00000000,0.00000000,0.40080175,2.13315940,0.29755738,0.06204114,2.87979317,0.00000000,0.00000000
-0.18983598,-2.17000008,-0.47274804,-0.26302156,0.23883495,0.00000000,0.00000000,0.33113468,2.16131210,0.34526771,0.11199350,2.87979317,0.00000000,0.00000000
-0.19085501,-2.17000008,-0.47144008,-0.26578030,0.26604080,0.00000000,0.00000000,0.26929283,2.16942835,0.39181086,0.14889590,2.87979317,0.00000000,0.00000000
-0.18889003,-2.17000008,-0.46954632,-0.26425815,0.28835699,0.00000000,0.00000000,0.22640713,2.16995764,0.43855476,0.17219949,2.87979317,0.00000000,0.00000000
-0.18356973,-2.17000008,-0.46701163,-0.25846231,0.30861396,0.00000000,0.00000000,0.20589177,2.16897464,0.48631820,0.18343343,2.87979317,0.00000000,0.00000000
-0.17473119,-2.17000008,-0.46378788,-0.24875207,0.31895053,0.00000000,0.00000000,0.20612194,2.16092062,0.53515267,0.18472008,2.87979317,0.00000000,0.00000000
-0.16295457,-2.17000008,-0.45985383,-0.23639372,0.32686332,0.00000000,0.00000000,0.21795005,2.13860989,0.58375317,0.18002661,2.87979317,0.00000000,0.00000000
-0.14942947,-2.17000008,-0.45524296,-0.22318210,0.33120075,0.00000000,0.00000000,0.23171084,2.11203742,0.63043028,0.17476949,2.87979317,0.00000000,0.00000000
-0.13435897,-2.17000008,-0.44999921,-0.20970224,0.33040679,0.00000000,0.00000000,0.24453686,2.08884549,0.67460924,0.17168289,2.87979317,0.00000000,0.00000000
-0.11759566,-2.17000008,-0.44416389,-0.19622502,0.32481897,0.00000000,0.00000000,0.25706884,2.07087970,0.71635264,0.17179906,2.87979317,0.00000000,0.00000000
-0.09903318,-2.17000008,-0.43775499,-0.18336949,0.32268229,0.00000000,0.00000000,0.27019542,2.05917525,0.75576359,0.17596357,2.87979317,0.00000000,0.00000000
-0.07857037,-2.17000008,-0.43078038,-0.17186597,0.31695044,0.00000000,0.00000000,0.28477931,2.05419517,0.79294455,0.18481886,2.87979317,0.00000000,0.00000000
-0.05645610,-2.17000008,-0.42329022,-0.16235979,0.31033254,0.00000000,0.00000000,0.30163577,2.05507565,0.82805753,0.19843957,2.87979317,0.00000000,0.00000000
-0.03363984,-2.17000008,-0.41540858,-0.15537250,0.31128520,0.00000000,0.00000000,0.32111877,2.05977011,0.86130744,0.21621662,2.87979317,0.00000000,0.00000000
-0.01144469,-2.17000008,-0.40730110,-0.15115491,0.31305858,0.00000000,0.00000000,0.34302172,2.06601548,0.89287847,0.23720680,2.87979317,0.00000000,0.00000000
0.00924461,-2.17000008,-0.39910498,-0.14948909,0.31481516,0.00000000,0.00000000,0.36686456,2.07227588,0.92287081,0.26063412,2.87979317,0.00000000,0.00000000
0.02818196,-2.17000008,-0.39091086,-0.14973411,0.32105073,0.00000000,0.00000000,0.39194629,2.07798696,0.95125628,0.28600088,2.87979317,0.00000000,0.00000000
0.04533679,-2.17000008,-0.38279366,-0.15105522,0.32951289,0.00000000,0.00000000,0.41732651,2.08332872,0.97787333,0.31296530,2.87979317,0.00000000,0.00000000
0.06057074,-2.17000008,-0.37483183,-0.15266290,0.33146799,0.00000000,0.00000000,0.44188541,2.08900166,1.00243509,0.34124219,2.87979317,0.00000000,0.00000000
0.07356398,-2.17000008,-0.36710563,-0.15396635,0.33150631,0.00000000,0.00000000,0.46426010,2.09587693,1.02455938,0.37038186,2.87979317,0.00000000,0.00000000
0.08388731,-2.17000008,-0.35968721,-0.15460478,0.32633135,0.00000000,0.00000000,0.48279649,2.10418582,1.04391909,0.39935112,2.87979317,0.00000000,0.00000000
0.09116374,-2.17000008,-0.35262766,-0.15438622,0.32472554,0.00000000,0.00000000,0.49640945,2.11321378,1.06045902,0.42682809,2.87979317,0.00000000,0.00000000
0.09510486,-2.17000008,-0.34595713,-0.15322374,0.32132751,0.00000000,0.00000000,0.50448143,2.12216377,1.07425678,0.45156741,2.87979317,0.00000000,0.00000000
0.09537551,-2.17000008,-0.33970702,-0.15097450,0.32055420,0.00000000,0.00000000,0.50578952,2.13068557,1.08525884,0.47205174,2.87979317,0.00000000,0.00000000
0.09139135,-2.17000008,-0.33393845,-0.14726721,0.31893438,0.00000000,0.00000000,0.49904585,2.13906240,1.09326863,0.48688081,2.87979317,0.00000000,0.00000000
0.08198207,-2.17000008,-0.32876521,-0.14161482,0.31462112,0.00000000,0.00000000,0.48392364,2.14750338,1.09824920,0.49532840,2.87979317,0.00000000,0.00000000
0.06694114,-2.17000008,-0.32422978,-0.13316065,0.30674377,0.00000000,0.00000000,0.46095264,2.15572071,1.10039747,0.49736753,2.87979317,0.00000000,0.00000000
0.04814862,-2.17000008,-0.32019818,-0.12134068,0.29918852,0.00000000,0.00000000,0.43042853,2.16283631,1.09996760,0.49292612,2.87979317,0.00000000,0.00000000
0.02626151,-2.17000008,-0.31658876,-0.10732959,0.30006817,0.00000000,0.00000000,0.39300600,2.16766882,1.09725738,0.48201537,2.87979317,0.00000000,0.00000000
0.00129853,-2.16998506,-0.31337300,-0.09216261,0.30368435,0.00000000,0.00000000,0.35309935,2.16961813,1.09303927,0.46668011,2.87979317,0.00000000,0.00000000
-0.02755894,-2.16968083,-0.31057483,-0.07680789,0.30471084,0.00000000,0.00000000,0.31525275,2.16998053,1.08808112,0.44939154,2.87979317,0.00000000,0.00000000
-0.05970817,-2.16772127,-0.30815428,-0.06177534,0.30702958,0.00000000,0.00000000,0.27924880,2.17000008,1.08270848,0.43008879,2.87979317,0.00000000,0.00000000
-0.09378742,-2.16224885,-0.30605373,-0.04766962,0.31028077,0.00000000,0.00000000,0.24373780,2.17000008,1.07708156,0.40819117,2.87979317,0.00000000,0.00000000
-0.12916127,-2.15382099,-0.30427396,-0.03513756,0.31806436,0.00000000,0.00000000,0.20842440,2.16996384,1.07140112,0.38378805,2.87979317,0.00000000,0.00000000
-0.16565424,-2.14383531,-0.30284649,-0.02466111,0.32353070,0.00000000,0.00000000,0.17328821,2.16934609,1.06570280,0.35732481,2.87979317,0.00000000,0.00000000
-0.20289777,-2.13356185,-0.30180177,-0.01657462,0.33296561,0.00000000,0.00000000,0.13817498,2.16655850,1.05971217,0.32950786,2.87979317,0.00000000,0.00000000
-0.23941307,-2.12397218,-0.30115953,-0.01081629,0.33951047,0.00000000,0.00000000,0.10350632,2.16086149,1.05308509,0.30145034,2.87979317,0.00000000,0.00000000
-0.27235091,-2.11517811,-0.30093130,-0.00657691,0.34845373,0.00000000,0.00000000,0.07034859,2.15377736,1.04565120,0.27438560,2.87979317,0.00000000,0.00000000
-0.30021644,-2.10675764,-0.30113900,-0.00301235,0.35397238,0.00000000,0.00000000,0.04017220,2.14686918,1.03746223,0.24947041,2.87979317,0.00000000,0.00000000
-0.32320282,-2.09873319,-0.30180940,0.00009047,0.36552176,0.00000000,0.00000000,0.01367085,2.14088464,1.02864873,0.22727031,2.87979317,0.00000000,0.00000000
-0.34199202,-2.09165883,-0.30296496,0.00243843,0.37836659,0.00000000,0.00000000,-0.00949029,2.13618279,1.01932085,0.20775916,2.87979317,0.00000000,0.00000000
-0.35731676,-2.08630395,-0.30462039,0.00348620,0.39004868,0.00000000,0.00000000,-0.03002762,2.13307786,1.00956893,0.19071266,2.87979317,0.00000000,0.00000000
-0.36961499,-2.08343744,-0.30677888,0.00263980,0.40323919,0.00000000,0.00000000,-0.04869740,2.13188219,0.99948096,0.17586516,2.87979317,0.00000000,0.00000000
-0.37887228,-2.08421564,-0.30942604,-0.00091522,0.41126707,0.00000000,0.00000000,-0.06616579,2.13286734,0.98915040,0.16297066,2.87979317,0.00000000,0.00000000
-0.38506138,-2.09011316,-0.31252122,-0.00822249,0.41675654,0.00000000,0.00000000,-0.08268555,2.13650513,0.97866946,0.15208761,2.87979317,0.00000000,0.00000000
-0.38695124,-2.10037923,-0.31599030,-0.01880955,0.42211974,0.00000000,0.00000000,-0.09824675,2.14324236,0.96813339,0.14347178,2.87979317,0.00000000,0.00000000
-0.38219425,-2.11269164,-0.31972334,-0.03104513,0.43349740,0.00000000,0.00000000,-0.11186659,2.15210605,0.95776623,0.13756223,2.87979317,0.00000000,0.00000000
-0.37080303,-2.12595797,-0.32360309,-0.04441376,0.44924361,0.00000000,0.00000000,-0.11934768,2.16128349,0.94797498,0.13654786,2.87979317,0.00000000,0.00000000
-0.35366637,-2.13944268,-0.32750970,-0.05872696,0.46949714,0.00000000,0.00000000,-0.11970372,2.16793466,0.93908483,0.14070617,2.87979317,0.00000000,0.00000000
-0.33124515,-2.15201378,-0.33131889,-0.07346251,0.48943043,0.00000000,0.00000000,-0.11510311,2.16987562,0.93152171,0.14704733,2.87979317,0.00000000,0.00000000
-0.30358398,-2.16218185,-0.33490592,-0.08783170,0.51161337,0.00000000,0.00000000,-0.10531444,2.17000008,0.92587447,0.15316592,2.87979317,0.00000000,0.00000000
-0.27115324,-2.16820478,-0.33819515,-0.10099119,0.53523302,0.00000000,0.00000000,-0.08880668,2.17000008,0.92243582,0.15911023,2.87979317,0.00000000,0.00000000
-0.23635262,-2.16986609,-0.34124923,-0.11261269,0.55981028,0.00000000,0.00000000,-0.06416005,2.16989279,0.92111218,0.16679877,2.87979317,0.00000000,0.00000000
-0.20193647,-2.16999769,-0.34419003,-0.12285184,0.58514678,0.00000000,0.00000000,-0.03088783,2.16818047,0.92169785,0.17788175,2.87979317,0.00000000,0.00000000
-0.16917606,-2.17000008,-0.34708619,-0.13179569,0.61116791,0.00000000,0.00000000,0.00983654,2.16180778,0.92387682,0.19308503,2.87979317,0.00000000,0.00000000
-0.13857135,-2.17000008,-0.34998721,-0.13930917,0.63844949,0.00000000,0.00000000,0.05585588,2.15151954,0.92724782,0.21248667,2.87979317,0.00000000,0.00000000
-0.11041027,-2.17000008,-0.35294658,-0.14510447,0.66375434,0.00000000,0.00000000,0.10450609,2.14003229,0.93134129,0.23562592,2.87979317,0.00000000,0.00000000
-0.08462593,-2.17000008,-0.35599136,-0.14889844,0.68916500,0.00000000,0.00000000,0.15263294,2.12980485,0.93558890,0.26152098,2.87979317,0.00000000,0.00000000
-0.06085977,-2.17000008,-0.35911283,-0.15056466,0.70395571,0.00000000,0.00000000,0.19675249,2.12285399,0.93933290,0.28877789,2.87979317,0.00000000,0.00000000
-0.03909032,-2.17000008,-0.36231822,-0.15018786,0.71598482,0.00000000,0.00000000,0.23352575,2.12052083,0.94193166,0.31582472,2.87979317,0.00000000,0.00000000
-0.02067764,-2.17000008,-0.36572623,-0.14806572,0.72997171,0.00000000,0.00000000,0.26085442,2.12242961,0.94309360,0.34123296,2.87979317,0.00000000,0.00000000
-0.00858276,-2.17000008,-0.36958370,-0.14469001,0.73811865,0.00000000,0.00000000,0.27954790,2.12565970,0.94331354,0.36438358,2.87979317,0.00000000,0.00000000
-0.00506917,-2.17000008,-0.37406039,-0.14050533,0.74441081,0.00000000,0.00000000,0.29310638,2.12699270,0.94358248,0.38617280,2.87979317,0.00000000,0.00000000
-0.00969892,-2.17000008,-0.37908193,-0.13568617,0.75239432,0.00000000,0.00000000,0.30512109,2.12537909,0.94464034,0.40848190,2.87979317,0.00000000,0.00000000
-0.02021565,-2.17000008,-0.38441604,-0.13027872,0.76128346,0.00000000,0.00000000,0.31872949,2.12094021,0.94702756,0.43340525,2.87979317,0.00000000,0.00000000
-0.03403720,-2.17000008,-0.38980660,-0.12439127,0.76909465,0.00000000,0.00000000,0.33677229,2.11421084,0.95119089,0.46297902,2.87979317,0.00000000,0.00000000
-0.04906845,-2.17000008,-0.39504659,-0.11823063,0.77740544,0.00000000,0.00000000,0.36131918,2.10626197,0.95732981,0.49894744,2.87979317,0.00000000,0.00000000
-0.06390086,-2.17000008,-0.40000033,-0.11201116,0.78799587,0.00000000,0.00000000,0.39420608,2.09781313,0.96568304,0.54255861,2.87979317,0.00000000,0.00000000
-0.07781649,-2.17000008,-0.40459904,-0.10595398,0.79896522,0.00000000,0.00000000,0.43871397,2.08759713,0.97735023,0.59415531,2.87979317,0.00000000,0.00000000
-0.09105014,-2.17000008,-0.40884039,-0.10051765,0.80830514,0.00000000,0.00000000,0.49686268,2.07369280,0.99352252,0.65178031,2.87979317,0.00000000,0.00000000
-0.10433383,-2.17000008,-0.41275251,-0.09628250,0.81206793,0.00000000,0.00000000,0.56754476,2.05680323,1.01393616,0.71305907,2.87979317,0.00000000,0.00000000
-0.11789744,-2.17000008,-0.41634282,-0.09346138,0.81584430,0.00000000,0.00000000,0.64900786,2.03893614,1.03751552,0.77686310,2.87979317,0.00000000,0.00000000
-0.13145402,-2.17000008,-0.41959742,-0.09186859,0.82041669,0.00000000,0.00000000,0.73817873,2.02107430,1.06303346,0.84159678,2.87979317,0.00000000,0.00000000
-0.14442179,-2.17000008,-0.42249250,-0.09103841,0.82262766,0.00000000,0.00000000,0.83105147,2.00400639,1.08901858,0.90524024,2.87979317,0.00000000,0.00000000
-0.15612403,-2.16999292,-0.42500076,-0.09043754,0.82609254,0.00000000,0.00000000,0.92378616,1.98847973,1.11401927,0.96591848,2.87979317,0.00000000,0.00000000
-0.16592598,-2.16987538,-0.42709485,-0.08969231,0.82770294,0.00000000,0.00000000,1.01313400,1.97503865,1.13685036,1.02210474,2.87979317,0.00000000,0.00000000
-0.17327407,-2.16936088,-0.42874768,-0.08871583,0.81946659,0.00000000,0.00000000,1.09642208,1.96404433,1.15667284,1.07263815,2.87979317,0.00000000,0.00000000
-0.17771626,-2.16822219,-0.42993802,-0.08761425,0.80779171,0.00000000,0.00000000,1.17135406,1.95571673,1.17300951,1.11663461,2.87979317,0.00000000,0.00000000
-0.17904650,-2.16646266,-0.43066350,-0.08649649,0.79678261,0.00000000,0.00000000,1.23584294,1.95016193,1.18572366,1.15338874,2.87979317,0.00000000,0.00000000
-0.17775659,-2.16465163,-0.43096101,-0.08556405,0.78029585,0.00000000,0.00000000,1.28799176,1.94730413,1.19498634,1.18230605,2.87979317,0.00000000,0.00000000
-0.17490537,-2.16352153,-0.43090647,-0.08492708,0.76575923,0.00000000,0.00000000,1.32620955,1.94681048,1.20118356,1.20288932,2.87979317,0.00000000,0.00000000
-0.17106731,-2.16306686,-0.43056366,-0.08431713,0.75520134,0.00000000,0.00000000,1.34934831,1.94820547,1.20474946,1.21477604,2.87979317,0.00000000,0.00000000
-0.16628791,-2.16311598,-0.42996398,-0.08349619,0.74546129,0.00000000,0.00000000,1.35676169,1.95106506,1.20601749,1.21775734,2.87979317,0.00000000,0.00000000
-0.16056222,-2.16376114,-0.42913079,-0.08240660,0.73412508,0.00000000,0.00000000,1.34832835,1.95511329,1.20516706,1.21176374,2.87979317,0.00000000,0.00000000
-0.15407291,-2.16507864,-0.42810240,-0.08101399,0.72390133,0.00000000,0.00000000,1.32447064,1.96023810,1.20222819,1.19683814,2.87979317,0.00000000,0.00000000
-0.14716434,-2.16674662,-0.42693600,-0.07917573,0.71603018,0.00000000,0.00000000,1.28612030,1.96649456,1.19709873,1.17311215,2.87979317,0.00000000,0.00000000
-0.14030793,-2.16819143,-0.42569813,-0.07673732,0.70788407,0.00000000,0.00000000,1.23459876,1.97405863,1.18958545,1.14078236,2.87979317,0.00000000,0.00000000
-0.13406175,-2.16908503,-0.42445168,-0.07371953,0.70127547,0.00000000,0.00000000,1.17146432,1.98302615,1.17950475,1.10009086,2.87979317,0.00000000,0.00000000
-0.12890899,-2.16947722,-0.42324597,-0.07032310,0.69865727,0.00000000,0.00000000,1.09832931,1.99323416,1.16676593,1.05134511,2.87979317,0.00000000,0.00000000
-0.12513174,-2.16958761,-0.42211527,-0.06681783,0.69365001,0.00000000,0.00000000,1.01668751,2.00428081,1.15139031,0.99499130,2.87979317,0.00000000,0.00000000
-0.12282132,-2.16959357,-0.42108509,-0.06340330,0.68691820,0.00000000,0.00000000,0.92783481,2.01569343,1.13348854,0.93172973,2.87979317,0.00000000,0.00000000
-0.12194351,-2.16949558,-0.42017940,-0.06009881,0.67700374,0.00000000,0.00000000,0.83292860,2.02713680,1.11322272,0.86267555,2.87979317,0.00000000,0.00000000
-0.12241226,-2.16914463,-0.41942245,-0.05681679,0.66798669,0.00000000,0.00000000,0.73318660,2.03863883,1.09081018,0.78954357,2.87979317,0.00000000,0.00000000
-0.12425213,-2.16845131,-0.41883653,-0.05368795,0.65936214,0.00000000,0.00000000,0.63019168,2.05087066,1.06654465,0.71480060,2.87979317,0.00000000,0.00000000
-0.12771034,-2.16746211,-0.41844049,-0.05128616,0.65595251,0.00000000,0.00000000,0.52581215,2.06596875,1.04053342,0.64175880,2.87979317,0.00000000,0.00000000
-0.13307388,-2.16654468,-0.41824508,-0.05049559,0.65214205,0.00000000,0.00000000,0.42207941,2.08706689,1.01277542,0.57418543,2.87979317,0.00000000,0.00000000
-0.14015900,-2.16656828,-0.41824228,-0.05202109,0.65139800,0.00000000,0.00000000,0.32277980,2.11336803,0.98471063,0.51519656,2.87979317,0.00000000,0.00000000
-0.14730878,-2.16753030,-0.41838935,-0.05541724,0.64596039,0.00000000,0.00000000,0.23325132,2.13991714,0.95871562,0.46678114,2.87979317,0.00000000,0.00000000
-0.15271027,-2.16897106,-0.41863972,-0.05972628,0.65027845,0.00000000,0.00000000,0.15950729,2.16013527,0.93713218,0.42939252,2.87979317,0.00000000,0.00000000
-0.15436772,-2.16974902,-0.41896576,-0.06276901,0.65503013,0.00000000,0.00000000,0.10813607,2.16844702,0.92278868,0.40217322,2.87979317,0.00000000,0.00000000
-0.15154064,-2.16909528,-0.41939694,-0.06227585,0.65891403,0.00000000,0.00000000,0.08115680,2.16968465,0.91733736,0.38250104,2.87979317,0.00000000,0.00000000
-0.14567302,-2.16666389,-0.42000276,-0.05820636,0.66395050,0.00000000,0.00000000,0.07620323,2.16604877,0.92033774,0.36793321,2.87979317,0.00000000,0.00000000
-0.13985024,-2.16473842,-0.42085347,-0.05321797,0.67270434,0.00000000,0.00000000,0.08742353,2.15331435,0.92906773,0.35792410,2.87979317,0.00000000,0.00000000
-0.13589895,-2.16461205,-0.42199868,-0.04890139,0.67779326,0.00000000,0.00000000,0.10692198,2.13591528,0.93999636,0.35273781,2.87979317,0.00000000,0.00000000
-0.13428292,-2.16566944,-0.42347583,-0.04533010,0.67887646,0.00000000,0.00000000,0.12873350,2.11944485,0.95099771,0.35159573,2.87979317,0.00000000,0.00000000
-0.13538618,-2.16708589,-0.42531937,-0.04260988,0.68238938,0.00000000,0.00000000,0.14927083,2.10603666,0.96108627,0.35315457,2.87979317,0.00000000,0.00000000
-0.13933264,-2.16813087,-0.42754826,-0.04105769,0.68949878,0.00000000,0.00000000,0.16585162,2.09661317,0.96959054,0.35606429,2.87979317,0.00000000,0.00000000
-0.14599618,-2.16850758,-0.43016639,-0.04108628,0.70104420,0.00000000,0.00000000,0.17622092,2.09154582,0.97598839,0.35896909,2.87979317,0.00000000,0.00000000
-0.15520439,-2.16833806,-0.43317041,-0.04303787,0.71208870,0.00000000,0.00000000,0.17879257,2.09061980,0.97995645,0.36063787,2.87979317,0.00000000,0.00000000
-0.16677593,-2.16790652,-0.43655229,-0.04707583,0.72756004,0.00000000,0.00000000,0.17276186,2.09334421,0.98134291,0.36017004,2.87979317,0.00000000,0.00000000
-0.18040358,-2.16758752,-0.44029400,-0.05326970,0.73943716,0.00000000,0.00000000,0.15803854,2.09921193,0.98012257,0.35706821,2.87979317,0.00000000,0.00000000
-0.19566137,-2.16774464,-0.44436488,-0.06165940,0.74997365,0.00000000,0.00000000,0.13532090,2.10775805,0.97639716,0.35129732,2.87979317,0.00000000,0.00000000
-0.21214855,-2.16847730,-0.44872639,-0.07216351,0.75787473,0.00000000,0.00000000,0.10622113,2.11852908,0.97041392,0.34336066,2.87979317,0.00000000,0.00000000
-0.22966748,-2.16938305,-0.45334598,-0.08441439,0.76313192,0.00000000,0.00000000,0.07308909,2.13096595,0.96255541,0.33420554,2.87979317,0.00000000,0.00000000
-0.24830613,-2.16988182,-0.45820975,-0.09771159,0.76483583,0.00000000,0.00000000,0.03835305,2.14414334,0.95329010,0.32481948,2.87979317,0.00000000,0.00000000
-0.26810765,-2.16999364,-0.46330586,-0.11119271,0.76498842,0.00000000,0.00000000,0.00385380,2.15646243,0.94313043,0.31577757,2.87979317,0.00000000,0.00000000
-0.28878319,-2.16999197,-0.46859375,-0.12410918,0.76519674,0.00000000,0.00000000,-0.02915072,2.16542482,0.93265545,0.30711466,2.87979317,0.00000000,0.00000000
-0.30984488,-2.16981912,-0.47400221,-0.13592584,0.76087582,0.00000000,0.00000000,-0.05964779,2.16922665,0.92256403,0.29834238,2.87979317,0.00000000,0.00000000
-0.33081934,-2.16866541,-0.47944680,-0.14623928,0.75640261,0.00000000,0.00000000,-0.08686803,2.16996002,0.91360497,0.28850871,2.87979317,0.00000000,0.00000000
-0.35145906,-2.16587257,-0.48482603,-0.15508696,0.75193340,0.00000000,0.00000000,-0.11044989,2.17000008,0.90633011,0.27665156,2.87979317,0.00000000,0.00000000
-0.37160450,-2.16346574,-0.48996782,-0.16326831,0.75119132,0.00000000,0.00000000,-0.13022731,2.17000008,0.90093321,0.26243317,2.87979317,0.00000000,0.00000000
-0.39018801,-2.16306734,-0.49462819,-0.17087208,0.75288582,0.00000000,0.00000000,-0.14584590,2.17000008,0.89731860,0.24637091,2.87979317,0.00000000,0.00000000
-0.40587530,-2.16345859,-0.49862319,-0.17686623,0.75568771,0.00000000,0.00000000,-0.15690280,2.17000008,0.89525604,0.22941089,2.87979317,0.00000000,0.00000000
-0.41721353,-2.16276097,-0.50178772,-0.18018100,0.75844437,0.00000000,0.00000000,-0.16301386,2.17000008,0.89448953,0.21261838,2.87979317,0.00000000,0.00000000
-0.42306772,-2.16054440,-0.50397128,-0.18046077,0.75913042,0.00000000,0.00000000,-0.16409457,2.17000008,0.89479464,0.19680060,2.87979317,0.00000000,0.00000000
-0.42296684,-2.15783000,-0.50506037,-0.17822783,0.76420313,0.00000000,0.00000000,-0.16056903,2.17000008,0.89600176,0.18226965,2.87979317,0.00000000,0.00000000
-0.41668266,-2.15578294,-0.50498211,-0.17422625,0.76433533,0.00000000,0.00000000,-0.15291101,2.17000008,0.89803040,0.16905859,2.87979317,0.00000000,0.00000000
-0.40426496,-2.15497828,-0.50373745,-0.16905026,0.76831126,0.00000000,0.00000000,-0.14033516,2.16997099,0.90092528,0.15784487,2.87979317,0.00000000,0.00000000
-0.38613534,-2.15537214,-0.50140512,-0.16312613,0.76854944,0.00000000,0.00000000,-0.12186092,2.16949677,0.90469074,0.14989209,2.87979317,0.00000000,0.00000000
-0.36287877,-2.15691233,-0.49808478,-0.15693645,0.77000004,0.00000000,0.00000000,-0.09815889,2.16757894,0.90916002,0.14597830,2.87979317,0.00000000,0.00000000
-0.33504748,-2.15919495,-0.49389026,-0.15073191,0.77341026,0.00000000,0.00000000,-0.07076507,2.16378736,0.91420877,0.14575009,2.87979317,0.00000000,0.00000000
-0.30350745,-2.16161346,-0.48896545,-0.14468202,0.77729660,0.00000000,0.00000000,-0.04119764,2.15826631,0.91974723,0.14835805,2.87979317,0.00000000,0.00000000
-0.27000797,-2.16386890,-0.48350117,-0.13931802,0.77570111,0.00000000,0.00000000,-0.00964914,2.15204978,0.92569298,0.15370515,2.87979317,0.00000000,0.00000000
-0.23689632,-2.16600275,-0.47770599,-0.13551210,0.77851933,0.00000000,0.00000000,0.02452627,2.14607739,0.93200356,0.16204426,2.87979317,0.00000000,0.00000000
-0.20613790,-2.16799402,-0.47174719,-0.13401875,0.77727413,0.00000000,0.00000000,0.06154181,2.14061379,0.93864644,0.17322822,2.87979317,0.00000000,0.00000000
-0.17881314,-2.16943121,-0.46572900,-0.13513216,0.77591211,0.00000000,0.00000000,0.10071708,2.13569903,0.94553608,0.18667047,2.87979317,0.00000000,0.00000000
-0.15520667,-2.16993189,-0.45970777,-0.13858469,0.77291352,0.00000000,0.00000000,0.14074202,2.13146996,0.95251936,0.20158920,2.87979317,0.00000000,0.00000000
-0.13508660,-2.16999745,-0.45371240,-0.14363082,0.76841640,0.00000000,0.00000000,0.18047307,2.12849379,0.95939255,0.21746543,2.87979317,0.00000000,0.00000000
-0.11792514,-2.17000008,-0.44775033,-0.14929672,0.76024443,0.00000000,0.00000000,0.21866842,2.12791634,0.96585596,0.23385431,2.87979317,0.00000000,0.00000000
-0.10286667,-2.17000008,-0.44179866,-0.15452522,0.75478876,0.00000000,0.00000000,0.25293601,2.13061094,0.97151184,0.24955808,2.87979317,0.00000000,0.00000000
-0.08869997,-2.17000008,-0.43579865,-0.15825787,0.75178283,0.00000000,0.00000000,0.28089064,2.13678169,0.97602135,0.26319444,2.87979317,0.00000000,0.00000000
-0.07436646,-2.17000008,-0.42968908,-0.15970017,0.74697804,0.00000000,0.00000000,0.30029774,2.14598322,0.97914928,0.27344891,2.87979317,0.00000000,0.00000000
-0.06022629,-2.17000008,-0.42351359,-0.15865602,0.74474615,0.00000000,0.00000000,0.31075168,2.15666008,0.98101664,0.27988759,2.87979317,0.00000000,0.00000000
-0.04828500,-2.17000008,-0.41744369,-0.15555868,0.74273783,0.00000000,0.00000000,0.31637838,2.16525364,0.98249102,0.28389162,2.87979317,0.00000000,0.00000000
-0.03953072,-2.17000008,-0.41154537,-0.15094848,0.74886310,0.00000000,0.00000000,0.32019371,2.16915512,0.98427808,0.28632468,2.87979317,0.00000000,0.00000000
-0.03303569,-2.17000008,-0.40572125,-0.14507529,0.75438476,0.00000000,0.00000000,0.32311401,2.16995478,0.98646420,0.28792819,2.87979317,0.00000000,0.00000000
-0.02734411,-2.17000008,-0.39983979,-0.13810983,0.75994045,0.00000000,0.00000000,0.32580945,2.16995454,0.98896933,0.28960073,2.87979317,0.00000000,0.00000000
-0.02146013,-2.17000008,-0.39381176,-0.13041888,0.76631421,0.00000000,0.00000000,0.32820687,2.16924000,0.99166870,0.29165280,2.87979317,0.00000000,0.00000000
-0.01496455,-2.17000008,-0.38759828,-0.12255250,0.76999724,0.00000000,0.00000000,0.32969648,2.16669655,0.99436450,0.29398352,2.87979317,0.00000000,0.00000000
-0.00773562,-2.17000008,-0.38119295,-0.11508073,0.77504796,0.00000000,0.00000000,0.33004522,2.16274476,0.99686998,0.29665801,2.87979317,0.00000000,0.00000000
0.00019149,-2.17000008,-0.37461036,-0.10853139,0.77709919,0.00000000,0.00000000,0.32898310,2.15811372,0.99902219,0.29959652,2.87979317,0.00000000,0.00000000
0.00857367,-2.17000008,-0.36788860,-0.10326260,0.78505439,0.00000000,0.00000000,0.32560441,2.15357900,1.00057077,0.30230811,2.87979317,0.00000000,0.00000000
0.01692937,-2.17000008,-0.36109683,-0.09917344,0.79398841,0.00000000,0.00000000,0.31912565,2.14919567,1.00137830,0.30397624,2.87979317,0.00000000,0.00000000
0.02395675,-2.17000008,-0.35437253,-0.09566609,0.80483425,0.00000000,0.00000000,0.30981293,2.14525270,1.00137508,0.30432817,2.87979317,0.00000000,0.00000000
0.02648724,-2.17000008,-0.34796765,-0.09222768,0.81758595,0.00000000,0.00000000,0.29885960,2.14360213,1.00034547,0.30435380,2.87979317,0.00000000,0.00000000
0.02245664,-2.17000008,-0.34204823,-0.08851146,0.83347708,0.00000000,0.00000000,0.28623286,2.14477730,0.99814850,0.30429810,2.87979317,0.00000000,0.00000000
0.01390040,-2.17000008,-0.33653551,-0.08333527,0.85305053,0.00000000,0.00000000,0.27168211,2.14702582,0.99497706,0.30354089,2.87979317,0.00000000,0.00000000
0.00274424,-2.17000008,-0.33132046,-0.07637326,0.86515707,0.00000000,0.00000000,0.25505048,2.14927649,0.99094176,0.30164984,2.87979317,0.00000000,0.00000000
-0.01104930,-2.17000008,-0.32637087,-0.06860799,0.87500328,0.00000000,0.00000000,0.23733871,2.15153408,0.98611850,0.29902539,2.87979317,0.00000000,0.00000000
-0.02872752,-2.17000008,-0.32173350,-0.06050820,0.88159817,0.00000000,0.00000000,0.22062179,2.15444398,0.98059988,0.29679969,2.87979317,0.00000000,0.00000000
-0.05072300,-2.16995716,-0.31744537,-0.05140611,0.88595760,0.00000000,0.00000000,0.20538636,2.15836453,0.97436166,0.29534578,2.87979317,0.00000000,0.00000000
-0.07656911,-2.16925478,-0.31349835,-0.04123333,0.89258784,0.00000000,0.00000000,0.19076417,2.16287398,0.96735221,0.29421511,2.87979317,0.00000000,0.00000000
-0.10553736,-2.16639686,-0.30987015,-0.03097334,0.90201503,0.00000000,0.00000000,0.17594053,2.16693878,0.95960879,0.29278940,2.87979317,0.00000000,0.00000000
-0.13664503,-2.16106367,-0.30655015,-0.02164579,0.91470003,0.00000000,0.00000000,0.16038691,2.16934156,0.95128655,0.29034054,2.87979317,0.00000000,0.00000000
-0.16861577,-2.15417624,-0.30354580,-0.01360798,0.93950880,0.00000000,0.00000000,0.14363648,2.16996193,0.94264632,0.28592083,2.87979317,0.00000000,0.00000000
-0.20006613,-2.14662671,-0.30087882,-0.00678388,0.96824181,0.00000000,0.00000000,0.12524796,2.17000008,0.93397707,0.27856234,2.87979317,0.00000000,0.00000000
-0.22980125,-2.13926840,-0.29857960,-0.00114148,1.00191355,0.00000000,0.00000000,0.10503614,2.17000008,0.92548758,0.26773202,2.87979317,0.00000000,0.00000000
-0.25702345,-2.13304067,-0.29668164,0.00315157,1.03232849,0.00000000,0.00000000,0.08363784,2.17000008,0.91728306,0.25379837,2.87979317,0.00000000,0.00000000
-0.28119406,-2.12850380,-0.29521480,0.00602308,1.07058454,0.00000000,0.00000000,0.06299418,2.16999078,0.90943170,0.23820698,2.87979317,0.00000000,0.00000000
-0.30213025,-2.12544084,-0.29419997,0.00772869,1.10286438,0.00000000,0.00000000,0.04558695,2.16983175,0.90194726,0.22299929,2.87979317,0.00000000,0.00000000
-0.31994277,-2.12348938,-0.29364878,0.00852673,1.13339019,0.00000000,0.00000000,0.03235628,2.16911650,0.89468598,0.20962343,2.87979317,0.00000000,0.00000000
-0.33467332,-2.12280822,-0.29356667,0.00837326,1.15707219,0.00000000,0.00000000,0.02263189,2.16773462,0.88743281,0.19857848,2.87979317,0.00000000,0.00000000
-0.34640637,-2.12399197,-0.29395223,0.00694553,1.17687511,0.00000000,0.00000000,0.01529481,2.16628909,0.88002574,0.18979749,2.87979317,0.00000000,0.00000000
-0.35549828,-2.12787628,-0.29479435,0.00370049,1.20271969,0.00000000,0.00000000,0.00936678,2.16527653,0.87237084,0.18300574,2.87979317,0.00000000,0.00000000
-0.36222151,-2.13445187,-0.29607186,-0.00143420,1.22255516,0.00000000,0.00000000,0.00416015,2.16489077,0.86441582,0.17793632,2.87979317,0.00000000,0.00000000
-0.36592001,-2.14195299,-0.29775339,-0.00737768,1.24251151,0.00000000,0.00000000,-0.00070157,2.16513228,0.85613638,0.17440082,2.87979317,0.00000000,0.00000000
-0.36583096,-2.14884615,-0.29979467,-0.01319028,1.26288128,0.00000000,0.00000000,-0.00525465,2.16587830,0.84752971,0.17232496,2.87979317,0.00000000,0.00000000
-0.36233985,-2.15446901,-0.30214572,-0.01867264,1.28507328,0.00000000,0.00000000,-0.00918342,2.16700602,0.83860493,0.17179762,2.87979317,0.00000000,0.00000000
-0.35588932,-2.15877676,-0.30475965,-0.02400710,1.31006646,0.00000000,0.00000000,-0.01211131,2.16835737,0.82936662,0.17291790,2.87979317,0.00000000,0.00000000
-0.34638548,-2.16246963,-0.30758715,-0.02971892,1.33856988,0.00000000,0.00000000,-0.01386692,2.16949153,0.81982476,0.17551625,2.87979317,0.00000000,0.00000000
-0.33352241,-2.16578341,-0.31057394,-0.03606120,1.36665046,0.00000000,0.00000000,-0.01452181,2.16993141,0.81003577,0.17888375,2.87979317,0.00000000,0.00000000
-0.31736404,-2.16831779,-0.31367078,-0.04304722,1.38876343,0.00000000,0.00000000,-0.01406394,2.16999722,0.80016589,0.18174243,2.87979317,0.00000000,0.00000000
-0.29843351,-2.16965437,-0.31684116,-0.05063884,1.41123569,0.00000000,0.00000000,-0.01155699,2.17000008,0.79053074,0.18290871,2.87979317,0.00000000,0.00000000
-0.27747482,-2.16998053,-0.32006314,-0.05863465,1.43478084,0.00000000,0.00000000,-0.00547708,2.17000008,0.78147644,0.18173523,2.87979317,0.00000000,0.00000000
-0.25523001,-2.17000008,-0.32332158,-0.06687881,1.45349801,0.00000000,0.00000000,0.00508514,2.16995931,0.77321714,0.17781553,2.87979317,0.00000000,0.00000000
-0.23196456,-2.17000008,-0.32659230,-0.07507844,1.46542072,0.00000000,0.00000000,0.02035450,2.16930318,0.76561087,0.17211199,2.87979317,0.00000000,0.00000000
-0.20748143,-2.17000008,-0.32983693,-0.08290907,1.47211027,0.00000000,0.00000000,0.03909147,2.16678381,0.75815535,0.16604137,2.87979317,0.00000000,0.00000000
-0.18251708,-2.17000008,-0.33306867,-0.09026933,1.48420858,0.00000000,0.00000000,0.05952486,2.16267514,0.75027966,0.16094559,2.87979317,0.00000000,0.00000000
-0.15997046,-2.17000008,-0.33641917,-0.09758481,1.50225031,0.00000000,0.00000000,0.08197599,2.15817094,0.74176550,0.15788668,2.87979317,0.00000000,0.00000000
-0.14223309,-2.17000008,-0.34000546,-0.10549363,1.51991463,0.00000000,0.00000000,0.10734935,2.15332842,0.73263180,0.15693583,2.87979317,0.00000000,0.00000000
-0.12964092,-2.17000008,-0.34384808,-0.11411921,1.53320944,0.00000000,0.00000000,0.13529310,2.14823532,0.72280794,0.15766323,2.87979317,0.00000000,0.00000000
-0.12152628,-2.17000008,-0.34791577,-0.12304056,1.54066360,0.00000000,0.00000000,0.16477290,2.14347005,0.71212000,0.15968990,2.87979317,0.00000000,0.00000000
-0.11683725,-2.17000008,-0.35214168,-0.13165355,1.54465783,0.00000000,0.00000000,0.19464482,2.13964391,0.70035738,0.16266538,2.87979317,0.00000000,0.00000000
-0.11416666,-2.17000008,-0.35641080,-0.13947907,1.54542422,0.00000000,0.00000000,0.22364584,2.13714290,0.68729240,0.16609237,2.87979317,0.00000000,0.00000000
-0.11188117,-2.17000008,-0.36056849,-0.14625584,1.53903770,0.00000000,0.00000000,0.25040856,2.13618636,0.67268425,0.16933179,2.87979317,0.00000000,0.00000000
-0.10842759,-2.17000008,-0.36445335,-0.15187320,1.52876472,0.00000000,0.00000000,0.27363810,2.13704205,0.65628576,0.17178811,2.87979317,0.00000000,0.00000000
-0.10276049,-2.17000008,-0.36794677,-0.15628269,1.51655567,0.00000000,0.00000000,0.29233742,2.14009738,0.63786083,0.17307886,2.87979317,0.00000000,0.00000000
-0.09505935,-2.17000008,-0.37105089,-0.15945967,1.50465894,0.00000000,0.00000000,0.30604428,2.14554572,0.61723238,0.17301138,2.87979317,0.00000000,0.00000000
-0.08753282,-2.17000008,-0.37396830,-0.16152366,1.48696733,0.00000000,0.00000000,0.31506982,2.15254927,0.59436184,0.17125219,2.87979317,0.00000000,0.00000000
-0.08346387,-2.17000008,-0.37699637,-0.16294134,1.47218716,0.00000000,0.00000000,0.32081202,2.15860105,0.56941158,0.16705877,2.87979317,0.00000000,0.00000000
-0.08452838,-2.17000008,-0.38025549,-0.16444817,1.45575440,0.00000000,0.00000000,0.32592970,2.16072249,0.54267138,0.15981337,2.87979317,0.00000000,0.00000000
-0.09037730,-2.17000008,-0.38365382,-0.16680019,1.44784963,0.00000000,0.00000000,0.33365870,2.15678453,0.51440382,0.14933473,2.87979317,0.00000000,0.00000000
-0.09988205,-2.17000008,-0.38701722,-0.17065026,1.44685745,0.00000000,0.00000000,0.34669194,2.14543080,0.48473781,0.13542055,2.87979317,0.00000000,0.00000000
-0.11171223,-2.17000008,-0.39015371,-0.17639533,1.43753040,0.00000000,0.00000000,0.36240566,2.12485552,0.45338979,0.11572015,2.87979317,0.00000000,0.00000000
-0.12464231,-2.17000008,-0.39289337,-0.18404119,1.42911005,0.00000000,0.00000000,0.37016442,2.09186172,0.41964161,0.08459119,2.87979317,0.00000000,0.00000000
-0.13778315,-2.17000008,-0.39512268,-0.19314349,1.41826105,0.00000000,0.00000000,0.36464185,2.04623342,0.38325855,0.04019371,2.87979317,0.00000000,0.00000000
-0.15072285,-2.17000008,-0.39677760,-0.20325147,1.40531647,0.00000000,0.00000000,0.34301567,1.98758078,0.34444886,-0.01783979,2.87979317,0.00000000,0.00000000
-0.16400951,-2.17000008,-0.39788845,-0.21428469,1.39367461,0.00000000,0.00000000,0.30420139,1.91468954,0.30379969,-0.08923321,2.87979317,0.00000000,0.00000000
-0.17867744,-2.17000008,-0.39862591,-0.22557220,1.38488448,0.00000000,0.00000000,0.24790339,1.82617462,0.26218230,-0.17295444,2.87979317,0.00000000,0.00000000
-0.19396123,-2.17000008,-0.39914566,-0.23462474,1.37032592,0.00000000,0.00000000,0.17371689,1.72087133,0.22066139,-0.26748332,2.87979317,0.00000000,0.00000000
-0.20879200,-2.17000008,-0.39947736,-0.24085985,1.35931909,0.00000000,0.00000000,0.08185709,1.59898686,0.18043765,-0.37079987,2.87979317,0.00000000,0.00000000
-0.22417708,-2.17000008,-0.39985126,-0.24444824,1.35521781,0.00000000,0.00000000,-0.02565504,1.46291339,0.14277764,-0.48034513,2.87979317,0.00000000,0.00000000
-0.23888765,-2.17000008,-0.40028927,-0.24348016,1.34425485,0.00000000,0.00000000,-0.14484440,1.31675851,0.10892069,-0.59315228,2.87979317,0.00000000,0.00000000
-0.25109470,-2.17000008,-0.40060413,-0.23701692,1.32805085,0.00000000,0.00000000,-0.27045172,1.16552973,0.07997511,-0.70607024,2.87979317,0.00000000,0.00000000
-0.25998217,-2.17000008,-0.40061411,-0.22563773,1.31636488,0.00000000,0.00000000,-0.39675778,1.01447713,0.05682265,-0.81601375,2.87979317,0.00000000,0.00000000
-0.26557830,-2.17000008,-0.40021467,-0.21053234,1.30717468,0.00000000,0.00000000,-0.51834118,0.86859506,0.04004351,-0.92019719,2.87979317,0.00000000,0.00000000
-0.26797056,-2.17000008,-0.39931139,-0.19310619,1.29541981,0.00000000,0.00000000,-0.63066626,0.73226243,0.02986164,-1.01629007,2.87979317,0.00000000,0.00000000
-0.26700175,-2.17000008,-0.39781505,-0.17470817,1.28228283,0.00000000,0.00000000,-0.73045671,0.60897875,0.02609907,-1.10247409,2.87979317,0.00000000,0.00000000
-0.26269761,-2.17000008,-0.39571533,-0.15642524,1.26888537,0.00000000,0.00000000,-0.81586611,0.50120521,0.02813496,-1.17742753,2.87979317,0.00000000,0.00000000
-0.25555637,-2.17000008,-0.39309648,-0.13906074,1.25725210,0.00000000,0.00000000,-0.88645780,0.41031903,0.03488493,-1.24029577,2.87979317,0.00000000,0.00000000
-0.24645294,-2.17000008,-0.39009497,-0.12320469,1.25536263,0.00000000,0.00000000,-0.94299477,0.33666611,0.04484368,-1.29069495,2.87979317,0.00000000,0.00000000
-0.23636460,-2.17000008,-0.38685375,-0.10924654,1.25659692,0.00000000,0.00000000,-0.98704910,0.27972984,0.05623493,-1.32872844,2.87979317,0.00000000,0.00000000
-0.22613035,-2.17000008,-0.38349727,-0.09733669,1.26134789,0.00000000,0.00000000,-1.02051330,0.23838194,0.06725422,-1.35497117,2.87979317,0.00000000,0.00000000
-0.21642214,-2.16999173,-0.38012511,-0.08747904,1.27123010,0.00000000,0.00000000,-1.04516113,0.21107738,0.07631762,-1.37042546,2.87979317,0.00000000,0.00000000
-0.20798753,-2.16986322,-0.37682003,-0.07978764,1.28275681,0.00000000,0.00000000,-1.06236255,0.19593474,0.08223424,-1.37647951,2.87979317,0.00000000,0.00000000
-0.20184571,-2.16941738,-0.37365457,-0.07465692,1.29306459,0.00000000,0.00000000,-1.07293677,0.19090025,0.08429585,-1.37476635,2.87979317,0.00000000,0.00000000
-0.19912577,-2.16884422,-0.37068734,-0.07262498,1.29849613,0.00000000,0.00000000,-1.07716048,0.19428839,0.08226350,-1.36671722,2.87979317,0.00000000,0.00000000
-0.20054872,-2.16848683,-0.36794946,-0.07404940,1.30342007,0.00000000,0.00000000,-1.07492733,0.20561817,0.07624818,-1.35287523,2.87979317,0.00000000,0.00000000
-0.20608208,-2.16849971,-0.36543229,-0.07901669,1.30697119,0.00000000,0.00000000,-1.06578624,0.22601604,0.06667545,-1.33256900,2.87979317,0.00000000,0.00000000
-0.21503900,-2.16889071,-0.36308864,-0.08743712,1.30557430,0.00000000,0.00000000,-1.04866982,0.25782272,0.05447035,-1.30428195,2.87979317,0.00000000,0.00000000
-0.22640128,-2.16948032,-0.36084315,-0.09910979,1.30652869,0.00000000,0.00000000,-1.02166080,0.30377263,0.04122016,-1.26635337,2.87979317,0.00000000,0.00000000
-0.23906665,-2.16988564,-0.35860491,-0.11369876,1.30448794,0.00000000,0.00000000,-0.98226231,0.36624241,0.02899892,-1.21753740,2.87979317,0.00000000,0.00000000
-0.25196651,-2.16999340,-0.35627890,-0.13066901,1.30185008,0.00000000,0.00000000,-0.92813456,0.44674528,0.01990815,-1.15725362,2.87979317,0.00000000,0.00000000
-0.26412115,-2.17000008,-0.35377809,-0.14922795,1.29686344,0.00000000,0.00000000,-0.85784227,0.54566985,0.01566924,-1.08558571,2.87979317,0.00000000,0.00000000
-0.27473080,-2.17000008,-0.35104027,-0.16834222,1.29271853,0.00000000,0.00000000,-0.77130228,0.66219473,0.01745931,-1.00317872,2.87979317,0.00000000,0.00000000
-0.28327972,-2.17000008,-0.34805003,-0.18677062,1.29254115,0.00000000,0.00000000,-0.66996545,0.79432815,0.02591871,-0.91116071,2.87979317,0.00000000,0.00000000
-0.28955185,-2.17000008,-0.34485361,-0.20310624,1.28999269,0.00000000,0.00000000,-0.55683249,0.93903023,0.04121153,-0.81113350,2.87979317,0.00000000,0.00000000
-0.29352450,-2.17000008,-0.34154978,-0.21586363,1.28856254,0.00000000,0.00000000,-0.43632451,1.09238100,0.06309496,-0.70521599,2.87979317,0.00000000,0.00000000
-0.29524234,-2.17000008,-0.33825815,-0.22363390,1.28656375,0.00000000,0.00000000,-0.31401956,1.24980199,0.09098085,-0.59607726,2.87979317,0.00000000,0.00000000
-0.29480097,-2.17000008,-0.33508459,-0.22528358,1.28394449,0.00000000,0.00000000,-0.19627962,1.40636504,0.12397310,-0.48686531,2.87979317,0.00000000,0.00000000
-0.29241523,-2.17000008,-0.33209592,-0.22014579,1.27597296,0.00000000,0.00000000,-0.08975163,1.55715358,0.16090456,-0.38096580,2.87979317,0.00000000,0.00000000
-0.28838494,-2.17000008,-0.32929364,-0.20816097,1.25982332,0.00000000,0.00000000,-0.00069687,1.69755340,0.20042683,-0.28157988,2.87979317,0.00000000,0.00000000
-0.28290278,-2.17000008,-0.32658735,-0.18998143,1.24804056,0.00000000,0.00000000,0.06589141,1.82341456,0.24116938,-0.19127959,2.87979317,0.00000000,0.00000000
-0.27582356,-2.16993976,-0.32379413,-0.16705281,1.23732853,0.00000000,0.00000000,0.10721796,1.93128216,0.28189129,-0.11183235,2.87979317,0.00000000,0.00000000
-0.26639393,-2.16898751,-0.32067516,-0.14147203,1.22590983,0.00000000,0.00000000,0.12305845,2.01893234,0.32155323,-0.04432468,2.87979317,0.00000000,0.00000000
-0.25317025,-2.16560984,-0.31702316,-0.11531155,1.21245086,0.00000000,0.00000000,0.11521362,2.08566022,0.35934460,0.01072131,2.87979317,0.00000000,0.00000000
-0.23487076,-2.16106820,-0.31277442,-0.09017491,1.20166481,0.00000000,0.00000000,0.08750883,2.13178396,0.39475021,0.05362847,2.87979317,0.00000000,0.00000000
-0.21192650,-2.15824175,-0.30805582,-0.06764362,1.19039047,0.00000000,0.00000000,0.04718789,2.15816808,0.42769161,0.08612162,2.87979317,0.00000000,0.00000000
-0.18666218,-2.15838599,-0.30311629,-0.04866753,1.17469501,0.00000000,0.00000000,0.00379198,2.16806984,0.45856827,0.11058873,2.87979317,0.00000000,0.00000000
-0.16192129,-2.16021061,-0.29819509,-0.03290375,1.15820289,0.00000000,0.00000000,-0.03495092,2.16990042,0.48802614,0.12832706,2.87979317,0.00000000,0.00000000
-0.13997722,-2.16253209,-0.29344058,-0.01998846,1.13803148,0.00000000,0.00000000,-0.06449751,2.17000008,0.51667118,0.14003301,2.87979317,0.00000000,0.00000000
-0.12212795,-2.16487551,-0.28892496,-0.00977710,1.12080479,0.00000000,0.00000000,-0.08261605,2.17000008,0.54490888,0.14691782,2.87979317,0.00000000,0.00000000
-0.10905133,-2.16694093,-0.28468388,-0.00207912,1.10231292,0.00000000,0.00000000,-0.08844134,2.17000008,0.57292527,0.15078606,2.87979317,0.00000000,0.00000000
-0.10114015,-2.16858220,-0.28073591,0.00329358,1.08092773,0.00000000,0.00000000,-0.08183515,2.16994834,0.60073036,0.15384132,2.87979317,0.00000000,0.00000000
-0.09846613,-2.16966343,-0.27709097,0.00654266,1.06041968,0.00000000,0.00000000,-0.06326711,2.16911674,0.62818289,0.15851751,2.87979317,0.00000000,0.00000000
-0.10077211,-2.16997814,-0.27375460,0.00814468,1.04156256,0.00000000,0.00000000,-0.03419952,2.16593075,0.65500367,0.16689581,2.87979317,0.00000000,0.00000000
-0.10766427,-2.17000008,-0.27072951,0.00903607,1.02677906,0.00000000,0.00000000,0.00276805,2.16069412,0.68082380,0.17996569,2.87979317,0.00000000,0.00000000
