isaac-sim2real/sage/motion_files/wr75s/amass/0-Eyes_Japan_Dataset_hamada_sitdown_standup-01-impolite-hamada_poses_idx50.txt
l_joint1,l_joint2,l_joint3,l_joint4,l_joint5,l_joint6,l_joint7,r_joint1,r_joint2,r_joint3,r_joint4,r_joint5,r_joint6,r_joint7
-2.49409604,-0.47045669,-0.04006894,-0.49538398,0.05154480,0.00000000,0.00000000,-0.94014031,1.12941825,-0.02482557,-0.56926960,-0.03448837,0.00000000,0.00000000
-2.49572301,-0.46883327,-0.03730610,-0.49490470,0.05184738,0.00000000,0.00000000,-0.93966460,1.12738144,-0.02905557,-0.57092839,-0.03973434,0.00000000,0.00000000
-2.49850678,-0.46655557,-0.03271028,-0.49437934,0.05023245,0.00000000,0.00000000,-0.93884897,1.12388217,-0.03621241,-0.57361317,-0.04223648,0.00000000,0.00000000
-2.50192761,-0.46424049,-0.02722162,-0.49406168,0.04840746,0.00000000,0.00000000,-0.93782556,1.11981368,-0.04495662,-0.57654876,-0.04397529,0.00000000,0.00000000
-2.50549412,-0.46240476,-0.02179950,-0.49408686,0.04428771,0.00000000,0.00000000,-0.93671334,1.11588991,-0.05396980,-0.57918966,-0.04614883,0.00000000,0.00000000
-2.50876808,-0.46148783,-0.01729824,-0.49449572,0.04354125,0.00000000,0.00000000,-0.93560177,1.11240828,-0.06201947,-0.58133054,-0.04837359,0.00000000,0.00000000
-2.51135850,-0.46169400,-0.01438352,-0.49520075,0.04406128,0.00000000,0.00000000,-0.93454629,1.10956073,-0.06806308,-0.58285338,-0.05073494,0.00000000,0.00000000
-2.51304770,-0.46297261,-0.01344046,-0.49608296,0.04254333,0.00000000,0.00000000,-0.93356991,1.10746121,-0.07149782,-0.58370203,-0.05405616,0.00000000,0.00000000
-2.51378679,-0.46504176,-0.01450919,-0.49701315,0.04022192,0.00000000,0.00000000,-0.93269622,1.10616720,-0.07224579,-0.58387774,-0.05668395,0.00000000,0.00000000
-2.51365161,-0.46747082,-0.01732963,-0.49786201,0.03822343,0.00000000,0.00000000,-0.93195993,1.10576463,-0.07068412,-0.58338314,-0.05979228,0.00000000,0.00000000
-2.51283407,-0.46973553,-0.02145155,-0.49850070,0.03403057,0.00000000,0.00000000,-0.93139350,1.10630465,-0.06749479,-0.58226711,-0.06470143,0.00000000,0.00000000
-2.51160836,-0.47134113,-0.02635821,-0.49879956,0.02891859,0.00000000,0.00000000,-0.93099737,1.10769296,-0.06347815,-0.58067334,-0.06348550,0.00000000,0.00000000
-2.51020503,-0.47209916,-0.03159112,-0.49871448,0.02318002,0.00000000,0.00000000,-0.93072534,1.10966039,-0.05926955,-0.57881230,-0.05927730,0.00000000,0.00000000
-2.50876498,-0.47202799,-0.03686565,-0.49829987,0.02011426,0.00000000,0.00000000,-0.93052101,1.11193073,-0.05520153,-0.57684147,-0.06066148,0.00000000,0.00000000
-2.50735831,-0.47138074,-0.04207665,-0.49774048,0.01710457,0.00000000,0.00000000,-0.93033987,1.11417055,-0.05134533,-0.57494032,-0.07074531,0.00000000,0.00000000
-2.50598073,-0.47066656,-0.04721037,-0.49730811,0.01884802,0.00000000,0.00000000,-0.93012297,1.11593902,-0.04756632,-0.57334977,-0.07634833,0.00000000,0.00000000
-2.50459862,-0.47031721,-0.05229674,-0.49717817,0.01647851,0.00000000,0.00000000,-0.92981821,1.11697483,-0.04369882,-0.57218879,-0.08277473,0.00000000,0.00000000
-2.50318766,-0.47048378,-0.05737082,-0.49736544,0.01138957,0.00000000,0.00000000,-0.92943037,1.11736548,-0.03972117,-0.57135719,-0.08590714,0.00000000,0.00000000
-2.50171947,-0.47117192,-0.06242708,-0.49784133,0.00765167,0.00000000,0.00000000,-0.92898726,1.11731744,-0.03568476,-0.57068276,-0.09230956,0.00000000,0.00000000
-2.50019026,-0.47241578,-0.06743344,-0.49861339,0.00017730,0.00000000,0.00000000,-0.92849493,1.11690080,-0.03164750,-0.57010633,-0.09703465,0.00000000,0.00000000
-2.49865055,-0.47424921,-0.07236453,-0.49971545,-0.00662289,0.00000000,0.00000000,-0.92793953,1.11608565,-0.02769928,-0.56966436,-0.10681613,0.00000000,0.00000000
-2.49717498,-0.47664657,-0.07719046,-0.50115961,-0.01385471,0.00000000,0.00000000,-0.92731059,1.11486125,-0.02397269,-0.56938720,-0.11290715,0.00000000,0.00000000
-2.49579501,-0.47943974,-0.08180184,-0.50282973,-0.02047171,0.00000000,0.00000000,-0.92661196,1.11332142,-0.02064525,-0.56923699,-0.11414097,0.00000000,0.00000000
-2.49454474,-0.48220676,-0.08602382,-0.50443846,-0.03195068,0.00000000,0.00000000,-0.92584687,1.11166406,-0.01793831,-0.56911767,-0.11239249,0.00000000,0.00000000
-2.49345565,-0.48438901,-0.08964963,-0.50561541,-0.04060920,0.00000000,0.00000000,-0.92500299,1.11006141,-0.01604382,-0.56895691,-0.11165131,0.00000000,0.00000000
-2.49250937,-0.48561698,-0.09255648,-0.50611037,-0.05133682,0.00000000,0.00000000,-0.92404950,1.10856175,-0.01495735,-0.56873417,-0.11133736,0.00000000,0.00000000
-2.49165845,-0.48592791,-0.09481018,-0.50594705,-0.06180049,0.00000000,0.00000000,-0.92295659,1.10705817,-0.01443441,-0.56849176,-0.11167598,0.00000000,0.00000000
-2.49084711,-0.48560649,-0.09665803,-0.50534302,-0.06982097,0.00000000,0.00000000,-0.92176104,1.10547960,-0.01414627,-0.56821859,-0.11271372,0.00000000,0.00000000
-2.49003124,-0.48489878,-0.09835839,-0.50454766,-0.07254158,0.00000000,0.00000000,-0.92053485,1.10388339,-0.01387691,-0.56787837,-0.11651775,0.00000000,0.00000000
-2.48920774,-0.48396721,-0.10001801,-0.50372231,-0.07692450,0.00000000,0.00000000,-0.91930509,1.10229349,-0.01359469,-0.56744778,-0.11637767,0.00000000,0.00000000
-2.48839211,-0.48290288,-0.10159049,-0.50291634,-0.07616558,0.00000000,0.00000000,-0.91804826,1.10067236,-0.01338743,-0.56689537,-0.11432654,0.00000000,0.00000000
-2.48758411,-0.48181000,-0.10294147,-0.50216138,-0.07507913,0.00000000,0.00000000,-0.91672891,1.09891176,-0.01339941,-0.56626886,-0.11070207,0.00000000,0.00000000
-2.48677921,-0.48074770,-0.10391270,-0.50143832,-0.07269280,0.00000000,0.00000000,-0.91531730,1.09688973,-0.01379946,-0.56567484,-0.11052117,0.00000000,0.00000000
-2.48595476,-0.47964159,-0.10438917,-0.50064504,-0.07393136,0.00000000,0.00000000,-0.91381168,1.09460115,-0.01472600,-0.56519026,-0.10977304,0.00000000,0.00000000
-2.48506498,-0.47845364,-0.10438271,-0.49971730,-0.06885494,0.00000000,0.00000000,-0.91224390,1.09217930,-0.01624423,-0.56480712,-0.10266975,0.00000000,0.00000000
-2.48404074,-0.47734880,-0.10407952,-0.49872139,-0.06784066,0.00000000,0.00000000,-0.91066021,1.08979166,-0.01826688,-0.56444579,-0.09698987,0.00000000,0.00000000
-2.48279285,-0.47653082,-0.10375175,-0.49776736,-0.07083788,0.00000000,0.00000000,-0.90910596,1.08750641,-0.02054091,-0.56404972,-0.09336708,0.00000000,0.00000000
-2.48123980,-0.47608358,-0.10371228,-0.49693376,-0.07187621,0.00000000,0.00000000,-0.90762460,1.08532882,-0.02272133,-0.56362164,-0.09025495,0.00000000,0.00000000
-2.47930455,-0.47608587,-0.10423329,-0.49629799,-0.07137949,0.00000000,0.00000000,-0.90623754,1.08310854,-0.02443374,-0.56322384,-0.09057219,0.00000000,0.00000000
-2.47690654,-0.47651798,-0.10550784,-0.49586606,-0.07225192,0.00000000,0.00000000,-0.90499097,1.08077848,-0.02541851,-0.56283712,-0.09177456,0.00000000,0.00000000
-2.47398877,-0.47727844,-0.10765494,-0.49560571,-0.07310618,0.00000000,0.00000000,-0.90392113,1.07847238,-0.02557177,-0.56236547,-0.09017029,0.00000000,0.00000000
-2.47054625,-0.47829682,-0.11071073,-0.49552336,-0.06983762,0.00000000,0.00000000,-0.90301412,1.07634163,-0.02490973,-0.56176412,-0.09895895,0.00000000,0.00000000
-2.46663094,-0.47949946,-0.11456394,-0.49559465,-0.06618162,0.00000000,0.00000000,-0.90221781,1.07435679,-0.02356379,-0.56110156,-0.10879392,0.00000000,0.00000000
-2.46231794,-0.48069948,-0.11897388,-0.49568155,-0.06953554,0.00000000,0.00000000,-0.90145731,1.07245946,-0.02176133,-0.56047273,-0.10898020,0.00000000,0.00000000
-2.45767403,-0.48170120,-0.12368777,-0.49563715,-0.07223389,0.00000000,0.00000000,-0.90068752,1.07068598,-0.01979561,-0.55991882,-0.10052491,0.00000000,0.00000000
-2.45275283,-0.48238072,-0.12846325,-0.49536386,-0.07848868,0.00000000,0.00000000,-0.89988130,1.06912065,-0.01799665,-0.55945981,-0.09947293,0.00000000,0.00000000
-2.44761109,-0.48274684,-0.13309157,-0.49484590,-0.08435257,0.00000000,0.00000000,-0.89899778,1.06780279,-0.01665919,-0.55912715,-0.09492195,0.00000000,0.00000000
-2.44231462,-0.48292625,-0.13742957,-0.49414971,-0.08547664,0.00000000,0.00000000,-0.89800394,1.06672955,-0.01603641,-0.55896294,-0.08837973,0.00000000,0.00000000
-2.43691874,-0.48308787,-0.14141044,-0.49337679,-0.08984385,0.00000000,0.00000000,-0.89686519,1.06588292,-0.01629429,-0.55901611,-0.08051006,0.00000000,0.00000000
-2.43142462,-0.48339844,-0.14507884,-0.49263984,-0.09501529,0.00000000,0.00000000,-0.89554429,1.06524706,-0.01740149,-0.55926925,-0.07685545,0.00000000,0.00000000
-2.42577291,-0.48394021,-0.14852089,-0.49198875,-0.10254431,0.00000000,0.00000000,-0.89403260,1.06484556,-0.01922030,-0.55964583,-0.07239511,0.00000000,0.00000000
-2.41989017,-0.48468804,-0.15180635,-0.49138924,-0.10680542,0.00000000,0.00000000,-0.89235455,1.06472313,-0.02162345,-0.56005687,-0.06966665,0.00000000,0.00000000
-2.41372561,-0.48554349,-0.15500535,-0.49080321,-0.11068170,0.00000000,0.00000000,-0.89052069,1.06488597,-0.02444399,-0.56041527,-0.07482000,0.00000000,0.00000000
-2.40725780,-0.48639506,-0.15817676,-0.49022773,-0.11204301,0.00000000,0.00000000,-0.88851416,1.06522751,-0.02749537,-0.56072593,-0.07766941,0.00000000,0.00000000
-2.40047216,-0.48717090,-0.16137469,-0.48965406,-0.11121956,0.00000000,0.00000000,-0.88632345,1.06559670,-0.03062959,-0.56104988,-0.08220415,0.00000000,0.00000000
-2.39334941,-0.48785520,-0.16464512,-0.48906249,-0.11538725,0.00000000,0.00000000,-0.88395035,1.06591523,-0.03376362,-0.56139499,-0.08765788,0.00000000,0.00000000
-2.38587189,-0.48840389,-0.16800626,-0.48842508,-0.11907939,0.00000000,0.00000000,-0.88140440,1.06618512,-0.03686658,-0.56171483,-0.09475334,0.00000000,0.00000000
-2.37799954,-0.48871678,-0.17147744,-0.48772088,-0.12215982,0.00000000,0.00000000,-0.87870312,1.06640804,-0.03986855,-0.56198341,-0.09979971,0.00000000,0.00000000
-2.36967921,-0.48874402,-0.17505082,-0.48695388,-0.12949313,0.00000000,0.00000000,-0.87586510,1.06652296,-0.04271500,-0.56224257,-0.10319832,0.00000000,0.00000000
-2.36086440,-0.48853055,-0.17866822,-0.48611778,-0.14099795,0.00000000,0.00000000,-0.87289864,1.06646967,-0.04543870,-0.56254834,-0.10950544,0.00000000,0.00000000
-2.35152102,-0.48809886,-0.18224859,-0.48516002,-0.16071309,0.00000000,0.00000000,-0.86980766,1.06626606,-0.04813280,-0.56292057,-0.11471518,0.00000000,0.00000000
-2.34162092,-0.48743170,-0.18570507,-0.48398802,-0.18021846,0.00000000,0.00000000,-0.86660045,1.06599879,-0.05092599,-0.56336117,-0.12223479,0.00000000,0.00000000
-2.33112764,-0.48654208,-0.18898454,-0.48251587,-0.20051855,0.00000000,0.00000000,-0.86328739,1.06576681,-0.05391588,-0.56385958,-0.12863845,0.00000000,0.00000000
-2.31997609,-0.48556638,-0.19207712,-0.48071420,-0.21567608,0.00000000,0.00000000,-0.85986984,1.06553447,-0.05710559,-0.56441700,-0.14051248,0.00000000,0.00000000
-2.30806565,-0.48467925,-0.19500971,-0.47858766,-0.23396516,0.00000000,0.00000000,-0.85636634,1.06522357,-0.06045510,-0.56503427,-0.15804812,0.00000000,0.00000000
-2.29527831,-0.48396197,-0.19781253,-0.47610816,-0.24919924,0.00000000,0.00000000,-0.85282636,1.06488037,-0.06396061,-0.56567425,-0.17422050,0.00000000,0.00000000
-2.28149056,-0.48343804,-0.20051472,-0.47321555,-0.25918165,0.00000000,0.00000000,-0.84929675,1.06461740,-0.06762418,-0.56628054,-0.19131441,0.00000000,0.00000000
-2.26658010,-0.48315591,-0.20316060,-0.46986449,-0.26836950,0.00000000,0.00000000,-0.84578115,1.06445825,-0.07136986,-0.56684989,-0.20774883,0.00000000,0.00000000
-2.25040388,-0.48320708,-0.20580079,-0.46604130,-0.27842101,0.00000000,0.00000000,-0.84223443,1.06432867,-0.07502297,-0.56743973,-0.22199136,0.00000000,0.00000000
-2.23278809,-0.48369730,-0.20849918,-0.46173081,-0.28836897,0.00000000,0.00000000,-0.83861840,1.06416988,-0.07838263,-0.56807077,-0.23486444,0.00000000,0.00000000
-2.21357560,-0.48472339,-0.21129605,-0.45688596,-0.29709792,0.00000000,0.00000000,-0.83492178,1.06394219,-0.08133400,-0.56876940,-0.24843815,0.00000000,0.00000000
-2.19264698,-0.48641345,-0.21417522,-0.45143679,-0.31095839,0.00000000,0.00000000,-0.83111900,1.06359041,-0.08384755,-0.56959045,-0.26031670,0.00000000,0.00000000
-2.16988516,-0.48885462,-0.21709977,-0.44528511,-0.32405281,0.00000000,0.00000000,-0.82717919,1.06320107,-0.08593027,-0.57051057,-0.27459136,0.00000000,0.00000000
-2.14515972,-0.49198604,-0.22001041,-0.43827310,-0.33659226,0.00000000,0.00000000,-0.82309401,1.06302285,-0.08760976,-0.57142955,-0.29427472,0.00000000,0.00000000
-2.11833811,-0.49576032,-0.22281493,-0.43020558,-0.35018852,0.00000000,0.00000000,-0.81886244,1.06322217,-0.08892392,-0.57229608,-0.31632537,0.00000000,0.00000000
-2.08930445,-0.50027007,-0.22543401,-0.42093089,-0.36529839,0.00000000,0.00000000,-0.81446725,1.06381726,-0.08990244,-0.57310927,-0.33719242,0.00000000,0.00000000
-2.05796909,-0.50568640,-0.22781579,-0.41037861,-0.37227532,0.00000000,0.00000000,-0.80985743,1.06482720,-0.09056588,-0.57386011,-0.35918388,0.00000000,0.00000000
-2.02425551,-0.51218426,-0.22994395,-0.39850968,-0.37748897,0.00000000,0.00000000,-0.80499703,1.06630576,-0.09095178,-0.57449704,-0.38199195,0.00000000,0.00000000
-1.98809302,-0.51982343,-0.23187597,-0.38523990,-0.38521159,0.00000000,0.00000000,-0.79988486,1.06834710,-0.09108321,-0.57495546,-0.40620425,0.00000000,0.00000000
-1.94942153,-0.52868700,-0.23372988,-0.37053975,-0.39013442,0.00000000,0.00000000,-0.79450399,1.07091701,-0.09092657,-0.57528329,-0.42724749,0.00000000,0.00000000
-1.90820086,-0.53883010,-0.23565002,-0.35443595,-0.38917816,0.00000000,0.00000000,-0.78878385,1.07395256,-0.09036879,-0.57554448,-0.45132375,0.00000000,0.00000000
-1.86441815,-0.55024058,-0.23780960,-0.33699659,-0.39499944,0.00000000,0.00000000,-0.78263021,1.07739282,-0.08925134,-0.57578456,-0.47202179,0.00000000,0.00000000
-1.81810462,-0.56289023,-0.24036424,-0.31833419,-0.39965305,0.00000000,0.00000000,-0.77599728,1.08120155,-0.08752528,-0.57598740,-0.48914364,0.00000000,0.00000000
-1.76933062,-0.57666492,-0.24344274,-0.29857472,-0.40363273,0.00000000,0.00000000,-0.76887035,1.08535278,-0.08520708,-0.57614446,-0.51067567,0.00000000,0.00000000
-1.71819866,-0.59136862,-0.24713968,-0.27783942,-0.41157883,0.00000000,0.00000000,-0.76118445,1.08980024,-0.08226628,-0.57632262,-0.52858227,0.00000000,0.00000000
-1.66484582,-0.60680908,-0.25150117,-0.25623116,-0.41771334,0.00000000,0.00000000,-0.75278968,1.09454381,-0.07862712,-0.57658684,-0.54769355,0.00000000,0.00000000
-1.60943675,-0.62293893,-0.25651470,-0.23387869,-0.42412984,0.00000000,0.00000000,-0.74347144,1.09950376,-0.07420298,-0.57698739,-0.56371880,0.00000000,0.00000000
-1.55215263,-0.63988155,-0.26211062,-0.21098094,-0.43077922,0.00000000,0.00000000,-0.73298848,1.10451198,-0.06897680,-0.57760769,-0.58457756,0.00000000,0.00000000
-1.49319410,-0.65771967,-0.26819271,-0.18771297,-0.43428549,0.00000000,0.00000000,-0.72114348,1.10951257,-0.06306376,-0.57849503,-0.60661519,0.00000000,0.00000000
-1.43278015,-0.67650896,-0.27464995,-0.16420053,-0.43198773,0.00000000,0.00000000,-0.70777690,1.11465478,-0.05667683,-0.57957542,-0.62843728,0.00000000,0.00000000
-1.37113857,-0.69643855,-0.28136837,-0.14061223,-0.43069568,0.00000000,0.00000000,-0.69267946,1.12029696,-0.05000577,-0.58065099,-0.65597403,0.00000000,0.00000000
-1.30849683,-0.71802348,-0.28824824,-0.11727808,-0.42379335,0.00000000,0.00000000,-0.67559183,1.12679315,-0.04321235,-0.58155483,-0.68614167,0.00000000,0.00000000
-1.24507892,-0.74222457,-0.29521796,-0.09477694,-0.41283923,0.00000000,0.00000000,-0.65625399,1.13428223,-0.03649714,-0.58221906,-0.71915299,0.00000000,0.00000000
-1.18110871,-0.77038771,-0.30223846,-0.07395072,-0.39977652,0.00000000,0.00000000,-0.63440889,1.14296627,-0.03015017,-0.58244640,-0.74880022,0.00000000,0.00000000
-1.11681533,-0.80409461,-0.30930904,-0.05583876,-0.38778046,0.00000000,0.00000000,-0.60975164,1.15338993,-0.02449862,-0.58169097,-0.77985680,0.00000000,0.00000000
-1.05243587,-0.84480345,-0.31646281,-0.04152481,-0.37860474,0.00000000,0.00000000,-0.58190536,1.16637051,-0.01969455,-0.57908028,-0.81107950,0.00000000,0.00000000
-0.98820168,-0.89352262,-0.32374719,-0.03200084,-0.37443569,0.00000000,0.00000000,-0.55040473,1.18294442,-0.01547831,-0.57339001,-0.83741647,0.00000000,0.00000000
-0.92431146,-0.95074850,-0.33120465,-0.02806820,-0.36730975,0.00000000,0.00000000,-0.51476657,1.20424223,-0.01105849,-0.56310374,-0.86481875,0.00000000,0.00000000
-0.86092973,-1.01691139,-0.33885589,-0.03045642,-0.35991067,0.00000000,0.00000000,-0.47469652,1.23145843,-0.00526086,-0.54657775,-0.89269048,0.00000000,0.00000000
-0.79817921,-1.09297585,-0.34668136,-0.04000113,-0.35370994,0.00000000,0.00000000,-0.43027431,1.26548326,0.00308509,-0.52247620,-0.91909188,0.00000000,0.00000000
-0.73612338,-1.17971349,-0.35461190,-0.05719284,-0.34834158,0.00000000,0.00000000,-0.38199082,1.30620444,0.01474121,-0.49027115,-0.94168490,0.00000000,0.00000000
-0.67500663,-1.27560544,-0.36256436,-0.08140028,-0.34117016,0.00000000,0.00000000,-0.33076862,1.35235143,0.03017540,-0.45040384,-0.96474963,0.00000000,0.00000000
-0.61530012,-1.37747598,-0.37046987,-0.11117745,-0.33075199,0.00000000,0.00000000,-0.27784994,1.40216088,0.04958347,-0.40396062,-0.98301971,0.00000000,0.00000000
-0.55751526,-1.48174024,-0.37828046,-0.14474081,-0.31568769,0.00000000,0.00000000,-0.22463085,1.45381427,0.07285615,-0.35239947,-0.99688995,0.00000000,0.00000000
-0.50217783,-1.58529913,-0.38597506,-0.18045521,-0.30245477,0.00000000,0.00000000,-0.17246807,1.50568116,0.09959842,-0.29732728,-1.00781548,0.00000000,0.00000000
-0.45026490,-1.68562460,-0.39362311,-0.21703890,-0.28774279,0.00000000,0.00000000,-0.12255071,1.55649781,0.12920064,-0.24026911,-1.01799703,0.00000000,0.00000000
-0.40321702,-1.78049564,-0.40141433,-0.25350752,-0.28081754,0.00000000,0.00000000,-0.07602494,1.60552144,0.16097803,-0.18248332,-1.02903402,0.00000000,0.00000000
-0.36243013,-1.86822748,-0.40959108,-0.28925821,-0.27729106,0.00000000,0.00000000,-0.03413109,1.65255857,0.19424523,-0.12490292,-1.04291797,0.00000000,0.00000000
-0.32905892,-1.94751692,-0.41841418,-0.32389307,-0.27337784,0.00000000,0.00000000,0.00182331,1.69770706,0.22830985,-0.06826586,-1.05944455,0.00000000,0.00000000
-0.30412999,-2.01658893,-0.42821008,-0.35669479,-0.26972118,0.00000000,0.00000000,0.03054569,1.74078381,0.26246601,-0.01348277,-1.07240665,0.00000000,0.00000000
-0.28741330,-2.07389307,-0.43907288,-0.38666716,-0.27382985,0.00000000,0.00000000,0.05105249,1.78139532,0.29601255,0.03843274,-1.08795834,0.00000000,0.00000000
-0.27668649,-2.11850476,-0.45060420,-0.41245326,-0.27444914,0.00000000,0.00000000,0.06301519,1.81933486,0.32830933,0.08672020,-1.11151576,0.00000000,0.00000000
-0.26937550,-2.14933920,-0.46226141,-0.43227875,-0.27763116,0.00000000,0.00000000,0.06699696,1.85404563,0.35885727,0.13069178,-1.14085364,0.00000000,0.00000000
-0.26354519,-2.16557169,-0.47357199,-0.44450718,-0.28152621,0.00000000,0.00000000,0.06448586,1.88461161,0.38736784,0.16978733,-1.16825604,0.00000000,0.00000000
-0.25811553,-2.16971350,-0.48424166,-0.44792506,-0.27998072,0.00000000,0.00000000,0.05759369,1.90975809,0.41378590,0.20357938,-1.19724631,0.00000000,0.00000000
-0.25278726,-2.16997123,-0.49412188,-0.44208395,-0.28104457,0.00000000,0.00000000,0.04889717,1.92847514,0.43825966,0.23207204,-1.22343314,0.00000000,0.00000000
-0.24714962,-2.16946650,-0.50288230,-0.42768711,-0.29016840,0.00000000,0.00000000,0.04148734,1.94097650,0.46107805,0.25610033,-1.25238144,0.00000000,0.00000000
-0.24052846,-2.16654420,-0.51006138,-0.40627301,-0.29954681,0.00000000,0.00000000,0.03854378,1.94762278,0.48263308,0.27651444,-1.28091073,0.00000000,0.00000000
-0.23227990,-2.15916324,-0.51523900,-0.37991413,-0.30566174,0.00000000,0.00000000,0.04266763,1.94860446,0.50331241,0.29380050,-1.30482316,0.00000000,0.00000000
-0.22189529,-2.14905024,-0.51813507,-0.35090539,-0.31198984,0.00000000,0.00000000,0.05506350,1.94471514,0.52328843,0.30830419,-1.33049572,0.00000000,0.00000000
-0.20894475,-2.13889837,-0.51864445,-0.32129738,-0.31859520,0.00000000,0.00000000,0.07527638,1.93753111,0.54241389,0.32033044,-1.35140359,0.00000000,0.00000000
-0.19305338,-2.13048434,-0.51681769,-0.29259253,-0.33060330,0.00000000,0.00000000,0.10143891,1.92909050,0.56024587,0.33010510,-1.36814606,0.00000000,0.00000000
-0.17406593,-2.12467146,-0.51283836,-0.26573467,-0.34933788,0.00000000,0.00000000,0.13049921,1.92167163,0.57607710,0.33772349,-1.38712525,0.00000000,0.00000000
-0.15248455,-2.12185931,-0.50699842,-0.24141395,-0.36753213,0.00000000,0.00000000,0.15865111,1.91804695,0.58898318,0.34337109,-1.40714693,0.00000000,0.00000000
-0.13018201,-2.12218547,-0.49973086,-0.22035754,-0.38296732,0.00000000,0.00000000,0.18244721,1.92072332,0.59812343,0.34720790,-1.42146719,0.00000000,0.00000000
-0.11015403,-2.12534499,-0.49155778,-0.20321999,-0.39535782,0.00000000,0.00000000,0.20021194,1.92983043,0.60326326,0.34869224,-1.43306291,0.00000000,0.00000000
-0.09504291,-2.13066220,-0.48290521,-0.19029696,-0.40666303,0.00000000,0.00000000,0.21198244,1.94266081,0.60484147,0.34665287,-1.44914591,0.00000000,0.00000000
-0.08602137,-2.13726282,-0.47399884,-0.18140703,-0.42400861,0.00000000,0.00000000,0.21858038,1.95661664,0.60346305,0.34102052,-1.46161914,0.00000000,0.00000000
-0.08293352,-2.14437866,-0.46490100,-0.17619437,-0.43885982,0.00000000,0.00000000,0.22162604,1.97198129,0.59957343,0.33402282,-1.47166634,0.00000000,0.00000000
-0.08514188,-2.15148425,-0.45560268,-0.17437540,-0.45049575,0.00000000,0.00000000,0.22359701,1.98935151,0.59373063,0.32779479,-1.48530579,0.00000000,0.00000000
-0.09211986,-2.15815496,-0.44608650,-0.17572059,-0.45992011,0.00000000,0.00000000,0.22590384,2.00687289,0.58651960,0.32219037,-1.50176179,0.00000000,0.00000000
-0.10358340,-2.16380453,-0.43635595,-0.17997068,-0.46955004,0.00000000,0.00000000,0.22925390,2.02232480,0.57839191,0.31641346,-1.51487565,0.00000000,0.00000000
-0.11927032,-2.16773510,-0.42642304,-0.18685406,-0.48211050,0.00000000,0.00000000,0.23382725,2.03507185,0.56953192,0.31025666,-1.53262568,0.00000000,0.00000000
-0.13846029,-2.16956830,-0.41625947,-0.19593100,-0.48737246,0.00000000,0.00000000,0.23898081,2.04587293,0.55983996,0.30400392,-1.55144787,0.00000000,0.00000000
-0.15969911,-2.16997623,-0.40576029,-0.20648682,-0.49148223,0.00000000,0.00000000,0.24375187,2.05577326,0.54911596,0.29812658,-1.57271588,0.00000000,0.00000000
-0.18133885,-2.17000008,-0.39478096,-0.21778856,-0.49852896,0.00000000,0.00000000,0.24761552,2.06542277,0.53723955,0.29313985,-1.59079707,0.00000000,0.00000000
-0.20193823,-2.17000008,-0.38314283,-0.22959867,-0.50127262,0.00000000,0.00000000,0.25041345,2.07545757,0.52414829,0.28969523,-1.61197507,0.00000000,0.00000000
-0.21996686,-2.17000008,-0.37058392,-0.24217232,-0.50377321,0.00000000,0.00000000,0.25209981,2.08652115,0.50983661,0.28842455,-1.63156641,0.00000000,0.00000000
-0.23394004,-2.17000008,-0.35682479,-0.25564137,-0.50045902,0.00000000,0.00000000,0.25260180,2.09896374,0.49438846,0.28968260,-1.64961338,0.00000000,0.00000000
-0.24314156,-2.17000008,-0.34172526,-0.26955971,-0.49858934,0.00000000,0.00000000,0.25185111,2.11269975,0.47798631,0.29345042,-1.66979015,0.00000000,0.00000000
-0.24785480,-2.17000008,-0.32532695,-0.28313947,-0.50071073,0.00000000,0.00000000,0.25009865,2.12733221,0.46092203,0.29953545,-1.69290161,0.00000000,0.00000000
-0.24923865,-2.17000008,-0.30785272,-0.29546344,-0.50513381,0.00000000,0.00000000,0.24805620,2.14221597,0.44359192,0.30777049,-1.71256232,0.00000000,0.00000000
-0.24873863,-2.17000008,-0.28963900,-0.30524367,-0.50602257,0.00000000,0.00000000,0.24644829,2.15601683,0.42645264,0.31774116,-1.72655928,0.00000000,0.00000000
-0.24833305,-2.17000008,-0.27119404,-0.31101990,-0.50305468,0.00000000,0.00000000,0.24555501,2.16580677,0.41001287,0.32815832,-1.73719287,0.00000000,0.00000000
-0.25040996,-2.17000008,-0.25308004,-0.31294590,-0.50300127,0.00000000,0.00000000,0.24536173,2.16941977,0.39485011,0.33671364,-1.74529886,0.00000000,0.00000000
-0.25356358,-2.17000008,-0.23499650,-0.31325814,-0.49938896,0.00000000,0.00000000,0.24581091,2.16997337,0.38148513,0.34101528,-1.75462031,0.00000000,0.00000000
-0.25552484,-2.17000008,-0.21659015,-0.31188700,-0.49167517,0.00000000,0.00000000,0.24668495,2.17000008,0.37013793,0.33998805,-1.76160610,0.00000000,0.00000000
-0.25686732,-2.17000008,-0.19807702,-0.30800650,-0.48373690,0.00000000,0.00000000,0.24753176,2.17000008,0.36072892,0.33391213,-1.76913679,0.00000000,0.00000000
-0.25819561,-2.17000008,-0.17963056,-0.30114546,-0.47764358,0.00000000,0.00000000,0.24792045,2.17000008,0.35306719,0.32362416,-1.77904534,0.00000000,0.00000000
-0.25929135,-2.17000008,-0.16122991,-0.29109612,-0.47538987,0.00000000,0.00000000,0.24763533,2.17000008,0.34696752,0.31005660,-1.78847265,0.00000000,0.00000000
-0.25957832,-2.17000008,-0.14277479,-0.27781019,-0.46973786,0.00000000,0.00000000,0.24639566,2.17000008,0.34221938,0.29410571,-1.80105627,0.00000000,0.00000000
-0.25835156,-2.17000008,-0.12413841,-0.26136029,-0.45474437,0.00000000,0.00000000,0.24374253,2.17000008,0.33858699,0.27657387,-1.81437159,0.00000000,0.00000000
-0.25473264,-2.17000008,-0.10516212,-0.24204862,-0.43369356,0.00000000,0.00000000,0.23907942,2.17000008,0.33583334,0.25817192,-1.82581162,0.00000000,0.00000000
-0.24793150,-2.17000008,-0.08570627,-0.22050351,-0.41974977,0.00000000,0.00000000,0.23181874,2.16997671,0.33374119,0.23960724,-1.83939505,0.00000000,0.00000000
-0.23752853,-2.17000008,-0.06570707,-0.19768175,-0.40759569,0.00000000,0.00000000,0.22160116,2.16960168,0.33214557,0.22162245,-1.85858321,0.00000000,0.00000000
-0.22312722,-2.17000008,-0.04513180,-0.17487817,-0.40285435,0.00000000,0.00000000,0.20848471,2.16816998,0.33097243,0.20490687,-1.87962294,0.00000000,0.00000000
-0.20430960,-2.17000008,-0.02397183,-0.15348032,-0.39976060,0.00000000,0.00000000,0.19281706,2.16577005,0.33021948,0.18997723,-1.90301466,0.00000000,0.00000000
-0.18129617,-2.17000008,-0.00230800,-0.13464938,-0.39692417,0.00000000,0.00000000,0.17516452,2.16305447,0.32993039,0.17717043,-1.93060219,0.00000000,0.00000000
-0.15529871,-2.17000008,0.01968282,-0.11917479,-0.39400148,0.00000000,0.00000000,0.15626211,2.16066265,0.33017159,0.16671826,-1.95632541,0.00000000,0.00000000
-0.12800232,-2.17000008,0.04180936,-0.10738339,-0.39291069,0.00000000,0.00000000,0.13682534,2.15903234,0.33101004,0.15875161,-1.98160994,0.00000000,0.00000000
-0.10110215,-2.17000008,0.06391383,-0.09911521,-0.39071798,0.00000000,0.00000000,0.11737824,2.15845776,0.33249751,0.15334310,-2.01080656,0.00000000,0.00000000
-0.07619981,-2.17000008,0.08586998,-0.09377729,-0.38977942,0.00000000,0.00000000,0.09821337,2.15913057,0.33466619,0.15053773,-2.03789520,0.00000000,0.00000000
-0.05471699,-2.17000008,0.10758584,-0.09040663,-0.39303890,0.00000000,0.00000000,0.07953764,2.16094494,0.33754227,0.15026505,-2.06320143,0.00000000,0.00000000
-0.03774235,-2.17000008,0.12900785,-0.08789445,-0.40369514,0.00000000,0.00000000,0.06150260,2.16349769,0.34115195,0.15235099,-2.08645201,0.00000000,0.00000000
-0.02594315,-2.17000008,0.15012521,-0.08527793,-0.40809783,0.00000000,0.00000000,0.04421948,2.16621137,0.34552255,0.15658534,-2.10976744,0.00000000,0.00000000
-0.01951302,-2.17000008,0.17097230,-0.08210124,-0.41091239,0.00000000,0.00000000,0.02781051,2.16844511,0.35068762,0.16278140,-2.13755512,0.00000000,0.00000000
-0.01816660,-2.16999316,0.19162537,-0.07859290,-0.41441196,0.00000000,0.00000000,0.01252099,2.16967535,0.35670570,0.17075174,-2.16449499,0.00000000,0.00000000
-0.02110539,-2.16989851,0.21220250,-0.07536461,-0.41889447,0.00000000,0.00000000,-0.00128011,2.16998148,0.36367121,0.18014465,-2.19098139,0.00000000,0.00000000
-0.02706443,-2.16972136,0.23285446,-0.07327337,-0.42429423,0.00000000,0.00000000,-0.01322085,2.17000008,0.37169793,0.19041683,-2.21689749,0.00000000,0.00000000
-0.03471775,-2.16980791,0.25373450,-0.07313032,-0.43161938,0.00000000,0.00000000,-0.02313903,2.17000008,0.38086748,0.20095167,-2.24347281,0.00000000,0.00000000
-0.04301494,-2.16993833,0.27498406,-0.07527645,-0.43536887,0.00000000,0.00000000,-0.03107655,2.17000008,0.39121160,0.21115640,-2.26598310,0.00000000,0.00000000
-0.05108467,-2.16970968,0.29673728,-0.07989828,-0.43760207,0.00000000,0.00000000,-0.03722535,2.17000008,0.40269947,0.22070205,-2.28475857,0.00000000,0.00000000
-0.05812967,-2.16858959,0.31912720,-0.08741123,-0.43938008,0.00000000,0.00000000,-0.04225009,2.16999984,0.41514650,0.22963533,-2.30740285,0.00000000,0.00000000
-0.06347226,-2.16628480,0.34229222,-0.09828127,-0.44784302,0.00000000,0.00000000,-0.04730481,2.16996670,0.42821121,0.23819183,-2.32976961,0.00000000,0.00000000
-0.06647319,-2.16270947,0.36638847,-0.11301062,-0.45288545,0.00000000,0.00000000,-0.05363689,2.16948462,0.44149247,0.24665426,-2.35389662,0.00000000,0.00000000
-0.06647408,-2.15805626,0.39159626,-0.13239290,-0.45980182,0.00000000,0.00000000,-0.06237404,2.16797614,0.45456842,0.25546825,-2.37532449,0.00000000,0.00000000
-0.06305206,-2.15233922,0.41811389,-0.15719071,-0.46856910,0.00000000,0.00000000,-0.07439064,2.16642118,0.46704596,0.26512495,-2.39672327,0.00000000,0.00000000
-0.05647656,-2.14433479,0.44615421,-0.18728295,-0.48287302,0.00000000,0.00000000,-0.08996700,2.16573024,0.47867489,0.27597442,-2.41952419,0.00000000,0.00000000
-0.04763522,-2.13190198,0.47593644,-0.22184557,-0.49776378,0.00000000,0.00000000,-0.10870004,2.16580153,0.48938477,0.28819171,-2.43738818,0.00000000,0.00000000
-0.03714339,-2.11484122,0.50762141,-0.26120755,-0.50852340,0.00000000,0.00000000,-0.13000271,2.16651344,0.49912143,0.30210710,-2.45371819,0.00000000,0.00000000
-0.02653561,-2.09319949,0.54122674,-0.30561641,-0.52117497,0.00000000,0.00000000,-0.15327488,2.16795516,0.50781024,0.31813020,-2.46767187,0.00000000,0.00000000
-0.01791979,-2.06657434,0.57667476,-0.35489523,-0.54153597,0.00000000,0.00000000,-0.17821589,2.16934419,0.51539642,0.33601683,-2.47912216,0.00000000,0.00000000
-0.01334399,-2.03468585,0.61382192,-0.40891302,-0.56073368,0.00000000,0.00000000,-0.20522705,2.16990662,0.52175182,0.35495046,-2.48693538,0.00000000,0.00000000
-0.01466301,-1.99738193,0.65247768,-0.46762419,-0.58072591,0.00000000,0.00000000,-0.23475158,2.16999578,0.52678752,0.37404215,-2.48723173,0.00000000,0.00000000
-0.02373243,-1.95416367,0.69243318,-0.53073716,-0.60409611,0.00000000,0.00000000,-0.26678360,2.17000008,0.53054857,0.39251894,-2.48737764,0.00000000,0.00000000
-0.04219998,-1.90515184,0.73334545,-0.59827238,-0.62526745,0.00000000,0.00000000,-0.30108985,2.17000008,0.53301162,0.41031983,-2.48841023,0.00000000,0.00000000
-0.07120559,-1.85147786,0.77472246,-0.67086422,-0.63994831,0.00000000,0.00000000,-0.33748904,2.17000008,0.53396690,0.42824724,-2.48796272,0.00000000,0.00000000
-0.11149468,-1.79312646,0.81637859,-0.74863589,-0.64799887,0.00000000,0.00000000,-0.37581503,2.17000008,0.53340131,0.44625762,-2.48614097,0.00000000,0.00000000
-0.16369110,-1.72849953,0.85857654,-0.83083117,-0.65972966,0.00000000,0.00000000,-0.41560084,2.17000008,0.53165591,0.46330279,-2.48798966,0.00000000,0.00000000
-0.22828111,-1.65530825,0.90193152,-0.91612649,-0.67073107,0.00000000,0.00000000,-0.45607722,2.17000008,0.52924567,0.47818071,-2.48655343,0.00000000,0.00000000
-0.30574781,-1.57020187,0.94755268,-1.00205076,-0.68030214,0.00000000,0.00000000,-0.49625561,2.17000008,0.52693695,0.48911139,-2.47599936,0.00000000,0.00000000
-0.39648494,-1.46954417,0.99677372,-1.08500707,-0.68419945,0.00000000,0.00000000,-0.53475153,2.17000008,0.52566093,0.49430710,-2.46775055,0.00000000,0.00000000
-0.50046378,-1.35114098,1.05047596,-1.16116691,-0.68493021,0.00000000,0.00000000,-0.57035369,2.17000008,0.52607208,0.49288428,-2.45964432,0.00000000,0.00000000
-0.61700267,-1.21514857,1.10858786,-1.22726238,-0.69380945,0.00000000,0.00000000,-0.60270798,2.17000008,0.52825624,0.48499668,-2.45567942,0.00000000,0.00000000
-0.74445879,-1.06373608,1.17020154,-1.28088093,-0.70475870,0.00000000,0.00000000,-0.63199461,2.17000008,0.53192824,0.47148818,-2.44883776,0.00000000,0.00000000
-0.88011497,-0.90036935,1.23390317,-1.32040226,-0.71973890,0.00000000,0.00000000,-0.65866041,2.17000008,0.53663248,0.45352572,-2.44474983,0.00000000,0.00000000
-1.02039301,-0.72927302,1.29796684,-1.34484804,-0.73795635,0.00000000,0.00000000,-0.68329048,2.17000008,0.54185629,0.43241340,-2.43967581,0.00000000,0.00000000
-1.16123831,-0.55513239,1.36042070,-1.35379589,-0.75211275,0.00000000,0.00000000,-0.70651221,2.17000008,0.54713267,0.40936038,-2.43475103,0.00000000,0.00000000
-1.29860747,-0.38293263,1.41903520,-1.34741092,-0.76764482,0.00000000,0.00000000,-0.72859997,2.17000008,0.55218911,0.38539374,-2.42956829,0.00000000,0.00000000
-1.42865133,-0.21746418,1.47163534,-1.32647157,-0.78287745,0.00000000,0.00000000,-0.74964565,2.17000008,0.55685109,0.36148989,-2.42447805,0.00000000,0.00000000
-1.54800940,-0.06305865,1.51630199,-1.29230344,-0.79766607,0.00000000,0.00000000,-0.76937115,2.16996145,0.56108099,0.33852392,-2.42067122,0.00000000,0.00000000
-1.65410209,0.07662274,1.55153131,-1.24671507,-0.81439352,0.00000000,0.00000000,-0.78718841,2.16932654,0.56497818,0.31710526,-2.42256594,0.00000000,0.00000000
-1.74532092,0.19888732,1.57644570,-1.19195020,-0.83307791,0.00000000,0.00000000,-0.80245304,2.16670632,0.56871700,0.29750007,-2.42022991,0.00000000,0.00000000
-1.82122779,0.30237463,1.59099734,-1.13071430,-0.84728390,0.00000000,0.00000000,-0.81458920,2.16147566,0.57249355,0.27971354,-2.42154884,0.00000000,0.00000000
-1.88264406,0.38739070,1.59609628,-1.06607509,-0.86424661,0.00000000,0.00000000,-0.82315886,2.15373087,0.57646328,0.26373076,-2.41724181,0.00000000,0.00000000
-1.93146145,0.45579630,1.59342504,-1.00105059,-0.88200152,0.00000000,0.00000000,-0.82784039,2.14401031,0.58071470,0.24971345,-2.41273689,0.00000000,0.00000000
-1.97013998,0.51029766,1.58491313,-0.93808919,-0.89811099,0.00000000,0.00000000,-0.82839996,2.13314152,0.58528352,0.23798190,-2.41112351,0.00000000,0.00000000
-2.00126052,0.55358529,1.57220948,-0.87889874,-0.90311855,0.00000000,0.00000000,-0.82472318,2.12186861,0.59018028,0.22881755,-2.40647602,0.00000000,0.00000000
-2.02721310,0.58791149,1.55650997,-0.82454145,-0.90557528,0.00000000,0.00000000,-0.81692797,2.11064053,0.59539509,0.22230557,-2.40148258,0.00000000,0.00000000
-2.04981613,0.61512363,1.53871644,-0.77547383,-0.90821189,0.00000000,0.00000000,-0.80539745,2.09975696,0.60088390,0.21838561,-2.39408422,0.00000000,0.00000000
-2.07037330,0.63666779,1.51950562,-0.73176754,-0.91295880,0.00000000,0.00000000,-0.79069179,2.08933783,0.60658437,0.21685639,-2.38685513,0.00000000,0.00000000
-2.08978343,0.65391362,1.49949896,-0.69328439,-0.91782528,0.00000000,0.00000000,-0.77351594,2.07957697,0.61240655,0.21747960,-2.38223696,0.00000000,0.00000000
-2.10841513,0.66823137,1.47929919,-0.65963328,-0.92552871,0.00000000,0.00000000,-0.75470859,2.07088804,0.61822397,0.22005293,-2.37959361,0.00000000,0.00000000
-2.12648439,0.68049848,1.45926690,-0.63036495,-0.92786640,0.00000000,0.00000000,-0.73515958,2.06328773,0.62391925,0.22417271,-2.38237476,0.00000000,0.00000000
-2.14414525,0.69157642,1.43973744,-0.60501701,-0.92997622,0.00000000,0.00000000,-0.71575338,2.05680156,0.62936360,0.22943512,-2.38839436,0.00000000,0.00000000
-2.16151023,0.70222932,1.42098904,-0.58314705,-0.92385113,0.00000000,0.00000000,-0.69733602,2.05140305,0.63442880,0.23540801,-2.39622951,0.00000000,0.00000000
-2.17857575,0.71295595,1.40317082,-0.56429487,-0.91921210,0.00000000,0.00000000,-0.68069297,2.04689407,0.63900375,0.24157411,-2.39957452,0.00000000,0.00000000
-2.19527245,0.72412604,1.38637996,-0.54800576,-0.91579819,0.00000000,0.00000000,-0.66643453,2.04308558,0.64299953,0.24747662,-2.40276027,0.00000000,0.00000000
-2.21155882,0.73588127,1.37064862,-0.53390998,-0.91412604,0.00000000,0.00000000,-0.65496856,2.03964376,0.64636713,0.25267431,-2.40490413,0.00000000,0.00000000
-2.22733712,0.74829227,1.35599697,-0.52166444,-0.90486693,0.00000000,0.00000000,-0.64657217,2.03618598,0.64908361,0.25675374,-2.41043353,0.00000000,0.00000000
-2.24236894,0.76122922,1.34238195,-0.51090068,-0.90003026,0.00000000,0.00000000,-0.64116490,2.03241611,0.65117174,0.25948161,-2.42799449,0.00000000,0.00000000
-2.25646162,0.77458030,1.32977021,-0.50130916,-0.89493215,0.00000000,0.00000000,-0.63837004,2.02834415,0.65267414,0.26089227,-2.44359088,0.00000000,0.00000000
-2.26967573,0.78802121,1.31807649,-0.49281383,-0.88767946,0.00000000,0.00000000,-0.63781232,2.02376437,0.65366447,0.26095122,-2.45976925,0.00000000,0.00000000
-2.28194404,0.80116069,1.30719912,-0.48528072,-0.87552977,0.00000000,0.00000000,-0.63929772,2.01846433,0.65420669,0.25961128,-2.47413826,0.00000000,0.00000000
-2.29291725,0.81408566,1.29717255,-0.47831833,-0.86242837,0.00000000,0.00000000,-0.64279968,2.01282597,0.65429848,0.25708497,-2.48852110,0.00000000,0.00000000
-2.30230594,0.82668322,1.28797388,-0.47162428,-0.84357446,0.00000000,0.00000000,-0.64805698,2.00721288,0.65397549,0.25367656,-2.49589920,0.00000000,0.00000000
-2.30996156,0.83829403,1.27942967,-0.46510229,-0.82133663,0.00000000,0.00000000,-0.65445900,2.00162983,0.65335262,0.24964565,-2.50200963,0.00000000,0.00000000
-2.31589961,0.84820598,1.27136385,-0.45879272,-0.80909085,0.00000000,0.00000000,-0.66133457,1.99595988,0.65256441,0.24521051,-2.50943947,0.00000000,0.00000000
-2.32005429,0.85632777,1.26376665,-0.45258892,-0.79879546,0.00000000,0.00000000,-0.66814721,1.99062753,0.65168041,0.24079336,-2.51571774,0.00000000,0.00000000
-2.32242131,0.86266404,1.25665236,-0.44644266,-0.78949511,0.00000000,0.00000000,-0.67442393,1.98605704,0.65075988,0.23678757,-2.52120328,0.00000000,0.00000000
-2.32343125,0.86725646,1.25006270,-0.44063058,-0.77519011,0.00000000,0.00000000,-0.67975533,1.98235118,0.64987409,0.23342453,-2.52169347,0.00000000,0.00000000
-2.32346511,0.87021494,1.24405336,-0.43539682,-0.75419587,0.00000000,0.00000000,-0.68398619,1.97951460,0.64906317,0.23079707,-2.52162552,0.00000000,0.00000000
-2.32224393,0.87134063,1.23856604,-0.43060312,-0.72950149,0.00000000,0.00000000,-0.68746269,1.97721148,0.64833009,0.22861259,-2.52354074,0.00000000,0.00000000
-2.31959701,0.87043417,1.23356307,-0.42617506,-0.70508045,0.00000000,0.00000000,-0.69046772,1.97506249,0.64768571,0.22658154,-2.52197003,0.00000000,0.00000000
-2.31628847,0.86827618,1.22933245,-0.42245081,-0.67978835,0.00000000,0.00000000,-0.69250906,1.97363770,0.64715314,0.22521283,-2.52586842,0.00000000,0.00000000
-2.31243277,0.86472911,1.22589076,-0.41952056,-0.65023834,0.00000000,0.00000000,-0.69347006,1.97273755,0.64676893,0.22447425,-2.52787352,0.00000000,0.00000000
-2.30883026,0.86115706,1.22369623,-0.41758677,-0.61819929,0.00000000,0.00000000,-0.69335431,1.97300315,0.64648384,0.22469723,-2.53196692,0.00000000,0.00000000
-2.30515480,0.85718411,1.22266412,-0.41651413,-0.59411371,0.00000000,0.00000000,-0.69194633,1.97424734,0.64633638,0.22588402,-2.53727150,0.00000000,0.00000000
-2.30093908,0.85213029,1.22260571,-0.41613242,-0.57833278,0.00000000,0.00000000,-0.68914074,1.97604609,0.64636564,0.22786760,-2.54334259,0.00000000,0.00000000
-2.29717708,0.84719360,1.22391415,-0.41678140,-0.56950140,0.00000000,0.00000000,-0.68560326,1.97845674,0.64647639,0.23040654,-2.54404640,0.00000000,0.00000000
-2.29411101,0.84270161,1.22668588,-0.41852248,-0.55582309,0.00000000,0.00000000,-0.68171489,1.98132944,0.64662087,0.23326677,-2.54645634,0.00000000,0.00000000
-2.29139709,0.83828980,1.23077023,-0.42121285,-0.53955197,0.00000000,0.00000000,-0.67765582,1.98434067,0.64678645,0.23620825,-2.54779744,0.00000000,0.00000000
-2.28878450,0.83378309,1.23607039,-0.42472580,-0.52175361,0.00000000,0.00000000,-0.67368686,1.98724782,0.64693969,0.23900804,-2.54826427,0.00000000,0.00000000
-2.28626680,0.82940048,1.24261463,-0.42900640,-0.50860071,0.00000000,0.00000000,-0.67013144,1.99002051,0.64702040,0.24152482,-2.54443240,0.00000000,0.00000000
-2.28375196,0.82533830,1.25041449,-0.43396556,-0.49629089,0.00000000,0.00000000,-0.66725218,1.99269068,0.64697462,0.24365270,-2.53517079,0.00000000,0.00000000
-2.28123403,0.82165217,1.25944591,-0.43960840,-0.49223879,0.00000000,0.00000000,-0.66517246,1.99523485,0.64677405,0.24530207,-2.52387905,0.00000000,0.00000000
-2.27877307,0.81822872,1.26964152,-0.44601980,-0.49366987,0.00000000,0.00000000,-0.66390592,1.99753988,0.64641362,0.24638990,-2.51362085,0.00000000,0.00000000
-2.27628016,0.81478411,1.28087473,-0.45322990,-0.49318737,0.00000000,0.00000000,-0.66342497,1.99944365,0.64590114,0.24683475,-2.49937820,0.00000000,0.00000000
-2.27363348,0.81119007,1.29305661,-0.46122524,-0.48847979,0.00000000,0.00000000,-0.66366774,2.00098515,0.64523387,0.24667457,-2.49101448,0.00000000,0.00000000
-2.27080107,0.80757141,1.30616891,-0.47001189,-0.48997173,0.00000000,0.00000000,-0.66457874,2.00241280,0.64439213,0.24605553,-2.48648047,0.00000000,0.00000000
-2.26769495,0.80361873,1.32006288,-0.47965002,-0.48863992,0.00000000,0.00000000,-0.66608101,2.00361228,0.64339274,0.24496348,-2.47555184,0.00000000,0.00000000
-2.26413321,0.79911488,1.33461511,-0.49013278,-0.49253035,0.00000000,0.00000000,-0.66812724,2.00458002,0.64224130,0.24342677,-2.46695185,0.00000000,0.00000000
-2.25995159,0.79400063,1.34975195,-0.50144553,-0.49826351,0.00000000,0.00000000,-0.67068446,2.00545430,0.64093089,0.24153459,-2.46176052,0.00000000,0.00000000
-2.25508237,0.78827983,1.36543083,-0.51362884,-0.50299621,0.00000000,0.00000000,-0.67367643,2.00643158,0.63945532,0.23942804,-2.45396614,0.00000000,0.00000000
-2.24941158,0.78197396,1.38161945,-0.52669102,-0.51377374,0.00000000,0.00000000,-0.67704028,2.00775695,0.63780051,0.23728447,-2.44731998,0.00000000,0.00000000
-2.24278712,0.77489054,1.39821315,-0.54066098,-0.52898562,0.00000000,0.00000000,-0.68072796,2.00949955,0.63596159,0.23521513,-2.44536710,0.00000000,0.00000000
-2.23501825,0.76691437,1.41513729,-0.55556017,-0.54567719,0.00000000,0.00000000,-0.68467081,2.01182389,0.63393009,0.23338284,-2.44158363,0.00000000,0.00000000
-2.22601032,0.75801635,1.43235958,-0.57149768,-0.55879706,0.00000000,0.00000000,-0.68876660,2.01492977,0.63170177,0.23196325,-2.43515921,0.00000000,0.00000000
-2.21579432,0.74803090,1.44981253,-0.58871448,-0.57164747,0.00000000,0.00000000,-0.69287890,2.01885200,0.62928736,0.23106508,-2.42669249,0.00000000,0.00000000
-2.20440817,0.73684317,1.46745360,-0.60749543,-0.58008981,0.00000000,0.00000000,-0.69687074,2.02366734,0.62668794,0.23083527,-2.41672301,0.00000000,0.00000000
-2.19180846,0.72413731,1.48515213,-0.62813288,-0.58780432,0.00000000,0.00000000,-0.70064509,2.02930212,0.62390637,0.23133931,-2.41015458,0.00000000,0.00000000
-2.17780828,0.70948565,1.50272834,-0.65086436,-0.59778798,0.00000000,0.00000000,-0.70411128,2.03566289,0.62094188,0.23262697,-2.40347028,0.00000000,0.00000000
-2.16215801,0.69269150,1.52010691,-0.67590946,-0.61178398,0.00000000,0.00000000,-0.70709437,2.04294062,0.61777687,0.23491654,-2.39605594,0.00000000,0.00000000
-2.14456844,0.67386800,1.53737688,-0.70352232,-0.62345588,0.00000000,0.00000000,-0.70932788,2.05164647,0.61437333,0.23861080,-2.39168620,0.00000000,0.00000000
-2.12479496,0.65278852,1.55447280,-0.73408324,-0.64114803,0.00000000,0.00000000,-0.71053278,2.06202221,0.61070943,0.24397571,-2.38389826,0.00000000,0.00000000
-2.10268927,0.62867755,1.57103646,-0.76812983,-0.66154248,0.00000000,0.00000000,-0.71059209,2.07377148,0.60677743,0.25093749,-2.38475966,0.00000000,0.00000000
-2.07788777,0.60093331,1.58678699,-0.80614269,-0.68112528,0.00000000,0.00000000,-0.70970327,2.08673358,0.60250723,0.25936148,-2.38350630,0.00000000,0.00000000
-2.04970217,0.56891942,1.60142124,-0.84844106,-0.70045334,0.00000000,0.00000000,-0.70827901,2.10082173,0.59778190,0.26908815,-2.38121390,0.00000000,0.00000000
-2.01716280,0.53156984,1.61438644,-0.89514500,-0.70818353,0.00000000,0.00000000,-0.70673120,2.11576772,0.59248853,0.27990720,-2.38525009,0.00000000,0.00000000
-1.97899556,0.48728830,1.62481833,-0.94605500,-0.71172965,0.00000000,0.00000000,-0.70526636,2.13109303,0.58655542,0.29161403,-2.39891744,0.00000000,0.00000000
-1.93363953,0.43369853,1.63136363,-1.00046849,-0.71899265,0.00000000,0.00000000,-0.70380515,2.14577746,0.58000839,0.30385450,-2.41207480,0.00000000,0.00000000
-1.87941504,0.36775622,1.63217354,-1.05706716,-0.72943366,0.00000000,0.00000000,-0.70183903,2.15816498,0.57301885,0.31610015,-2.42259169,0.00000000,0.00000000
-1.81475520,0.28637475,1.62522328,-1.11387503,-0.74375767,0.00000000,0.00000000,-0.69841212,2.16629291,0.56589454,0.32777277,-2.43614197,0.00000000,0.00000000
-1.73847604,0.18707342,1.60867214,-1.16827893,-0.75554967,0.00000000,0.00000000,-0.69225669,2.16941929,0.55904216,0.33830759,-2.45159936,0.00000000,0.00000000
-1.65026641,0.06873015,1.58131850,-1.21751833,-0.75902826,0.00000000,0.00000000,-0.68187189,2.16997099,0.55292082,0.34730631,-2.46993279,0.00000000,0.00000000
-1.55074942,-0.06800801,1.54287219,-1.25901914,-0.75507641,0.00000000,0.00000000,-0.66602451,2.17000008,0.54790264,0.35462177,-2.48511720,0.00000000,0.00000000
-1.44138670,-0.22080399,1.49393046,-1.29048562,-0.74781370,0.00000000,0.00000000,-0.64409584,2.17000008,0.54417586,0.36033672,-2.50086188,0.00000000,0.00000000
-1.32454026,-0.38603261,1.43578494,-1.30997157,-0.74872369,0.00000000,0.00000000,-0.61598539,2.17000008,0.54181767,0.36437964,-2.52176309,0.00000000,0.00000000
-1.20338118,-0.55910146,1.37026620,-1.31595075,-0.75114554,0.00000000,0.00000000,-0.58200079,2.17000008,0.54082572,0.36650193,-2.53715396,0.00000000,0.00000000
-1.08163369,-0.73475087,1.29960048,-1.30737758,-0.75332189,0.00000000,0.00000000,-0.54294437,2.17000008,0.54108691,0.36634585,-2.54786825,0.00000000,0.00000000
-0.96330380,-0.90748101,1.22614288,-1.28378522,-0.75665826,0.00000000,0.00000000,-0.49956462,2.17000008,0.54243743,0.36370462,-2.55749321,0.00000000,0.00000000
-0.85225075,-1.07193732,1.15218401,-1.24531424,-0.76009941,0.00000000,0.00000000,-0.45273411,2.17000008,0.54462069,0.35851675,-2.56203485,0.00000000,0.00000000
-0.75168532,-1.22324598,1.07983863,-1.19274843,-0.75752747,0.00000000,0.00000000,-0.40344921,2.16990352,0.54726261,0.35107732,-2.56314874,0.00000000,0.00000000
-0.66374129,-1.35741973,1.01093233,-1.12759137,-0.75493830,0.00000000,0.00000000,-0.35214469,2.16833901,0.55000079,0.34234899,-2.56566811,0.00000000,0.00000000
-0.58917254,-1.47187042,0.94686389,-1.05218709,-0.75100690,0.00000000,0.00000000,-0.29909119,2.16220784,0.55252826,0.33325595,-2.56508756,0.00000000,0.00000000
-0.52790660,-1.56639767,0.88802201,-0.96980166,-0.74535567,0.00000000,0.00000000,-0.24545151,2.15141010,0.55447412,0.32407245,-2.56310391,0.00000000,0.00000000
-0.48026434,-1.64368260,0.83325571,-0.88406932,-0.73707122,0.00000000,0.00000000,-0.19341013,2.13832021,0.55531669,0.31483018,-2.56788993,0.00000000,0.00000000
-0.44629940,-1.70757985,0.78103864,-0.79827905,-0.72950369,0.00000000,0.00000000,-0.14495622,2.12529659,0.55465811,0.30545980,-2.57243371,0.00000000,0.00000000
-0.42517805,-1.76169968,0.73038363,-0.71510535,-0.72237349,0.00000000,0.00000000,-0.10139377,2.11384606,0.55235630,0.29572773,-2.57793474,0.00000000,0.00000000
-0.41522908,-1.80894017,0.68095237,-0.63663328,-0.71484423,0.00000000,0.00000000,-0.06307627,2.10445189,0.54857039,0.28531489,-2.58427167,0.00000000,0.00000000
-0.41411039,-1.85152411,0.63288718,-0.56448835,-0.71471936,0.00000000,0.00000000,-0.02987209,2.09705210,0.54360378,0.27395076,-2.59007406,0.00000000,0.00000000
-0.41950643,-1.89096701,0.58654237,-0.49954662,-0.71493340,0.00000000,0.00000000,-0.00142311,2.09158969,0.53777027,0.26158166,-2.59143138,0.00000000,0.00000000
-0.42905471,-1.92696726,0.54255044,-0.44118330,-0.71203321,0.00000000,0.00000000,0.02281838,2.08829021,0.53134841,0.24845204,-2.59707403,0.00000000,0.00000000
-0.43827051,-1.95690191,0.50215781,-0.38779047,-0.71263647,0.00000000,0.00000000,0.04330020,2.08743095,0.52458960,0.23491092,-2.60177255,0.00000000,0.00000000
-0.44374546,-1.97974944,0.46587464,-0.33871439,-0.70995420,0.00000000,0.00000000,0.06039607,2.08906102,0.51775265,0.22127855,-2.60969353,0.00000000,0.00000000
-0.44459817,-1.99752951,0.43330446,-0.29516119,-0.70996177,0.00000000,0.00000000,0.07436823,2.09250307,0.51110619,0.20752135,-2.61168265,0.00000000,0.00000000
-0.44162232,-2.01273847,0.40380523,-0.25816843,-0.71273416,0.00000000,0.00000000,0.08567274,2.09702110,0.50489777,0.19366270,-2.61859894,0.00000000,0.00000000
-0.43538687,-2.02573395,0.37699664,-0.22725025,-0.71378136,0.00000000,0.00000000,0.09512035,2.10239387,0.49933997,0.18010578,-2.62712860,0.00000000,0.00000000
-0.42667362,-2.03684306,0.35248095,-0.20172039,-0.72140753,0.00000000,0.00000000,0.10378786,2.10863495,0.49462187,0.16742681,-2.63522363,0.00000000,0.00000000
-0.41625646,-2.04694200,0.32986164,-0.18117547,-0.73156977,0.00000000,0.00000000,0.11257099,2.11568069,0.49088115,0.15607424,-2.63705516,0.00000000,0.00000000
-0.40452003,-2.05698514,0.30884403,-0.16534325,-0.73747110,0.00000000,0.00000000,0.12212760,2.12338567,0.48820838,0.14639118,-2.63762283,0.00000000,0.00000000
-0.39157465,-2.06785107,0.28921363,-0.15402062,-0.74719054,0.00000000,0.00000000,0.13302000,2.13157201,0.48666930,0.13870974,-2.64091730,0.00000000,0.00000000
-0.37745225,-2.08007312,0.27080873,-0.14693545,-0.75561565,0.00000000,0.00000000,0.14556047,2.13997722,0.48629802,0.13324822,-2.64338541,0.00000000,0.00000000
-0.36236170,-2.09375310,0.25348496,-0.14369053,-0.76615089,0.00000000,0.00000000,0.15995955,2.14827657,0.48711333,0.13017552,-2.64611816,0.00000000,0.00000000
-0.34676069,-2.10850239,0.23709805,-0.14373229,-0.78119123,0.00000000,0.00000000,0.17632294,2.15603828,0.48912340,0.12957807,-2.64274669,0.00000000,0.00000000
-0.33112171,-2.12364459,0.22151522,-0.14648922,-0.80508494,0.00000000,0.00000000,0.19463500,2.16262078,0.49232957,0.13134794,-2.64433098,0.00000000,0.00000000
-0.31574798,-2.13843560,0.20662008,-0.15152563,-0.82603180,0.00000000,0.00000000,0.21479133,2.16725516,0.49673286,0.13521139,-2.65026522,0.00000000,0.00000000
-0.30069470,-2.15182877,0.19231902,-0.15838894,-0.84327447,0.00000000,0.00000000,0.23639828,2.16946816,0.50232333,0.14066637,-2.65191317,0.00000000,0.00000000
-0.28581029,-2.16232967,0.17854300,-0.16647059,-0.86066943,0.00000000,0.00000000,0.25873035,2.16997051,0.50907224,0.14697163,-2.65771222,0.00000000,0.00000000
-0.27091101,-2.16834021,0.16522862,-0.17503756,-0.87797755,0.00000000,0.00000000,0.28089294,2.17000008,0.51693326,0.15335971,-2.66185999,0.00000000,0.00000000
-0.25611815,-2.16990328,0.15228121,-0.18315066,-0.89558411,0.00000000,0.00000000,0.30184022,2.17000008,0.52583075,0.15918285,-2.67049289,0.00000000,0.00000000
-0.24194413,-2.17000008,0.13956179,-0.18971905,-0.91178048,0.00000000,0.00000000,0.32038879,2.17000008,0.53565514,0.16390856,-2.67852569,0.00000000,0.00000000
-0.22926618,-2.17000008,0.12686984,-0.19387721,-0.93293047,0.00000000,0.00000000,0.33539617,2.16995764,0.54627198,0.16716795,-2.68361974,0.00000000,0.00000000
-0.21918234,-2.17000008,0.11394744,-0.19527966,-0.95064175,0.00000000,0.00000000,0.34574047,2.16927242,0.55752653,0.16868505,-2.68772125,0.00000000,0.00000000
-0.21260116,-2.17000008,0.10053891,-0.19412106,-0.96939331,0.00000000,0.00000000,0.35022208,2.16660857,0.56925511,0.16813682,-2.69729090,0.00000000,0.00000000
-0.21009812,-2.17000008,0.08642979,-0.19098471,-0.98705274,0.00000000,0.00000000,0.34760815,2.16189170,0.58128941,0.16525215,-2.71395564,0.00000000,0.00000000
-0.21157770,-2.17000008,0.07150584,-0.18658206,-1.00509894,0.00000000,0.00000000,0.33669168,2.15586448,0.59347087,0.15980397,-2.72439647,0.00000000,0.00000000
-0.21609753,-2.17000008,0.05577935,-0.18151937,-1.02333665,0.00000000,0.00000000,0.31647551,2.14932179,0.60566878,0.15164825,-2.73343587,0.00000000,0.00000000
-0.22264278,-2.17000008,0.03930386,-0.17596033,-1.03363609,0.00000000,0.00000000,0.28697261,2.14320612,0.61783648,0.14103080,-2.74053073,0.00000000,0.00000000
-0.23145935,-2.17000008,0.02203125,-0.16959524,-1.04651749,0.00000000,0.00000000,0.25046912,2.13854933,0.63008666,0.12899323,-2.74744773,0.00000000,0.00000000
-0.24385725,-2.17000008,0.00383236,-0.16207820,-1.05325961,0.00000000,0.00000000,0.21128225,2.13611150,0.64266652,0.11721009,-2.74819326,0.00000000,0.00000000
-0.25964567,-2.16997552,-0.01525889,-0.15346082,-1.05629849,0.00000000,0.00000000,0.17230989,2.13604140,0.65574980,0.10670451,-2.74719286,0.00000000,0.00000000
-0.27629921,-2.16959500,-0.03498759,-0.14434560,-1.06243014,0.00000000,0.00000000,0.13446687,2.13851833,0.66937834,0.09790155,-2.74752569,0.00000000,0.00000000
-0.29154110,-2.16830683,-0.05512693,-0.13581856,-1.06346428,0.00000000,0.00000000,0.10014639,2.14378119,0.68365037,0.09172661,-2.74485731,0.00000000,0.00000000
-0.30422050,-2.16666794,-0.07555180,-0.12902845,-1.06427026,0.00000000,0.00000000,0.06850996,2.14751220,0.69867003,0.08583797,-2.74216557,0.00000000,0.00000000
-0.31373498,-2.16553831,-0.09618406,-0.12457418,-1.05393839,0.00000000,0.00000000,0.03938153,2.14736485,0.71450013,0.07959235,-2.74315810,0.00000000,0.00000000
-0.31996003,-2.16544676,-0.11697689,-0.12278288,-1.04382181,0.00000000,0.00000000,0.01499839,2.14463282,0.73117596,0.07519973,-2.74449444,0.00000000,0.00000000
-0.32277706,-2.16647911,-0.13787296,-0.12384482,-1.03630900,0.00000000,0.00000000,-0.00247124,2.14048576,0.74872768,0.07471343,-2.74389458,0.00000000,0.00000000
-0.32189253,-2.16820908,-0.15878600,-0.12777337,-1.02666092,0.00000000,0.00000000,-0.01164109,2.13555384,0.76717484,0.07945167,-2.74504209,0.00000000,0.00000000
-0.31717002,-2.16957712,-0.17962986,-0.13411616,-1.01164734,0.00000000,0.00000000,-0.01195558,2.13039446,0.78650260,0.09021991,-2.75170207,0.00000000,0.00000000
-0.30862305,-2.16997480,-0.20033260,-0.14162366,-0.99713379,0.00000000,0.00000000,-0.00399903,2.12539983,0.80662674,0.10714377,-2.76033211,0.00000000,0.00000000
-0.29681602,-2.16998911,-0.22088604,-0.14825697,-0.97469455,0.00000000,0.00000000,0.01056400,2.12104917,0.82736403,0.12975687,-2.76837850,0.00000000,0.00000000
-0.28372771,-2.16973042,-0.24142349,-0.15221360,-0.94920135,0.00000000,0.00000000,0.02980836,2.11849117,0.84843510,0.15753902,-2.77607203,0.00000000,0.00000000
-0.27160916,-2.16774011,-0.26209232,-0.15331374,-0.92299420,0.00000000,0.00000000,0.05218314,2.11889219,0.86949122,0.18991156,-2.78755426,0.00000000,0.00000000
-0.26025432,-2.16191006,-0.28280061,-0.15268099,-0.89514464,0.00000000,0.00000000,0.07582586,2.12274981,0.89009041,0.22570598,-2.80094123,0.00000000,0.00000000
-0.24746116,-2.15347600,-0.30329245,-0.15141302,-0.86431414,0.00000000,0.00000000,0.09838966,2.12982559,0.90975600,0.26319751,-2.81216764,0.00000000,0.00000000
-0.23082706,-2.14434123,-0.32332110,-0.15020619,-0.83344078,0.00000000,0.00000000,0.11760947,2.13908625,0.92808455,0.30034778,-2.82095170,0.00000000,0.00000000
-0.20823973,-2.13627529,-0.34266493,-0.14975870,-0.80379176,0.00000000,0.00000000,0.13165765,2.14896512,0.94481510,0.33503026,-2.83271885,0.00000000,0.00000000
-0.17885092,-2.13089871,-0.36120722,-0.15084255,-0.77724081,0.00000000,0.00000000,0.13947263,2.15786791,0.95988518,0.36542559,-2.84271097,0.00000000,0.00000000
-0.14589001,-2.12789392,-0.37922829,-0.15393120,-0.75148767,0.00000000,0.00000000,0.14145760,2.16475010,0.97348547,0.39064744,-2.85665798,0.00000000,0.00000000
-0.11519843,-2.12555480,-0.39727449,-0.15922700,-0.72335333,0.00000000,0.00000000,0.13930362,2.16883326,0.98607117,0.41069588,-2.86594772,0.00000000,0.00000000
-0.08909827,-2.12383628,-0.41554528,-0.16693379,-0.69525915,0.00000000,0.00000000,0.13501260,2.16992402,0.99829596,0.42588130,-2.87979317,0.00000000,0.00000000
-0.06698439,-2.12307620,-0.43398014,-0.17662132,-0.66679955,0.00000000,0.00000000,0.13046004,2.16980863,1.01075244,0.43665257,-2.87979317,0.00000000,0.00000000
-0.04817815,-2.12325597,-0.45252049,-0.18763196,-0.63967657,0.00000000,0.00000000,0.12648076,2.16830325,1.02351320,0.44349295,-2.87979317,0.00000000,0.00000000
-0.03297783,-2.12415767,-0.47121018,-0.19963531,-0.61219543,0.00000000,0.00000000,0.12309321,2.16371417,1.03610814,0.44714534,-2.87979317,0.00000000,0.00000000
-0.02239810,-2.12467122,-0.49022967,-0.21219595,-0.58528912,0.00000000,0.00000000,0.12030132,2.15681052,1.04804003,0.44852611,-2.87979317,0.00000000,0.00000000
-0.01724082,-2.12359548,-0.50977772,-0.22490916,-0.55985343,0.00000000,0.00000000,0.11811077,2.14903998,1.05898547,0.44857731,-2.87979317,0.00000000,0.00000000
-0.01768920,-2.12012315,-0.52999204,-0.23748218,-0.53131509,0.00000000,0.00000000,0.11640450,2.14163518,1.06863153,0.44823506,-2.87979317,0.00000000,0.00000000
-0.02323344,-2.11338282,-0.55095369,-0.24932265,-0.50723481,0.00000000,0.00000000,0.11529797,2.13547635,1.07670844,0.44828445,-2.87979317,0.00000000,0.00000000
-0.03247082,-2.10218811,-0.57267439,-0.25909680,-0.48397654,0.00000000,0.00000000,0.11483195,2.13097692,1.08300710,0.44905108,-2.87979317,0.00000000,0.00000000
-0.04335603,-2.08551478,-0.59509015,-0.26497173,-0.46200684,0.00000000,0.00000000,0.11459398,2.12889910,1.08720374,0.45066607,-2.87979317,0.00000000,0.00000000
-0.05306312,-2.06367040,-0.61792201,-0.26553601,-0.44699004,0.00000000,0.00000000,0.11428820,2.12921786,1.08923948,0.45304665,-2.87979317,0.00000000,0.00000000
-0.05743344,-2.04150820,-0.64027631,-0.26159754,-0.43247777,0.00000000,0.00000000,0.11429685,2.13085628,1.08948457,0.45619556,-2.87979317,0.00000000,0.00000000
-0.05409582,-2.02491188,-0.66136485,-0.25567755,-0.41668981,0.00000000,0.00000000,0.11576721,2.13213730,1.08862686,0.46036196,-2.87979317,0.00000000,0.00000000
-0.04447553,-2.01428509,-0.68135870,-0.24960655,-0.40078700,0.00000000,0.00000000,0.11829843,2.13224649,1.08698916,0.46525079,-2.87979317,0.00000000,0.00000000
-0.03278404,-2.00786257,-0.70095152,-0.24561019,-0.38843417,0.00000000,0.00000000,0.12026512,2.13134813,1.08449924,0.47018746,-2.87979317,0.00000000,0.00000000
-0.02377333,-2.00728559,-0.72055894,-0.24743815,-0.37182292,0.00000000,0.00000000,0.12088522,2.12996554,1.08108592,0.47495055,-2.87979317,0.00000000,0.00000000
-0.02086553,-2.01188540,-0.74061340,-0.25646544,-0.35293499,0.00000000,0.00000000,0.11959483,2.12832761,1.07677317,0.47902715,-2.87979317,0.00000000,0.00000000
-0.02566205,-2.01849818,-0.76154751,-0.27153933,-0.33679795,0.00000000,0.00000000,0.11593556,2.12596178,1.07176292,0.48140237,-2.87979317,0.00000000,0.00000000
-0.03802755,-2.02418900,-0.78357852,-0.29063085,-0.31839168,0.00000000,0.00000000,0.10967141,2.12223959,1.06632650,0.48101532,-2.87979317,0.00000000,0.00000000
-0.05654478,-2.02827096,-0.80654258,-0.31216156,-0.29853678,0.00000000,0.00000000,0.10010474,2.11669302,1.06056476,0.47665367,-2.87979317,0.00000000,0.00000000
-0.07986192,-2.03196335,-0.83005625,-0.33558106,-0.28212920,0.00000000,0.00000000,0.08692170,2.10878301,1.05450273,0.46749678,-2.87979317,0.00000000,0.00000000
-0.10591062,-2.03562212,-0.85367852,-0.36005560,-0.26668960,0.00000000,0.00000000,0.07075712,2.09830546,1.04829562,0.45404440,-2.87979317,0.00000000,0.00000000
-0.13347508,-2.03970528,-0.87695134,-0.38542637,-0.24888766,0.00000000,0.00000000,0.05231458,2.08702707,1.04165018,0.43809241,-2.87979317,0.00000000,0.00000000
-0.16142641,-2.04513621,-0.89928830,-0.41181251,-0.24139254,0.00000000,0.00000000,0.03291408,2.07659483,1.03439379,0.42189285,-2.87979317,0.00000000,0.00000000
-0.18830761,-2.05246258,-0.92009479,-0.43885136,-0.23048414,0.00000000,0.00000000,0.01501666,2.06714129,1.02688789,0.40727326,-2.87979317,0.00000000,0.00000000
-0.21278875,-2.06171513,-0.93888354,-0.46576405,-0.22220650,0.00000000,0.00000000,0.00025897,2.05900097,1.01939607,0.39518812,-2.87979317,0.00000000,0.00000000
-0.23267458,-2.07260966,-0.95509291,-0.49101937,-0.21496367,0.00000000,0.00000000,-0.01146206,2.05311918,1.01186788,0.38572097,-2.87979317,0.00000000,0.00000000
-0.24571814,-2.08436561,-0.96827376,-0.51268989,-0.20975477,0.00000000,0.00000000,-0.02063322,2.04957080,1.00433075,0.37828749,-2.87979317,0.00000000,0.00000000
-0.25091138,-2.09601140,-0.97827250,-0.52929974,-0.20398317,0.00000000,0.00000000,-0.02666129,2.04856348,0.99682456,0.37276497,-2.87979317,0.00000000,0.00000000
-0.24791786,-2.10661149,-0.98510855,-0.53980231,-0.20008785,0.00000000,0.00000000,-0.02902115,2.05097961,0.98920399,0.36933821,-2.87979317,0.00000000,0.00000000
-0.23667745,-2.11538243,-0.98888218,-0.54350376,-0.19861710,0.00000000,0.00000000,-0.02779092,2.05756736,0.98129475,0.36809388,-2.87979317,0.00000000,0.00000000
-0.21743082,-2.12149906,-0.98982370,-0.54000032,-0.19898215,0.00000000,0.00000000,-0.02341991,2.06719708,0.97325784,0.36855310,-2.87979317,0.00000000,0.00000000
-0.19103613,-2.12442064,-0.98825061,-0.52945131,-0.19781661,0.00000000,0.00000000,-0.01665373,2.07692409,0.96557528,0.36987936,-2.87979317,0.00000000,0.00000000
-0.15874526,-2.12416935,-0.98444682,-0.51261246,-0.19598745,0.00000000,0.00000000,-0.00875864,2.08838654,0.95786262,0.37309992,-2.87979317,0.00000000,0.00000000
-0.12194125,-2.12159204,-0.97855586,-0.49083608,-0.19422171,0.00000000,0.00000000,0.00365562,2.09906602,0.95106262,0.37977991,-2.87979317,0.00000000,0.00000000
-0.08230586,-2.11740041,-0.97085607,-0.46575037,-0.19379619,0.00000000,0.00000000,0.02030112,2.10858274,0.94524956,0.38983291,-2.87979317,0.00000000,0.00000000
-0.04164375,-2.11134577,-0.96190608,-0.43874383,-0.19231549,0.00000000,0.00000000,0.03973010,2.11666012,0.94032609,0.40247139,-2.87979317,0.00000000,0.00000000
-0.00140823,-2.10355091,-0.95212930,-0.41119048,-0.18878672,0.00000000,0.00000000,0.06100782,2.12348223,0.93617719,0.41742858,-2.87979317,0.00000000,0.00000000
0.03712092,-2.09523106,-0.94168121,-0.38478616,-0.18345848,0.00000000,0.00000000,0.08303133,2.12995672,0.93254095,0.43445176,-2.87979317,0.00000000,0.00000000
0.07256705,-2.08732986,-0.93076813,-0.36101928,-0.17851338,0.00000000,0.00000000,0.10490867,2.13620925,0.92935348,0.45268852,-2.87979317,0.00000000,0.00000000
0.10346579,-2.08059382,-0.91961133,-0.34111896,-0.17584923,0.00000000,0.00000000,0.12550136,2.14231873,0.92648083,0.47080758,-2.87979317,0.00000000,0.00000000
0.12870738,-2.07556772,-0.90837467,-0.32584926,-0.17357314,0.00000000,0.00000000,0.14320247,2.14782357,0.92380172,0.48679855,-2.87979317,0.00000000,0.00000000
0.14760172,-2.07200241,-0.89725173,-0.31523409,-0.18109472,0.00000000,0.00000000,0.15745926,2.15157270,0.92152447,0.49864829,-2.87979317,0.00000000,0.00000000
0.15916438,-2.06955743,-0.88645959,-0.30926639,-0.18608359,0.00000000,0.00000000,0.16898134,2.15377283,0.91970563,0.50592685,-2.87979317,0.00000000,0.00000000
0.16202821,-2.06790686,-0.87625527,-0.30813426,-0.19749804,0.00000000,0.00000000,0.17759195,2.15508986,0.91801929,0.50880086,-2.87979317,0.00000000,0.00000000
0.15497383,-2.06631827,-0.86693573,-0.31194922,-0.20678844,0.00000000,0.00000000,0.18219101,2.15630078,0.91580975,0.50754136,-2.87979317,0.00000000,0.00000000
0.13846399,-2.06510806,-0.85842884,-0.32094431,-0.21619171,0.00000000,0.00000000,0.18182568,2.15786719,0.91241097,0.50265139,-2.87979317,0.00000000,0.00000000
0.11396141,-2.06547546,-0.85035986,-0.33568925,-0.22488077,0.00000000,0.00000000,0.17587544,2.15964055,0.90734869,0.49465141,-2.87979317,0.00000000,0.00000000
0.08319065,-2.06727433,-0.84243345,-0.35556439,-0.23869017,0.00000000,0.00000000,0.16403785,2.16167521,0.90021867,0.48411888,-2.87979317,0.00000000,0.00000000
0.04813112,-2.07057452,-0.83422500,-0.37902042,-0.25177383,0.00000000,0.00000000,0.14814791,2.16451025,0.89091802,0.47241697,-2.87979317,0.00000000,0.00000000
0.00945858,-2.07570362,-0.82542610,-0.40437618,-0.26150891,0.00000000,0.00000000,0.13267036,2.16755176,0.88005638,0.46126068,-2.87979317,0.00000000,0.00000000
-0.03239741,-2.08272839,-0.81581068,-0.42994905,-0.27115515,0.00000000,0.00000000,0.12000018,2.16946697,0.86814117,0.45113307,-2.87979317,0.00000000,0.00000000
-0.07492827,-2.09192109,-0.80478311,-0.45373762,-0.27727857,0.00000000,0.00000000,0.11015414,2.16996908,0.85524863,0.44182220,-2.87979317,0.00000000,0.00000000
-0.11478403,-2.10301781,-0.79167455,-0.47355658,-0.27621484,0.00000000,0.00000000,0.10195056,2.17000008,0.84123361,0.43283638,-2.87979317,0.00000000,0.00000000
-0.14912766,-2.11527109,-0.77598119,-0.48754677,-0.27769130,0.00000000,0.00000000,0.09392697,2.17000008,0.82593501,0.42358181,-2.87979317,0.00000000,0.00000000
-0.17599225,-2.12764025,-0.75745487,-0.49429488,-0.28074184,0.00000000,0.00000000,0.08496913,2.17000008,0.80930197,0.41334972,-2.87979317,0.00000000,0.00000000
-0.19405459,-2.13941455,-0.73598856,-0.49290314,-0.28251463,0.00000000,0.00000000,0.07483259,2.17000008,0.79135221,0.40194598,-2.87979317,0.00000000,0.00000000
-0.20279503,-2.14928985,-0.71185249,-0.48258129,-0.27979395,0.00000000,0.00000000,0.06494617,2.17000008,0.77237797,0.38998035,-2.87979317,0.00000000,0.00000000
-0.20396812,-2.15300918,-0.68639565,-0.46267661,-0.27721226,0.00000000,0.00000000,0.05799809,2.17000008,0.75302207,0.37826174,-2.87979317,0.00000000,0.00000000
-0.20153223,-2.14744806,-0.66113228,-0.43525684,-0.27605870,0.00000000,0.00000000,0.05581926,2.17000008,0.73401487,0.36672363,-2.87979317,0.00000000,0.00000000
-0.19862567,-2.13501287,-0.63632280,-0.40463975,-0.26906198,0.00000000,0.00000000,0.05849762,2.17000008,0.71570545,0.35483068,-2.87979317,0.00000000,0.00000000
-0.19813676,-2.11811566,-0.61219966,-0.37377918,-0.25674012,0.00000000,0.00000000,0.06531936,2.17000008,0.69809216,0.34227452,-2.87979317,0.00000000,0.00000000
-0.20165791,-2.09817600,-0.58895063,-0.34399331,-0.24677244,0.00000000,0.00000000,0.07503528,2.16995764,0.68097544,0.32896549,-2.87979317,0.00000000,0.00000000
-0.20981297,-2.07767749,-0.56646907,-0.31673256,-0.23580527,0.00000000,0.00000000,0.08627302,2.16927505,0.66406554,0.31555858,-2.87979317,0.00000000,0.00000000
-0.22240143,-2.06007838,-0.54442781,-0.29370207,-0.22498307,0.00000000,0.00000000,0.09830876,2.16664791,0.64717597,0.30375394,-2.87979317,0.00000000,0.00000000
-0.23835517,-2.04849005,-0.52241898,-0.27620861,-0.20893550,0.00000000,0.00000000,0.11091615,2.16237664,0.63034207,0.29532343,-2.87979317,0.00000000,0.00000000
-0.25637007,-2.04452205,-0.50015843,-0.26478276,-0.19290838,0.00000000,0.00000000,0.12375385,2.15846562,0.61370689,0.29134047,-2.87979317,0.00000000,0.00000000
-0.27490681,-2.04853511,-0.47746900,-0.25924543,-0.17787045,0.00000000,0.00000000,0.13637520,2.15703654,0.59744912,0.29212436,-2.87979317,0.00000000,0.00000000
-0.29186660,-2.05983782,-0.45421228,-0.25868121,-0.16430278,0.00000000,0.00000000,0.14850314,2.15854383,0.58186173,0.29681641,-2.87979317,0.00000000,0.00000000
-0.30477661,-2.07675385,-0.43029284,-0.26153517,-0.15603673,0.00000000,0.00000000,0.16010079,2.16156554,0.56732583,0.30347249,-2.87979317,0.00000000,0.00000000
-0.31202453,-2.09706426,-0.40577266,-0.26621214,-0.14052416,0.00000000,0.00000000,0.17109065,2.16459870,0.55407774,0.31010512,-2.87979317,0.00000000,0.00000000
-0.31370628,-2.11855245,-0.38093480,-0.27160627,-0.12086693,0.00000000,0.00000000,0.18101868,2.16710377,0.54205865,0.31525242,-2.87979317,0.00000000,0.00000000
-0.31133944,-2.13897800,-0.35623956,-0.27702823,-0.09575400,0.00000000,0.00000000,0.18932232,2.16894007,0.53109390,0.31760266,-2.87979317,0.00000000,0.00000000
-0.30672896,-2.15578794,-0.33217606,-0.28179389,-0.07032859,0.00000000,0.00000000,0.19577868,2.16980410,0.52117455,0.31536388,-2.87979317,0.00000000,0.00000000
-0.30124101,-2.16619587,-0.30914643,-0.28505984,-0.04191534,0.00000000,0.00000000,0.20060697,2.16997385,0.51247793,0.30654863,-2.87979317,0.00000000,0.00000000
-0.29571608,-2.16955137,-0.28743470,-0.28579205,-0.01858582,0.00000000,0.00000000,0.20580445,2.16975117,0.50541300,0.29065228,-2.87979317,0.00000000,0.00000000
-0.29048395,-2.16998196,-0.26719904,-0.28276464,0.00518731,0.00000000,0.00000000,0.21390465,2.16907668,0.50018233,0.27007559,-2.87979317,0.00000000,0.00000000
-0.28579664,-2.17000008,-0.24848373,-0.27523881,0.03363007,0.00000000,0.00000000,0.22207390,2.16820312,0.49583071,0.24808617,-2.87979317,0.00000000,0.00000000
-0.28217861,-2.17000008,-0.23125435,-0.26343644,0.06058868,0.00000000,0.00000000,0.22811756,2.16659236,0.49181321,0.22603035,-2.87979317,0.00000000,0.00000000
-0.28003138,-2.17000008,-0.21538740,-0.24820291,0.08008880,0.00000000,0.00000000,0.23201407,2.16417193,0.48809063,0.20459193,-2.87979317,0.00000000,0.00000000
-0.27927405,-2.17000008,-0.20065224,-0.23064981,0.09453403,0.00000000,0.00000000,0.23401387,2.16130710,0.48469499,0.18422298,-2.87979317,0.00000000,0.00000000
-0.27962250,-2.17000008,-0.18678856,-0.21192092,0.10762016,0.00000000,0.00000000,0.23465255,2.15845442,0.48169947,0.16536570,-2.87979317,0.00000000,0.00000000
-0.28069186,-2.17000008,-0.17355898,-0.19300300,0.11410639,0.00000000,0.00000000,0.23454584,2.15592837,0.47919428,0.14839318,-2.87979317,0.00000000,0.00000000
-0.28183046,-2.17000008,-0.16074628,-0.17463370,0.12044688,0.00000000,0.00000000,0.23389588,2.15377736,0.47723293,0.13342068,-2.87979317,0.00000000,0.00000000
-0.28243402,-2.17000008,-0.14818037,-0.15739839,0.12397932,0.00000000,0.00000000,0.23280537,2.15185356,0.47585574,0.12041458,-2.87979317,0.00000000,0.00000000
-0.28242818,-2.17000008,-0.13577165,-0.14179046,0.12666385,0.00000000,0.00000000,0.23161159,2.15007710,0.47510645,0.10938880,-2.87979317,0.00000000,0.00000000
-0.28210086,-2.16999936,-0.12347608,-0.12825836,0.13114369,0.00000000,0.00000000,0.23081891,2.14847255,0.47502467,0.10040057,-2.87979317,0.00000000,0.00000000
-0.28188929,-2.16998959,-0.11126866,-0.11714612,0.13250050,0.00000000,0.00000000,0.23091722,2.14706302,0.47564048,0.09347456,-2.87979317,0.00000000,0.00000000
-0.28228271,-2.16997075,-0.09913350,-0.10864533,0.13070007,0.00000000,0.00000000,0.23222664,2.14593339,0.47697228,0.08860959,-2.87979317,0.00000000,0.00000000
-0.28367132,-2.16997790,-0.08705094,-0.10279576,0.12546965,0.00000000,0.00000000,0.23484346,2.14515710,0.47902897,0.08572021,-2.87979317,0.00000000,0.00000000
-0.28631145,-2.16999435,-0.07499448,-0.09949465,0.11029444,0.00000000,0.00000000,0.23874851,2.14469194,0.48181865,0.08462870,-2.87979317,0.00000000,0.00000000
-0.29036656,-2.16999984,-0.06293328,-0.09854993,0.09007917,0.00000000,0.00000000,0.24386635,2.14454770,0.48534945,0.08521382,-2.87979317,0.00000000,0.00000000
-0.29584974,-2.17000008,-0.05082740,-0.09977721,0.07338955,0.00000000,0.00000000,0.25008535,2.14486074,0.48962924,0.08747391,-2.87979317,0.00000000,0.00000000
-0.30258238,-2.17000008,-0.03862422,-0.10301269,0.05288406,0.00000000,0.00000000,0.25724137,2.14573812,0.49466720,0.09141922,-2.87979317,0.00000000,0.00000000
-0.31028953,-2.17000008,-0.02626331,-0.10808443,0.03713051,0.00000000,0.00000000,0.26512468,2.14722157,0.50047213,0.09704877,-2.87979317,0.00000000,0.00000000
-0.31871626,-2.17000008,-0.01368299,-0.11478427,0.01533471,0.00000000,0.00000000,0.27346858,2.14931655,0.50704759,0.10436267,-2.87979317,0.00000000,0.00000000
-0.32763699,-2.17000008,-0.00082108,-0.12289144,-0.00666999,0.00000000,0.00000000,0.28193188,2.15200067,0.51438957,0.11334060,-2.87979317,0.00000000,0.00000000
-0.33687666,-2.17000008,0.01238277,-0.13218544,-0.03125969,0.00000000,0.00000000,0.29010814,2.15518832,0.52248716,0.12391321,-2.87979317,0.00000000,0.00000000
-0.34634849,-2.17000008,0.02598376,-0.14246783,-0.05267853,0.00000000,0.00000000,0.29757813,2.15867496,0.53132719,0.13593447,-2.87979317,0.00000000,0.00000000
-0.35603493,-2.17000008,0.04003695,-0.15359986,-0.07101554,0.00000000,0.00000000,0.30399531,2.16220403,0.54089749,0.14923109,-2.87979317,0.00000000,0.00000000
-0.36589488,-2.17000008,0.05460866,-0.16548309,-0.09141652,0.00000000,0.00000000,0.30905384,2.16544557,0.55118525,0.16360578,-2.87979317,0.00000000,0.00000000
-0.37582999,-2.17000008,0.06978367,-0.17800818,-0.11108644,0.00000000,0.00000000,0.31230816,2.16802549,0.56215638,0.17880182,-2.87979317,0.00000000,0.00000000
-0.38576314,-2.17000008,0.08566669,-0.19095531,-0.13416420,0.00000000,0.00000000,0.31308731,2.16955161,0.57374281,0.19445768,-2.87979317,0.00000000,0.00000000
-0.39559975,-2.17000008,0.10239249,-0.20399782,-0.15874016,0.00000000,0.00000000,0.31076840,2.16975069,0.58587432,0.21015818,-2.87979317,0.00000000,0.00000000
-0.40510398,-2.16994214,0.12014180,-0.21695147,-0.17993087,0.00000000,0.00000000,0.30496615,2.16855788,0.59849310,0.22561321,-2.87979317,0.00000000,0.00000000
-0.41399896,-2.16893458,0.13912481,-0.22988732,-0.20629081,0.00000000,0.00000000,0.29553202,2.16517138,0.61154944,0.24070878,-2.87979317,0.00000000,0.00000000
-0.42203081,-2.16411901,0.15956527,-0.24320929,-0.23039138,0.00000000,0.00000000,0.28251883,2.15924954,0.62498790,0.25548005,-2.87979317,0.00000000,0.00000000
-0.42881840,-2.15291047,0.18171135,-0.25773734,-0.26040989,0.00000000,0.00000000,0.26608026,2.15101194,0.63871902,0.27012223,-2.87979317,0.00000000,0.00000000
-0.43397778,-2.13534164,0.20582183,-0.27447602,-0.29155815,0.00000000,0.00000000,0.24625619,2.14087820,0.65259099,0.28488284,-2.87979317,0.00000000,0.00000000
-0.43711716,-2.11226058,0.23217802,-0.29441771,-0.31820336,0.00000000,0.00000000,0.22301553,2.12907887,0.66641873,0.29989755,-2.87979317,0.00000000,0.00000000
-0.43760887,-2.08457732,0.26111445,-0.31869459,-0.34190035,0.00000000,0.00000000,0.19636603,2.11564350,0.68000817,0.31518811,-2.87979317,0.00000000,0.00000000
-0.43484536,-2.05358601,0.29293993,-0.34872338,-0.36463556,0.00000000,0.00000000,0.16606516,2.10043716,0.69314212,0.33052474,-2.87979317,0.00000000,0.00000000
-0.42888224,-2.02020693,0.32783237,-0.38559604,-0.38437530,0.00000000,0.00000000,0.13121106,2.08294535,0.70555842,0.34510615,-2.87979317,0.00000000,0.00000000
-0.42045572,-1.98334980,0.36594078,-0.42807502,-0.40379152,0.00000000,0.00000000,0.09141285,2.06548953,0.71670771,0.35911077,-2.87979317,0.00000000,0.00000000
-0.41026995,-1.94347095,0.40727323,-0.47375673,-0.42078921,0.00000000,0.00000000,0.04731781,2.05370474,0.72574699,0.37333378,-2.87979317,0.00000000,0.00000000
-0.39963847,-1.90404558,0.45131907,-0.52313876,-0.43515155,0.00000000,0.00000000,-0.00358519,2.04523396,0.73241556,0.38312659,-2.87979317,0.00000000,0.00000000
-0.39043304,-1.86524200,0.49761045,-0.57554740,-0.45258939,0.00000000,0.00000000,-0.06150099,2.03979754,0.73659217,0.38716096,-2.87979317,0.00000000,0.00000000
-0.38462013,-1.82555091,0.54580176,-0.62935090,-0.46261165,0.00000000,0.00000000,-0.12446760,2.03966689,0.73819435,0.38692358,-2.87979317,0.00000000,0.00000000
-0.38352314,-1.78515553,0.59544724,-0.68503010,-0.47134030,0.00000000,0.00000000,-0.19098286,2.04569793,0.73727959,0.38329521,-2.87979317,0.00000000,0.00000000
-0.38846347,-1.74571800,0.64564234,-0.74649864,-0.47612244,0.00000000,0.00000000,-0.25993055,2.05630493,0.73421890,0.37603506,-2.87979317,0.00000000,0.00000000
-0.40115419,-1.70489979,0.69616908,-0.81576777,-0.47421792,0.00000000,0.00000000,-0.32913145,2.06935835,0.72967011,0.36521402,-2.87979317,0.00000000,0.00000000
-0.42217311,-1.65879977,0.74785620,-0.89197969,-0.46549779,0.00000000,0.00000000,-0.39554954,2.08434248,0.72421825,0.35260817,-2.87979317,0.00000000,0.00000000
-0.45331684,-1.60275519,0.80145115,-0.97185689,-0.46028101,0.00000000,0.00000000,-0.45581099,2.10269165,0.71823591,0.34222928,-2.87979317,0.00000000,0.00000000
-0.49686497,-1.53192484,0.85771906,-1.05094826,-0.45143962,0.00000000,0.00000000,-0.51089537,2.12268281,0.71181935,0.33488435,-2.87979317,0.00000000,0.00000000
-0.55427265,-1.44308293,0.91735953,-1.12505555,-0.44685867,0.00000000,0.00000000,-0.56215721,2.14110970,0.70519483,0.32943076,-2.87979317,0.00000000,0.00000000
-0.62577760,-1.33508909,0.98080641,-1.19075513,-0.43713406,0.00000000,0.00000000,-0.60930002,2.15584588,0.69869673,0.32528049,-2.87979317,0.00000000,0.00000000
-0.71056920,-1.20871603,1.04796302,-1.24546158,-0.42982835,0.00000000,0.00000000,-0.65214378,2.16532707,0.69256890,0.32198110,-2.87979317,0.00000000,0.00000000
-0.80703276,-1.06631517,1.11803639,-1.28731573,-0.42598882,0.00000000,0.00000000,-0.69089228,2.16920042,0.68698651,0.31899479,-2.87979317,0.00000000,0.00000000
-0.91285747,-0.91145366,1.18956077,-1.31505811,-0.42565811,0.00000000,0.00000000,-0.72568673,2.16995811,0.68211532,0.31588611,-2.87979317,0.00000000,0.00000000
-1.02506983,-0.74857301,1.26057911,-1.32800615,-0.42328203,0.00000000,0.00000000,-0.75643611,2.17000008,0.67812127,0.31244636,-2.87979317,0.00000000,0.00000000
-1.14018965,-0.58264333,1.32884967,-1.32607532,-0.41945562,0.00000000,0.00000000,-0.78288150,2.17000008,0.67514437,0.30870125,-2.87979317,0.00000000,0.00000000
-1.25454950,-0.41884875,1.39203489,-1.30981553,-0.42219251,0.00000000,0.00000000,-0.80474961,2.17000008,0.67329061,0.30476892,-2.87979317,0.00000000,0.00000000
-1.36468434,-0.26226205,1.44790888,-1.28042483,-0.42432594,0.00000000,0.00000000,-0.82175112,2.17000008,0.67265636,0.30075255,-2.87979317,0.00000000,0.00000000
-1.46765709,-0.11742305,1.49462199,-1.23968470,-0.43234491,0.00000000,0.00000000,-0.83366710,2.17000008,0.67331946,0.29669908,-2.87979317,0.00000000,0.00000000
-1.56136930,0.01206059,1.53091764,-1.18992186,-0.44121903,0.00000000,0.00000000,-0.84047914,2.17000008,0.67532307,0.29253411,-2.87979317,0.00000000,0.00000000
-1.64479363,0.12386250,1.55629408,-1.13391888,-0.44443598,0.00000000,0.00000000,-0.84225446,2.17000008,0.67867887,0.28812969,-2.87979317,0.00000000,0.00000000
-1.71801329,0.21721728,1.57110786,-1.07469296,-0.45173940,0.00000000,0.00000000,-0.83908421,2.16993642,0.68334323,0.28351066,-2.87979317,0.00000000,0.00000000
-1.78207839,0.29296550,1.57654178,-1.01522446,-0.46129739,0.00000000,0.00000000,-0.83113080,2.16888285,0.68918961,0.27897412,-2.87979317,0.00000000,0.00000000
-1.83860052,0.35326466,1.57437170,-0.95808297,-0.46965897,0.00000000,0.00000000,-0.81876945,2.16445303,0.69599152,0.27504882,-2.87979317,0.00000000,0.00000000
-1.88930726,0.40093330,1.56654072,-0.90513706,-0.47522083,0.00000000,0.00000000,-0.80266619,2.15574408,0.70345515,0.27227587,-2.87979317,0.00000000,0.00000000
-1.93571794,0.43883267,1.55480731,-0.85749912,-0.48702160,0.00000000,0.00000000,-0.78376395,2.14400578,0.71126592,0.27100340,-2.87979317,0.00000000,0.00000000
-1.97899568,0.46952051,1.54058242,-0.81564617,-0.49911746,0.00000000,0.00000000,-0.76311505,2.13083935,0.71912235,0.27137974,-2.87979317,0.00000000,0.00000000
-2.01991057,0.49510670,1.52490377,-0.77957016,-0.51177925,0.00000000,0.00000000,-0.74181604,2.11748290,0.72674781,0.27335265,-2.87979317,0.00000000,0.00000000
-2.05876780,0.51741171,1.50857925,-0.74885416,-0.52790052,0.00000000,0.00000000,-0.72099578,2.10504341,0.73386574,0.27678895,-2.87979317,0.00000000,0.00000000
-2.09552383,0.53793883,1.49220467,-0.72281456,-0.53962308,0.00000000,0.00000000,-0.70173895,2.09446049,0.74021262,0.28149951,-2.87979317,0.00000000,0.00000000
-2.12991333,0.55771375,1.47608078,-0.70061404,-0.55235118,0.00000000,0.00000000,-0.68524212,2.08600807,0.74557096,0.28694922,-2.87979317,0.00000000,0.00000000
-2.16149521,0.57753640,1.46034956,-0.68130827,-0.56133318,0.00000000,0.00000000,-0.67219311,2.07953334,0.74982983,0.29253229,-2.87979317,0.00000000,0.00000000
-2.18981361,0.59831411,1.44518614,-0.66397578,-0.57375216,0.00000000,0.00000000,-0.66218698,2.07511377,0.75299275,0.29790828,-2.87979317,0.00000000,0.00000000
-2.21453786,0.62100160,1.43080771,-0.64782423,-0.58717781,0.00000000,0.00000000,-0.65558326,2.07216048,0.75504529,0.30191767,-2.87979317,0.00000000,0.00000000
-2.23556709,0.64591777,1.41720223,-0.63229436,-0.59778231,0.00000000,0.00000000,-0.65233988,2.06962228,0.75610262,0.30364203,-2.87979317,0.00000000,0.00000000
-2.25300956,0.67249054,1.40403962,-0.61705393,-0.60792178,0.00000000,0.00000000,-0.65163016,2.06691098,0.75635874,0.30313450,-2.87979317,0.00000000,0.00000000
-2.26710773,0.69952267,1.39079642,-0.60187244,-0.62515736,0.00000000,0.00000000,-0.65258199,2.06369877,0.75600499,0.30080193,-2.87979317,0.00000000,0.00000000
-2.27827263,0.72568917,1.37696183,-0.58652955,-0.63901734,0.00000000,0.00000000,-0.65475935,2.05998468,0.75514495,0.29698718,-2.87979317,0.00000000,0.00000000
-2.28699636,0.75004333,1.36220765,-0.57076377,-0.65170300,0.00000000,0.00000000,-0.65790874,2.05663657,0.75376052,0.29232264,-2.87979317,0.00000000,0.00000000
-2.29369926,0.77165961,1.34627092,-0.55448508,-0.66569918,0.00000000,0.00000000,-0.66164100,2.05424237,0.75188571,0.28743508,-2.87979317,0.00000000,0.00000000
-2.29906821,0.78709215,1.32804179,-0.53817660,-0.67972821,0.00000000,0.00000000,-0.66640592,2.04983401,0.74986696,0.28116643,-2.87979317,0.00000000,0.00000000
-2.30289292,0.79682672,1.30770445,-0.52178997,-0.68699098,0.00000000,0.00000000,-0.67261946,2.04467201,0.74756444,0.27402055,-2.87979317,0.00000000,0.00000000
-2.30501842,0.80063987,1.28529084,-0.50556135,-0.69034475,0.00000000,0.00000000,-0.68047363,2.03812814,0.74506807,0.26562792,-2.87979317,0.00000000,0.00000000
-2.30566192,0.80005324,1.26144016,-0.48983636,-0.69483036,0.00000000,0.00000000,-0.68854916,2.03020430,0.74260861,0.25664592,-2.87979317,0.00000000,0.00000000
-2.30468988,0.79724878,1.23691881,-0.47439578,-0.70206809,0.00000000,0.00000000,-0.69588995,2.02269387,0.74017555,0.24830803,-2.87979317,0.00000000,0.00000000
-2.30237913,0.79288155,1.21203697,-0.45929486,-0.71086597,0.00000000,0.00000000,-0.70206332,2.01620102,0.73781055,0.24108244,-2.87979317,0.00000000,0.00000000
-2.29928112,0.78723878,1.18700385,-0.44479427,-0.71631056,0.00000000,0.00000000,-0.70677894,2.01076317,0.73558801,0.23513092,-2.87979317,0.00000000,0.00000000
-2.29594707,0.78058195,1.16201055,-0.43117332,-0.71761298,0.00000000,0.00000000,-0.70984608,2.00636625,0.73356712,0.23054782,-2.87979317,0.00000000,0.00000000
-2.29300570,0.77302647,1.13721228,-0.41878352,-0.70895445,0.00000000,0.00000000,-0.71111524,2.00281906,0.73180729,0.22733088,-2.87979317,0.00000000,0.00000000
-2.29112244,0.76508820,1.11286604,-0.40786341,-0.70644790,0.00000000,0.00000000,-0.71059835,2.00016403,0.73031873,0.22551267,-2.87979317,0.00000000,0.00000000
-2.29075623,0.75756043,1.08926332,-0.39841759,-0.70203543,0.00000000,0.00000000,-0.70847243,1.99869430,0.72906262,0.22516398,-2.87979317,0.00000000,0.00000000
-2.29203892,0.75060952,1.06650186,-0.39040229,-0.69693518,0.00000000,0.00000000,-0.70492160,1.99830532,0.72802705,0.22617072,-2.87979317,0.00000000,0.00000000
-2.29495788,0.74417531,1.04460239,-0.38374230,-0.68628055,0.00000000,0.00000000,-0.70013630,1.99878800,0.72719973,0.22837181,-2.87979317,0.00000000,0.00000000
-2.29931879,0.73835152,1.02359223,-0.37820569,-0.67446154,0.00000000,0.00000000,-0.69440013,2.00013995,0.72653335,0.23165582,-2.87979317,0.00000000,0.00000000
-2.30481195,0.73325539,1.00348353,-0.37349299,-0.66966391,0.00000000,0.00000000,-0.68812907,2.00237298,0.72595918,0.23585263,-2.87979317,0.00000000,0.00000000
-2.31123161,0.72876960,0.98424000,-0.36946523,-0.65976602,0.00000000,0.00000000,-0.68173921,2.00525594,0.72542250,0.24068794,-2.87979317,0.00000000,0.00000000
-2.31847429,0.72473603,0.96582097,-0.36607772,-0.64851516,0.00000000,0.00000000,-0.67558479,2.00852942,0.72487175,0.24590874,-2.87979317,0.00000000,0.00000000
-2.32639909,0.72115397,0.94820666,-0.36322382,-0.63639534,0.00000000,0.00000000,-0.67003560,2.01207066,0.72423673,0.25131682,-2.87979317,0.00000000,0.00000000
-2.33476329,0.71798486,0.93135107,-0.36076692,-0.62594360,0.00000000,0.00000000,-0.66539580,2.01568222,0.72346067,0.25668439,-2.87979317,0.00000000,0.00000000
-2.34327006,0.71511883,0.91518021,-0.35858411,-0.61986357,0.00000000,0.00000000,-0.66159385,2.01907158,0.72254032,0.26180655,-2.87979317,0.00000000,0.00000000
-2.35167551,0.71295542,0.89971381,-0.35642165,-0.61698127,0.00000000,0.00000000,-0.65828973,2.02221203,0.72148013,0.26655835,-2.87979317,0.00000000,0.00000000
-2.35977459,0.71194178,0.88498300,-0.35402676,-0.61607438,0.00000000,0.00000000,-0.65551400,2.02472806,0.72027880,0.27042004,-2.87979317,0.00000000,0.00000000
-2.36735749,0.71244502,0.87100554,-0.35115975,-0.61867207,0.00000000,0.00000000,-0.65352142,2.02628589,0.71890903,0.27284494,-2.87979317,0.00000000,0.00000000
-2.37421250,0.71451890,0.85775036,-0.34769577,-0.62126464,0.00000000,0.00000000,-0.65238076,2.02668428,0.71736377,0.27356237,-2.87979317,0.00000000,0.00000000
-2.38009286,0.71773994,0.84511101,-0.34367228,-0.62586981,0.00000000,0.00000000,-0.65199417,2.02569389,0.71567607,0.27250543,-2.87979317,0.00000000,0.00000000
-2.38481259,0.72152394,0.83297580,-0.33920938,-0.63069904,0.00000000,0.00000000,-0.65231568,2.02322555,0.71387160,0.26971379,-2.87979317,0.00000000,0.00000000
-2.38829684,0.72520417,0.82125133,-0.33450612,-0.63342875,0.00000000,0.00000000,-0.65337080,2.01930928,0.71196550,0.26528761,-2.87979317,0.00000000,0.00000000
-2.39049983,0.72819239,0.80987346,-0.32976222,-0.63880056,0.00000000,0.00000000,-0.65505081,2.01411915,0.70998573,0.25952375,-2.87979317,0.00000000,0.00000000
-2.39134812,0.73009211,0.79881066,-0.32511467,-0.64403683,0.00000000,0.00000000,-0.65727890,2.00802302,0.70794404,0.25286552,-2.87979317,0.00000000,0.00000000
-2.39082766,0.73088843,0.78810143,-0.32058060,-0.64733762,0.00000000,0.00000000,-0.66021436,2.00146937,0.70581937,0.24569601,-2.87979317,0.00000000,0.00000000
-2.38903975,0.73111778,0.77788168,-0.31599319,-0.65314430,0.00000000,0.00000000,-0.66405290,1.99513423,0.70356935,0.23839726,-2.87979317,0.00000000,0.00000000
-2.38621306,0.73126674,0.76829940,-0.31125018,-0.66434187,0.00000000,0.00000000,-0.66864616,1.98957217,0.70120871,0.23134300,-2.87979317,0.00000000,0.00000000
-2.38271165,0.73179841,0.75951689,-0.30631122,-0.67885739,0.00000000,0.00000000,-0.67352450,1.98528528,0.69879359,0.22498040,-2.87979317,0.00000000,0.00000000
-2.37905741,0.73325562,0.75172806,-0.30117360,-0.68968594,0.00000000,0.00000000,-0.67819142,1.98264706,0.69638824,0.21970528,-2.87979317,0.00000000,0.00000000
-2.37580681,0.73611814,0.74512106,-0.29586971,-0.69377923,0.00000000,0.00000000,-0.68220586,1.98191237,0.69405228,0.21583825,-2.87979317,0.00000000,0.00000000
-2.37350082,0.74072111,0.73985839,-0.29048923,-0.69290835,0.00000000,0.00000000,-0.68526149,1.98314893,0.69183660,0.21354739,-2.87979317,0.00000000,0.00000000
-2.37252045,0.74710989,0.73603469,-0.28519306,-0.69174093,0.00000000,0.00000000,-0.68721306,1.98617470,0.68978453,0.21280630,-2.87979317,0.00000000,0.00000000
-2.37298322,0.75502843,0.73366207,-0.28016335,-0.69351894,0.00000000,0.00000000,-0.68796206,1.99068236,0.68793422,0.21351051,-2.87979317,0.00000000,0.00000000
-2.37482142,0.76399559,0.73269433,-0.27560204,-0.70149535,0.00000000,0.00000000,-0.68743676,1.99627948,0.68631762,0.21550541,-2.87979317,0.00000000,0.00000000
-2.37783885,0.77351719,0.73306352,-0.27166721,-0.70544046,0.00000000,0.00000000,-0.68568450,2.00258446,0.68494564,0.21858644,-2.87979317,0.00000000,0.00000000
-2.38180137,0.78308940,0.73469502,-0.26850754,-0.71284610,0.00000000,0.00000000,-0.68284905,2.00917697,0.68381608,0.22248302,-2.87979317,0.00000000,0.00000000
-2.38652062,0.79218125,0.73751569,-0.26630661,-0.71567929,0.00000000,0.00000000,-0.67912340,2.01556897,0.68292314,0.22687180,-2.87979317,0.00000000,0.00000000
-2.39180279,0.80016607,0.74143785,-0.26529843,-0.71720594,0.00000000,0.00000000,-0.67468238,2.02120233,0.68226635,0.23140141,-2.87979317,0.00000000,0.00000000
-2.39754105,0.80738127,0.74648398,-0.26532376,-0.71844053,0.00000000,0.00000000,-0.66969615,2.02643871,0.68176603,0.23615274,-2.87979317,0.00000000,0.00000000
-2.40381384,0.81447667,0.75272626,-0.26614630,-0.71635103,0.00000000,0.00000000,-0.66422611,2.03195596,0.68132627,0.24140550,-2.87979317,0.00000000,0.00000000
-2.41004848,0.81846833,0.75975043,-0.26882619,-0.71307439,0.00000000,0.00000000,-0.65859002,2.03507185,0.68111062,0.24574524,-2.87979317,0.00000000,0.00000000
-2.41541910,0.81947142,0.76743984,-0.27298182,-0.71185809,0.00000000,0.00000000,-0.65322202,2.03622675,0.68099958,0.24918358,-2.87979317,0.00000000,0.00000000
-2.41962957,0.81923836,0.77592152,-0.27773705,-0.71257704,0.00000000,0.00000000,-0.64839172,2.03702044,0.68079346,0.25234863,-2.87979317,0.00000000,0.00000000
-2.42285419,0.81817943,0.78522551,-0.28295788,-0.70633727,0.00000000,0.00000000,-0.64400709,2.03730893,0.68049091,0.25512162,-2.87979317,0.00000000,0.00000000
-2.42455292,0.81513941,0.79510164,-0.28879482,-0.69762701,0.00000000,0.00000000,-0.64016569,2.03613162,0.68013650,0.25675398,-2.87979317,0.00000000,0.00000000
-2.42460847,0.81175005,0.80569679,-0.29442194,-0.68626946,0.00000000,0.00000000,-0.63733017,2.03466892,0.67954081,0.25734401,-2.87979317,0.00000000,0.00000000
-2.42301416,0.80981100,0.81719959,-0.29900795,-0.67336953,0.00000000,0.00000000,-0.63561332,2.03471041,0.67851222,0.25753826,-2.87979317,0.00000000,0.00000000
-2.41983533,0.80651301,0.82921153,-0.30365184,-0.65806663,0.00000000,0.00000000,-0.63483793,2.03421450,0.67726386,0.25650662,-2.87979317,0.00000000,0.00000000
-2.41502500,0.79976887,0.84143108,-0.30915231,-0.64096946,0.00000000,0.00000000,-0.63503605,2.03085160,0.67602122,0.25327566,-2.87979317,0.00000000,0.00000000
-2.40865731,0.79567116,0.85470414,-0.31320772,-0.62600243,0.00000000,0.00000000,-0.63618499,2.02952504,0.67433941,0.25018516,-2.87979317,0.00000000,0.00000000
-2.40039396,0.79301751,0.86879617,-0.31614575,-0.60916561,0.00000000,0.00000000,-0.63856995,2.02954435,0.67225993,0.24686442,-2.87979317,0.00000000,0.00000000
-2.39008164,0.78867590,0.88323373,-0.31910273,-0.59069848,0.00000000,0.00000000,-0.64223385,2.02835917,0.67003149,0.24220711,-2.87979317,0.00000000,0.00000000
-2.37916780,0.78445202,0.89847887,-0.32212576,-0.57023352,0.00000000,0.00000000,-0.64649087,2.02708077,0.66766500,0.23718667,-2.87979317,0.00000000,0.00000000
-2.36800122,0.78135949,0.91472942,-0.32502186,-0.54831690,0.00000000,0.00000000,-0.65106469,2.02692842,0.66511881,0.23257828,-2.87979317,0.00000000,0.00000000
-2.35647798,0.77850133,0.93183494,-0.32808617,-0.52576774,0.00000000,0.00000000,-0.65576482,2.02733731,0.66248912,0.22820160,-2.87979317,0.00000000,0.00000000
-2.34481454,0.77592558,0.94983095,-0.33143368,-0.50096112,0.00000000,0.00000000,-0.66051763,2.02817440,0.65981662,0.22402228,-2.87979317,0.00000000,0.00000000
-2.33316851,0.77341771,0.96869582,-0.33521956,-0.47316697,0.00000000,0.00000000,-0.66535258,2.02901793,0.65714723,0.21983464,-2.87979317,0.00000000,0.00000000
-2.32281637,0.77062404,0.98851717,-0.34024078,-0.43634865,0.00000000,0.00000000,-0.66928667,2.02948666,0.65463179,0.21589337,-2.87979317,0.00000000,0.00000000
-2.31391621,0.76821905,1.00940430,-0.34641296,-0.39947209,0.00000000,0.00000000,-0.67187625,2.03050399,0.65226293,0.21283677,-2.87979317,0.00000000,0.00000000
-2.30618429,0.76585871,1.03122699,-0.35374603,-0.36612380,0.00000000,0.00000000,-0.67303628,2.03198957,0.65006495,0.21067718,-2.87979317,0.00000000,0.00000000
-2.29961085,0.76309085,1.05385876,-0.36242658,-0.33681026,0.00000000,0.00000000,-0.67270070,2.03362918,0.64807135,0.20931454,-2.87979317,0.00000000,0.00000000
-2.29412723,0.75978619,1.07721305,-0.37250847,-0.30871212,0.00000000,0.00000000,-0.67096925,2.03535986,0.64627337,0.20869410,-2.87979317,0.00000000,0.00000000
-2.28945875,0.75596762,1.10120523,-0.38388035,-0.28361085,0.00000000,0.00000000,-0.66815132,2.03723502,0.64462751,0.20872025,-2.87979317,0.00000000,0.00000000
-2.28522706,0.75172246,1.12575340,-0.39634719,-0.25745907,0.00000000,0.00000000,-0.66471469,2.03931046,0.64306915,0.20922546,-2.87979317,0.00000000,0.00000000
-2.28102326,0.74712372,1.15077424,-0.40969756,-0.23153235,0.00000000,0.00000000,-0.66116136,2.04161024,0.64152908,0.21001135,-2.87979317,0.00000000,0.00000000
-2.27653575,0.74229419,1.17620826,-0.42378280,-0.20225926,0.00000000,0.00000000,-0.65790457,2.04422140,0.63994098,0.21095140,-2.87979317,0.00000000,0.00000000
-2.27159762,0.73730111,1.20199776,-0.43857208,-0.17809121,0.00000000,0.00000000,-0.65521646,2.04721093,0.63825369,0.21197549,-2.87979317,0.00000000,0.00000000
-2.26626515,0.73236459,1.22815430,-0.45416409,-0.15642780,0.00000000,0.00000000,-0.65299809,2.05096817,0.63643140,0.21332753,-2.87979317,0.00000000,0.00000000
-2.26083899,0.72746897,1.25464535,-0.47084010,-0.13047531,0.00000000,0.00000000,-0.65098363,2.05561614,0.63447392,0.21519026,-2.87979317,0.00000000,0.00000000
-2.25468826,0.72066605,1.28083897,-0.48865020,-0.10573587,0.00000000,0.00000000,-0.64958626,2.05930257,0.63245362,0.21650180,-2.87979317,0.00000000,0.00000000
-2.24711871,0.71241784,1.30676448,-0.50723577,-0.08264576,0.00000000,0.00000000,-0.64922565,2.06267595,0.63026017,0.21741095,-2.87979317,0.00000000,0.00000000
-2.23778367,0.70325112,1.33250284,-0.52647227,-0.05839165,0.00000000,0.00000000,-0.65006155,2.06650853,0.62780333,0.21824799,-2.87979317,0.00000000,0.00000000
-2.22694421,0.69369441,1.35821962,-0.54669118,-0.02992923,0.00000000,0.00000000,-0.65188539,2.07149649,0.62503499,0.21947980,-2.87979317,0.00000000,0.00000000
-2.21470118,0.68382847,1.38392735,-0.56819642,-0.00242975,0.00000000,0.00000000,-0.65460163,2.07788610,0.62192661,0.22131068,-2.87979317,0.00000000,0.00000000
-2.20054936,0.67188120,1.40897870,-0.59110558,0.02289683,0.00000000,0.00000000,-0.65853912,2.08407998,0.61854237,0.22286795,-2.87979317,0.00000000,0.00000000
-2.18403125,0.65782273,1.43333673,-0.61547440,0.04658725,0.00000000,0.00000000,-0.66393840,2.09032893,0.61481273,0.22424777,-2.87979317,0.00000000,0.00000000
-2.16449714,0.64229071,1.45721149,-0.64123368,0.07060310,0.00000000,0.00000000,-0.67116779,2.09763384,0.61059511,0.22588447,-2.87979317,0.00000000,0.00000000
-2.14169455,0.62491161,1.48045075,-0.66865909,0.09684044,0.00000000,0.00000000,-0.68024254,2.10594416,0.60586417,0.22784390,-2.87979317,0.00000000,0.00000000
-2.11669827,0.60396188,1.50240469,-0.69900638,0.12217087,0.00000000,0.00000000,-0.69006777,2.11374164,0.60083044,0.22991300,-2.87979317,0.00000000,0.00000000
-2.08943820,0.57954919,1.52312279,-0.73290646,0.15193263,0.00000000,0.00000000,-0.70023417,2.12173104,0.59545898,0.23272118,-2.87979317,0.00000000,0.00000000
-2.05907059,0.55128086,1.54242027,-0.77048737,0.17037819,0.00000000,0.00000000,-0.71086073,2.13022017,0.58968014,0.23651490,-2.87979317,0.00000000,0.00000000
-2.02462602,0.51790804,1.55973995,-0.81175452,0.18402223,0.00000000,0.00000000,-0.72195095,2.13871574,0.58349526,0.24119663,-2.87979317,0.00000000,0.00000000
-1.98592377,0.47840086,1.57461905,-0.85727739,0.19663112,0.00000000,0.00000000,-0.73222315,2.14713502,0.57702678,0.24734747,-2.87979317,0.00000000,0.00000000
-1.94168234,0.43154112,1.58646286,-0.90687793,0.20885217,0.00000000,0.00000000,-0.74098212,2.15555429,0.57030958,0.25541723,-2.87979317,0.00000000,0.00000000
-1.89023852,0.37524384,1.59417164,-0.95984453,0.21980518,0.00000000,0.00000000,-0.74780577,2.16309214,0.56341535,0.26528883,-2.87979317,0.00000000,0.00000000
-1.82993007,0.30682454,1.59619141,-1.01498890,0.22949514,0.00000000,0.00000000,-0.75222063,2.16810846,0.55648553,0.27646619,-2.87979317,0.00000000,0.00000000
-1.75915074,0.22349122,1.59074759,-1.07044363,0.23495889,0.00000000,0.00000000,-0.75370628,2.16977739,0.54971904,0.28818494,-2.87979317,0.00000000,0.00000000
-1.67665195,0.12299583,1.57624137,-1.12371552,0.23513977,0.00000000,0.00000000,-0.75166559,2.16999149,0.54336131,0.29954165,-2.87979317,0.00000000,0.00000000
-1.58191264,0.00431183,1.55163956,-1.17199123,0.23456618,0.00000000,0.00000000,-0.74548036,2.17000008,0.53765929,0.30969936,-2.87979317,0.00000000,0.00000000
-1.47539949,-0.13194950,1.51673293,-1.21254480,0.22689065,0.00000000,0.00000000,-0.73461038,2.17000008,0.53281748,0.31802613,-2.87979317,0.00000000,0.00000000
-1.35864699,-0.28359425,1.47213101,-1.24297619,0.21555361,0.00000000,0.00000000,-0.71862668,2.17000008,0.52899390,0.32405254,-2.87979317,0.00000000,0.00000000
-1.23422825,-0.44712481,1.41909707,-1.26133144,0.20310542,0.00000000,0.00000000,-0.69724470,2.17000008,0.52629924,0.32740924,-2.87979317,0.00000000,0.00000000
-1.10558772,-0.61806059,1.35937130,-1.26617408,0.18808039,0.00000000,0.00000000,-0.67040652,2.17000008,0.52478027,0.32778072,-2.87979317,0.00000000,0.00000000
-0.97673309,-0.79129922,1.29501569,-1.25664043,0.17898043,0.00000000,0.00000000,-0.63813549,2.17000008,0.52443463,0.32497126,-2.87979317,0.00000000,0.00000000
-0.85183012,-0.96150446,1.22824478,-1.23247361,0.16531123,0.00000000,0.00000000,-0.60045481,2.16994071,0.52520007,0.31906897,-2.87979317,0.00000000,0.00000000
-0.73477077,-1.12353003,1.16122258,-1.19406176,0.14711054,0.00000000,0.00000000,-0.55752134,2.16890407,0.52690732,0.31058159,-2.87979317,0.00000000,0.00000000
-0.62879145,-1.27290499,1.09583116,-1.14247096,0.12810777,0.00000000,0.00000000,-0.50972694,2.16395402,0.52925813,0.30049333,-2.87979317,0.00000000,0.00000000
-0.53625029,-1.40634036,1.03342903,-1.07941473,0.10646500,0.00000000,0.00000000,-0.45778000,2.15290761,0.53185624,0.29005930,-2.87979317,0.00000000,0.00000000
-0.45846212,-1.52207530,0.97475123,-1.00720453,0.08129932,0.00000000,0.00000000,-0.40299490,2.13766217,0.53422463,0.28040183,-2.87979317,0.00000000,0.00000000
-0.39559293,-1.62002146,0.91995436,-0.92868638,0.05980069,0.00000000,0.00000000,-0.34690860,2.12171960,0.53587425,0.27248171,-2.87979317,0.00000000,0.00000000
-0.34667918,-1.70163643,0.86881280,-0.84702659,0.04142758,0.00000000,0.00000000,-0.29103175,2.10833263,0.53636396,0.26680645,-2.87979317,0.00000000,0.00000000
-0.30981889,-1.76936448,0.82102436,-0.76530761,0.02614827,0.00000000,0.00000000,-0.23788959,2.09889364,0.53527164,0.26234123,-2.87979317,0.00000000,0.00000000
-0.28250861,-1.82598364,0.77639186,-0.68622071,0.00813949,0.00000000,0.00000000,-0.19021940,2.09316564,0.53229243,0.25730354,-2.87979317,0.00000000,0.00000000
-0.26178843,-1.87396717,0.73496127,-0.61192006,-0.01290701,0.00000000,0.00000000,-0.14971121,2.09092045,0.52729201,0.25076592,-2.87979317,0.00000000,0.00000000
-0.24445005,-1.91533780,0.69694608,-0.54408193,-0.03593156,0.00000000,0.00000000,-0.11728372,2.09169626,0.52027875,0.24212778,-2.87979317,0.00000000,0.00000000
-0.22761443,-1.95176983,0.66247368,-0.48391366,-0.05504599,0.00000000,0.00000000,-0.09331189,2.09461188,0.51138389,0.23087257,-2.87979317,0.00000000,0.00000000
-0.20921855,-1.98436022,0.63150787,-0.43198347,-0.07644958,0.00000000,0.00000000,-0.07740301,2.09899402,0.50084746,0.21708323,-2.87979317,0.00000000,0.00000000
-0.18856300,-2.01397967,0.60371417,-0.38827091,-0.09958174,0.00000000,0.00000000,-0.06845193,2.10473800,0.48897845,0.20144969,-2.87979317,0.00000000,0.00000000
-0.16632414,-2.04115963,0.57853746,-0.35212681,-0.11813179,0.00000000,0.00000000,-0.06473994,2.11223269,0.47614273,0.18517353,-2.87979317,0.00000000,0.00000000
-0.14384040,-2.06595516,0.55541438,-0.32243779,-0.14180352,0.00000000,0.00000000,-0.06439682,2.12096572,0.46278334,0.16903754,-2.87979317,0.00000000,0.00000000
-0.12251421,-2.08823395,0.53386545,-0.29790854,-0.15547599,0.00000000,0.00000000,-0.06608816,2.12892246,0.44935355,0.15276293,-2.87979317,0.00000000,0.00000000
-0.10329308,-2.10809112,0.51351964,-0.27748239,-0.16646843,0.00000000,0.00000000,-0.06797887,2.13583827,0.43624017,0.13700469,-2.87979317,0.00000000,0.00000000
-0.08656926,-2.12561512,0.49412030,-0.26033804,-0.17946769,0.00000000,0.00000000,-0.06857917,2.14216232,0.42372459,0.12264860,-2.87979317,0.00000000,0.00000000
-0.07245750,-2.14066625,0.47548690,-0.24570848,-0.19427684,0.00000000,0.00000000,-0.06710495,2.14805126,0.41198203,0.11024258,-2.87979317,0.00000000,0.00000000
-0.06111368,-2.15299392,0.45746037,-0.23285384,-0.21156807,0.00000000,0.00000000,-0.06305595,2.15368319,0.40110800,0.10028319,-2.87979317,0.00000000,0.00000000
-0.05269627,-2.16210222,0.43992284,-0.22097896,-0.23022954,0.00000000,0.00000000,-0.05608558,2.15904641,0.39115342,0.09311061,-2.87979317,0.00000000,0.00000000
-0.04715137,-2.16751814,0.42280066,-0.20942202,-0.25046232,0.00000000,0.00000000,-0.04612079,2.16383767,0.38214222,0.08878148,-2.87979317,0.00000000,0.00000000
-0.04434768,-2.16959095,0.40601715,-0.19783396,-0.27425730,0.00000000,0.00000000,-0.03321168,2.16752434,0.37409273,0.08711428,-2.87979317,0.00000000,0.00000000
-0.04421012,-2.16997910,0.38949084,-0.18609901,-0.30338380,0.00000000,0.00000000,-0.01736181,2.16948962,0.36702994,0.08772450,-2.87979317,0.00000000,0.00000000
-0.04661647,-2.17000008,0.37315422,-0.17432573,-0.32422814,0.00000000,0.00000000,0.00138803,2.16997099,0.36097664,0.09016786,-2.87979317,0.00000000,0.00000000
-0.05109122,-2.17000008,0.35699254,-0.16278501,-0.34510437,0.00000000,0.00000000,0.02254993,2.17000008,0.35593274,0.09370983,-2.87979317,0.00000000,0.00000000
-0.05684598,-2.17000008,0.34103477,-0.15187018,-0.36466736,0.00000000,0.00000000,0.04519323,2.17000008,0.35186237,0.09758897,-2.87979317,0.00000000,0.00000000
-0.06318537,-2.17000008,0.32530606,-0.14199029,-0.38084051,0.00000000,0.00000000,0.06840323,2.17000008,0.34870517,0.10152913,-2.87979317,0.00000000,0.00000000
