isaac-sim2real/sage/motion_files/wr75s/amass/0-Eyes_Japan_Dataset_ichige_soccer-06-pass outside-ichige_poses_idx59.txt
l_joint1,l_joint2,l_joint3,l_joint4,l_joint5,l_joint6,l_joint7,r_joint1,r_joint2,r_joint3,r_joint4,r_joint5,r_joint6,r_joint7
-1.24436200,-0.54708463,-1.05191350,-0.53769517,0.13101925,0.00000000,0.00000000,-0.51102841,0.71172917,0.21224631,-0.26486737,0.00740610,0.00000000,0.00000000
-1.24483883,-0.55158556,-1.05181479,-0.53851902,0.14240283,0.00000000,0.00000000,-0.51212889,0.71163630,0.21160930,-0.26527321,0.00302651,0.00000000,0.00000000
-1.24592185,-0.55895346,-1.05176413,-0.53994852,0.15280400,0.00000000,0.00000000,-0.51404613,0.71159166,0.21046521,-0.26615837,-0.00323849,0.00000000,0.00000000
-1.24782383,-0.56826597,-1.05190420,-0.54174197,0.16307458,0.00000000,0.00000000,-0.51650274,0.71226156,0.20892154,-0.26765212,-0.01543616,0.00000000,0.00000000
-1.25068641,-0.57811385,-1.05235171,-0.54362625,0.17587353,0.00000000,0.00000000,-0.51931471,0.71353817,0.20703056,-0.26978615,-0.02622955,0.00000000,0.00000000
-1.25452316,-0.58779263,-1.05310059,-0.54538900,0.18550047,0.00000000,0.00000000,-0.52240622,0.71439755,0.20483965,-0.27244815,-0.03561078,0.00000000,0.00000000
-1.25929773,-0.59762740,-1.05403948,-0.54682398,0.19431192,0.00000000,0.00000000,-0.52569765,0.71470445,0.20242116,-0.27551338,-0.04103377,0.00000000,0.00000000
-1.26494288,-0.60781336,-1.05507231,-0.54776424,0.19556737,0.00000000,0.00000000,-0.52910817,0.71467882,0.19984043,-0.27892673,-0.05060077,0.00000000,0.00000000
-1.27135861,-0.61857480,-1.05608785,-0.54803091,0.19258703,0.00000000,0.00000000,-0.53258950,0.71466893,0.19716646,-0.28264573,-0.05947318,0.00000000,0.00000000
-1.27841616,-0.63003725,-1.05696809,-0.54744744,0.19287187,0.00000000,0.00000000,-0.53605479,0.71477860,0.19448121,-0.28653967,-0.06856319,0.00000000,0.00000000
-1.28593016,-0.64235741,-1.05757284,-0.54592896,0.19225371,0.00000000,0.00000000,-0.53943968,0.71479255,0.19183834,-0.29049155,-0.07822368,0.00000000,0.00000000
-1.29375100,-0.65504766,-1.05784953,-0.54340708,0.19085923,0.00000000,0.00000000,-0.54267883,0.71472049,0.18926705,-0.29449067,-0.08470083,0.00000000,0.00000000
-1.30176306,-0.66766959,-1.05780315,-0.53985876,0.19017498,0.00000000,0.00000000,-0.54569507,0.71475238,0.18681771,-0.29849771,-0.09142240,0.00000000,0.00000000
-1.30985427,-0.67988157,-1.05746257,-0.53536308,0.18835822,0.00000000,0.00000000,-0.54839540,0.71492642,0.18455942,-0.30241960,-0.10002226,0.00000000,0.00000000
-1.31795943,-0.69158095,-1.05690873,-0.53006470,0.18305998,0.00000000,0.00000000,-0.55072230,0.71502846,0.18254389,-0.30622217,-0.10415705,0.00000000,0.00000000
-1.32598329,-0.70270437,-1.05619347,-0.52415329,0.17798275,0.00000000,0.00000000,-0.55264866,0.71476269,0.18079370,-0.30993286,-0.11120433,0.00000000,0.00000000
-1.33382249,-0.71323323,-1.05534518,-0.51777679,0.17060116,0.00000000,0.00000000,-0.55416828,0.71417361,0.17933002,-0.31349865,-0.12555775,0.00000000,0.00000000
-1.34143269,-0.72289932,-1.05443263,-0.51096791,0.15633641,0.00000000,0.00000000,-0.55525225,0.71335620,0.17817833,-0.31692082,-0.13769089,0.00000000,0.00000000
-1.34874415,-0.73194557,-1.05348706,-0.50381875,0.14185937,0.00000000,0.00000000,-0.55595553,0.71225214,0.17731836,-0.32026830,-0.15021411,0.00000000,0.00000000
-1.35564733,-0.74058408,-1.05249333,-0.49637002,0.13118923,0.00000000,0.00000000,-0.55634487,0.71091235,0.17672242,-0.32351953,-0.16728082,0.00000000,0.00000000
-1.36202788,-0.74873394,-1.05142593,-0.48860851,0.11882648,0.00000000,0.00000000,-0.55649787,0.70952398,0.17634037,-0.32662252,-0.18408592,0.00000000,0.00000000
-1.36777174,-0.75653744,-1.05024934,-0.48059985,0.10228499,0.00000000,0.00000000,-0.55654764,0.70825529,0.17608596,-0.32955444,-0.20560756,0.00000000,0.00000000
-1.37280273,-0.76435107,-1.04895520,-0.47242376,0.08348731,0.00000000,0.00000000,-0.55666053,0.70733237,0.17586017,-0.33225787,-0.22042759,0.00000000,0.00000000
-1.37706852,-0.77232337,-1.04755020,-0.46419057,0.06584675,0.00000000,0.00000000,-0.55692655,0.70691419,0.17561111,-0.33461910,-0.23860492,0.00000000,0.00000000
-1.38060176,-0.78035313,-1.04612303,-0.45611206,0.05103542,0.00000000,0.00000000,-0.55734938,0.70680451,0.17533840,-0.33663422,-0.25730088,0.00000000,0.00000000
-1.38347471,-0.78835070,-1.04478180,-0.44839540,0.03479555,0.00000000,0.00000000,-0.55790973,0.70677537,0.17506234,-0.33832532,-0.26978472,0.00000000,0.00000000
-1.38584352,-0.79591298,-1.04369450,-0.44123062,0.02551761,0.00000000,0.00000000,-0.55855256,0.70690465,0.17481893,-0.33972022,-0.27642938,0.00000000,0.00000000
-1.38789606,-0.80285156,-1.04304123,-0.43485618,0.02045815,0.00000000,0.00000000,-0.55924833,0.70704180,0.17463011,-0.34086719,-0.27806777,0.00000000,0.00000000
-1.38978684,-0.80892110,-1.04295850,-0.42940256,0.00514764,0.00000000,0.00000000,-0.55996275,0.70699573,0.17451252,-0.34185264,-0.27987313,0.00000000,0.00000000
-1.39160252,-0.81389248,-1.04351628,-0.42490435,-0.01036016,0.00000000,0.00000000,-0.56072295,0.70681012,0.17443074,-0.34280214,-0.28106070,0.00000000,0.00000000
-1.39340842,-0.81765437,-1.04476368,-0.42145693,-0.02524061,0.00000000,0.00000000,-0.56152022,0.70653272,0.17438421,-0.34377870,-0.28084606,0.00000000,0.00000000
-1.39523828,-0.82022351,-1.04672098,-0.41913202,-0.04061849,0.00000000,0.00000000,-0.56231487,0.70610267,0.17440334,-0.34481767,-0.27878603,0.00000000,0.00000000
-1.39711726,-0.82166141,-1.04942036,-0.41779107,-0.05767245,0.00000000,0.00000000,-0.56311548,0.70556611,0.17448285,-0.34592503,-0.26960123,0.00000000,0.00000000
-1.39901721,-0.82199097,-1.05286205,-0.41722658,-0.07906961,0.00000000,0.00000000,-0.56393754,0.70498890,0.17460364,-0.34709853,-0.26407692,0.00000000,0.00000000
-1.40080965,-0.82120770,-1.05695629,-0.41729560,-0.09878657,0.00000000,0.00000000,-0.56477445,0.70443606,0.17475529,-0.34830308,-0.25997740,0.00000000,0.00000000
-1.40223038,-0.81946772,-1.06148660,-0.41796827,-0.11845498,0.00000000,0.00000000,-0.56562179,0.70404446,0.17493081,-0.34943950,-0.26368186,0.00000000,0.00000000
-1.40314436,-0.81722331,-1.06639493,-0.41901228,-0.12671147,0.00000000,0.00000000,-0.56657171,0.70404583,0.17506818,-0.35041457,-0.26566377,0.00000000,0.00000000
-1.40340090,-0.81481957,-1.07160127,-0.42014003,-0.13330944,0.00000000,0.00000000,-0.56770289,0.70463771,0.17510913,-0.35116184,-0.26572660,0.00000000,0.00000000
-1.40275192,-0.81276739,-1.07691908,-0.42103305,-0.14727482,0.00000000,0.00000000,-0.56910616,0.70587951,0.17498735,-0.35164914,-0.26745903,0.00000000,0.00000000
-1.40098953,-0.81133372,-1.08219445,-0.42142519,-0.16087504,0.00000000,0.00000000,-0.57081366,0.70785546,0.17467192,-0.35185894,-0.26659298,0.00000000,0.00000000
-1.39800096,-0.81074703,-1.08735096,-0.42121378,-0.17045005,0.00000000,0.00000000,-0.57284993,0.71048355,0.17413363,-0.35183808,-0.27170673,0.00000000,0.00000000
-1.39387023,-0.81083840,-1.09249699,-0.42039174,-0.18379074,0.00000000,0.00000000,-0.57517809,0.71364009,0.17337991,-0.35164243,-0.27983791,0.00000000,0.00000000
-1.38870597,-0.81123221,-1.09776282,-0.41904417,-0.19598442,0.00000000,0.00000000,-0.57772005,0.71724939,0.17244005,-0.35135424,-0.29012254,0.00000000,0.00000000
-1.38260984,-0.81155413,-1.10327351,-0.41726920,-0.20703873,0.00000000,0.00000000,-0.58037817,0.72116512,0.17135990,-0.35108516,-0.30762815,0.00000000,0.00000000
-1.37572169,-0.81153357,-1.10918844,-0.41531315,-0.22213505,0.00000000,0.00000000,-0.58301890,0.72521824,0.17022967,-0.35096473,-0.31570867,0.00000000,0.00000000
-1.36811268,-0.81130213,-1.11559892,-0.41347432,-0.23891042,0.00000000,0.00000000,-0.58551234,0.72917056,0.16915950,-0.35114443,-0.32518026,0.00000000,0.00000000
-1.35980034,-0.81071287,-1.12254906,-0.41202617,-0.24961245,0.00000000,0.00000000,-0.58772403,0.73292309,0.16824739,-0.35171381,-0.33590570,0.00000000,0.00000000
-1.35065842,-0.80970269,-1.12995028,-0.41108093,-0.25968173,0.00000000,0.00000000,-0.58957005,0.73659438,0.16754994,-0.35266331,-0.34138417,0.00000000,0.00000000
-1.34053576,-0.80847889,-1.13770449,-0.41052166,-0.27016672,0.00000000,0.00000000,-0.59100837,0.74020338,0.16709541,-0.35396126,-0.34513971,0.00000000,0.00000000
-1.32930291,-0.80735523,-1.14573932,-0.41008070,-0.27282473,0.00000000,0.00000000,-0.59203869,0.74388033,0.16688256,-0.35552981,-0.34839889,0.00000000,0.00000000
-1.31683528,-0.80663729,-1.15398312,-0.40946755,-0.26761168,0.00000000,0.00000000,-0.59268576,0.74782985,0.16689065,-0.35726142,-0.34686223,0.00000000,0.00000000
-1.30297625,-0.80655611,-1.16233134,-0.40840784,-0.26589146,0.00000000,0.00000000,-0.59295988,0.75223678,0.16710913,-0.35907832,-0.34533814,0.00000000,0.00000000
-1.28762734,-0.80699492,-1.17072272,-0.40694100,-0.25729746,0.00000000,0.00000000,-0.59282374,0.75706786,0.16756524,-0.36102656,-0.33875701,0.00000000,0.00000000
-1.27077103,-0.80732006,-1.17916512,-0.40540409,-0.25200450,0.00000000,0.00000000,-0.59215635,0.76230752,0.16835748,-0.36325118,-0.33636114,0.00000000,0.00000000
-1.25257266,-0.80716515,-1.18785596,-0.40419266,-0.24353725,0.00000000,0.00000000,-0.59087884,0.76762283,0.16955717,-0.36605045,-0.33876434,0.00000000,0.00000000
-1.23319638,-0.80611634,-1.19698048,-0.40400359,-0.24480680,0.00000000,0.00000000,-0.58890474,0.77241099,0.17124684,-0.36980900,-0.34777096,0.00000000,0.00000000
-1.21267474,-0.80389738,-1.20660233,-0.40535605,-0.24190840,0.00000000,0.00000000,-0.58617628,0.77645582,0.17348927,-0.37487233,-0.35929728,0.00000000,0.00000000
-1.19086123,-0.80063117,-1.21662569,-0.40835273,-0.23403382,0.00000000,0.00000000,-0.58272833,0.77999943,0.17626368,-0.38136980,-0.37774494,0.00000000,0.00000000
-1.16744590,-0.79702038,-1.22679949,-0.41282630,-0.22604427,0.00000000,0.00000000,-0.57865626,0.78351581,0.17949237,-0.38922048,-0.39734265,0.00000000,0.00000000
-1.14206052,-0.79407018,-1.23681235,-0.41842151,-0.22317269,0.00000000,0.00000000,-0.57409698,0.78778744,0.18305580,-0.39812899,-0.41670603,0.00000000,0.00000000
-1.11425388,-0.79303867,-1.24626648,-0.42463991,-0.21722052,0.00000000,0.00000000,-0.56918997,0.79380429,0.18682615,-0.40765911,-0.44088358,0.00000000,0.00000000
-1.08353972,-0.79524380,-1.25473058,-0.43104631,-0.20794351,0.00000000,0.00000000,-0.56403291,0.80273855,0.19070795,-0.41727179,-0.46383283,0.00000000,0.00000000
-1.04942203,-0.80191487,-1.26177704,-0.43746704,-0.19736926,0.00000000,0.00000000,-0.55867469,0.81568873,0.19464099,-0.42640880,-0.48421824,0.00000000,0.00000000
-1.01141131,-0.81407082,-1.26700890,-0.44387051,-0.18727194,0.00000000,0.00000000,-0.55307633,0.83379799,0.19863795,-0.43443593,-0.50951773,0.00000000,0.00000000
-0.96891588,-0.83281928,-1.26996267,-0.45022973,-0.17590472,0.00000000,0.00000000,-0.54710656,0.85832918,0.20278496,-0.44058174,-0.53082901,0.00000000,0.00000000
-0.92129755,-0.85917646,-1.27014565,-0.45648262,-0.16954577,0.00000000,0.00000000,-0.54053998,0.89056414,0.20724255,-0.44396812,-0.55309373,0.00000000,0.00000000
-0.86809415,-0.89356536,-1.26716542,-0.46242777,-0.16328965,0.00000000,0.00000000,-0.53303510,0.93151206,0.21225034,-0.44371128,-0.57566375,0.00000000,0.00000000
-0.80925596,-0.93629217,-1.26083255,-0.46780929,-0.14991930,0.00000000,0.00000000,-0.52414334,0.98144412,0.21804607,-0.43904680,-0.59883964,0.00000000,0.00000000
-0.74523091,-0.98737901,-1.25121701,-0.47210035,-0.13732082,0.00000000,0.00000000,-0.51330382,1.04013956,0.22493771,-0.42932877,-0.62261957,0.00000000,0.00000000
-0.67699343,-1.04617965,-1.23863840,-0.47501943,-0.12691775,0.00000000,0.00000000,-0.49994892,1.10664082,0.23334102,-0.41414979,-0.64275491,0.00000000,0.00000000
-0.60587317,-1.11125457,-1.22363389,-0.47652227,-0.11832100,0.00000000,0.00000000,-0.48367965,1.17975879,0.24377550,-0.39345336,-0.66218942,0.00000000,0.00000000
-0.53333402,-1.18053830,-1.20688391,-0.47647899,-0.11014718,0.00000000,0.00000000,-0.46451429,1.25790942,0.25674012,-0.36762130,-0.67920297,0.00000000,0.00000000
-0.46076354,-1.25198579,-1.18905020,-0.47470939,-0.09677133,0.00000000,0.00000000,-0.44287062,1.33881009,0.27248988,-0.33746335,-0.69114798,0.00000000,0.00000000
-0.38905954,-1.32379723,-1.17061424,-0.47113883,-0.07761587,0.00000000,0.00000000,-0.41936719,1.42052686,0.29097313,-0.30390605,-0.70650136,0.00000000,0.00000000
-0.31881514,-1.39467394,-1.15200734,-0.46594346,-0.05338676,0.00000000,0.00000000,-0.39455846,1.50120485,0.31187865,-0.26799718,-0.71668363,0.00000000,0.00000000
-0.25047487,-1.46425176,-1.13363802,-0.45971647,-0.03385986,0.00000000,0.00000000,-0.36878479,1.57896566,0.33475786,-0.23070239,-0.72447675,0.00000000,0.00000000
-0.18454467,-1.53290677,-1.11586940,-0.45327121,-0.01620391,0.00000000,0.00000000,-0.34223559,1.65215373,0.35914898,-0.19272496,-0.73818231,0.00000000,0.00000000
-0.12158173,-1.60032678,-1.09898329,-0.44717512,-0.00204379,0.00000000,0.00000000,-0.31509781,1.71962166,0.38467535,-0.15454090,-0.75605124,0.00000000,0.00000000
-0.06216005,-1.66607189,-1.08315086,-0.44193333,0.00624332,0.00000000,0.00000000,-0.28755125,1.78084683,0.41105747,-0.11644351,-0.76797664,0.00000000,0.00000000
-0.00699381,-1.72966671,-1.06862390,-0.43809026,0.00757903,0.00000000,0.00000000,-0.25994253,1.83502901,0.43807703,-0.07897994,-0.78142244,0.00000000,0.00000000
0.04276939,-1.79014742,-1.05587053,-0.43634003,0.01265714,0.00000000,0.00000000,-0.23274940,1.88082087,0.46555716,-0.04299356,-0.79590774,0.00000000,0.00000000
0.08574615,-1.84654319,-1.04532516,-0.43734720,0.01150476,0.00000000,0.00000000,-0.20620017,1.91721976,0.49335602,-0.00910393,-0.81468880,0.00000000,0.00000000
0.12153544,-1.89830589,-1.03707623,-0.44093132,0.01396756,0.00000000,0.00000000,-0.18097927,1.94397557,0.52137429,0.02223867,-0.83145452,0.00000000,0.00000000
0.15054911,-1.94465196,-1.03102398,-0.44596854,0.01172161,0.00000000,0.00000000,-0.15826541,1.96140420,0.54952109,0.05065803,-0.84826756,0.00000000,0.00000000
0.17316696,-1.98473191,-1.02707732,-0.45116076,0.01898753,0.00000000,0.00000000,-0.13899703,1.97037899,0.57769191,0.07603838,-0.86259186,0.00000000,0.00000000
0.18949516,-2.01781893,-1.02526402,-0.45549247,0.02983507,0.00000000,0.00000000,-0.12380066,1.97196794,0.60577071,0.09833382,-0.87946445,0.00000000,0.00000000
0.19949442,-2.04320860,-1.02575350,-0.45834461,0.04114176,0.00000000,0.00000000,-0.11318521,1.96726012,0.63363713,0.11748891,-0.88845658,0.00000000,0.00000000
0.20276254,-2.06015563,-1.02886093,-0.45960408,0.05482655,0.00000000,0.00000000,-0.10750400,1.95762789,0.66116732,0.13362840,-0.89925307,0.00000000,0.00000000
0.19853193,-2.06814098,-1.03493178,-0.45962757,0.07445036,0.00000000,0.00000000,-0.10692737,1.94490445,0.68822706,0.14713293,-0.91058487,0.00000000,0.00000000
0.18617603,-2.06719446,-1.04415309,-0.45913219,0.09220185,0.00000000,0.00000000,-0.11144150,1.93086612,0.71469843,0.15840088,-0.91723329,0.00000000,0.00000000
0.16814569,-2.05905509,-1.05586278,-0.45841843,0.10671310,0.00000000,0.00000000,-0.12121267,1.91707563,0.74047375,0.16774912,-0.92727810,0.00000000,0.00000000
0.14849608,-2.04852390,-1.06846154,-0.45918962,0.12736407,0.00000000,0.00000000,-0.13650069,1.90471423,0.76546961,0.17532550,-0.93658638,0.00000000,0.00000000
0.12603657,-2.03783560,-1.08175719,-0.46552700,0.15072954,0.00000000,0.00000000,-0.15691350,1.89466572,0.78967726,0.18137230,-0.94462615,0.00000000,0.00000000
0.10011614,-2.02731371,-1.09601223,-0.47892296,0.17860742,0.00000000,0.00000000,-0.18132792,1.88751292,0.81317723,0.18634546,-0.95756066,0.00000000,0.00000000
0.07190975,-2.01657486,-1.11149728,-0.49893808,0.20412788,0.00000000,0.00000000,-0.20751014,1.88345361,0.83617371,0.19107471,-0.96982723,0.00000000,0.00000000
0.04308822,-2.00636315,-1.12811148,-0.52523804,0.23096055,0.00000000,0.00000000,-0.23290132,1.88241088,0.85893160,0.19649878,-0.98588359,0.00000000,0.00000000
0.01497421,-1.99805236,-1.14547706,-0.55796784,0.25544435,0.00000000,0.00000000,-0.25590321,1.88422883,0.88166338,0.20324644,-0.99996322,0.00000000,0.00000000
-0.01217264,-1.99150610,-1.16365683,-0.59737581,0.27988192,0.00000000,0.00000000,-0.27590039,1.88867867,0.90451092,0.21161067,-1.02051127,0.00000000,0.00000000
-0.03846483,-1.98602569,-1.18282390,-0.64372462,0.30086190,0.00000000,0.00000000,-0.29260662,1.89536166,0.92760336,0.22175829,-1.04411328,0.00000000,0.00000000
-0.06416783,-1.98077667,-1.20315111,-0.69733006,0.32224965,0.00000000,0.00000000,-0.30576929,1.90373576,0.95108110,0.23386113,-1.06574237,0.00000000,0.00000000
-0.08952476,-1.97495222,-1.22476542,-0.75841415,0.34595165,0.00000000,0.00000000,-0.31514212,1.91309929,0.97510207,0.24806692,-1.08936369,0.00000000,0.00000000
-0.11414325,-1.96787500,-1.24762154,-0.82682014,0.36865515,0.00000000,0.00000000,-0.32080266,1.92270613,0.99979991,0.26431882,-1.11720097,0.00000000,0.00000000
-0.13812079,-1.95893335,-1.27189505,-0.90276468,0.39468828,0.00000000,0.00000000,-0.32322001,1.93178010,1.02527869,0.28236091,-1.14546728,0.00000000,0.00000000
-0.16348997,-1.94699740,-1.29870176,-0.98731744,0.41842788,0.00000000,0.00000000,-0.32300523,1.93942833,1.05164254,0.30179644,-1.17268002,0.00000000,0.00000000
-0.18901291,-1.93057275,-1.32926726,-1.07687068,0.44567943,0.00000000,0.00000000,-0.32051057,1.94479525,1.07901585,0.32234904,-1.20465088,0.00000000,0.00000000
-0.21514075,-1.90533161,-1.36750650,-1.16347361,0.46764660,0.00000000,0.00000000,-0.31571922,1.94725490,1.10751450,0.34399605,-1.23130691,0.00000000,0.00000000
-0.24396251,-1.87041914,-1.41572893,-1.24445510,0.48853329,0.00000000,0.00000000,-0.30862892,1.94650960,1.13718200,0.36681473,-1.25489569,0.00000000,0.00000000
-0.27479577,-1.82791948,-1.47361755,-1.31899428,0.50867242,0.00000000,0.00000000,-0.29963627,1.94238842,1.16798007,0.39070669,-1.28473079,0.00000000,0.00000000
-0.30568251,-1.78060067,-1.53960860,-1.38604510,0.53637135,0.00000000,0.00000000,-0.28936747,1.93492424,1.19979286,0.41555625,-1.30937338,0.00000000,0.00000000
-0.33408320,-1.73111820,-1.61119819,-1.44432163,0.56823063,0.00000000,0.00000000,-0.27865151,1.92448795,1.23237395,0.44118398,-1.33517408,0.00000000,0.00000000
-0.35691801,-1.68221796,-1.68483186,-1.49264002,0.59870243,0.00000000,0.00000000,-0.26834890,1.91173649,1.26534116,0.46731043,-1.36211693,0.00000000,0.00000000
-0.37091935,-1.63642752,-1.75662065,-1.53016818,0.63050592,0.00000000,0.00000000,-0.26016760,1.89775109,1.29808033,0.49308217,-1.39513934,0.00000000,0.00000000
-0.37351590,-1.59497404,-1.82380044,-1.55647731,0.66771984,0.00000000,0.00000000,-0.25717297,1.88392782,1.32972348,0.51670623,-1.43109536,0.00000000,0.00000000
-0.36327702,-1.55784130,-1.88444364,-1.57192194,0.69887960,0.00000000,0.00000000,-0.26254252,1.87289464,1.35906219,0.53656989,-1.46737039,0.00000000,0.00000000
-0.34070969,-1.52422190,-1.93715155,-1.57819772,0.72364718,0.00000000,0.00000000,-0.27853063,1.86713445,1.38511527,0.55161309,-1.50035739,0.00000000,0.00000000
-0.30829367,-1.49394429,-1.98065996,-1.57802200,0.74375832,0.00000000,0.00000000,-0.30490106,1.86754084,1.40765393,0.56183970,-1.53391218,0.00000000,0.00000000
-0.26899853,-1.47103035,-2.01360774,-1.57381761,0.76202428,0.00000000,0.00000000,-0.33795038,1.87387562,1.42700219,0.56898618,-1.56194687,0.00000000,0.00000000
-0.22524758,-1.46210623,-2.03456831,-1.56762457,0.77948898,0.00000000,0.00000000,-0.37230203,1.88562274,1.44360280,0.57568741,-1.58266723,0.00000000,0.00000000
-0.17944995,-1.46935105,-2.04211950,-1.56128192,0.79739279,0.00000000,0.00000000,-0.40716702,1.90189934,1.45774388,0.58178186,-1.60338640,0.00000000,0.00000000
-0.13246144,-1.49284124,-2.03553963,-1.55566311,0.81809670,0.00000000,0.00000000,-0.44221142,1.92209911,1.46958375,0.58693171,-1.62361920,0.00000000,0.00000000
-0.08505802,-1.53205836,-2.01478195,-1.55108070,0.83027548,0.00000000,0.00000000,-0.47597682,1.94556701,1.47937167,0.59169364,-1.64388835,0.00000000,0.00000000
-0.03889210,-1.58513856,-1.98042452,-1.54843032,0.84030885,0.00000000,0.00000000,-0.50516033,1.97071767,1.48779225,0.59781396,-1.66058934,0.00000000,0.00000000
0.00380905,-1.64779341,-1.93431818,-1.54998410,0.84735221,0.00000000,0.00000000,-0.52610493,1.99492478,1.49588966,0.60721946,-1.66984117,0.00000000,0.00000000
0.03960630,-1.71314073,-1.88088572,-1.56040585,0.85447836,0.00000000,0.00000000,-0.53664660,2.01572895,1.50453842,0.62054509,-1.67724133,0.00000000,0.00000000
0.06371619,-1.77427065,-1.82720792,-1.58478928,0.86238587,0.00000000,0.00000000,-0.54100060,2.03346038,1.51331615,0.63454044,-1.68519688,0.00000000,0.00000000
0.07393559,-1.82748616,-1.77947152,-1.62311077,0.87161118,0.00000000,0.00000000,-0.54564607,2.04919076,1.52146685,0.64514983,-1.69547427,0.00000000,0.00000000
0.07167657,-1.87128043,-1.74119365,-1.67013848,0.87959909,0.00000000,0.00000000,-0.55257118,2.06309605,1.52876949,0.65123802,-1.69554126,0.00000000,0.00000000
0.06117176,-1.90535545,-1.71324217,-1.71883750,0.88896662,0.00000000,0.00000000,-0.56018472,2.07452178,1.53548515,0.65395856,-1.69706333,0.00000000,0.00000000
0.04772268,-1.93011630,-1.69475091,-1.76310146,0.90329206,0.00000000,0.00000000,-0.56610656,2.08166862,1.54247618,0.65509480,-1.70052409,0.00000000,0.00000000
0.03605016,-1.94661605,-1.68434942,-1.79877663,0.91464019,0.00000000,0.00000000,-0.56839466,2.08163595,1.55124342,0.65632445,-1.70200014,0.00000000,0.00000000
0.02993135,-1.95679390,-1.68059051,-1.82335222,0.92011607,0.00000000,0.00000000,-0.56581396,2.07142878,1.56348085,0.65896547,-1.70347512,0.00000000,0.00000000
0.03219891,-1.96379387,-1.68157983,-1.83540273,0.92382556,0.00000000,0.00000000,-0.55585992,2.05061007,1.57979488,0.66565704,-1.70659375,0.00000000,0.00000000
0.04478892,-1.97166085,-1.68467283,-1.83430576,0.91964680,0.00000000,0.00000000,-0.53512412,2.02454948,1.59817815,0.68151623,-1.71148300,0.00000000,0.00000000
0.06827588,-1.98347962,-1.68738461,-1.82043481,0.91279012,0.00000000,0.00000000,-0.50352854,2.00336909,1.61434042,0.71168500,-1.71280348,0.00000000,0.00000000
0.10155368,-2.00033426,-1.68825197,-1.79531431,0.90988570,0.00000000,0.00000000,-0.46188551,1.99048090,1.62627816,0.75815457,-1.71854806,0.00000000,0.00000000
0.14246522,-2.02204728,-1.68632126,-1.76143837,0.91075778,0.00000000,0.00000000,-0.41510057,1.98983717,1.63101947,0.81680876,-1.72663414,0.00000000,0.00000000
0.18709098,-2.04717779,-1.68231058,-1.72249436,0.91469771,0.00000000,0.00000000,-0.37014970,2.00268483,1.62687206,0.87899357,-1.73225856,0.00000000,0.00000000
0.23044063,-2.07305074,-1.67864287,-1.68278801,0.91632825,0.00000000,0.00000000,-0.33237502,2.02450442,1.61571586,0.93658531,-1.73845255,0.00000000,0.00000000
0.26871896,-2.09746099,-1.67687118,-1.64559829,0.91358840,0.00000000,0.00000000,-0.30426168,2.05040812,1.60037398,0.98471826,-1.74383748,0.00000000,0.00000000
0.30004266,-2.11903811,-1.67730916,-1.61220193,0.91227937,0.00000000,0.00000000,-0.28612435,2.07656693,1.58365595,1.02073956,-1.74313450,0.00000000,0.00000000
0.32380697,-2.13693905,-1.67957926,-1.58258677,0.90424943,0.00000000,0.00000000,-0.27697560,2.10068655,1.56769729,1.04346752,-1.73803830,0.00000000,0.00000000
0.33999979,-2.15079641,-1.68277478,-1.55647004,0.88604790,0.00000000,0.00000000,-0.27558529,2.12175679,1.55373752,1.05253649,-1.72740126,0.00000000,0.00000000
0.34905320,-2.16068268,-1.68564391,-1.53357482,0.86970508,0.00000000,0.00000000,-0.28081760,2.13915539,1.54259408,1.04801261,-1.71644461,0.00000000,0.00000000
0.35160637,-2.16678381,-1.68714595,-1.51356268,0.85257989,0.00000000,0.00000000,-0.29175261,2.15210724,1.53496969,1.03032982,-1.70209205,0.00000000,0.00000000
0.34825522,-2.16941071,-1.68678153,-1.49611688,0.84387374,0.00000000,0.00000000,-0.30774438,2.15961242,1.53151810,1.00040126,-1.69184053,0.00000000,0.00000000
0.33939013,-2.16996813,-1.68430734,-1.48109770,0.83890182,0.00000000,0.00000000,-0.32826918,2.16086507,1.53245652,0.95996743,-1.67840028,0.00000000,0.00000000
0.32540467,-2.16997385,-1.67998123,-1.46807861,0.82997662,0.00000000,0.00000000,-0.35250074,2.15558052,1.53753901,0.91191518,-1.67463183,0.00000000,0.00000000
0.30709767,-2.16953516,-1.67425764,-1.45602715,0.82322288,0.00000000,0.00000000,-0.37945509,2.14504933,1.54569888,0.85973275,-1.67086244,0.00000000,0.00000000
0.28615931,-2.16759443,-1.66789389,-1.44306755,0.81809127,0.00000000,0.00000000,-0.40729639,2.13133264,1.55577528,0.80721521,-1.66124022,0.00000000,0.00000000
0.26554286,-2.16338611,-1.66227865,-1.42644751,0.81821626,0.00000000,0.00000000,-0.43267161,2.11803126,1.56592107,0.75865614,-1.65091002,0.00000000,0.00000000
0.24858934,-2.15696311,-1.65855670,-1.40339494,0.82265884,0.00000000,0.00000000,-0.45212725,2.10904098,1.57417464,0.71796012,-1.64996278,0.00000000,0.00000000
0.23746182,-2.14889765,-1.65683937,-1.37227213,0.82850224,0.00000000,0.00000000,-0.46478611,2.10494208,1.58018160,0.68621653,-1.65278912,0.00000000,0.00000000
0.23246431,-2.13954830,-1.65687430,-1.33312809,0.83588946,0.00000000,0.00000000,-0.47133991,2.10504651,1.58400702,0.66278237,-1.65340424,0.00000000,0.00000000
0.23322204,-2.12936354,-1.65810740,-1.28793430,0.84473747,0.00000000,0.00000000,-0.47278222,2.10861111,1.58565116,0.64652902,-1.65138149,0.00000000,0.00000000
0.24066080,-2.12103176,-1.65781176,-1.24136400,0.85798049,0.00000000,0.00000000,-0.47035041,2.11503863,1.58515406,0.63613421,-1.65055811,0.00000000,0.00000000
0.25273919,-2.11662555,-1.65385365,-1.20173132,0.87341166,0.00000000,0.00000000,-0.46560606,2.12346339,1.58275199,0.63008183,-1.65875387,0.00000000,0.00000000
0.26711842,-2.11547017,-1.64677548,-1.17277026,0.89074504,0.00000000,0.00000000,-0.45973113,2.13305616,1.57866049,0.62717420,-1.66702986,0.00000000,0.00000000
0.28198045,-2.11647749,-1.63739109,-1.15514076,0.90425450,0.00000000,0.00000000,-0.45304859,2.14337444,1.57285416,0.62678462,-1.67537940,0.00000000,0.00000000
0.29302198,-2.11709952,-1.62770295,-1.14929104,0.91901296,0.00000000,0.00000000,-0.44582021,2.15366030,1.56530988,0.62807620,-1.67861378,0.00000000,0.00000000
0.30066743,-2.11431909,-1.62032163,-1.14862537,0.93364781,0.00000000,0.00000000,-0.43807411,2.16266274,1.55616987,0.63027406,-1.67481983,0.00000000,0.00000000
0.30616152,-2.10591078,-1.61700177,-1.14937854,0.94580835,0.00000000,0.00000000,-0.42949432,2.16826296,1.54599023,0.63295871,-1.66833901,0.00000000,0.00000000
0.30908209,-2.09123993,-1.61805308,-1.15073156,0.96117067,0.00000000,0.00000000,-0.42048985,2.16985941,1.53539717,0.63552523,-1.66373408,0.00000000,0.00000000
0.31065720,-2.07196569,-1.62198269,-1.15125120,0.97330701,0.00000000,0.00000000,-0.41152227,2.16999722,1.52534807,0.63745975,-1.66335976,0.00000000,0.00000000
0.31014195,-2.04803228,-1.62879813,-1.15074301,0.98157358,0.00000000,0.00000000,-0.40337878,2.17000008,1.51728487,0.63814569,-1.66302311,0.00000000,0.00000000
0.30564949,-2.01986170,-1.63822377,-1.15034521,0.98828471,0.00000000,0.00000000,-0.39707318,2.17000008,1.51228869,0.63684613,-1.66015399,0.00000000,0.00000000
0.29505074,-1.98883295,-1.64925075,-1.15179992,0.99491775,0.00000000,0.00000000,-0.39280191,2.16998291,1.51047957,0.63344693,-1.66431415,0.00000000,0.00000000
0.27923200,-1.95748115,-1.66003418,-1.15472245,1.00184882,0.00000000,0.00000000,-0.39006457,2.16963720,1.51079893,0.62866610,-1.67173624,0.00000000,0.00000000
0.25849923,-1.92698526,-1.66995537,-1.15891552,1.01309705,0.00000000,0.00000000,-0.38839191,2.16746402,1.51222622,0.62312573,-1.67615926,0.00000000,0.00000000
0.23386148,-1.89857793,-1.67839193,-1.16415250,1.02238572,0.00000000,0.00000000,-0.38801387,2.16138887,1.51368165,0.61696643,-1.68336105,0.00000000,0.00000000
0.20704378,-1.87428796,-1.68389404,-1.17031348,1.03423238,0.00000000,0.00000000,-0.38862815,2.15190077,1.51455009,0.61043131,-1.68399715,0.00000000,0.00000000
0.17912735,-1.85459840,-1.68613362,-1.17636991,1.05141401,0.00000000,0.00000000,-0.39016426,2.14059830,1.51446390,0.60359180,-1.68389881,0.00000000,0.00000000
0.15165025,-1.84012485,-1.68467867,-1.18140292,1.06574249,0.00000000,0.00000000,-0.39278120,2.12838101,1.51331699,0.59625024,-1.68114388,0.00000000,0.00000000
0.12636656,-1.83128011,-1.67922020,-1.18539929,1.08148766,0.00000000,0.00000000,-0.39656398,2.11572504,1.51114774,0.58817196,-1.68835974,0.00000000,0.00000000
0.10519476,-1.82800496,-1.66963911,-1.18883300,1.09615159,0.00000000,0.00000000,-0.40165707,2.10327387,1.50795960,0.57924157,-1.69057143,0.00000000,0.00000000
0.09034237,-1.83136654,-1.65456760,-1.19242811,1.10152137,0.00000000,0.00000000,-0.40815055,2.09205532,1.50365973,0.56964540,-1.70243347,0.00000000,0.00000000
0.08478114,-1.84228575,-1.63284469,-1.19602060,1.10890198,0.00000000,0.00000000,-0.41590902,2.08272648,1.49831378,0.55963135,-1.71054912,0.00000000,0.00000000
0.08946379,-1.85942960,-1.60531723,-1.20003915,1.11739528,0.00000000,0.00000000,-0.42421734,2.07605863,1.49197841,0.54969943,-1.71775055,0.00000000,0.00000000
0.10746415,-1.87983739,-1.57475257,-1.20021152,1.12089336,0.00000000,0.00000000,-0.43153960,2.07287431,1.48469508,0.54070693,-1.72885096,0.00000000,0.00000000
0.13616376,-1.89934182,-1.54520869,-1.19475377,1.12283111,0.00000000,0.00000000,-0.43670481,2.07389259,1.47650492,0.53323263,-1.74721253,0.00000000,0.00000000
0.17207208,-1.91253006,-1.52213538,-1.18145573,1.12530005,0.00000000,0.00000000,-0.43813506,2.07940030,1.46748769,0.52787596,-1.75021565,0.00000000,0.00000000
0.21114063,-1.91728425,-1.50821292,-1.16002357,1.12548864,0.00000000,0.00000000,-0.43453810,2.08873963,1.45786452,0.52499443,-1.75489223,0.00000000,0.00000000
0.25067082,-1.91504574,-1.50273514,-1.13162065,1.12510788,0.00000000,0.00000000,-0.42567751,2.10020900,1.44801748,0.52440435,-1.76700366,0.00000000,0.00000000
0.28936329,-1.90889537,-1.50311399,-1.09761393,1.12247145,0.00000000,0.00000000,-0.41261667,2.11136770,1.43840933,0.52530843,-1.78132069,0.00000000,0.00000000
0.32533342,-1.89995205,-1.50788105,-1.05963981,1.11673391,0.00000000,0.00000000,-0.39696115,2.11994839,1.42943394,0.52677894,-1.78839135,0.00000000,0.00000000
0.35776618,-1.88829243,-1.51589990,-1.01843786,1.11016357,0.00000000,0.00000000,-0.37964088,2.12467885,1.42131579,0.52833837,-1.78985381,0.00000000,0.00000000
0.38658956,-1.87541449,-1.52497578,-0.97465950,1.10612142,0.00000000,0.00000000,-0.36041871,2.12409949,1.41449654,0.52979439,-1.78885925,0.00000000,0.00000000
0.41263160,-1.86426771,-1.53211367,-0.92888939,1.10482025,0.00000000,0.00000000,-0.34037679,2.11615419,1.40969932,0.52994579,-1.78429592,0.00000000,0.00000000
0.43788970,-1.85773587,-1.53486407,-0.88108546,1.10052323,0.00000000,0.00000000,-0.32105324,2.09976864,1.40764368,0.52780443,-1.78454506,0.00000000,0.00000000
0.46470806,-1.85784769,-1.53167927,-0.83115500,1.09841418,0.00000000,0.00000000,-0.30091769,2.07653666,1.40865791,0.52511007,-1.78832281,0.00000000,0.00000000
0.49417260,-1.86581922,-1.52175701,-0.78001463,1.09131849,0.00000000,0.00000000,-0.27849224,2.05127525,1.41174817,0.52470833,-1.79795301,0.00000000,0.00000000
0.52406180,-1.88196647,-1.50526929,-0.73052704,1.09149814,0.00000000,0.00000000,-0.25506866,2.02866435,1.41520679,0.52707189,-1.80330288,0.00000000,0.00000000
0.54952121,-1.90507662,-1.48353994,-0.68668520,1.09750974,0.00000000,0.00000000,-0.23360007,2.01103854,1.41775441,0.53069180,-1.80749667,0.00000000,0.00000000
0.56611085,-1.93246353,-1.45857537,-0.65143979,1.10800242,0.00000000,0.00000000,-0.21684261,1.99798262,1.41906297,0.53327745,-1.80905926,0.00000000,0.00000000
0.57188672,-1.96108925,-1.43224716,-0.62536633,1.12151098,0.00000000,0.00000000,-0.20313263,1.98730779,1.41972923,0.53452557,-1.80892861,0.00000000,0.00000000
0.56633294,-1.98784840,-1.40609634,-0.60764480,1.12970662,0.00000000,0.00000000,-0.19026995,1.97698915,1.42058408,0.53464174,-1.79795337,0.00000000,0.00000000
0.55044925,-2.01103592,-1.38083553,-0.59674120,1.13832104,0.00000000,0.00000000,-0.17817989,1.96750057,1.42184699,0.53350931,-1.77930903,0.00000000,0.00000000
0.52679372,-2.03113985,-1.35617745,-0.59083831,1.14550984,0.00000000,0.00000000,-0.16869742,1.96114755,1.42302167,0.53081757,-1.76263487,0.00000000,0.00000000
0.49744558,-2.04929304,-1.33163893,-0.58895195,1.15777004,0.00000000,0.00000000,-0.16258344,1.96002078,1.42344248,0.52719861,-1.74209261,0.00000000,0.00000000
0.46359560,-2.06610346,-1.30703580,-0.59082294,1.16861868,0.00000000,0.00000000,-0.15950401,1.96451247,1.42274106,0.52348852,-1.73006594,0.00000000,0.00000000
0.42485568,-2.08101082,-1.28278649,-0.59695917,1.17667460,0.00000000,0.00000000,-0.15859984,1.97430158,1.42071438,0.52049357,-1.71855140,0.00000000,0.00000000
0.37962437,-2.09326053,-1.25956702,-0.60858262,1.18731201,0.00000000,0.00000000,-0.15878859,1.98871648,1.41731942,0.51879549,-1.70747483,0.00000000,0.00000000
0.32712653,-2.10257530,-1.23786342,-0.62644917,1.19742835,0.00000000,0.00000000,-0.15872514,2.00631237,1.41282272,0.51878637,-1.69434702,0.00000000,0.00000000
0.26869351,-2.10841131,-1.21801531,-0.64985746,1.20061719,0.00000000,0.00000000,-0.15804917,2.02506042,1.40771616,0.52002484,-1.68375015,0.00000000,0.00000000
0.20769629,-2.10957217,-1.20026314,-0.67702484,1.21041882,0.00000000,0.00000000,-0.15749639,2.04372168,1.40243769,0.52188343,-1.66868389,0.00000000,0.00000000
0.14695324,-2.10829782,-1.18343604,-0.70886469,1.21939647,0.00000000,0.00000000,-0.15850304,2.06160283,1.39745688,0.52378708,-1.65234721,0.00000000,0.00000000
0.08906815,-2.10551953,-1.16671038,-0.74604142,1.22163844,0.00000000,0.00000000,-0.16207930,2.07630658,1.39381564,0.52510893,-1.63467288,0.00000000,0.00000000
0.02903995,-2.09658718,-1.15307438,-0.78927183,1.22121537,0.00000000,0.00000000,-0.16874669,2.08647609,1.39214921,0.52557969,-1.62029052,0.00000000,0.00000000
-0.03513441,-2.07913041,-1.14427733,-0.84034550,1.21876848,0.00000000,0.00000000,-0.17887738,2.09212780,1.39251518,0.52509147,-1.59741187,0.00000000,0.00000000
-0.09331305,-2.05059290,-1.13989866,-0.89229584,1.21830153,0.00000000,0.00000000,-0.19201450,2.09322762,1.39484406,0.52378851,-1.58451235,0.00000000,0.00000000
-0.14737312,-2.01069975,-1.14092231,-0.94380981,1.21524072,0.00000000,0.00000000,-0.20665422,2.08953261,1.39915955,0.52244890,-1.56775188,0.00000000,0.00000000
-0.19886646,-1.96241426,-1.14630771,-0.99492055,1.21471488,0.00000000,0.00000000,-0.22131181,2.08201504,1.40513456,0.52218246,-1.54146934,0.00000000,0.00000000
-0.25010687,-1.90495503,-1.15740621,-1.04512739,1.21997559,0.00000000,0.00000000,-0.23603553,2.07198930,1.41228831,0.52329618,-1.51419055,0.00000000,0.00000000
-0.30318785,-1.83757913,-1.17530274,-1.09372675,1.22043180,0.00000000,0.00000000,-0.25063178,2.05973506,1.42038417,0.52586985,-1.48817742,0.00000000,0.00000000
-0.35737360,-1.76151836,-1.19882941,-1.13868296,1.22293031,0.00000000,0.00000000,-0.26344886,2.04588580,1.42908013,0.53078133,-1.46422648,0.00000000,0.00000000
-0.41298071,-1.67757809,-1.22713232,-1.17876029,1.22151208,0.00000000,0.00000000,-0.27330232,2.02946377,1.43855131,0.53816515,-1.43730187,0.00000000,0.00000000
-0.46841422,-1.58852601,-1.25747693,-1.21363008,1.21951210,0.00000000,0.00000000,-0.27997500,2.00963998,1.44899285,0.54772216,-1.40813029,0.00000000,0.00000000
-0.52067769,-1.49836087,-1.28627443,-1.24344194,1.22267187,0.00000000,0.00000000,-0.28536487,1.98681295,1.46017861,0.55830294,-1.37938190,0.00000000,0.00000000
-0.56546783,-1.40995562,-1.31070924,-1.26720369,1.22992873,0.00000000,0.00000000,-0.29417950,1.96442127,1.47083390,0.56777853,-1.34562755,0.00000000,0.00000000
-0.59915322,-1.32537603,-1.32889259,-1.28410923,1.23798728,0.00000000,0.00000000,-0.31274325,1.94680130,1.47934973,0.57319921,-1.31365824,0.00000000,0.00000000
-0.62073404,-1.24847245,-1.33971083,-1.29551756,1.24476695,0.00000000,0.00000000,-0.34371233,1.93652570,1.48483324,0.57334059,-1.28083313,0.00000000,0.00000000
-0.63100380,-1.18570173,-1.34233081,-1.30363929,1.24963367,0.00000000,0.00000000,-0.38319907,1.93380904,1.48731899,0.56993079,-1.24543869,0.00000000,0.00000000
-0.63018000,-1.14176559,-1.33501506,-1.30956471,1.25198448,0.00000000,0.00000000,-0.42656139,1.93799174,1.48708165,0.56464076,-1.21201158,0.00000000,0.00000000
-0.61865634,-1.12025702,-1.31616712,-1.31480348,1.25010753,0.00000000,0.00000000,-0.47028080,1.94761920,1.48461783,0.55832642,-1.17956531,0.00000000,0.00000000
-0.59717488,-1.12424183,-1.28494668,-1.32146144,1.25140429,0.00000000,0.00000000,-0.51250869,1.96104240,1.48047411,0.55120760,-1.15258265,0.00000000,0.00000000
-0.56598073,-1.15556002,-1.24084568,-1.33085358,1.24806523,0.00000000,0.00000000,-0.55113262,1.97788954,1.47484148,0.54433262,-1.12746668,0.00000000,0.00000000
-0.52591890,-1.21432614,-1.18382955,-1.34342039,1.24234498,0.00000000,0.00000000,-0.58373016,1.99826849,1.46785188,0.53937995,-1.09716821,0.00000000,0.00000000
-0.47954103,-1.29826927,-1.11470115,-1.35910356,1.23858869,0.00000000,0.00000000,-0.60538542,2.02166414,1.45997941,0.54003125,-1.07167029,0.00000000,0.00000000
-0.43077073,-1.40203249,-1.03500688,-1.37781346,1.23494589,0.00000000,0.00000000,-0.60910249,2.04275179,1.45332205,0.55061370,-1.04518557,0.00000000,0.00000000
-0.38455611,-1.51778698,-0.94763494,-1.40017867,1.23217189,0.00000000,0.00000000,-0.58975911,2.05526400,1.45013487,0.57333583,-1.02301872,0.00000000,0.00000000
-0.34670094,-1.63833869,-0.85772491,-1.42746639,1.22957659,0.00000000,0.00000000,-0.54907358,2.06044531,1.44973397,0.60601246,-1.00299084,0.00000000,0.00000000
-0.32293490,-1.75943279,-0.77156496,-1.46268713,1.22570968,0.00000000,0.00000000,-0.49671680,2.06154490,1.45016444,0.64200372,-0.98566502,0.00000000,0.00000000
-0.31699994,-1.87810850,-0.69471133,-1.51166582,1.23154998,0.00000000,0.00000000,-0.44544512,2.05954766,1.45004880,0.67427063,-0.97019058,0.00000000,0.00000000
-0.32521415,-1.98601258,-0.63112420,-1.57116783,1.23113620,0.00000000,0.00000000,-0.40492949,2.05478072,1.44927859,0.69906014,-0.95565718,0.00000000,0.00000000
-0.33907101,-2.07202601,-0.58305532,-1.63027275,1.23661506,0.00000000,0.00000000,-0.37973225,2.04768705,1.44908500,0.71492916,-0.94096005,0.00000000,0.00000000
-0.35185686,-2.13092041,-0.55015391,-1.68214786,1.24678445,0.00000000,0.00000000,-0.36768571,2.03856039,1.45079863,0.72281444,-0.92869854,0.00000000,0.00000000
-0.36009291,-2.16156197,-0.53139913,-1.72372878,1.26245296,0.00000000,0.00000000,-0.36434212,2.02846360,1.45491052,0.72496241,-0.91904366,0.00000000,0.00000000
-0.36180213,-2.16941738,-0.52593458,-1.75283062,1.27718818,0.00000000,0.00000000,-0.36630043,2.01831627,1.46157718,0.72372580,-0.91682565,0.00000000,0.00000000
-0.35548645,-2.16999245,-0.53303570,-1.76785004,1.28778148,0.00000000,0.00000000,-0.37145442,2.00890589,1.47078931,0.72120249,-0.90882969,0.00000000,0.00000000
-0.33982757,-2.16979885,-0.55218136,-1.76774418,1.30459011,0.00000000,0.00000000,-0.37805152,2.00101495,1.48228931,0.71979719,-0.90118241,0.00000000,0.00000000
-0.31352085,-2.16637635,-0.58300525,-1.75190723,1.31811726,0.00000000,0.00000000,-0.38442013,1.99515343,1.49556637,0.72198498,-0.89893025,0.00000000,0.00000000
-0.27534401,-2.15093279,-0.62526453,-1.72003555,1.32707584,0.00000000,0.00000000,-0.38959435,1.99159932,1.50992596,0.72940952,-0.89879560,0.00000000,0.00000000
-0.22467282,-2.11684585,-0.67882437,-1.67209005,1.33821249,0.00000000,0.00000000,-0.39395893,1.99034405,1.52501762,0.74219954,-0.89784110,0.00000000,0.00000000
-0.16389336,-2.06522894,-0.74402201,-1.60973597,1.34794021,0.00000000,0.00000000,-0.39963001,1.99228072,1.54049230,0.75903952,-0.89505178,0.00000000,0.00000000
-0.10080346,-2.00375366,-0.82046348,-1.53971553,1.36067927,0.00000000,0.00000000,-0.40748858,1.99954820,1.55553699,0.77957040,-0.89277345,0.00000000,0.00000000
-0.04291200,-1.94300818,-0.90406740,-1.47186136,1.37613642,0.00000000,0.00000000,-0.41602355,2.01155066,1.57015455,0.80437517,-0.89591509,0.00000000,0.00000000
0.00717043,-1.88874161,-0.99026251,-1.41099870,1.38776720,0.00000000,0.00000000,-0.42678991,2.02629328,1.58455718,0.83073795,-0.89129817,0.00000000,0.00000000
0.04725276,-1.84251785,-1.07747376,-1.35915792,1.39259362,0.00000000,0.00000000,-0.44228745,2.04101729,1.59909809,0.85415137,-0.89423203,0.00000000,0.00000000
0.07618901,-1.80456865,-1.16469204,-1.31709075,1.40014672,0.00000000,0.00000000,-0.46317813,2.05495453,1.61314821,0.87145275,-0.88565463,0.00000000,0.00000000
0.09474357,-1.77425027,-1.25024915,-1.28434873,1.40641391,0.00000000,0.00000000,-0.48793113,2.06799960,1.62621164,0.88171816,-0.87842393,0.00000000,0.00000000
0.10485800,-1.75020254,-1.33204973,-1.25979733,1.41338396,0.00000000,0.00000000,-0.51395231,2.07987428,1.63821852,0.88559341,-0.86812222,0.00000000,0.00000000
0.10831028,-1.73113811,-1.40823615,-1.24263632,1.42327619,0.00000000,0.00000000,-0.53886557,2.09005308,1.64938283,0.88425833,-0.85010445,0.00000000,0.00000000
0.10716844,-1.71638680,-1.47705567,-1.23164284,1.43158364,0.00000000,0.00000000,-0.56105012,2.09810972,1.66000116,0.87884378,-0.82755554,0.00000000,0.00000000
0.10321490,-1.70581341,-1.53723395,-1.22567117,1.43942440,0.00000000,0.00000000,-0.57982206,2.10384202,1.67029548,0.87022370,-0.80385381,0.00000000,0.00000000
0.09787557,-1.69953275,-1.58804810,-1.22359645,1.44937038,0.00000000,0.00000000,-0.59511828,2.10668063,1.68069410,0.85913157,-0.78372920,0.00000000,0.00000000
0.09214316,-1.69760799,-1.62925816,-1.22428989,1.45884681,0.00000000,0.00000000,-0.60673863,2.10645270,1.69132066,0.84653682,-0.76888359,0.00000000,0.00000000
0.08654873,-1.69979501,-1.66101491,-1.22679675,1.46287584,0.00000000,0.00000000,-0.61391640,2.10344148,1.70198357,0.83391374,-0.75447935,0.00000000,0.00000000
0.08139046,-1.70558441,-1.68381798,-1.23019040,1.46449912,0.00000000,0.00000000,-0.61580580,2.09852695,1.71216953,0.82275677,-0.73619717,0.00000000,0.00000000
0.07708482,-1.71434367,-1.69838858,-1.23344529,1.46875560,0.00000000,0.00000000,-0.61206216,2.09298921,1.72120368,0.81397623,-0.71697223,0.00000000,0.00000000
0.07439101,-1.72539032,-1.70562971,-1.23536777,1.46740901,0.00000000,0.00000000,-0.60317385,2.08778429,1.72869241,0.80767661,-0.70270997,0.00000000,0.00000000
0.07474878,-1.73841941,-1.70637739,-1.23449004,1.46668839,0.00000000,0.00000000,-0.59023863,2.08498526,1.73367631,0.80368668,-0.68310887,0.00000000,0.00000000
0.08016731,-1.75352299,-1.70145583,-1.22912335,1.45967305,0.00000000,0.00000000,-0.57535082,2.08597279,1.73557031,0.80109918,-0.66502911,0.00000000,0.00000000
0.09282337,-1.77102685,-1.69169557,-1.21755350,1.45497155,0.00000000,0.00000000,-0.56091136,2.09159780,1.73394358,0.79872131,-0.64963758,0.00000000,0.00000000
0.11427400,-1.79093552,-1.67821896,-1.19833970,1.44625747,0.00000000,0.00000000,-0.54880935,2.10136962,1.72895634,0.79546946,-0.64169866,0.00000000,0.00000000
0.14512306,-1.81300271,-1.66229987,-1.17049611,1.43286335,0.00000000,0.00000000,-0.53982455,2.11382198,1.72125971,0.79064834,-0.63076842,0.00000000,0.00000000
0.18475857,-1.83685625,-1.64505100,-1.13378704,1.42032194,0.00000000,0.00000000,-0.53310651,2.12701726,1.71170497,0.78444153,-0.61059022,0.00000000,0.00000000
0.23129018,-1.86176026,-1.62741637,-1.08880627,1.41168487,0.00000000,0.00000000,-0.52625340,2.13872790,1.70119762,0.77803022,-0.58912075,0.00000000,0.00000000
0.28226322,-1.88657689,-1.61016130,-1.03659165,1.39930761,0.00000000,0.00000000,-0.51600772,2.14687848,1.69051409,0.77302682,-0.56794327,0.00000000,0.00000000
0.33619699,-1.91049504,-1.59350288,-0.97788715,1.38389623,0.00000000,0.00000000,-0.49974477,2.14985943,1.68024278,0.77053916,-0.54771125,0.00000000,0.00000000
0.39359078,-1.93376458,-1.57679784,-0.91268933,1.36796379,0.00000000,0.00000000,-0.47740924,2.14737701,1.67050815,0.77008331,-0.52821529,0.00000000,0.00000000
0.45481670,-1.95734322,-1.55912077,-0.84152341,1.35114670,0.00000000,0.00000000,-0.45282316,2.14081621,1.66091812,0.76906419,-0.50621474,0.00000000,0.00000000
0.51484197,-1.98176527,-1.54018593,-0.76869547,1.33506668,0.00000000,0.00000000,-0.42954656,2.13130116,1.65121472,0.76536399,-0.48775363,0.00000000,0.00000000
0.56628078,-2.00743127,-1.52030814,-0.70175624,1.32198560,0.00000000,0.00000000,-0.40687054,2.11888766,1.64139926,0.75947529,-0.47040391,0.00000000,0.00000000
0.60408974,-2.03459644,-1.50002563,-0.64911759,1.30561018,0.00000000,0.00000000,-0.38272932,2.10360003,1.63146400,0.75279057,-0.45451906,0.00000000,0.00000000
0.62761325,-2.05962229,-1.48138344,-0.61262667,1.29017305,0.00000000,0.00000000,-0.35596475,2.08546710,1.62148249,0.74639112,-0.43882936,0.00000000,0.00000000
0.63859415,-2.07966042,-1.46576440,-0.59090590,1.27153385,0.00000000,0.00000000,-0.32692161,2.06542182,1.61121762,0.74078572,-0.42897436,0.00000000,0.00000000
0.63987178,-2.09305024,-1.45381117,-0.58204800,1.25455737,0.00000000,0.00000000,-0.29784906,2.04509687,1.60034406,0.73565537,-0.41331428,0.00000000,0.00000000
0.63551795,-2.10138273,-1.44479680,-0.58313614,1.23643577,0.00000000,0.00000000,-0.27290925,2.02647114,1.58870602,0.72958577,-0.40723842,0.00000000,0.00000000
0.62898028,-2.10948086,-1.43675101,-0.58977818,1.21993244,0.00000000,0.00000000,-0.25563803,2.01114440,1.57640779,0.72095251,-0.40232718,0.00000000,0.00000000
0.61915284,-2.11467218,-1.43058372,-0.59892160,1.20514202,0.00000000,0.00000000,-0.24673362,2.00043797,1.56345534,0.70942491,-0.39767250,0.00000000,0.00000000
0.60736197,-2.11686230,-1.42615652,-0.60863632,1.18900299,0.00000000,0.00000000,-0.24528258,1.99557710,1.54950571,0.69558501,-0.40520504,0.00000000,0.00000000
0.59390664,-2.11581898,-1.42349541,-0.61853981,1.17280936,0.00000000,0.00000000,-0.24979763,1.99699569,1.53425598,0.68023664,-0.42018032,0.00000000,0.00000000
0.57602954,-2.11079645,-1.42305136,-0.63020939,1.15558195,0.00000000,0.00000000,-0.25804225,2.00338864,1.51783955,0.66437954,-0.43457764,0.00000000,0.00000000
0.55090278,-2.10112429,-1.42530465,-0.64535749,1.13500631,0.00000000,0.00000000,-0.26883775,2.01230669,1.50066781,0.64810616,-0.44359073,0.00000000,0.00000000
0.51807725,-2.08580995,-1.43072581,-0.66400033,1.11320376,0.00000000,0.00000000,-0.28277117,2.02111220,1.48341548,0.63026184,-0.45033589,0.00000000,0.00000000
0.48106751,-2.06548834,-1.43887281,-0.68392581,1.08886850,0.00000000,0.00000000,-0.30036959,2.02908182,1.46634901,0.60980380,-0.45004937,0.00000000,0.00000000
0.44300079,-2.04250932,-1.44856155,-0.70357859,1.07157278,0.00000000,0.00000000,-0.31732604,2.03622913,1.44970250,0.58824104,-0.45476255,0.00000000,0.00000000
0.40304470,-2.01876450,-1.45894933,-0.72389799,1.05322158,0.00000000,0.00000000,-0.32837117,2.04161215,1.43418145,0.56741637,-0.45750609,0.00000000,0.00000000
0.36005718,-1.99590957,-1.46927869,-0.74618572,1.03821301,0.00000000,0.00000000,-0.33134380,2.04472065,1.42010212,0.54820484,-0.45281091,0.00000000,0.00000000
0.31412891,-1.97536707,-1.47880447,-0.77106184,1.02640188,0.00000000,0.00000000,-0.32642069,2.04570842,1.40716255,0.53133631,-0.44965109,0.00000000,0.00000000
0.26757514,-1.95892596,-1.48648739,-0.79785597,1.01245511,0.00000000,0.00000000,-0.31606519,2.04607368,1.39438987,0.51681709,-0.44087914,0.00000000,0.00000000
0.22632220,-1.94869828,-1.49097538,-0.82356888,1.00314569,0.00000000,0.00000000,-0.30488199,2.04779196,1.38065350,0.50339371,-0.42903128,0.00000000,0.00000000
0.19687103,-1.94660223,-1.49112117,-0.84527117,0.98976660,0.00000000,0.00000000,-0.29597196,2.05166221,1.36539674,0.49002507,-0.40806693,0.00000000,0.00000000
0.18374166,-1.94842303,-1.48927963,-0.86075479,0.97753006,0.00000000,0.00000000,-0.29014671,2.05757570,1.34856009,0.47654885,-0.38779876,0.00000000,0.00000000
0.18792385,-1.95172596,-1.48701429,-0.86974257,0.96817172,0.00000000,0.00000000,-0.28675488,2.06472301,1.33042240,0.46325549,-0.37546432,0.00000000,0.00000000
0.20649399,-1.95518458,-1.48530173,-0.87188751,0.95829952,0.00000000,0.00000000,-0.28261885,2.07214355,1.31145501,0.45154989,-0.35896161,0.00000000,0.00000000
0.23647119,-1.95863032,-1.48418248,-0.86706007,0.95490491,0.00000000,0.00000000,-0.27304515,2.07855582,1.29231107,0.44332018,-0.34264332,0.00000000,0.00000000
0.27573726,-1.96192181,-1.48342812,-0.85569668,0.95155013,0.00000000,0.00000000,-0.25466034,2.08271956,1.27357185,0.43951437,-0.32354337,0.00000000,0.00000000
0.32390946,-1.96567905,-1.48223591,-0.83776164,0.95237821,0.00000000,0.00000000,-0.22728495,2.08411264,1.25543487,0.43959650,-0.29780850,0.00000000,0.00000000
0.37943169,-1.97001350,-1.48028755,-0.81384408,0.95461184,0.00000000,0.00000000,-0.19523862,2.08367372,1.23739684,0.44129086,-0.27325699,0.00000000,0.00000000
0.43679804,-1.97445834,-1.47800767,-0.78679609,0.95582694,0.00000000,0.00000000,-0.16304079,2.08229995,1.21896005,0.44234613,-0.24248445,0.00000000,0.00000000
0.49087891,-1.97889829,-1.47583556,-0.75975674,0.95307374,0.00000000,0.00000000,-0.13022722,2.07997251,1.20024741,0.44238958,-0.21335371,0.00000000,0.00000000
0.53966975,-1.98412681,-1.47371006,-0.73474425,0.95467806,0.00000000,0.00000000,-0.09495053,2.07688260,1.18147600,0.44204664,-0.18391572,0.00000000,0.00000000
0.58309877,-1.99165642,-1.47118628,-0.71310425,0.95235419,0.00000000,0.00000000,-0.05682703,2.07357764,1.16273034,0.44173005,-0.14951950,0.00000000,0.00000000
0.62144464,-2.00267601,-1.46798921,-0.69583571,0.95545560,0.00000000,0.00000000,-0.01801304,2.06963158,1.14426482,0.44047621,-0.11004782,0.00000000,0.00000000
0.65300477,-2.01713276,-1.46449006,-0.68471617,0.96488088,0.00000000,0.00000000,0.01899461,2.06577539,1.12632918,0.43760517,-0.07959349,0.00000000,0.00000000
0.67740119,-2.03475451,-1.46102154,-0.68021703,0.97064644,0.00000000,0.00000000,0.05223002,2.06307817,1.10930657,0.43265951,-0.04492288,0.00000000,0.00000000
0.69509751,-2.05515432,-1.45782685,-0.68198204,0.97193182,0.00000000,0.00000000,0.07967145,2.06114793,1.09377396,0.42437351,-0.00893919,0.00000000,0.00000000
0.70649481,-2.07771063,-1.45518088,-0.68957645,0.97279197,0.00000000,0.00000000,0.09936819,2.05902004,1.08000767,0.41169515,0.02334687,0.00000000,0.00000000
0.71193177,-2.10145664,-1.45346808,-0.70254821,0.97481048,0.00000000,0.00000000,0.10858162,2.05720353,1.06746495,0.39464015,0.06013906,0.00000000,0.00000000
0.71206474,-2.12465787,-1.45336950,-0.72006160,0.98308140,0.00000000,0.00000000,0.10588897,2.05592489,1.05561161,0.37521878,0.09326141,0.00000000,0.00000000
0.70841610,-2.14472175,-1.45588613,-0.74047059,0.99544007,0.00000000,0.00000000,0.09518413,2.05307913,1.04505682,0.35673186,0.12546064,0.00000000,0.00000000
0.70101261,-2.15916800,-1.46198964,-0.76305789,1.01180279,0.00000000,0.00000000,0.07427476,2.05040932,1.03503776,0.33826634,0.14817737,0.00000000,0.00000000
0.68928158,-2.16597009,-1.47248769,-0.78763855,1.03404784,0.00000000,0.00000000,0.04363107,2.04736423,1.02565861,0.31816575,0.16341048,0.00000000,0.00000000
0.67215872,-2.16422391,-1.48767686,-0.81465071,1.06151962,0.00000000,0.00000000,0.00886795,2.04402184,1.01767623,0.29820985,0.17398944,0.00000000,0.00000000
0.64833283,-2.15584660,-1.50630116,-0.84517866,1.08170140,0.00000000,0.00000000,-0.02564821,2.04075170,1.01176643,0.28021535,0.19015388,0.00000000,0.00000000
0.61719126,-2.14474750,-1.52576566,-0.88017720,1.10694039,0.00000000,0.00000000,-0.05885828,2.03867269,1.00808120,0.26466042,0.20703886,0.00000000,0.00000000
0.57846361,-2.13358974,-1.54385161,-0.92009616,1.12840712,0.00000000,0.00000000,-0.08830009,2.03810406,1.00687861,0.25284240,0.21799155,0.00000000,0.00000000
0.53361136,-2.12353969,-1.55901229,-0.96389884,1.14704347,0.00000000,0.00000000,-0.11178093,2.03959394,1.00818408,0.24627139,0.23043972,0.00000000,0.00000000
0.48587045,-2.11502647,-1.57016277,-1.00932348,1.16840661,0.00000000,0.00000000,-0.12860544,2.04342556,1.01178241,0.24550341,0.24001428,0.00000000,0.00000000
0.43796557,-2.10759044,-1.57695234,-1.05448604,1.18490374,0.00000000,0.00000000,-0.13865615,2.04852700,1.01749790,0.25027204,0.24916269,0.00000000,0.00000000
0.39133042,-2.10030890,-1.57956672,-1.09846377,1.20677042,0.00000000,0.00000000,-0.14265108,2.05424619,1.02505374,0.25999689,0.25115311,0.00000000,0.00000000
0.34606326,-2.09232116,-1.57850647,-1.14146435,1.22804129,0.00000000,0.00000000,-0.14181907,2.06003428,1.03413975,0.27368820,0.24771860,0.00000000,0.00000000
0.30237699,-2.08328772,-1.57441843,-1.18383145,1.24761653,0.00000000,0.00000000,-0.13816561,2.06532502,1.04441452,0.28989464,0.24908541,0.00000000,0.00000000
0.26048595,-2.07328606,-1.56819093,-1.22588801,1.26177895,0.00000000,0.00000000,-0.13370597,2.07023239,1.05550218,0.30753106,0.25561297,0.00000000,0.00000000
0.22081964,-2.06229877,-1.56098151,-1.26742935,1.27316642,0.00000000,0.00000000,-0.13020051,2.07498622,1.06708562,0.32584077,0.26217204,0.00000000,0.00000000
0.18464419,-2.05034351,-1.55362630,-1.30728495,1.28474569,0.00000000,0.00000000,-0.12913725,2.07930589,1.07897186,0.34396273,0.27154449,0.00000000,0.00000000
0.15255700,-2.03758192,-1.54669178,-1.34471130,1.30007553,0.00000000,0.00000000,-0.13125001,2.08164954,1.09124708,0.36067656,0.28278658,0.00000000,0.00000000
0.12344600,-2.02373242,-1.54116023,-1.38023198,1.31407034,0.00000000,0.00000000,-0.13722914,2.08087206,1.10389423,0.37466946,0.29626369,0.00000000,0.00000000
0.09553762,-2.00909305,-1.53746092,-1.41515291,1.32511532,0.00000000,0.00000000,-0.14651661,2.07889581,1.11641467,0.38625985,0.31143865,0.00000000,0.00000000
0.06858072,-1.99399769,-1.53589082,-1.44948375,1.33910847,0.00000000,0.00000000,-0.15714964,2.07607031,1.12875319,0.39593700,0.32757357,0.00000000,0.00000000
0.04529026,-1.97824240,-1.53722334,-1.48044622,1.34721017,0.00000000,0.00000000,-0.16863616,2.07148719,1.14100850,0.40315670,0.34583676,0.00000000,0.00000000
0.02651470,-1.96162140,-1.54232264,-1.50685251,1.36274695,0.00000000,0.00000000,-0.18075672,2.06521678,1.15314066,0.40779170,0.35940847,0.00000000,0.00000000
0.01294129,-1.94467938,-1.55080092,-1.52804434,1.38163507,0.00000000,0.00000000,-0.19271079,2.05859494,1.16494691,0.41045511,0.36911586,0.00000000,0.00000000
0.00496759,-1.92832744,-1.56135380,-1.54387939,1.39989328,0.00000000,0.00000000,-0.20292197,2.05113149,1.17673671,0.41149610,0.38044176,0.00000000,0.00000000
0.00162003,-1.91404295,-1.57168782,-1.55576491,1.42717779,0.00000000,0.00000000,-0.20883787,2.04182148,1.18906724,0.41180468,0.39111030,0.00000000,0.00000000
0.00228881,-1.90306795,-1.57936788,-1.56491220,1.46113610,0.00000000,0.00000000,-0.20924604,2.02957392,1.20242631,0.41205066,0.39611790,0.00000000,0.00000000
0.00839571,-1.89497852,-1.58358836,-1.56996167,1.48840988,0.00000000,0.00000000,-0.20628306,2.01608038,1.21639836,0.41229317,0.40284869,0.00000000,0.00000000
0.02097742,-1.88849247,-1.58476841,-1.56931973,1.51658356,0.00000000,0.00000000,-0.20274742,2.00191879,1.23080790,0.41196972,0.41206542,0.00000000,0.00000000
0.03984575,-1.88266480,-1.58361626,-1.56249785,1.54001522,0.00000000,0.00000000,-0.20174409,1.98973191,1.24498439,0.41119355,0.42671877,0.00000000,0.00000000
0.06198712,-1.87694538,-1.58053744,-1.55149817,1.56129587,0.00000000,0.00000000,-0.20489620,1.98202002,1.25832987,0.41074780,0.43705666,0.00000000,0.00000000
0.08181895,-1.87144589,-1.57557034,-1.54047000,1.57988703,0.00000000,0.00000000,-0.21009301,1.97789454,1.27121079,0.41223112,0.45215288,0.00000000,0.00000000
0.09559282,-1.86683345,-1.56859303,-1.53201985,1.59470940,0.00000000,0.00000000,-0.21452150,1.97464919,1.28431273,0.41660163,0.47106317,0.00000000,0.00000000
0.10304722,-1.86382890,-1.55938971,-1.52619398,1.60200155,0.00000000,0.00000000,-0.21762253,1.97172546,1.29760778,0.42361745,0.48978209,0.00000000,0.00000000
0.10559849,-1.86301947,-1.54778671,-1.52218258,1.61675525,0.00000000,0.00000000,-0.22014973,1.97032595,1.31065452,0.43253285,0.51066178,0.00000000,0.00000000
0.10327347,-1.86379290,-1.53485799,-1.52045512,1.62100863,0.00000000,0.00000000,-0.22252636,1.97178030,1.32308698,0.44290239,0.52968353,0.00000000,0.00000000
0.09521013,-1.86441755,-1.52261555,-1.52283144,1.63125837,0.00000000,0.00000000,-0.22496091,1.97615063,1.33492243,0.45446292,0.55455816,0.00000000,0.00000000
0.08456247,-1.86571813,-1.50906134,-1.53068686,1.64354599,0.00000000,0.00000000,-0.22882195,1.98217762,1.34654140,0.46614987,0.57718945,0.00000000,0.00000000
0.07320014,-1.86609328,-1.49578035,-1.54370582,1.66259122,0.00000000,0.00000000,-0.23582713,1.98868525,1.35843039,0.47665113,0.59986961,0.00000000,0.00000000
0.06444778,-1.86071515,-1.48919380,-1.55695117,1.68784964,0.00000000,0.00000000,-0.24720195,1.99516129,1.37099254,0.48527679,0.61989933,0.00000000,0.00000000
0.05717323,-1.85161614,-1.48735046,-1.57052279,1.71208286,0.00000000,0.00000000,-0.26321974,2.00110006,1.38463485,0.49207753,0.64340615,0.00000000,0.00000000
0.05092673,-1.83563542,-1.49547088,-1.58238637,1.73964703,0.00000000,0.00000000,-0.28277409,2.00592566,1.39974701,0.49794823,0.67211735,0.00000000,0.00000000
0.04311410,-1.81110013,-1.51671517,-1.59298682,1.76458335,0.00000000,0.00000000,-0.30437934,2.00904703,1.41661382,0.50400174,0.69892716,0.00000000,0.00000000
0.03156889,-1.77852261,-1.55079770,-1.60256493,1.79745567,0.00000000,0.00000000,-0.32653552,2.01011992,1.43530452,0.51121771,0.71986252,0.00000000,0.00000000
0.01530686,-1.73897803,-1.59633148,-1.61097252,1.83085990,0.00000000,0.00000000,-0.34730127,2.00870013,1.45576715,0.52042651,0.73790669,0.00000000,0.00000000
-0.00268296,-1.69570899,-1.64823294,-1.61638165,1.86743820,0.00000000,0.00000000,-0.36473784,2.00356722,1.47806716,0.53204036,0.74489188,0.00000000,0.00000000
-0.01780215,-1.65292227,-1.70025718,-1.61708331,1.89984155,0.00000000,0.00000000,-0.37918431,1.99522638,1.50178230,0.54579282,0.74051827,0.00000000,0.00000000
-0.02711838,-1.61280262,-1.74879074,-1.61271024,1.93089128,0.00000000,0.00000000,-0.39344099,1.98751402,1.52569890,0.56153250,0.73706537,0.00000000,0.00000000
-0.03089559,-1.57449269,-1.79294157,-1.60494304,1.96423078,0.00000000,0.00000000,-0.40991521,1.98573422,1.54846215,0.57992071,0.72565055,0.00000000,0.00000000
-0.03038648,-1.53673112,-1.83191121,-1.59610212,1.99250960,0.00000000,0.00000000,-0.42986336,1.99181926,1.56963551,0.60100359,0.71403557,0.00000000,0.00000000
-0.02674513,-1.50036490,-1.86446786,-1.58826852,2.02283239,0.00000000,0.00000000,-0.45454150,2.00341988,1.58985794,0.62325960,0.69942111,0.00000000,0.00000000
-0.02060979,-1.46853602,-1.88931918,-1.58255851,2.04738450,0.00000000,0.00000000,-0.48330593,2.01703095,1.60980678,0.64538610,0.68802953,0.00000000,0.00000000
-0.01172728,-1.44692326,-1.90410066,-1.57956696,2.06526089,0.00000000,0.00000000,-0.51462126,2.03106308,1.62938190,0.66608691,0.66941851,0.00000000,0.00000000
-0.00045285,-1.43982506,-1.90635240,-1.57978284,2.08123064,0.00000000,0.00000000,-0.54743117,2.04586005,1.64813292,0.68388534,0.65360737,0.00000000,0.00000000
0.01253209,-1.44857597,-1.89477932,-1.58302462,2.09546351,0.00000000,0.00000000,-0.57962763,2.06210303,1.66582358,0.69877160,0.63788605,0.00000000,0.00000000
0.02753361,-1.47368097,-1.86883366,-1.58816099,2.10460806,0.00000000,0.00000000,-0.60710818,2.07995868,1.68242192,0.71289998,0.62902075,0.00000000,0.00000000
0.04619550,-1.51544273,-1.82809341,-1.59396374,2.11663795,0.00000000,0.00000000,-0.62729567,2.09903502,1.69794762,0.72840279,0.62169641,0.00000000,0.00000000
0.06972520,-1.57140255,-1.77273703,-1.60106385,2.12389970,0.00000000,0.00000000,-0.63819236,2.11783528,1.71262646,0.74774528,0.61255109,0.00000000,0.00000000
0.09671398,-1.63619840,-1.70437253,-1.61282945,2.13267851,0.00000000,0.00000000,-0.63242847,2.13164878,1.72783971,0.77603495,0.60469460,0.00000000,0.00000000
0.12520152,-1.70543754,-1.62516236,-1.63291419,2.14009500,0.00000000,0.00000000,-0.61021036,2.13958120,1.74362588,0.81224054,0.59867907,0.00000000,0.00000000
0.15475829,-1.77599597,-1.53939641,-1.65929842,2.15325856,0.00000000,0.00000000,-0.57947451,2.14354062,1.75919521,0.85008854,0.59077740,0.00000000,0.00000000
0.18110669,-1.84096348,-1.45937872,-1.68503022,2.17018199,0.00000000,0.00000000,-0.54890114,2.14446974,1.77440250,0.88328975,0.58321971,0.00000000,0.00000000
0.20439789,-1.89691663,-1.39184713,-1.70530903,2.19040608,0.00000000,0.00000000,-0.52260315,2.14204502,1.78979659,0.90842050,0.57669342,0.00000000,0.00000000
0.22776689,-1.94320846,-1.33874619,-1.71754050,2.20639515,0.00000000,0.00000000,-0.50294942,2.13547564,1.80655146,0.92349100,0.57174498,0.00000000,0.00000000
0.25295383,-1.98010373,-1.30090296,-1.72103059,2.22818136,0.00000000,0.00000000,-0.49135450,2.12508488,1.82472038,0.92777681,0.56975085,0.00000000,0.00000000
0.28034246,-2.00814795,-1.27867579,-1.71607101,2.24854541,0.00000000,0.00000000,-0.48863322,2.11154675,1.84298217,0.92206818,0.56378973,0.00000000,0.00000000
0.30960396,-2.02770638,-1.27225673,-1.70318019,2.26819992,0.00000000,0.00000000,-0.49400336,2.09678125,1.85948241,0.90877414,0.56136948,0.00000000,0.00000000
0.33997068,-2.03896880,-1.28169489,-1.68293488,2.27739716,0.00000000,0.00000000,-0.50432867,2.08354545,1.87243724,0.89180702,0.55840826,0.00000000,0.00000000
0.36994484,-2.04195929,-1.30702233,-1.65627456,2.28935838,0.00000000,0.00000000,-0.51533133,2.07424855,1.88062441,0.87586069,0.55475140,0.00000000,0.00000000
0.39723176,-2.03676796,-1.34800065,-1.62468481,2.30286002,0.00000000,0.00000000,-0.52281189,2.07012796,1.88373697,0.86529058,0.55235833,0.00000000,0.00000000
0.41951838,-2.02438831,-1.40288007,-1.58965576,2.31775856,0.00000000,0.00000000,-0.52399892,2.07039618,1.88228405,0.86229885,0.54964489,0.00000000,0.00000000
0.43616933,-2.00728106,-1.46707785,-1.55198455,2.33630085,0.00000000,0.00000000,-0.51777005,2.07435989,1.87652493,0.86695355,0.54595691,0.00000000,0.00000000
0.44788823,-1.98954642,-1.53316152,-1.51354146,2.35145450,0.00000000,0.00000000,-0.50390905,2.08273506,1.86567271,0.87876248,0.54226226,0.00000000,0.00000000
0.45545682,-1.97572243,-1.59274650,-1.47901404,2.36374712,0.00000000,0.00000000,-0.48324430,2.09557676,1.84863293,0.89670753,0.54218262,0.00000000,0.00000000
0.45881316,-1.96816397,-1.64056361,-1.45412695,2.37096739,0.00000000,0.00000000,-0.45835632,2.11163592,1.82515001,0.91825384,0.55427319,0.00000000,0.00000000
0.45756394,-1.96652794,-1.67568195,-1.44087827,2.37931657,0.00000000,0.00000000,-0.43249118,2.12976336,1.79557407,0.94019920,0.57271689,0.00000000,0.00000000
0.45049691,-1.96859729,-1.70033574,-1.43777823,2.38961315,0.00000000,0.00000000,-0.40766877,2.14768553,1.76114213,0.95998782,0.58514667,0.00000000,0.00000000
0.43748975,-1.97119188,-1.71864486,-1.44039619,2.39610100,0.00000000,0.00000000,-0.38570717,2.16153336,1.72431684,0.97527337,0.59853822,0.00000000,0.00000000
0.41965622,-1.97269833,-1.73316038,-1.44516218,2.40880179,0.00000000,0.00000000,-0.36777860,2.16835499,1.68808782,0.98448616,0.61696172,0.00000000,0.00000000
0.39836928,-1.97320759,-1.74447119,-1.45005488,2.41971517,0.00000000,0.00000000,-0.35404932,2.16990829,1.65527499,0.98681003,0.63676804,0.00000000,0.00000000
0.37493008,-1.97354770,-1.75239086,-1.45379126,2.42779803,0.00000000,0.00000000,-0.34452698,2.17000008,1.62784636,0.98177618,0.65700179,0.00000000,0.00000000
0.35046524,-1.97472560,-1.75648952,-1.45558751,2.43660617,0.00000000,0.00000000,-0.33932391,2.17000008,1.60678279,0.96907789,0.68247318,0.00000000,0.00000000
0.32543528,-1.97736347,-1.75648713,-1.45536613,2.44085717,0.00000000,0.00000000,-0.33796284,2.17000008,1.59245825,0.94885916,0.70646983,0.00000000,0.00000000
0.29997599,-1.98163199,-1.75231528,-1.45329010,2.44323587,0.00000000,0.00000000,-0.33913499,2.17000008,1.58472252,0.92199117,0.72875696,0.00000000,0.00000000
0.27436218,-1.98730445,-1.74424493,-1.44907963,2.44397330,0.00000000,0.00000000,-0.34115326,2.16995430,1.58295095,0.88988197,0.74859589,0.00000000,0.00000000
0.24961567,-1.99417388,-1.73257923,-1.44163537,2.44039679,0.00000000,0.00000000,-0.34233129,2.16913462,1.58591104,0.85436302,0.75852501,0.00000000,0.00000000
0.22748850,-2.00251722,-1.71717405,-1.42939270,2.43899322,0.00000000,0.00000000,-0.34128472,2.16500616,1.59121919,0.81737983,0.76707160,0.00000000,0.00000000
0.21091709,-2.01292443,-1.69788146,-1.41002059,2.43843412,0.00000000,0.00000000,-0.33781996,2.15584278,1.59595358,0.78040552,0.77164721,0.00000000,0.00000000
0.20299739,-2.02560949,-1.67516613,-1.38113391,2.44423747,0.00000000,0.00000000,-0.33218405,2.14484954,1.59767187,0.74472702,0.77943230,0.00000000,0.00000000
0.20602939,-2.04063916,-1.64975011,-1.34105897,2.44239926,0.00000000,0.00000000,-0.32420370,2.13561249,1.59493148,0.71156621,0.78681457,0.00000000,0.00000000
0.22005104,-2.05785871,-1.62264955,-1.28951466,2.43538761,0.00000000,0.00000000,-0.31228432,2.12907243,1.58759713,0.68238461,0.79759395,0.00000000,0.00000000
0.24383856,-2.07657290,-1.59530246,-1.22690952,2.42809010,0.00000000,0.00000000,-0.29432994,2.12478662,1.57620835,0.65878451,0.80547053,0.00000000,0.00000000
0.27535725,-2.09526849,-1.56945288,-1.15417504,2.42455912,0.00000000,0.00000000,-0.26880288,2.12185192,1.56155992,0.64208126,0.80786949,0.00000000,0.00000000
0.31337774,-2.11264014,-1.54583144,-1.07222688,2.41827965,0.00000000,0.00000000,-0.23598762,2.11938739,1.54438436,0.63219839,0.80926508,0.00000000,0.00000000
0.35987616,-2.12909436,-1.52299714,-0.98340982,2.40706921,0.00000000,0.00000000,-0.20013003,2.11773872,1.52500343,0.62667406,0.81313729,0.00000000,0.00000000
0.41407838,-2.14547300,-1.49901795,-0.89651042,2.40043283,0.00000000,0.00000000,-0.16812351,2.11761165,1.50354493,0.62143171,0.81510377,0.00000000,0.00000000
0.46874872,-2.15919638,-1.47482383,-0.81893510,2.39876175,0.00000000,0.00000000,-0.14204948,2.11765242,1.48042655,0.61450887,0.81806195,0.00000000,0.00000000
0.51750749,-2.16757917,-1.45166850,-0.75403583,2.39284658,0.00000000,0.00000000,-0.11945122,2.11516619,1.45650399,0.60575300,0.82405895,0.00000000,0.00000000
0.55605453,-2.16985703,-1.43101549,-0.70344543,2.38400578,0.00000000,0.00000000,-0.09695638,2.10793543,1.43269086,0.59537798,0.82523596,0.00000000,0.00000000
0.58266348,-2.17000008,-1.41445172,-0.66725081,2.37435174,0.00000000,0.00000000,-0.07269573,2.09621143,1.40921307,0.58364487,0.82749540,0.00000000,0.00000000
0.59835351,-2.17000008,-1.40341008,-0.64398861,2.36602759,0.00000000,0.00000000,-0.04708857,2.08203340,1.38577902,0.57054245,0.83164674,0.00000000,0.00000000
0.60545021,-2.17000008,-1.39847994,-0.63187212,2.35269785,0.00000000,0.00000000,-0.02103206,2.06728888,1.36218655,0.55616105,0.83601844,0.00000000,0.00000000
0.60624248,-2.17000008,-1.39895475,-0.62990552,2.33959126,0.00000000,0.00000000,0.00636029,2.05320811,1.33865047,0.54154044,0.83962137,0.00000000,0.00000000
0.60187620,-2.17000008,-1.40426803,-0.63607079,2.32622814,0.00000000,0.00000000,0.03494387,2.04149175,1.31544733,0.52730268,0.83299237,0.00000000,0.00000000
0.59122205,-2.17000008,-1.41460598,-0.64612836,2.31044650,0.00000000,0.00000000,0.06063382,2.03387523,1.29258966,0.51185000,0.82246542,0.00000000,0.00000000
0.57374263,-2.17000008,-1.42899871,-0.65887392,2.29742980,0.00000000,0.00000000,0.07732686,2.03126192,1.26979780,0.49354580,0.82052237,0.00000000,0.00000000
0.55268669,-2.16998720,-1.44629145,-0.67245483,2.28776622,0.00000000,0.00000000,0.08551054,2.03465104,1.24698091,0.47648528,0.81992018,0.00000000,0.00000000
0.53003246,-2.16967463,-1.46523666,-0.68578804,2.27466154,0.00000000,0.00000000,0.08511768,2.04293418,1.22435713,0.46172947,0.81407899,0.00000000,0.00000000
0.50648564,-2.16718650,-1.48471439,-0.69849223,2.26423645,0.00000000,0.00000000,0.07487902,2.05405760,1.20220065,0.44805169,0.80619746,0.00000000,0.00000000
0.48178855,-2.15948224,-1.50368667,-0.71082592,2.25903845,0.00000000,0.00000000,0.05431730,2.06725359,1.18048859,0.43492854,0.79592466,0.00000000,0.00000000
0.45516554,-2.14747143,-1.52109718,-0.72344965,2.25726366,0.00000000,0.00000000,0.02435433,2.08155084,1.15941548,0.42238060,0.78535444,0.00000000,0.00000000
0.42528272,-2.13403535,-1.53576529,-0.73741335,2.25649118,0.00000000,0.00000000,-0.01166197,2.09294248,1.14019454,0.41035342,0.77568179,0.00000000,0.00000000
0.38999331,-2.12131000,-1.54679251,-0.75395662,2.25390577,0.00000000,0.00000000,-0.04746020,2.09513593,1.12490416,0.39865804,0.76676297,0.00000000,0.00000000
0.34834781,-2.10961390,-1.55410814,-0.77310306,2.24612355,0.00000000,0.00000000,-0.07928146,2.08763194,1.11412299,0.38642710,0.76038957,0.00000000,0.00000000
0.30295831,-2.09863138,-1.55799532,-0.79271895,2.24356818,0.00000000,0.00000000,-0.10800280,2.07567048,1.10675609,0.37292999,0.75729656,0.00000000,0.00000000
0.25819936,-2.08882427,-1.55847955,-0.81011629,2.23855567,0.00000000,0.00000000,-0.13554649,2.06343269,1.10162234,0.35767061,0.75083601,0.00000000,0.00000000
0.21511073,-2.08117294,-1.55537987,-0.82486624,2.23170638,0.00000000,0.00000000,-0.15834650,2.04874206,1.09917986,0.34192032,0.74799556,0.00000000,0.00000000
0.17272848,-2.07655597,-1.54860556,-0.83792782,2.21812820,0.00000000,0.00000000,-0.17289037,2.03041148,1.09962893,0.32762641,0.74303758,0.00000000,0.00000000
0.13110793,-2.07560897,-1.53845978,-0.84975648,2.20518160,0.00000000,0.00000000,-0.17887746,2.01065111,1.10225284,0.31619740,0.73645705,0.00000000,0.00000000
0.09143863,-2.07881594,-1.52564228,-0.86019075,2.19085836,0.00000000,0.00000000,-0.17826022,1.99210465,1.10613036,0.30806184,0.72807848,0.00000000,0.00000000
0.05505810,-2.08611107,-1.51130021,-0.86877912,2.17463493,0.00000000,0.00000000,-0.17371528,1.97712970,1.11038780,0.30311707,0.72211456,0.00000000,0.00000000
0.02316836,-2.09545088,-1.49769175,-0.87467772,2.15193057,0.00000000,0.00000000,-0.16728349,1.96731472,1.11440682,0.30130324,0.71882069,0.00000000,0.00000000
-0.00195107,-2.10307908,-1.48770642,-0.87684268,2.13901281,0.00000000,0.00000000,-0.16057581,1.96364486,1.11777318,0.30262685,0.71285266,0.00000000,0.00000000
-0.01740052,-2.10661340,-1.48294723,-0.87593651,2.13106346,0.00000000,0.00000000,-0.15539721,1.96653008,1.12020552,0.30676827,0.70579541,0.00000000,0.00000000
-0.02298524,-2.10618114,-1.48324025,-0.87508702,2.11357474,0.00000000,0.00000000,-0.15283403,1.97513628,1.12172401,0.31332886,0.69595116,0.00000000,0.00000000
-0.01897890,-2.10221505,-1.48805463,-0.87544280,2.09709215,0.00000000,0.00000000,-0.15303102,1.98754740,1.12260377,0.32185555,0.68078911,0.00000000,0.00000000
-0.00521193,-2.09459758,-1.49711859,-0.87580222,2.07843280,0.00000000,0.00000000,-0.15520664,2.00198507,1.12316442,0.33205029,0.66317201,0.00000000,0.00000000
0.01795561,-2.08246017,-1.51064634,-0.87413865,2.05845976,0.00000000,0.00000000,-0.15810475,2.01740336,1.12363279,0.34380502,0.65144014,0.00000000,0.00000000
0.04907489,-2.06495643,-1.52897084,-0.86900586,2.03560567,0.00000000,0.00000000,-0.16003704,2.03296089,1.12421966,0.35723653,0.63632292,0.00000000,0.00000000
0.08590058,-2.04284716,-1.55153298,-0.86048180,2.00550699,0.00000000,0.00000000,-0.15924643,2.04635525,1.12540615,0.37212804,0.61819720,0.00000000,0.00000000
0.12611496,-2.01876020,-1.57655215,-0.84979808,1.98120558,0.00000000,0.00000000,-0.15517305,2.05537415,1.12757385,0.38782158,0.59989989,0.00000000,0.00000000
0.16779526,-1.99540496,-1.60207498,-0.83851367,1.95722735,0.00000000,0.00000000,-0.15060127,2.06112504,1.13017547,0.40302733,0.58277661,0.00000000,0.00000000
0.20818280,-1.97395527,-1.62701082,-0.82894015,1.93451893,0.00000000,0.00000000,-0.14835219,2.06350446,1.13290012,0.41580093,0.56852776,0.00000000,0.00000000
0.24433543,-1.95454431,-1.65079081,-0.82341152,1.91089571,0.00000000,0.00000000,-0.14814973,2.06214571,1.13585532,0.42572924,0.55828774,0.00000000,0.00000000
0.27506480,-1.93721068,-1.67296183,-0.82287598,1.88373816,0.00000000,0.00000000,-0.14881313,2.05682278,1.13926566,0.43315089,0.54489714,0.00000000,0.00000000
0.29952982,-1.92136061,-1.69354844,-0.82781041,1.86292660,0.00000000,0.00000000,-0.14900039,2.04734898,1.14341557,0.43868199,0.52988851,0.00000000,0.00000000
0.31720805,-1.90673590,-1.71246266,-0.83849329,1.84205770,0.00000000,0.00000000,-0.14746884,2.03426528,1.14848351,0.44319114,0.51615250,0.00000000,0.00000000
0.32787102,-1.89337742,-1.72945333,-0.85508770,1.81842971,0.00000000,0.00000000,-0.14396298,2.01817012,1.15457737,0.44715390,0.50597829,0.00000000,0.00000000
0.33159757,-1.88144481,-1.74417305,-0.87761599,1.79553509,0.00000000,0.00000000,-0.13988054,2.00018692,1.16149139,0.45025620,0.49653640,0.00000000,0.00000000
0.32846716,-1.87082529,-1.75634718,-0.90602309,1.76789927,0.00000000,0.00000000,-0.13535783,1.98150659,1.16907227,0.45264333,0.49481022,0.00000000,0.00000000
0.31864327,-1.86120820,-1.76575005,-0.94000971,1.74456859,0.00000000,0.00000000,-0.13013692,1.96313334,1.17717028,0.45444775,0.49608287,0.00000000,0.00000000
0.30275053,-1.85241282,-1.77207625,-0.97881669,1.72141016,0.00000000,0.00000000,-0.12465724,1.94589806,1.18553364,0.45541012,0.49445143,0.00000000,0.00000000
0.28187793,-1.84440255,-1.77496827,-1.02122343,1.70161843,0.00000000,0.00000000,-0.12008355,1.93153715,1.19353080,0.45534557,0.48961121,0.00000000,0.00000000
0.25713119,-1.83708727,-1.77411819,-1.06588244,1.68179929,0.00000000,0.00000000,-0.11741228,1.92228973,1.20036852,0.45466232,0.48489395,0.00000000,0.00000000
0.22932683,-1.83023429,-1.76929724,-1.11162996,1.66481161,0.00000000,0.00000000,-0.11634274,1.91881716,1.20581150,0.45432526,0.48447388,0.00000000,0.00000000
0.19933096,-1.82350743,-1.76036203,-1.15735114,1.64882684,0.00000000,0.00000000,-0.11674404,1.92054343,1.20990670,0.45462489,0.48330575,0.00000000,0.00000000
0.16778828,-1.81645238,-1.74724531,-1.20215774,1.63374567,0.00000000,0.00000000,-0.11892733,1.92797101,1.21238911,0.45564964,0.48237753,0.00000000,0.00000000
0.13508111,-1.80849969,-1.72997642,-1.24541497,1.61514878,0.00000000,0.00000000,-0.12240134,1.93850541,1.21392500,0.45683214,0.48613435,0.00000000,0.00000000
0.10149030,-1.79907894,-1.70864141,-1.28668261,1.59504199,0.00000000,0.00000000,-0.12691349,1.94867563,1.21540534,0.45704916,0.48813832,0.00000000,0.00000000
0.06725138,-1.78772819,-1.68332338,-1.32572436,1.57991707,0.00000000,0.00000000,-0.13187568,1.95788121,1.21694613,0.45628721,0.49103102,0.00000000,0.00000000
0.03272247,-1.77401316,-1.65428972,-1.36241746,1.57087135,0.00000000,0.00000000,-0.13371266,1.96448815,1.21919405,0.45604089,0.48640865,0.00000000,0.00000000
-0.00052449,-1.75792301,-1.62184644,-1.39637923,1.54969501,0.00000000,0.00000000,-0.13224034,1.96894610,1.22191668,0.45668533,0.48195302,0.00000000,0.00000000
-0.02984979,-1.74024796,-1.58605576,-1.42703843,1.52907968,0.00000000,0.00000000,-0.13003898,1.97318280,1.22427213,0.45778108,0.47844860,0.00000000,0.00000000
-0.05271297,-1.72240901,-1.54656935,-1.45404887,1.51202893,0.00000000,0.00000000,-0.12819996,1.97715116,1.22614396,0.45912138,0.47330418,0.00000000,0.00000000
-0.06688843,-1.70520806,-1.50375724,-1.47665203,1.48974192,0.00000000,0.00000000,-0.12891832,1.98216426,1.22700667,0.46006301,0.46856454,0.00000000,0.00000000
-0.07138388,-1.68886352,-1.45857799,-1.49560905,1.47048509,0.00000000,0.00000000,-0.13360102,1.98712385,1.22706890,0.45952559,0.47258729,0.00000000,0.00000000
-0.06945645,-1.67366719,-1.41315174,-1.51565123,1.45409191,0.00000000,0.00000000,-0.14149947,1.98951030,1.22720850,0.45746306,0.47644514,0.00000000,0.00000000
-0.06936406,-1.65701270,-1.37529457,-1.53914464,1.43713415,0.00000000,0.00000000,-0.15170921,1.98830783,1.22798848,0.45459494,0.48223692,0.00000000,0.00000000
-0.06824583,-1.63704324,-1.35012579,-1.55824912,1.41761482,0.00000000,0.00000000,-0.16722192,1.98383367,1.22924328,0.44975978,0.49117792,0.00000000,0.00000000
-0.06244706,-1.61431813,-1.33935010,-1.56749272,1.39035869,0.00000000,0.00000000,-0.19190644,1.97694147,1.23043764,0.44111487,0.49517658,0.00000000,0.00000000
-0.05075870,-1.59002912,-1.34314406,-1.56510031,1.36108387,0.00000000,0.00000000,-0.22848119,1.96879768,1.23091102,0.42718562,0.49593568,0.00000000,0.00000000
-0.03312831,-1.56552136,-1.36036587,-1.55112016,1.33152235,0.00000000,0.00000000,-0.27718109,1.96068323,1.23011386,0.40737194,0.49782288,0.00000000,0.00000000
-0.01099178,-1.54250574,-1.38808835,-1.52758276,1.30664694,0.00000000,0.00000000,-0.33380282,1.95468199,1.22780514,0.38302720,0.49512276,0.00000000,0.00000000
0.01301326,-1.52193689,-1.42111540,-1.49754405,1.28675902,0.00000000,0.00000000,-0.38893610,1.95197380,1.22463048,0.35788390,0.49079275,0.00000000,0.00000000
0.03804983,-1.50271559,-1.45291913,-1.46339166,1.26398540,0.00000000,0.00000000,-0.43181917,1.95095050,1.22205448,0.33697057,0.48657170,0.00000000,0.00000000
0.06394719,-1.48380208,-1.47977412,-1.42851353,1.23851001,0.00000000,0.00000000,-0.45680505,1.95313859,1.22046053,0.32540506,0.48037300,0.00000000,0.00000000
0.08774826,-1.46542430,-1.50168502,-1.39703703,1.21754551,0.00000000,0.00000000,-0.46375114,1.96177280,1.21936202,0.32729444,0.47147313,0.00000000,0.00000000
0.10540064,-1.44870460,-1.52031469,-1.37178934,1.19490325,0.00000000,0.00000000,-0.45800048,1.96989572,1.21965635,0.33961260,0.45910707,0.00000000,0.00000000
0.11506851,-1.43440259,-1.53711998,-1.35349882,1.17773604,0.00000000,0.00000000,-0.44480118,1.96963298,1.22238946,0.35773128,0.44019854,0.00000000,0.00000000
0.11691155,-1.42265129,-1.55309486,-1.34136236,1.16195416,0.00000000,0.00000000,-0.42575121,1.96100295,1.22738314,0.38067228,0.41824102,0.00000000,0.00000000
0.11247309,-1.41393673,-1.56853986,-1.33372414,1.14414501,0.00000000,0.00000000,-0.40253359,1.94772506,1.23362041,0.40770879,0.40178561,0.00000000,0.00000000
0.10410830,-1.40969956,-1.58283186,-1.32888472,1.13411200,0.00000000,0.00000000,-0.37907514,1.93491852,1.23945868,0.43547279,0.38880667,0.00000000,0.00000000
0.09364334,-1.41118348,-1.59507859,-1.32575333,1.13217592,0.00000000,0.00000000,-0.35247657,1.92385542,1.24462402,0.46356094,0.38023254,0.00000000,0.00000000
0.08194251,-1.41892326,-1.60455883,-1.32380855,1.13272977,0.00000000,0.00000000,-0.32386023,1.91610742,1.24837244,0.49078980,0.37498179,0.00000000,0.00000000
0.06931318,-1.43304920,-1.61066782,-1.32285178,1.12853003,0.00000000,0.00000000,-0.29579836,1.91144609,1.25032735,0.51509082,0.36991924,0.00000000,0.00000000
0.05571121,-1.45368588,-1.61287749,-1.32279360,1.12164307,0.00000000,0.00000000,-0.26989114,1.90869391,1.25053096,0.53461415,0.36219212,0.00000000,0.00000000
0.04072056,-1.48065996,-1.61078727,-1.32365167,1.11962736,0.00000000,0.00000000,-0.24702334,1.90626740,1.24934876,0.54776359,0.35452971,0.00000000,0.00000000
0.02376789,-1.51334536,-1.60398686,-1.32559061,1.12620997,0.00000000,0.00000000,-0.22717923,1.90209436,1.24750841,0.55339438,0.34508213,0.00000000,0.00000000
0.00449072,-1.54975605,-1.59218788,-1.32886803,1.13079667,0.00000000,0.00000000,-0.21012858,1.89441097,1.24571967,0.55083239,0.33256042,0.00000000,0.00000000
-0.01593809,-1.58709502,-1.57509613,-1.33367205,1.13433528,0.00000000,0.00000000,-0.19749361,1.88390374,1.24368143,0.53953487,0.32490197,0.00000000,0.00000000
-0.03420336,-1.62415659,-1.55228996,-1.33979762,1.14573550,0.00000000,0.00000000,-0.19241598,1.87290633,1.24031532,0.51907766,0.32175314,0.00000000,0.00000000
-0.04695223,-1.66187096,-1.52351630,-1.34655249,1.15834415,0.00000000,0.00000000,-0.19456950,1.86225891,1.23534489,0.49087635,0.31579417,0.00000000,0.00000000
-0.05287406,-1.70132911,-1.48926401,-1.35327482,1.16818857,0.00000000,0.00000000,-0.20081122,1.85471714,1.22835064,0.45911500,0.31354690,0.00000000,0.00000000
-0.05089645,-1.74203920,-1.45173562,-1.35753918,1.17899764,0.00000000,0.00000000,-0.20846492,1.85337508,1.21890509,0.42798880,0.31360021,0.00000000,0.00000000
-0.03935476,-1.78170681,-1.41455388,-1.35526943,1.18228638,0.00000000,0.00000000,-0.21625400,1.85841250,1.20733380,0.39971703,0.30687436,0.00000000,0.00000000
-0.01655481,-1.81918180,-1.37947202,-1.34393322,1.17689192,0.00000000,0.00000000,-0.22350439,1.86906254,1.19421732,0.37552533,0.30002189,0.00000000,0.00000000
0.01800063,-1.85330820,-1.34741545,-1.32238829,1.17761922,0.00000000,0.00000000,-0.23021366,1.88462460,1.18006730,0.35605815,0.29166630,0.00000000,0.00000000
0.06433698,-1.88312495,-1.31826019,-1.29007471,1.18188834,0.00000000,0.00000000,-0.23634346,1.90429926,1.16530514,0.34167880,0.28191698,0.00000000,0.00000000
0.12126077,-1.90762269,-1.29155970,-1.24710071,1.19424617,0.00000000,0.00000000,-0.24150167,1.92714036,1.15026975,0.33261251,0.27751386,0.00000000,0.00000000
0.18540327,-1.92515576,-1.26768124,-1.19432724,1.20535994,0.00000000,0.00000000,-0.24430360,1.95218158,1.13526547,0.32923216,0.27404052,0.00000000,0.00000000
0.25258550,-1.93437850,-1.24718559,-1.13319290,1.21494329,0.00000000,0.00000000,-0.24231960,1.97809374,1.12067246,0.33189252,0.26989356,0.00000000,0.00000000
0.31917864,-1.93511415,-1.23023069,-1.06575334,1.21935618,0.00000000,0.00000000,-0.23320338,2.00294948,1.10698545,0.34038419,0.27058968,0.00000000,0.00000000
0.38305351,-1.92851579,-1.21631098,-0.99436945,1.22163129,0.00000000,0.00000000,-0.21570775,2.02467346,1.09470248,0.35386688,0.27201772,0.00000000,0.00000000
0.44256136,-1.91724837,-1.20441711,-0.92217845,1.22056150,0.00000000,0.00000000,-0.18938160,2.04187679,1.08421469,0.37129661,0.27312991,0.00000000,0.00000000
0.49503937,-1.90461612,-1.19384694,-0.85350406,1.22335768,0.00000000,0.00000000,-0.15453261,2.05321908,1.07592690,0.39115521,0.27478400,0.00000000,0.00000000
0.53738117,-1.89294970,-1.18467569,-0.79238278,1.22252154,0.00000000,0.00000000,-0.11204472,2.05725336,1.07031941,0.41154069,0.27412885,0.00000000,0.00000000
0.56792337,-1.88330507,-1.17722297,-0.74087226,1.21480322,0.00000000,0.00000000,-0.06470355,2.05317426,1.06761241,0.42991173,0.27634367,0.00000000,0.00000000
0.58725631,-1.87590957,-1.17163014,-0.69882053,1.20619392,0.00000000,0.00000000,-0.01836460,2.04241014,1.06721699,0.44317859,0.28627637,0.00000000,0.00000000
0.59666657,-1.87041152,-1.16806054,-0.66527307,1.19504535,0.00000000,0.00000000,0.02331227,2.02546692,1.06898594,0.44994193,0.29631791,0.00000000,0.00000000
0.59736121,-1.86668837,-1.16650248,-0.63939065,1.18854380,0.00000000,0.00000000,0.05829551,2.00366044,1.07257295,0.45099369,0.30155548,0.00000000,0.00000000
0.59013945,-1.86481583,-1.16685390,-0.62064874,1.17503893,0.00000000,0.00000000,0.08349428,1.98052347,1.07667375,0.44784540,0.30620593,0.00000000,0.00000000
0.57507521,-1.86470711,-1.16913092,-0.60892802,1.15370071,0.00000000,0.00000000,0.09865452,1.95900798,1.08041286,0.44244942,0.30331635,0.00000000,0.00000000
0.55161887,-1.86623728,-1.17340159,-0.60450256,1.13274813,0.00000000,0.00000000,0.10343347,1.94094086,1.08306718,0.43537143,0.30034590,0.00000000,0.00000000
0.51919758,-1.86943686,-1.17962146,-0.60772729,1.11845553,0.00000000,0.00000000,0.09747442,1.92695940,1.08415926,0.42639625,0.29765269,0.00000000,0.00000000
0.47758508,-1.87445855,-1.18756723,-0.61871237,1.11214900,0.00000000,0.00000000,0.08135736,1.91566825,1.08388913,0.41458946,0.29614732,0.00000000,0.00000000
0.42685473,-1.88158810,-1.19682765,-0.63730866,1.11009717,0.00000000,0.00000000,0.05651050,1.90608275,1.08260202,0.39937934,0.28705102,0.00000000,0.00000000
0.36780909,-1.89110804,-1.20679820,-0.66282237,1.10558438,0.00000000,0.00000000,0.02419610,1.89814758,1.08051646,0.38033277,0.27959022,0.00000000,0.00000000
0.30319417,-1.90318823,-1.21655440,-0.69331330,1.10689187,0.00000000,0.00000000,-0.01431069,1.89406419,1.07748079,0.35785389,0.26962447,0.00000000,0.00000000
0.23823264,-1.91754329,-1.22491157,-0.72518677,1.10598516,0.00000000,0.00000000,-0.05833597,1.89911234,1.07272768,0.33385509,0.25623339,0.00000000,0.00000000
0.17651884,-1.93303812,-1.23123872,-0.75543875,1.09961188,0.00000000,0.00000000,-0.10409969,1.91443491,1.06660974,0.31100944,0.23691659,0.00000000,0.00000000
0.11753602,-1.94847786,-1.23559856,-0.78327906,1.09363663,0.00000000,0.00000000,-0.14596069,1.93882394,1.06004512,0.29262635,0.21990955,0.00000000,0.00000000
0.05966565,-1.96283960,-1.23825490,-0.80855638,1.08903122,0.00000000,0.00000000,-0.17957790,1.96879816,1.05404127,0.28052390,0.20339984,0.00000000,0.00000000
0.00376411,-1.97534037,-1.23911774,-0.82999843,1.08053565,0.00000000,0.00000000,-0.20363531,1.99998999,1.04933560,0.27445638,0.18934792,0.00000000,0.00000000
-0.04689911,-1.98471439,-1.23813713,-0.84514618,1.07705295,0.00000000,0.00000000,-0.21973382,2.03116012,1.04588854,0.27339590,0.17210576,0.00000000,0.00000000
-0.09200014,-1.99101424,-1.23542750,-0.85363787,1.07860148,0.00000000,0.00000000,-0.22888575,2.06074595,1.04373729,0.27636498,0.15652753,0.00000000,0.00000000
-0.13232195,-1.99554265,-1.23111355,-0.85622913,1.08015287,0.00000000,0.00000000,-0.23151805,2.08668470,1.04304790,0.28247270,0.14415026,0.00000000,0.00000000
-0.16775149,-1.99918723,-1.22581208,-0.85320956,1.08728945,0.00000000,0.00000000,-0.22755253,2.10719371,1.04398930,0.29106194,0.13443562,0.00000000,0.00000000
-0.19732949,-2.00028205,-1.22146094,-0.84357464,1.09129143,0.00000000,0.00000000,-0.21609561,2.12139368,1.04666781,0.30200139,0.12209334,0.00000000,0.00000000
-0.22035152,-1.99664521,-1.22007024,-0.82660502,1.10010767,0.00000000,0.00000000,-0.19756410,2.12845850,1.05108380,0.31449589,0.10447105,0.00000000,0.00000000
-0.23636416,-1.98911464,-1.22179282,-0.80406952,1.10631776,0.00000000,0.00000000,-0.17402124,2.12847233,1.05695224,0.32713565,0.08719221,0.00000000,0.00000000
-0.24537686,-1.98063612,-1.22560060,-0.77996600,1.11660969,0.00000000,0.00000000,-0.14827071,2.12205529,1.06383026,0.33838311,0.06777948,0.00000000,0.00000000
-0.24764714,-1.97336805,-1.23073459,-0.75798726,1.12540054,0.00000000,0.00000000,-0.12382519,2.11155152,1.07093477,0.34728935,0.04834903,0.00000000,0.00000000
-0.24587251,-1.96749580,-1.23766446,-0.74173337,1.13391626,0.00000000,0.00000000,-0.10399739,2.09898257,1.07755983,0.35302305,0.02873686,0.00000000,0.00000000
-0.24142115,-1.96263373,-1.24678481,-0.73232383,1.14210391,0.00000000,0.00000000,-0.08954854,2.08473492,1.08352172,0.35539600,0.01071899,0.00000000,0.00000000
-0.23387317,-1.95818460,-1.25828874,-0.72919708,1.14779758,0.00000000,0.00000000,-0.08147278,2.07106233,1.08829427,0.35488546,-0.00069658,0.00000000,0.00000000
-0.22386143,-1.95312345,-1.27271688,-0.73227555,1.15715587,0.00000000,0.00000000,-0.08040617,2.05940986,1.09156096,0.35166362,-0.01038313,0.00000000,0.00000000
-0.21152271,-1.94741738,-1.29012704,-0.74137706,1.16802859,0.00000000,0.00000000,-0.08578230,2.05060911,1.09324908,0.34607065,-0.03121162,0.00000000,0.00000000
-0.19784255,-1.94034827,-1.31107616,-0.75662130,1.17711937,0.00000000,0.00000000,-0.09661372,2.04541111,1.09337127,0.33862129,-0.05347687,0.00000000,0.00000000
-0.18120620,-1.93227339,-1.33527541,-0.77578241,1.18325174,0.00000000,0.00000000,-0.11150071,2.04435301,1.09204280,0.33011922,-0.07355371,0.00000000,0.00000000
-0.16103576,-1.92552578,-1.36166322,-0.79664367,1.19182765,0.00000000,0.00000000,-0.12874024,2.04758120,1.08948720,0.32146084,-0.09254638,0.00000000,0.00000000
-0.13741490,-1.91707647,-1.39171851,-0.81594020,1.19510305,0.00000000,0.00000000,-0.14659372,2.05476332,1.08601213,0.31345946,-0.10658019,0.00000000,0.00000000
-0.11101219,-1.90752721,-1.42506838,-0.83248371,1.19580829,0.00000000,0.00000000,-0.16345522,2.06492639,1.08201694,0.30678242,-0.12228639,0.00000000,0.00000000
-0.08175150,-1.89983940,-1.45982015,-0.84633547,1.19232023,0.00000000,0.00000000,-0.17770085,2.07643533,1.07800210,0.30200532,-0.13975449,0.00000000,0.00000000
-0.04956988,-1.89578104,-1.49443305,-0.85783798,1.19012094,0.00000000,0.00000000,-0.18800806,2.08763433,1.07443750,0.29963794,-0.15316400,0.00000000,0.00000000
-0.01415591,-1.89671719,-1.52738512,-0.86723882,1.18696487,0.00000000,0.00000000,-0.19301823,2.09675169,1.07182419,0.30023846,-0.15948674,0.00000000,0.00000000
0.02401710,-1.90324271,-1.55738211,-0.87519217,1.18101418,0.00000000,0.00000000,-0.19160625,2.10206366,1.07066667,0.30432320,-0.16635746,0.00000000,0.00000000
0.06347866,-1.91440868,-1.58380616,-0.88262683,1.16930914,0.00000000,0.00000000,-0.18380561,2.10274148,1.07121408,0.31181636,-0.16631822,0.00000000,0.00000000
0.10261358,-1.92881763,-1.60657191,-0.89044005,1.15978634,0.00000000,0.00000000,-0.17049742,2.09857559,1.07347608,0.32191518,-0.16538788,0.00000000,0.00000000
0.14023790,-1.94531167,-1.62587869,-0.89933825,1.15322959,0.00000000,0.00000000,-0.15327781,2.09008598,1.07725060,0.33347788,-0.15770067,0.00000000,0.00000000
0.17513442,-1.96216381,-1.64247680,-0.90989602,1.14394581,0.00000000,0.00000000,-0.13407400,2.07827282,1.08216476,0.34529442,-0.15780954,0.00000000,0.00000000
0.20625593,-1.97741795,-1.65735066,-0.92233539,1.14078844,0.00000000,0.00000000,-0.11454164,2.06449842,1.08779776,0.35642138,-0.16113755,0.00000000,0.00000000
0.23309073,-1.98949063,-1.67128956,-0.93629783,1.14206874,0.00000000,0.00000000,-0.09575651,2.05015945,1.09385204,0.36637893,-0.16205369,0.00000000,0.00000000
0.25501293,-1.99722517,-1.68478060,-0.95151520,1.14848065,0.00000000,0.00000000,-0.07787582,2.03620148,1.10029268,0.37512079,-0.15840137,0.00000000,0.00000000
0.27130520,-2.00039434,-1.69769323,-0.96806484,1.16116786,0.00000000,0.00000000,-0.06035244,2.02366471,1.10717607,0.38328940,-0.15364254,0.00000000,0.00000000
0.28163359,-1.99943364,-1.70945370,-0.98609859,1.16574824,0.00000000,0.00000000,-0.04308013,2.01183510,1.11485314,0.39110124,-0.14531459,0.00000000,0.00000000
0.28651908,-1.99498379,-1.71936512,-1.00549221,1.16464913,0.00000000,0.00000000,-0.02858940,1.99871337,1.12359381,0.39757186,-0.13740356,0.00000000,0.00000000
0.28668001,-1.98743606,-1.72691631,-1.02612758,1.16892970,0.00000000,0.00000000,-0.01911627,1.98579419,1.13281405,0.40355068,-0.12764472,0.00000000,0.00000000
0.28293547,-1.97697783,-1.73176813,-1.04777086,1.17257357,0.00000000,0.00000000,-0.01495908,1.97759688,1.14137352,0.41187996,-0.11074851,0.00000000,0.00000000
0.27622741,-1.96380627,-1.73359764,-1.07010806,1.17826259,0.00000000,0.00000000,-0.01556905,1.97136915,1.14973211,0.42268583,-0.09359197,0.00000000,0.00000000
0.26669550,-1.94826353,-1.73189533,-1.09343135,1.18238211,0.00000000,0.00000000,-0.02019938,1.96811032,1.15741670,0.43616572,-0.07697505,0.00000000,0.00000000
0.25372559,-1.93012106,-1.72670197,-1.11859667,1.18735099,0.00000000,0.00000000,-0.02625664,1.97010481,1.16378772,0.45271921,-0.06268940,0.00000000,0.00000000
0.23991233,-1.91048372,-1.71791565,-1.14494371,1.18719578,0.00000000,0.00000000,-0.03485521,1.97359002,1.16921186,0.46844226,-0.04866294,0.00000000,0.00000000
0.22945386,-1.89183974,-1.70529222,-1.17086041,1.18596578,0.00000000,0.00000000,-0.04920220,1.97663856,1.17347836,0.47985351,-0.03523658,0.00000000,0.00000000
0.22560138,-1.87682188,-1.68862212,-1.19496262,1.18905568,0.00000000,0.00000000,-0.07155279,1.97860992,1.17636001,0.48521805,-0.02567196,0.00000000,0.00000000
0.22882694,-1.86593795,-1.66867328,-1.21705842,1.19072378,0.00000000,0.00000000,-0.10031202,1.97846818,1.17832971,0.48485255,-0.01035311,0.00000000,0.00000000
0.23917130,-1.85856569,-1.64710057,-1.23655069,1.19040656,0.00000000,0.00000000,-0.13123490,1.97534072,1.18016970,0.48053554,0.01162553,0.00000000,0.00000000
0.26129803,-1.85516500,-1.62558365,-1.24911308,1.19338834,0.00000000,0.00000000,-0.16332021,1.96807861,1.18230641,0.47228330,0.03072417,0.00000000,0.00000000
0.29677707,-1.85599518,-1.60588348,-1.25226343,1.20081067,0.00000000,0.00000000,-0.19735204,1.95594013,1.18488717,0.45941889,0.05022799,0.00000000,0.00000000
0.34496415,-1.86182535,-1.58881497,-1.24491966,1.20637095,0.00000000,0.00000000,-0.23432788,1.93895578,1.18784010,0.44123217,0.06965601,0.00000000,0.00000000
0.40313977,-1.87351525,-1.57465363,-1.22596192,1.21693265,0.00000000,0.00000000,-0.27121764,1.92110455,1.19054127,0.42028767,0.09616539,0.00000000,0.00000000
0.46510610,-1.88998449,-1.56334269,-1.19472921,1.23063684,0.00000000,0.00000000,-0.29837620,1.90666330,1.19309342,0.40313101,0.12068342,0.00000000,0.00000000
0.52913624,-1.90834987,-1.55375326,-1.15145850,1.24593163,0.00000000,0.00000000,-0.31081095,1.89727902,1.19587791,0.39461997,0.14531311,0.00000000,0.00000000
0.59751904,-1.92554712,-1.54429567,-1.09729612,1.25671983,0.00000000,0.00000000,-0.30734724,1.89336491,1.19910932,0.39907134,0.16615379,0.00000000,0.00000000
0.67081940,-1.94104147,-1.53354192,-1.03488111,1.26484251,0.00000000,0.00000000,-0.29241139,1.89510977,1.20227194,0.41586807,0.18652466,0.00000000,0.00000000
0.74241251,-1.95504010,-1.52125823,-0.97001159,1.26986933,0.00000000,0.00000000,-0.26903516,1.90321887,1.20470119,0.44408596,0.20687842,0.00000000,0.00000000
0.80287421,-1.96672034,-1.50877190,-0.90995359,1.27680719,0.00000000,0.00000000,-0.23764145,1.91593230,1.20653903,0.48321804,0.22371647,0.00000000,0.00000000
0.84893286,-1.97570586,-1.49713826,-0.85827118,1.28024387,0.00000000,0.00000000,-0.20231336,1.93225241,1.20729351,0.52994227,0.24071597,0.00000000,0.00000000
0.88066971,-1.98186970,-1.48711121,-0.81579888,1.28149962,0.00000000,0.00000000,-0.17111994,1.95224166,1.20574927,0.57652855,0.25428569,0.00000000,0.00000000
0.89825398,-1.98464692,-1.47958493,-0.78262109,1.28542733,0.00000000,0.00000000,-0.14509839,1.97366524,1.20234168,0.61706972,0.27542287,0.00000000,0.00000000
0.90190250,-1.98344862,-1.47531521,-0.75842541,1.27938116,0.00000000,0.00000000,-0.12472732,1.99562502,1.19735169,0.64897662,0.30031779,0.00000000,0.00000000
0.89179277,-1.97787440,-1.47479022,-0.74277478,1.27155769,0.00000000,0.00000000,-0.10995594,2.01663423,1.19154501,0.67136121,0.32424593,0.00000000,0.00000000
0.86877853,-1.96794534,-1.47811544,-0.73490262,1.25612772,0.00000000,0.00000000,-0.10062110,2.03508329,1.18581665,0.68381882,0.34976935,0.00000000,0.00000000
0.83423907,-1.95438623,-1.48493147,-0.73404831,1.24325573,0.00000000,0.00000000,-0.09684443,2.04945803,1.18097508,0.68611479,0.36917681,0.00000000,0.00000000
0.78937966,-1.93872786,-1.49442232,-0.74000663,1.23225856,0.00000000,0.00000000,-0.09849516,2.05854058,1.17769957,0.67837274,0.38258925,0.00000000,0.00000000
0.73477018,-1.92282212,-1.50556517,-0.75330961,1.22255480,0.00000000,0.00000000,-0.10499869,2.06230211,1.17616582,0.66136998,0.39943892,0.00000000,0.00000000
0.67141092,-1.90829110,-1.51731861,-0.77414119,1.21206307,0.00000000,0.00000000,-0.11572327,2.06096578,1.17634463,0.63631189,0.41696841,0.00000000,0.00000000
0.60085964,-1.89664638,-1.52854931,-0.80221868,1.20189106,0.00000000,0.00000000,-0.13036548,2.05532265,1.17781174,0.60484552,0.43701115,0.00000000,0.00000000
0.52487010,-1.88910472,-1.53812981,-0.83691037,1.18850183,0.00000000,0.00000000,-0.14850478,2.04732728,1.17968333,0.56894296,0.45810896,0.00000000,0.00000000
0.44648147,-1.88743901,-1.54452968,-0.87678355,1.17491853,0.00000000,0.00000000,-0.17029566,2.04052424,1.18051112,0.53057462,0.48290038,0.00000000,0.00000000
0.36976814,-1.89445257,-1.54562926,-0.92020822,1.15510464,0.00000000,0.00000000,-0.19791873,2.03942513,1.17849314,0.49174774,0.51284671,0.00000000,0.00000000
0.29862800,-1.91204095,-1.53962505,-0.96527326,1.14371812,0.00000000,0.00000000,-0.22915347,2.04656553,1.17329490,0.45597374,0.54336673,0.00000000,0.00000000
0.23737825,-1.93933487,-1.52615857,-1.00844574,1.13412118,0.00000000,0.00000000,-0.25710431,2.06006002,1.16653609,0.42732528,0.57412595,0.00000000,0.00000000
0.19013929,-1.97273111,-1.50666976,-1.04518259,1.12406945,0.00000000,0.00000000,-0.27743232,2.07661819,1.15984344,0.40777987,0.60363698,0.00000000,0.00000000
0.15845837,-2.00737739,-1.48377085,-1.07227767,1.11477220,0.00000000,0.00000000,-0.28876376,2.09358549,1.15411210,0.39722016,0.62651747,0.00000000,0.00000000
0.14148733,-2.03881097,-1.46034253,-1.08816576,1.09854352,0.00000000,0.00000000,-0.29134965,2.10860276,1.14978850,0.39415357,0.64968157,0.00000000,0.00000000
0.13739990,-2.06436801,-1.43862450,-1.09231567,1.08011806,0.00000000,0.00000000,-0.28614375,2.11974740,1.14706326,0.39678612,0.67661971,0.00000000,0.00000000
0.14448783,-2.08299708,-1.42019844,-1.08459973,1.06112516,0.00000000,0.00000000,-0.27439094,2.12674952,1.14571500,0.40382174,0.70048708,0.00000000,0.00000000
0.16126397,-2.09458065,-1.40601921,-1.06516933,1.04163170,0.00000000,0.00000000,-0.25744906,2.12973642,1.14544129,0.41419670,0.72106016,0.00000000,0.00000000
0.18660991,-2.09902525,-1.39643896,-1.03442943,1.02091515,0.00000000,0.00000000,-0.23673126,2.12982082,1.14575100,0.42709684,0.73309791,0.00000000,0.00000000
0.21968043,-2.09631872,-1.39100945,-0.99313462,0.99760413,0.00000000,0.00000000,-0.21313222,2.12871242,1.14608335,0.44218439,0.74864793,0.00000000,0.00000000
0.25924155,-2.08707285,-1.38855374,-0.94277292,0.97500157,0.00000000,0.00000000,-0.18625408,2.12611699,1.14655721,0.45920590,0.76523268,0.00000000,0.00000000
0.30249134,-2.07292104,-1.38764942,-0.88636255,0.95229709,0.00000000,0.00000000,-0.15534738,2.11828256,1.14821422,0.47687402,0.77964675,0.00000000,0.00000000
0.34517798,-2.05779171,-1.38618290,-0.82880199,0.93741095,0.00000000,0.00000000,-0.12306492,2.10807776,1.15003467,0.49393210,0.79416007,0.00000000,0.00000000
0.38369799,-2.04530621,-1.38271224,-0.77460909,0.92540371,0.00000000,0.00000000,-0.09183683,2.09683585,1.15148592,0.50896037,0.81404883,0.00000000,0.00000000
0.41685113,-2.03693700,-1.37702966,-0.72584665,0.91192418,0.00000000,0.00000000,-0.06329824,2.08409452,1.15261006,0.52066672,0.83459663,0.00000000,0.00000000
0.44501206,-2.03242230,-1.36973405,-0.68256420,0.90058613,0.00000000,0.00000000,-0.03858346,2.06874418,1.15374422,0.52803785,0.85793471,0.00000000,0.00000000
0.46778286,-2.03274608,-1.36087215,-0.64539337,0.89231008,0.00000000,0.00000000,-0.01934129,2.05232024,1.15438282,0.53078282,0.87959498,0.00000000,0.00000000
0.48516023,-2.03783560,-1.35076296,-0.61420631,0.87900543,0.00000000,0.00000000,-0.00611177,2.03521204,1.15452433,0.52889663,0.90378964,0.00000000,0.00000000
0.49679843,-2.04658532,-1.34007609,-0.58886135,0.86983949,0.00000000,0.00000000,0.00141534,2.01757669,1.15427768,0.52269912,0.93097681,0.00000000,0.00000000
0.50256181,-2.05781651,-1.32938540,-0.56909043,0.86348152,0.00000000,0.00000000,0.00280738,2.00018001,1.15344024,0.51243997,0.94952565,0.00000000,0.00000000
0.50178605,-2.06984568,-1.31942856,-0.55486608,0.85973144,0.00000000,0.00000000,-0.00255415,1.98344874,1.15189588,0.49861455,0.96691734,0.00000000,0.00000000
0.49286348,-2.08099318,-1.31098914,-0.54681289,0.84610510,0.00000000,0.00000000,-0.01445040,1.96904087,1.14923966,0.48270270,0.98517179,0.00000000,0.00000000
0.47433922,-2.08994913,-1.30465388,-0.54547429,0.83570772,0.00000000,0.00000000,-0.03228580,1.95990062,1.14474571,0.46628365,1.00043190,0.00000000,0.00000000
0.44575402,-2.09601212,-1.30065405,-0.55076766,0.82316571,0.00000000,0.00000000,-0.05418836,1.95495403,1.13895583,0.44986427,1.00762177,0.00000000,0.00000000
0.40803707,-2.09788203,-1.29922330,-0.56138641,0.80373901,0.00000000,0.00000000,-0.07756640,1.94944191,1.13356173,0.43338129,1.01673698,0.00000000,0.00000000
0.36194015,-2.09786630,-1.29936731,-0.57687527,0.78368217,0.00000000,0.00000000,-0.10200813,1.94809806,1.12764013,0.41870892,1.02175820,0.00000000,0.00000000
0.30939534,-2.09762740,-1.30013955,-0.59589779,0.76419342,0.00000000,0.00000000,-0.12731503,1.95096791,1.12135088,0.40566111,1.02714717,0.00000000,0.00000000
0.25344351,-2.09754419,-1.30091012,-0.61632091,0.74749130,0.00000000,0.00000000,-0.15269253,1.95668435,1.11517274,0.39363492,1.03072965,0.00000000,0.00000000
0.19869617,-2.09788752,-1.30092561,-0.63522482,0.73432225,0.00000000,0.00000000,-0.17766201,1.96565211,1.10901380,0.38268015,1.02470803,0.00000000,0.00000000
0.14823748,-2.09941173,-1.29942226,-0.65082914,0.72253692,0.00000000,0.00000000,-0.19914357,1.97762978,1.10312724,0.37429312,1.02148879,0.00000000,0.00000000
0.10199432,-2.10231233,-1.29622531,-0.66315854,0.70582056,0.00000000,0.00000000,-0.21371126,1.98862660,1.09853327,0.36881170,1.02195108,0.00000000,0.00000000
0.05844436,-2.10621738,-1.29158115,-0.67301303,0.68746495,0.00000000,0.00000000,-0.21957283,1.99790752,1.09543133,0.36674145,1.02285361,0.00000000,0.00000000
0.01610267,-2.11079693,-1.28579187,-0.68132704,0.67006898,0.00000000,0.00000000,-0.21645193,2.00653052,1.09351099,0.36826348,1.02020931,0.00000000,0.00000000
-0.02583536,-2.11563420,-1.27917922,-0.68866235,0.65997934,0.00000000,0.00000000,-0.20561925,2.01397634,1.09262729,0.37210026,1.01354134,0.00000000,0.00000000
-0.06730802,-2.12072229,-1.27183270,-0.69516730,0.65419489,0.00000000,0.00000000,-0.18913631,2.01986194,1.09254241,0.37668440,1.00667083,0.00000000,0.00000000
-0.10766922,-2.12652206,-1.26359785,-0.70075327,0.64654863,0.00000000,0.00000000,-0.16932495,2.02520251,1.09272110,0.38111201,1.00704157,0.00000000,0.00000000
-0.14611626,-2.13323402,-1.25445592,-0.70509946,0.63768560,0.00000000,0.00000000,-0.14840408,2.02976346,1.09287572,0.38424045,1.00222981,0.00000000,0.00000000
-0.18017553,-2.13975883,-1.24483895,-0.70653641,0.62534642,0.00000000,0.00000000,-0.12818255,2.03408456,1.09259224,0.38553050,1.00122046,0.00000000,0.00000000
-0.20449765,-2.14258575,-1.23588216,-0.70150340,0.61601442,0.00000000,0.00000000,-0.10992439,2.03984356,1.09128296,0.38523829,0.99851078,0.00000000,0.00000000
