isaac-sim2real/sage/motion_files/wr75s/amass/0-Eyes_Japan_Dataset_hamada_walk-23-shuffle oneleg-hamada_poses_idx52.txt
l_joint1,l_joint2,l_joint3,l_joint4,l_joint5,l_joint6,l_joint7,r_joint1,r_joint2,r_joint3,r_joint4,r_joint5,r_joint6,r_joint7
-2.45733404,-0.52455658,-0.35048440,-0.39581031,-0.00394991,0.00000000,0.00000000,-1.44092739,0.77660048,0.08726402,-0.24189097,0.07780573,0.00000000,0.00000000
-2.45676208,-0.52486563,-0.35000700,-0.39575225,-0.01390260,0.00000000,0.00000000,-1.44013786,0.77676284,0.08759729,-0.24221584,0.09080885,0.00000000,0.00000000
-2.45569205,-0.52538800,-0.34896678,-0.39553782,-0.02636427,0.00000000,0.00000000,-1.43875670,0.77676207,0.08810259,-0.24293321,0.10899411,0.00000000,0.00000000
-2.45413280,-0.52608907,-0.34730139,-0.39506012,-0.03992711,0.00000000,0.00000000,-1.43690038,0.77644128,0.08866325,-0.24406722,0.12814589,0.00000000,0.00000000
-2.45206690,-0.52689683,-0.34502533,-0.39427659,-0.05533656,0.00000000,0.00000000,-1.43461812,0.77591908,0.08922078,-0.24555869,0.14790373,0.00000000,0.00000000
-2.44944596,-0.52773118,-0.34220937,-0.39320979,-0.07377870,0.00000000,0.00000000,-1.43188834,0.77550077,0.08977599,-0.24729218,0.17133982,0.00000000,0.00000000
-2.44621730,-0.52856094,-0.33895391,-0.39190644,-0.09340315,0.00000000,0.00000000,-1.42865288,0.77549827,0.09036074,-0.24914624,0.19281289,0.00000000,0.00000000
-2.44234776,-0.52940971,-0.33534655,-0.39042044,-0.11375663,0.00000000,0.00000000,-1.42484689,0.77606547,0.09101300,-0.25107285,0.20987660,0.00000000,0.00000000
-2.43782592,-0.53026605,-0.33140516,-0.38874575,-0.13605148,0.00000000,0.00000000,-1.42044139,0.77716380,0.09173946,-0.25312075,0.22246727,0.00000000,0.00000000
-2.43264890,-0.53110301,-0.32705176,-0.38676935,-0.15965633,0.00000000,0.00000000,-1.41547024,0.77856612,0.09249000,-0.25542533,0.23671141,0.00000000,0.00000000
-2.42682242,-0.53187388,-0.32217720,-0.38431090,-0.18307884,0.00000000,0.00000000,-1.41001070,0.78001010,0.09317175,-0.25813109,0.24620694,0.00000000,0.00000000
-2.42035508,-0.53245413,-0.31669667,-0.38115838,-0.20489895,0.00000000,0.00000000,-1.40416229,0.78135550,0.09366702,-0.26129204,0.25607729,0.00000000,0.00000000
-2.41323900,-0.53267586,-0.31057146,-0.37712887,-0.22703433,0.00000000,0.00000000,-1.39800978,0.78264976,0.09386425,-0.26483670,0.26812083,0.00000000,0.00000000
-2.40541291,-0.53259468,-0.30382091,-0.37221363,-0.24869995,0.00000000,0.00000000,-1.39157379,0.78401840,0.09370786,-0.26867160,0.28478587,0.00000000,0.00000000
-2.39676857,-0.53254133,-0.29651546,-0.36659092,-0.26683265,0.00000000,0.00000000,-1.38479817,0.78555614,0.09321170,-0.27274755,0.30114889,0.00000000,0.00000000
-2.38719654,-0.53280360,-0.28874877,-0.36042285,-0.28724763,0.00000000,0.00000000,-1.37759280,0.78736264,0.09242060,-0.27703470,0.32054973,0.00000000,0.00000000
-2.37659431,-0.53357577,-0.28060755,-0.35378706,-0.30455282,0.00000000,0.00000000,-1.36985850,0.78951472,0.09138726,-0.28153262,0.33824122,0.00000000,0.00000000
-2.36486483,-0.53501171,-0.27217200,-0.34673354,-0.32221460,0.00000000,0.00000000,-1.36148167,0.79209596,0.09018075,-0.28623664,0.35579064,0.00000000,0.00000000
-2.35193014,-0.53720576,-0.26351082,-0.33927912,-0.34047794,0.00000000,0.00000000,-1.35234976,0.79519564,0.08887221,-0.29113573,0.37272540,0.00000000,0.00000000
-2.33772397,-0.54027534,-0.25467908,-0.33141911,-0.36242491,0.00000000,0.00000000,-1.34236491,0.79884362,0.08752315,-0.29624075,0.38914004,0.00000000,0.00000000
-2.32218838,-0.54434592,-0.24571967,-0.32313761,-0.38499999,0.00000000,0.00000000,-1.33145761,0.80301100,0.08617236,-0.30157954,0.41307244,0.00000000,0.00000000
-2.30528259,-0.54943961,-0.23664409,-0.31437165,-0.40265396,0.00000000,0.00000000,-1.31960762,0.80765063,0.08481163,-0.30718192,0.43226248,0.00000000,0.00000000
-2.28698063,-0.55549365,-0.22744446,-0.30500561,-0.41613442,0.00000000,0.00000000,-1.30683184,0.81274641,0.08339664,-0.31304768,0.45506543,0.00000000,0.00000000
-2.26725721,-0.56250089,-0.21812029,-0.29495654,-0.43431064,0.00000000,0.00000000,-1.29315424,0.81829315,0.08187857,-0.31914568,0.47590980,0.00000000,0.00000000
-2.24609065,-0.57047564,-0.20867912,-0.28418675,-0.46164632,0.00000000,0.00000000,-1.27859604,0.82427722,0.08021529,-0.32545888,0.49316636,0.00000000,0.00000000
-2.22345924,-0.57944113,-0.19914185,-0.27270380,-0.48656851,0.00000000,0.00000000,-1.26315284,0.83064723,0.07839941,-0.33202061,0.50801951,0.00000000,0.00000000
-2.19933701,-0.58952051,-0.18954636,-0.26061559,-0.50734431,0.00000000,0.00000000,-1.24679208,0.83728743,0.07646517,-0.33891037,0.52455896,0.00000000,0.00000000
-2.17370462,-0.60086608,-0.17994013,-0.24810115,-0.52362072,0.00000000,0.00000000,-1.22947347,0.84408873,0.07446400,-0.34621200,0.54438126,0.00000000,0.00000000
-2.14656067,-0.61350226,-0.17039743,-0.23527706,-0.53942329,0.00000000,0.00000000,-1.21115196,0.85111195,0.07246159,-0.35391366,0.56337047,0.00000000,0.00000000
-2.11792564,-0.62732071,-0.16101156,-0.22216593,-0.55082297,0.00000000,0.00000000,-1.19177520,0.85855806,0.07054557,-0.36189491,0.57961047,0.00000000,0.00000000
-2.08784580,-0.64211488,-0.15186574,-0.20872986,-0.56142622,0.00000000,0.00000000,-1.17128718,0.86663711,0.06882833,-0.37000188,0.59416032,0.00000000,0.00000000
-2.05639625,-0.65766776,-0.14301503,-0.19490594,-0.57469678,0.00000000,0.00000000,-1.14965284,0.87550253,0.06741861,-0.37810478,0.60966724,0.00000000,0.00000000
-2.02367759,-0.67383713,-0.13447455,-0.18066344,-0.58559096,0.00000000,0.00000000,-1.12688279,0.88520449,0.06638815,-0.38611090,0.61681843,0.00000000,0.00000000
-1.98981047,-0.69051832,-0.12624089,-0.16600090,-0.59646505,0.00000000,0.00000000,-1.10300851,0.89568889,0.06581393,-0.39396685,0.62264794,0.00000000,0.00000000
-1.95493364,-0.70758969,-0.11830652,-0.15093057,-0.60358030,0.00000000,0.00000000,-1.07806849,0.90687853,0.06580149,-0.40163532,0.63419372,0.00000000,0.00000000
-1.91920245,-0.72482449,-0.11065166,-0.13542813,-0.60866970,0.00000000,0.00000000,-1.05212355,0.91878450,0.06645733,-0.40904385,0.64337772,0.00000000,0.00000000
-1.88278151,-0.74206501,-0.10322726,-0.11950429,-0.61413211,0.00000000,0.00000000,-1.02528596,0.93129498,0.06783466,-0.41617176,0.65757847,0.00000000,0.00000000
-1.84583318,-0.75933117,-0.09594729,-0.10326109,-0.61534888,0.00000000,0.00000000,-0.99772835,0.94407481,0.06990283,-0.42307639,0.67828333,0.00000000,0.00000000
-1.80850649,-0.77662849,-0.08869101,-0.08678936,-0.61505449,0.00000000,0.00000000,-0.96966273,0.95680326,0.07255509,-0.42979667,0.70547181,0.00000000,0.00000000
-1.77093041,-0.79384798,-0.08132427,-0.07008333,-0.60902846,0.00000000,0.00000000,-0.94131440,0.96927261,0.07563367,-0.43633759,0.73286086,0.00000000,0.00000000
-1.73321235,-0.81092149,-0.07371829,-0.05312412,-0.60196644,0.00000000,0.00000000,-0.91291237,0.98125255,0.07894001,-0.44271737,0.76648945,0.00000000,0.00000000
-1.69544625,-0.82787359,-0.06576584,-0.03594036,-0.59667313,0.00000000,0.00000000,-0.88467193,0.99248165,0.08226940,-0.44896054,0.79877877,0.00000000,0.00000000
-1.65772402,-0.84472740,-0.05738553,-0.01857387,-0.59679627,0.00000000,0.00000000,-0.85678577,1.00278878,0.08543330,-0.45502836,0.83353406,0.00000000,0.00000000
-1.62014139,-0.86136758,-0.04851705,-0.00100663,-0.59670466,0.00000000,0.00000000,-0.82941324,1.01205587,0.08831212,-0.46082762,0.86511344,0.00000000,0.00000000
-1.58278811,-0.87754226,-0.03911556,0.01683415,-0.59732842,0.00000000,0.00000000,-0.80268401,1.02016497,0.09085900,-0.46628007,0.89435154,0.00000000,0.00000000
-1.54573357,-0.89297003,-0.02915152,0.03502244,-0.59281665,0.00000000,0.00000000,-0.77670652,1.02700281,0.09304347,-0.47135019,0.91292959,0.00000000,0.00000000
-1.50901401,-0.90743637,-0.01861727,0.05358171,-0.58544713,0.00000000,0.00000000,-0.75157052,1.03246248,0.09481622,-0.47604823,0.93218994,0.00000000,0.00000000
-1.47262728,-0.92076367,-0.00753694,0.07252136,-0.57803565,0.00000000,0.00000000,-0.72733927,1.03654766,0.09610939,-0.48038560,0.94480819,0.00000000,0.00000000
-1.43653798,-0.93286043,0.00402530,0.09183206,-0.57324183,0.00000000,0.00000000,-0.70403707,1.03935146,0.09685224,-0.48435873,0.95983469,0.00000000,0.00000000
-1.40069187,-0.94380790,0.01596239,0.11141727,-0.56042325,0.00000000,0.00000000,-0.68164372,1.04102337,0.09697239,-0.48796147,0.97487426,0.00000000,0.00000000
-1.36503208,-0.95386064,0.02812864,0.13105917,-0.54588348,0.00000000,0.00000000,-0.66010863,1.04183543,0.09637603,-0.49115351,0.98504788,0.00000000,0.00000000
-1.32951903,-0.96333152,0.04035419,0.15049939,-0.53606290,0.00000000,0.00000000,-0.63936156,1.04213369,0.09497406,-0.49385154,0.99201727,0.00000000,0.00000000
-1.29414392,-0.97248614,0.05246371,0.16951850,-0.52998877,0.00000000,0.00000000,-0.61930841,1.04227209,0.09272012,-0.49599865,0.99573755,0.00000000,0.00000000
-1.25893068,-0.98150826,0.06429264,0.18794402,-0.52104706,0.00000000,0.00000000,-0.59983975,1.04254436,0.08962357,-0.49761701,1.00257957,0.00000000,0.00000000
-1.22392571,-0.99061900,0.07569256,0.20557056,-0.51263142,0.00000000,0.00000000,-0.58083797,1.04312432,0.08572965,-0.49873224,1.01323330,0.00000000,0.00000000
-1.18918920,-1.00001633,0.08653143,0.22221166,-0.50457478,0.00000000,0.00000000,-0.56218809,1.04410172,0.08111408,-0.49933195,1.01989615,0.00000000,0.00000000
-1.15479970,-1.00963163,0.09670717,0.23783562,-0.49851593,0.00000000,0.00000000,-0.54381114,1.04536510,0.07590456,-0.49948353,1.02370226,0.00000000,0.00000000
-1.12085342,-1.01908755,0.10614713,0.25256616,-0.49385935,0.00000000,0.00000000,-0.52569818,1.04654312,0.07025845,-0.49936509,1.02309072,0.00000000,0.00000000
-1.08744001,-1.02790427,0.11478011,0.26655722,-0.48295602,0.00000000,0.00000000,-0.50787294,1.04727495,0.06433934,-0.49912295,1.02572811,0.00000000,0.00000000
-1.05463016,-1.03576684,0.12252344,0.27988538,-0.47411847,0.00000000,0.00000000,-0.49032003,1.04738998,0.05829575,-0.49879467,1.02879632,0.00000000,0.00000000
-1.02248323,-1.04252219,0.12928972,0.29256913,-0.46454009,0.00000000,0.00000000,-0.47297379,1.04680920,0.05228259,-0.49835116,1.02816200,0.00000000,0.00000000
-0.99103683,-1.04817939,0.13496980,0.30454063,-0.44836998,0.00000000,0.00000000,-0.45575330,1.04553866,0.04643812,-0.49774507,1.02959025,0.00000000,0.00000000
-0.96031034,-1.05273318,0.13943432,0.31573683,-0.43219367,0.00000000,0.00000000,-0.43859276,1.04365182,0.04089287,-0.49692062,1.03236318,0.00000000,0.00000000
-0.93032527,-1.05618727,0.14256872,0.32612175,-0.41449797,0.00000000,0.00000000,-0.42139137,1.04121900,0.03579296,-0.49582449,1.02931666,0.00000000,0.00000000
-0.90110517,-1.05868876,0.14427707,0.33562434,-0.39605376,0.00000000,0.00000000,-0.40397939,1.03834236,0.03129974,-0.49441001,1.02078056,0.00000000,0.00000000
-0.87266803,-1.06057477,0.14447290,0.34408996,-0.37424195,0.00000000,0.00000000,-0.38610616,1.03520644,0.02762054,-0.49260283,1.00706899,0.00000000,0.00000000
-0.84503168,-1.06222379,0.14307597,0.35133430,-0.35037813,0.00000000,0.00000000,-0.36749774,1.03204131,0.02498896,-0.49027258,0.99159813,0.00000000,0.00000000
-0.81821722,-1.06386721,0.14001289,0.35722494,-0.32768133,0.00000000,0.00000000,-0.34789959,1.02911532,0.02365201,-0.48728582,0.97645152,0.00000000,0.00000000
-0.79224581,-1.06554902,0.13522454,0.36171296,-0.30485752,0.00000000,0.00000000,-0.32707822,1.02661669,0.02388094,-0.48356277,0.95735157,0.00000000,0.00000000
-0.76712543,-1.06724179,0.12864518,0.36477184,-0.28445256,0.00000000,0.00000000,-0.30480823,1.02474737,0.02598510,-0.47892934,0.93426681,0.00000000,0.00000000
-0.74283087,-1.06900311,0.12016580,0.36630929,-0.26223758,0.00000000,0.00000000,-0.28085011,1.02397871,0.03033636,-0.47300339,0.91054761,0.00000000,0.00000000
-0.71928775,-1.07121670,0.10962988,0.36604449,-0.24006151,0.00000000,0.00000000,-0.25492701,1.02533758,0.03737178,-0.46510553,0.89074874,0.00000000,0.00000000
-0.69637567,-1.07481146,0.09684297,0.36343616,-0.21035425,0.00000000,0.00000000,-0.22671367,1.03062594,0.04757822,-0.45418841,0.86630118,0.00000000,0.00000000
-0.67393816,-1.08105242,0.08155540,0.35778594,-0.17726848,0.00000000,0.00000000,-0.19592990,1.04249275,0.06145983,-0.43881801,0.84144723,0.00000000,0.00000000
-0.65181988,-1.09135926,0.06352738,0.34823847,-0.14660113,0.00000000,0.00000000,-0.16245140,1.06373966,0.07950635,-0.41751161,0.81672353,0.00000000,0.00000000
-0.62993336,-1.10716653,0.04265733,0.33378893,-0.11962777,0.00000000,0.00000000,-0.12642284,1.09606123,0.10209610,-0.38929403,0.79502547,0.00000000,0.00000000
-0.60822994,-1.12973344,0.01899503,0.31350040,-0.09808241,0.00000000,0.00000000,-0.08838785,1.13967919,0.12937142,-0.35391125,0.77540350,0.00000000,0.00000000
-0.58665067,-1.15976644,-0.00728283,0.28682867,-0.07579676,0.00000000,0.00000000,-0.04934487,1.19362605,0.16118899,-0.31176895,0.75856996,0.00000000,0.00000000
-0.56509042,-1.19729161,-0.03588907,0.25373164,-0.05763648,0.00000000,0.00000000,-0.01071870,1.25624001,0.19716050,-0.26382610,0.74109966,0.00000000,0.00000000
-0.54338020,-1.24193132,-0.06645072,0.21452959,-0.05158230,0.00000000,0.00000000,0.02571813,1.32563746,0.23668985,-0.21136710,0.71793669,0.00000000,0.00000000
-0.52125412,-1.29299641,-0.09855025,0.16985138,-0.04227582,0.00000000,0.00000000,0.05801240,1.39988613,0.27900547,-0.15575768,0.69055259,0.00000000,0.00000000
-0.49825615,-1.34939027,-0.13176242,0.12069394,-0.02584430,0.00000000,0.00000000,0.08435496,1.47734761,0.32321587,-0.09828532,0.66273838,0.00000000,0.00000000
-0.47378543,-1.40980721,-0.16564007,0.06831896,-0.00586556,0.00000000,0.00000000,0.10347328,1.55688918,0.36838511,-0.04007438,0.63626111,0.00000000,0.00000000
-0.44740719,-1.47312784,-0.19969295,0.01397633,0.01668420,0.00000000,0.00000000,0.11480818,1.63738322,0.41362187,0.01783682,0.61036420,0.00000000,0.00000000
-0.41913542,-1.53850162,-0.23342776,-0.04126256,0.04110212,0.00000000,0.00000000,0.11847675,1.71679652,0.45818034,0.07414877,0.58422506,0.00000000,0.00000000
-0.38947538,-1.60489535,-0.26641813,-0.09633905,0.06754850,0.00000000,0.00000000,0.11526129,1.79190111,0.50155872,0.12715101,0.56478173,0.00000000,0.00000000
-0.35931897,-1.67086112,-0.29835969,-0.15013722,0.09170413,0.00000000,0.00000000,0.10632400,1.85874081,0.54354882,0.17488158,0.54671544,0.00000000,0.00000000
-0.32992634,-1.73463213,-0.32910842,-0.20161429,0.11615971,0.00000000,0.00000000,0.09280544,1.91361761,0.58418286,0.21551639,0.52535027,0.00000000,0.00000000
-0.30289459,-1.79437220,-0.35869616,-0.24994576,0.13486250,0.00000000,0.00000000,0.07553070,1.95408440,0.62359494,0.24777356,0.49992162,0.00000000,0.00000000
-0.27986392,-1.84874976,-0.38727450,-0.29472613,0.15419614,0.00000000,0.00000000,0.05484517,1.97936559,0.66186774,0.27102757,0.47801238,0.00000000,0.00000000
-0.26213974,-1.89744067,-0.41500002,-0.33611831,0.17899577,0.00000000,0.00000000,0.03062436,1.99069631,0.69890553,0.28546205,0.45795667,0.00000000,0.00000000
-0.25036478,-1.94118321,-0.44190800,-0.37474582,0.19630019,0.00000000,0.00000000,0.00263666,1.99070048,0.73447627,0.29191774,0.43423745,0.00000000,0.00000000
-0.24481368,-1.98149896,-0.46793148,-0.41156128,0.21514323,0.00000000,0.00000000,-0.02851313,1.98251939,0.76840091,0.29189384,0.41315416,0.00000000,0.00000000
-0.24727744,-2.01951790,-0.49340025,-0.44770616,0.23721661,0.00000000,0.00000000,-0.06036586,1.96934807,0.80072701,0.28780633,0.40270364,0.00000000,0.00000000
-0.26020399,-2.05498338,-0.51896262,-0.48374146,0.25656211,0.00000000,0.00000000,-0.08939761,1.95422649,0.83163553,0.28267094,0.38914037,0.00000000,0.00000000
-0.28071457,-2.08668303,-0.54410994,-0.51833010,0.27604482,0.00000000,0.00000000,-0.11324201,1.93951929,0.86121637,0.27896592,0.38208064,0.00000000,0.00000000
-0.30396923,-2.11356854,-0.56779242,-0.55002022,0.29887208,0.00000000,0.00000000,-0.13059869,1.92646921,0.88953900,0.27830079,0.36884910,0.00000000,0.00000000
-0.32774204,-2.13545227,-0.58947474,-0.57880521,0.32183090,0.00000000,0.00000000,-0.14078127,1.91511798,0.91672218,0.28138551,0.35407418,0.00000000,0.00000000
-0.35075435,-2.15247631,-0.60881066,-0.60519606,0.34556508,0.00000000,0.00000000,-0.14382812,1.90503263,0.94283766,0.28820416,0.33366269,0.00000000,0.00000000
-0.37131357,-2.16402912,-0.62539423,-0.62920237,0.36713925,0.00000000,0.00000000,-0.14042932,1.89614010,0.96781462,0.29841357,0.31627390,0.00000000,0.00000000
-0.38817132,-2.16896629,-0.63942158,-0.64930242,0.38415152,0.00000000,0.00000000,-0.13158868,1.88938951,0.99138093,0.31182203,0.29857251,0.00000000,0.00000000
-0.40189493,-2.16994572,-0.65225965,-0.66248333,0.40229487,0.00000000,0.00000000,-0.11891218,1.88557363,1.01318574,0.32771429,0.28212327,0.00000000,0.00000000
-0.41075882,-2.17000008,-0.66415179,-0.66542590,0.41386977,0.00000000,0.00000000,-0.10401507,1.88521981,1.03288734,0.34521660,0.26509714,0.00000000,0.00000000
-0.41068166,-2.17000008,-0.67393529,-0.65685350,0.42738262,0.00000000,0.00000000,-0.08834474,1.88859832,1.05019057,0.36350721,0.24343839,0.00000000,0.00000000
-0.40004218,-2.17000008,-0.68103611,-0.63857907,0.43487519,0.00000000,0.00000000,-0.07337242,1.89573169,1.06483710,0.38174289,0.22588190,0.00000000,0.00000000
-0.38146567,-2.17000008,-0.68525094,-0.61664903,0.44120866,0.00000000,0.00000000,-0.06045494,1.90611780,1.07668090,0.39903492,0.20988356,0.00000000,0.00000000
-0.35973769,-2.17000008,-0.68799675,-0.59439898,0.44484115,0.00000000,0.00000000,-0.05026344,1.91845477,1.08581924,0.41458064,0.19230810,0.00000000,0.00000000
-0.33302626,-2.17000008,-0.68973732,-0.56874532,0.44942418,0.00000000,0.00000000,-0.04270460,1.93140113,1.09247029,0.42777508,0.17979245,0.00000000,0.00000000
-0.30222154,-2.16994214,-0.69066274,-0.53855014,0.45559460,0.00000000,0.00000000,-0.03696302,1.94474864,1.09673333,0.43861857,0.16929688,0.00000000,0.00000000
-0.27264741,-2.16901207,-0.69156373,-0.50597066,0.47492921,0.00000000,0.00000000,-0.03143603,1.95873511,1.09873354,0.44771883,0.16036777,0.00000000,0.00000000
-0.24373868,-2.16549468,-0.69156229,-0.47259325,0.48800111,0.00000000,0.00000000,-0.02483208,1.97324979,1.09864604,0.45554325,0.15412156,0.00000000,0.00000000
-0.21213870,-2.16012430,-0.68937790,-0.43931594,0.50065380,0.00000000,0.00000000,-0.01691835,1.98780406,1.09661400,0.46202794,0.14927106,0.00000000,0.00000000
-0.17527680,-2.15571141,-0.68417764,-0.40717393,0.51508534,0.00000000,0.00000000,-0.00788700,2.00222492,1.09267843,0.46709269,0.14353155,0.00000000,0.00000000
-0.13190690,-2.15355849,-0.67580301,-0.37659156,0.53334343,0.00000000,0.00000000,0.00136109,2.01671267,1.08673155,0.47040850,0.13410462,0.00000000,0.00000000
-0.08371504,-2.15326548,-0.66490024,-0.34782583,0.55018312,0.00000000,0.00000000,0.00958820,2.03227210,1.07847762,0.47166136,0.12280606,0.00000000,0.00000000
-0.03695783,-2.15552998,-0.65267730,-0.32304633,0.56788027,0.00000000,0.00000000,0.01665403,2.05035901,1.06774557,0.47115126,0.10998672,0.00000000,0.00000000
0.00299623,-2.15995026,-0.64019167,-0.30383220,0.58910483,0.00000000,0.00000000,0.02279666,2.07027578,1.05502844,0.46864027,0.09648997,0.00000000,0.00000000
0.03426998,-2.16427851,-0.62805420,-0.28968427,0.61289960,0.00000000,0.00000000,0.02792061,2.08946848,1.04124129,0.46329001,0.08651660,0.00000000,0.00000000
0.05629460,-2.16765666,-0.61647105,-0.28033313,0.63328308,0.00000000,0.00000000,0.03276227,2.10581255,1.02726674,0.45477363,0.07708961,0.00000000,0.00000000
0.06901759,-2.16951227,-0.60557580,-0.27521178,0.65987974,0.00000000,0.00000000,0.03874569,2.11714339,1.01399517,0.44265744,0.06047388,0.00000000,0.00000000
0.07247552,-2.16997218,-0.59564549,-0.27291736,0.68150282,0.00000000,0.00000000,0.04692214,2.12161112,1.00208426,0.42662954,0.04947161,0.00000000,0.00000000
0.06703768,-2.17000008,-0.58709806,-0.27102375,0.70294696,0.00000000,0.00000000,0.05743571,2.11892462,0.99161851,0.40729785,0.03962616,0.00000000,0.00000000
0.05382945,-2.17000008,-0.58027375,-0.26678628,0.72275031,0.00000000,0.00000000,0.06945573,2.11103797,0.98203301,0.38615745,0.02393958,0.00000000,0.00000000
0.03474538,-2.16994929,-0.57511681,-0.25886768,0.73873490,0.00000000,0.00000000,0.08116673,2.10241866,0.97211999,0.36522204,0.00284080,0.00000000,0.00000000
0.01201953,-2.16904926,-0.57129914,-0.24710318,0.75610417,0.00000000,0.00000000,0.09235842,2.09657526,0.96108311,0.34678349,-0.01616206,0.00000000,0.00000000
-0.01202706,-2.16461372,-0.56831342,-0.23203924,0.77340072,0.00000000,0.00000000,0.10296099,2.09435034,0.94870603,0.33142772,-0.03785463,0.00000000,0.00000000
-0.03510518,-2.15466166,-0.56560171,-0.21480450,0.78776491,0.00000000,0.00000000,0.11301821,2.09662104,0.93486357,0.31956849,-0.05366683,0.00000000,0.00000000
-0.05451326,-2.14159918,-0.56267422,-0.19643150,0.79956388,0.00000000,0.00000000,0.12302888,2.10408258,0.91957414,0.31187871,-0.07455162,0.00000000,0.00000000
-0.06743569,-2.12898111,-0.55916464,-0.17790958,0.81501770,0.00000000,0.00000000,0.13377491,2.11594200,0.90315497,0.30860093,-0.08715916,0.00000000,0.00000000
-0.07243302,-2.11979389,-0.55492669,-0.16066577,0.83147454,0.00000000,0.00000000,0.14566508,2.13006639,0.88607806,0.30908906,-0.09602126,0.00000000,0.00000000
-0.07022049,-2.11576009,-0.55008608,-0.14621468,0.84878421,0.00000000,0.00000000,0.15781738,2.14387083,0.86870193,0.31175661,-0.10760548,0.00000000,0.00000000
-0.06337395,-2.11708856,-0.54496700,-0.13570182,0.86853617,0.00000000,0.00000000,0.16907142,2.15548897,0.85122573,0.31517273,-0.12614740,0.00000000,0.00000000
-0.05541782,-2.12305212,-0.53994685,-0.12979771,0.89336056,0.00000000,0.00000000,0.17957428,2.16421485,0.83380216,0.31895715,-0.14332971,0.00000000,0.00000000
-0.04949816,-2.13219023,-0.53534770,-0.12842919,0.91085613,0.00000000,0.00000000,0.19144434,2.16881847,0.81702954,0.32284835,-0.15690202,0.00000000,0.00000000
-0.04692942,-2.14250183,-0.53135240,-0.13063326,0.93737680,0.00000000,0.00000000,0.20577368,2.16993284,0.80159831,0.32566872,-0.17172378,0.00000000,0.00000000
-0.04678213,-2.15199518,-0.52797949,-0.13498114,0.96654862,0.00000000,0.00000000,0.21944407,2.17000008,0.78740060,0.32581583,-0.18182920,0.00000000,0.00000000
-0.04782286,-2.15944743,-0.52519023,-0.14061874,0.99981219,0.00000000,0.00000000,0.23188540,2.17000008,0.77462512,0.32337025,-0.19017561,0.00000000,0.00000000
-0.04933737,-2.16485310,-0.52291983,-0.14762503,1.03211963,0.00000000,0.00000000,0.24418195,2.17000008,0.76355404,0.31932253,-0.20351009,0.00000000,0.00000000
-0.05057355,-2.16835594,-0.52109277,-0.15625085,1.06995153,0.00000000,0.00000000,0.25541279,2.17000008,0.75407690,0.31390932,-0.21306965,0.00000000,0.00000000
-0.05078824,-2.16973972,-0.51970994,-0.16584828,1.10233641,0.00000000,0.00000000,0.26433188,2.17000008,0.74604368,0.30701733,-0.21933396,0.00000000,0.00000000
-0.04915154,-2.16998720,-0.51887035,-0.17435807,1.13377166,0.00000000,0.00000000,0.27022678,2.17000008,0.73940653,0.29846057,-0.22490826,0.00000000,0.00000000
-0.04522323,-2.17000008,-0.51875848,-0.17908341,1.16471076,0.00000000,0.00000000,0.27279356,2.17000008,0.73411083,0.28820917,-0.23174603,0.00000000,0.00000000
-0.03905129,-2.17000008,-0.51955318,-0.17777517,1.19381654,0.00000000,0.00000000,0.27190182,2.16996336,0.73000014,0.27656978,-0.23830508,0.00000000,0.00000000
-0.03078955,-2.17000008,-0.52127850,-0.16982284,1.22342873,0.00000000,0.00000000,0.26738805,2.16939592,0.72679818,0.26424181,-0.25041220,0.00000000,0.00000000
-0.02092370,-2.17000008,-0.52384472,-0.15643516,1.25935137,0.00000000,0.00000000,0.25930211,2.16749668,0.72419369,0.25233057,-0.26715934,0.00000000,0.00000000
-0.01029150,-2.16999888,-0.52717119,-0.13965786,1.29467177,0.00000000,0.00000000,0.24793334,2.16512418,0.72194332,0.24202900,-0.28572586,0.00000000,0.00000000
0.00018892,-2.16996551,-0.53122246,-0.12164526,1.32721174,0.00000000,0.00000000,0.23399149,2.16351509,0.71997243,0.23440099,-0.30315065,0.00000000,0.00000000
0.00952790,-2.16964316,-0.53599554,-0.10465278,1.35892212,0.00000000,0.00000000,0.21840629,2.16349077,0.71832371,0.23028749,-0.31973216,0.00000000,0.00000000
0.01699025,-2.16872072,-0.54150528,-0.09050392,1.39506948,0.00000000,0.00000000,0.20210649,2.16514874,0.71714103,0.23004971,-0.33967757,0.00000000,0.00000000
0.02237022,-2.16772079,-0.54778051,-0.07999033,1.42455006,0.00000000,0.00000000,0.18596554,2.16760445,0.71666157,0.23351865,-0.35066459,0.00000000,0.00000000
0.02581721,-2.16709971,-0.55484837,-0.07314767,1.45347488,0.00000000,0.00000000,0.17078842,2.16944146,0.71715862,0.24025054,-0.36045209,0.00000000,0.00000000
0.02762729,-2.16688347,-0.56272650,-0.06961992,1.48927701,0.00000000,0.00000000,0.15734065,2.16996670,0.71889859,0.24970734,-0.37014586,0.00000000,0.00000000
0.02822666,-2.16682816,-0.57141978,-0.06885720,1.52619863,0.00000000,0.00000000,0.14637831,2.17000008,0.72214091,0.26125619,-0.38024423,0.00000000,0.00000000
0.02805401,-2.16653180,-0.58092445,-0.07031427,1.56677079,0.00000000,0.00000000,0.13864470,2.17000008,0.72708327,0.27451289,-0.39335606,0.00000000,0.00000000
0.02727922,-2.16564322,-0.59123677,-0.07365991,1.60625923,0.00000000,0.00000000,0.13497745,2.17000008,0.73381799,0.28966862,-0.40723252,0.00000000,0.00000000
0.02570382,-2.16398096,-0.60235512,-0.07880084,1.64498186,0.00000000,0.00000000,0.13477299,2.17000008,0.74228716,0.30593634,-0.41708305,0.00000000,0.00000000
0.02256715,-2.16129375,-0.61429608,-0.08577926,1.68137598,0.00000000,0.00000000,0.13613835,2.17000008,0.75253928,0.32022896,-0.42667434,0.00000000,0.00000000
0.01613076,-2.15747142,-0.62711507,-0.09504182,1.72392857,0.00000000,0.00000000,0.13967948,2.17000008,0.76479226,0.33085975,-0.43224084,0.00000000,0.00000000
0.00514143,-2.15200496,-0.64087087,-0.10672574,1.76108873,0.00000000,0.00000000,0.14610600,2.16998291,0.77900827,0.33791298,-0.43821043,0.00000000,0.00000000
-0.00887649,-2.14415455,-0.65549523,-0.12008479,1.79496384,0.00000000,0.00000000,0.15362754,2.16961527,0.79474759,0.34133875,-0.44570470,0.00000000,0.00000000
-0.02557833,-2.13550377,-0.67085946,-0.13623041,1.82751966,0.00000000,0.00000000,0.15924911,2.16710043,0.81130123,0.34103799,-0.45166782,0.00000000,0.00000000
-0.04849399,-2.12828040,-0.68700445,-0.15795530,1.85689580,0.00000000,0.00000000,0.15987523,2.15996456,0.82770312,0.33738244,-0.45688689,0.00000000,0.00000000
-0.07998582,-2.12286520,-0.70400459,-0.18642370,1.88384771,0.00000000,0.00000000,0.15308675,2.14925098,0.84308279,0.33077243,-0.45982027,0.00000000,0.00000000
-0.12080313,-2.11960888,-0.72181588,-0.22192954,1.91690612,0.00000000,0.00000000,0.13733791,2.13684940,0.85682911,0.32143125,-0.46056575,0.00000000,0.00000000
-0.16908865,-2.12063074,-0.73993325,-0.26413557,1.95001805,0.00000000,0.00000000,0.11231923,2.12412357,0.86861449,0.30975083,-0.46310291,0.00000000,0.00000000
-0.22089586,-2.12702918,-0.75758266,-0.31060714,1.98559511,0.00000000,0.00000000,0.07976878,2.11247516,0.87839729,0.29679880,-0.46586838,0.00000000,0.00000000
-0.27460119,-2.13670158,-0.77453285,-0.35800722,2.02036238,0.00000000,0.00000000,0.04319673,2.10338998,0.88636243,0.28420392,-0.46602347,0.00000000,0.00000000
-0.32848623,-2.14732313,-0.79058689,-0.40324527,2.05277848,0.00000000,0.00000000,0.00557088,2.09763098,0.89277315,0.27309510,-0.46168566,0.00000000,0.00000000
-0.37908554,-2.15759349,-0.80515075,-0.44367272,2.08356953,0.00000000,0.00000000,-0.03100333,2.09522629,0.89790988,0.26407868,-0.46287155,0.00000000,0.00000000
-0.42402849,-2.16552496,-0.81795561,-0.47724357,2.11693740,0.00000000,0.00000000,-0.06386132,2.09580016,0.90214425,0.25796917,-0.46725401,0.00000000,0.00000000
-0.46474573,-2.16914248,-0.83009773,-0.50243348,2.14849949,0.00000000,0.00000000,-0.09009779,2.09884834,0.90585726,0.25573027,-0.47130057,0.00000000,0.00000000
-0.49937809,-2.16930366,-0.84257632,-0.51591533,2.17583990,0.00000000,0.00000000,-0.10908040,2.10383630,0.90918213,0.25746012,-0.47449094,0.00000000,0.00000000
-0.52012473,-2.16841269,-0.85352671,-0.51661831,2.20028186,0.00000000,0.00000000,-0.12207114,2.10991287,0.91208708,0.26242039,-0.47822592,0.00000000,0.00000000
-0.53158659,-2.16934752,-0.86237347,-0.51208287,2.21994233,0.00000000,0.00000000,-0.12910107,2.11639690,0.91461945,0.27046296,-0.47080478,0.00000000,0.00000000
-0.52883220,-2.16995478,-0.86832213,-0.50095308,2.23660827,0.00000000,0.00000000,-0.13035466,2.12283611,0.91677326,0.28147236,-0.45673341,0.00000000,0.00000000
-0.51163018,-2.16999054,-0.87129927,-0.48395556,2.24780178,0.00000000,0.00000000,-0.12552629,2.12881780,0.91858423,0.29557139,-0.43929300,0.00000000,0.00000000
-0.48033142,-2.16981244,-0.87114745,-0.46216941,2.26494694,0.00000000,0.00000000,-0.11408914,2.13393259,0.92011505,0.31295472,-0.42131561,0.00000000,0.00000000
-0.43340746,-2.16881084,-0.86752456,-0.43545708,2.28055406,0.00000000,0.00000000,-0.09579424,2.13793325,0.92138952,0.33370921,-0.39849305,0.00000000,0.00000000
-0.37060964,-2.16663074,-0.86048800,-0.40410855,2.29622221,0.00000000,0.00000000,-0.07139915,2.14133978,0.92221469,0.35771835,-0.37493870,0.00000000,0.00000000
-0.29671976,-2.16500497,-0.85090631,-0.37054983,2.31519508,0.00000000,0.00000000,-0.04241059,2.14528155,0.92223436,0.38470101,-0.35637626,0.00000000,0.00000000
-0.21882015,-2.16596174,-0.84009397,-0.33723739,2.33454633,0.00000000,0.00000000,-0.00989606,2.15018630,0.92126065,0.41410941,-0.34121338,0.00000000,0.00000000
-0.13711962,-2.16879702,-0.82860494,-0.30253109,2.35187268,0.00000000,0.00000000,0.02316029,2.15668702,0.91873646,0.44440255,-0.32443687,0.00000000,0.00000000
-0.04966288,-2.16992283,-0.81698990,-0.26304191,2.36836576,0.00000000,0.00000000,0.05209827,2.16374040,0.91414350,0.47278497,-0.30763298,0.00000000,0.00000000
0.03881118,-2.17000008,-0.80587798,-0.22080916,2.37795353,0.00000000,0.00000000,0.07674491,2.16857147,0.90841341,0.49778605,-0.28689298,0.00000000,0.00000000
0.12061408,-2.16990590,-0.79598266,-0.17933369,2.38697386,0.00000000,0.00000000,0.10093500,2.16991520,0.90406233,0.51849061,-0.26395029,0.00000000,0.00000000
0.19242477,-2.16840744,-0.78764236,-0.13944580,2.39576077,0.00000000,0.00000000,0.12742768,2.17000008,0.90333128,0.53352535,-0.24473029,0.00000000,0.00000000
0.25356677,-2.16289926,-0.78075308,-0.10187696,2.40835094,0.00000000,0.00000000,0.15679815,2.17000008,0.90717292,0.54164225,-0.22789961,0.00000000,0.00000000
0.30276275,-2.15428662,-0.77517033,-0.06845695,2.41249728,0.00000000,0.00000000,0.18761054,2.16993141,0.91520387,0.54181498,-0.21046314,0.00000000,0.00000000
0.33833730,-2.14517641,-0.77085662,-0.04107661,2.41709685,0.00000000,0.00000000,0.21815898,2.16881800,0.92661601,0.53386962,-0.19758554,0.00000000,0.00000000
0.35899359,-2.13775086,-0.76782703,-0.02127604,2.42158055,0.00000000,0.00000000,0.24596280,2.16450071,0.93990225,0.51961380,-0.19103508,0.00000000,0.00000000
0.36407113,-2.13378119,-0.76610267,-0.01039149,2.42518520,0.00000000,0.00000000,0.26849166,2.15788984,0.95306027,0.50300115,-0.18540439,0.00000000,0.00000000
0.35355487,-2.13412762,-0.76570106,-0.00934492,2.42845535,0.00000000,0.00000000,0.28506714,2.15311146,0.96454740,0.48822951,-0.17867415,0.00000000,0.00000000
0.32795370,-2.13835716,-0.76662976,-0.01838144,2.43325996,0.00000000,0.00000000,0.29521888,2.15220475,0.97368968,0.47700652,-0.17530863,0.00000000,0.00000000
0.28845140,-2.14516878,-0.76888102,-0.03693606,2.43416929,0.00000000,0.00000000,0.29880506,2.15472054,0.98053640,0.46954677,-0.17633922,0.00000000,0.00000000
0.23687710,-2.15292096,-0.77243096,-0.06374474,2.42884111,0.00000000,0.00000000,0.29612187,2.15932965,0.98547614,0.46554884,-0.17354678,0.00000000,0.00000000
0.17521258,-2.15989685,-0.77724034,-0.09719837,2.42282963,0.00000000,0.00000000,0.28703630,2.16459012,0.98886782,0.46413645,-0.17234538,0.00000000,0.00000000
0.10523650,-2.16527176,-0.78322148,-0.13597099,2.41499901,0.00000000,0.00000000,0.27077606,2.16867304,0.99101460,0.46387213,-0.17532825,0.00000000,0.00000000
0.02935358,-2.16867399,-0.79020250,-0.17853507,2.40889525,0.00000000,0.00000000,0.24821907,2.16991472,0.99280769,0.46385062,-0.18240407,0.00000000,0.00000000
-0.04914443,-2.16983366,-0.79794562,-0.22262828,2.40108991,0.00000000,0.00000000,0.22095576,2.16999960,0.99534875,0.46346733,-0.19289684,0.00000000,0.00000000
-0.12538932,-2.16999316,-0.80608672,-0.26540908,2.39342737,0.00000000,0.00000000,0.19039761,2.17000008,0.99961835,0.46211085,-0.20410904,0.00000000,0.00000000
-0.19707754,-2.17000008,-0.81478620,-0.30505303,2.39136028,0.00000000,0.00000000,0.15935585,2.17000008,1.00706661,0.45960307,-0.21760528,0.00000000,0.00000000
-0.26585671,-2.17000008,-0.82505316,-0.34008029,2.39580655,0.00000000,0.00000000,0.12776867,2.16993427,1.01826978,0.45482597,-0.23263232,0.00000000,0.00000000
-0.32989779,-2.17000008,-0.83666199,-0.36977237,2.40094495,0.00000000,0.00000000,0.09265151,2.16889739,1.03191733,0.44675493,-0.24653317,0.00000000,0.00000000
-0.38792691,-2.17000008,-0.84871227,-0.39574149,2.40220332,0.00000000,0.00000000,0.05395911,2.16518402,1.04625046,0.43651524,-0.26295760,0.00000000,0.00000000
-0.43798119,-2.17000008,-0.86047554,-0.41841897,2.40346241,0.00000000,0.00000000,0.01516395,2.15964460,1.05996180,0.42710364,-0.28408846,0.00000000,0.00000000
-0.47632065,-2.17000008,-0.87133455,-0.43630120,2.40469170,0.00000000,0.00000000,-0.02217878,2.15362930,1.07253814,0.41969097,-0.30568588,0.00000000,0.00000000
-0.50087404,-2.17000008,-0.88067394,-0.44889468,2.40036058,0.00000000,0.00000000,-0.05664697,2.14752102,1.08399999,0.41493121,-0.32935399,0.00000000,0.00000000
-0.51009494,-2.16997170,-0.88774538,-0.45602220,2.39654469,0.00000000,0.00000000,-0.08676694,2.14241338,1.09419119,0.41371462,-0.35729027,0.00000000,0.00000000
-0.50135696,-2.16954064,-0.89162731,-0.45665944,2.39121866,0.00000000,0.00000000,-0.11067005,2.13865829,1.10314584,0.41676506,-0.37972930,0.00000000,0.00000000
-0.47142524,-2.16814327,-0.89142317,-0.44904873,2.38492274,0.00000000,0.00000000,-0.12609717,2.13591838,1.11110473,0.42467231,-0.39885005,0.00000000,0.00000000
-0.41860181,-2.16632032,-0.88671750,-0.43171114,2.37884045,0.00000000,0.00000000,-0.13161017,2.13390326,1.11824644,0.43752420,-0.42245683,0.00000000,0.00000000
-0.34492227,-2.16473174,-0.87802678,-0.40491724,2.37016320,0.00000000,0.00000000,-0.12718974,2.13249540,1.12463665,0.45474809,-0.44547108,0.00000000,0.00000000
-0.25699836,-2.16459775,-0.86637038,-0.37267593,2.36273098,0.00000000,0.00000000,-0.11371540,2.13194275,1.13028502,0.47547650,-0.46709493,0.00000000,0.00000000
-0.16349106,-2.16565156,-0.85312474,-0.34014666,2.36417007,0.00000000,0.00000000,-0.09197570,2.13194895,1.13543105,0.49876139,-0.48520541,0.00000000,0.00000000
-0.06862541,-2.16682506,-0.83929294,-0.30951226,2.36216211,0.00000000,0.00000000,-0.06438164,2.13295746,1.13991499,0.52311027,-0.49969366,0.00000000,0.00000000
0.02637820,-2.16826391,-0.82551306,-0.28070498,2.36035562,0.00000000,0.00000000,-0.03483898,2.13612795,1.14312208,0.54661173,-0.51083577,0.00000000,0.00000000
0.11884398,-2.16956329,-0.81279862,-0.25240123,2.36267853,0.00000000,0.00000000,-0.00568431,2.14255667,1.14454734,0.56830668,-0.52249426,0.00000000,0.00000000
0.20434240,-2.16997337,-0.80240405,-0.22285841,2.36766720,0.00000000,0.00000000,0.02396868,2.15158725,1.14457142,0.58844566,-0.53618520,0.00000000,0.00000000
0.27637157,-2.16993594,-0.79496437,-0.19377276,2.36916256,0.00000000,0.00000000,0.05440013,2.16032720,1.14420497,0.60625422,-0.53951401,0.00000000,0.00000000
0.33187973,-2.16887736,-0.79036283,-0.16666713,2.37739897,0.00000000,0.00000000,0.08616550,2.16656780,1.14433265,0.62118405,-0.53887689,0.00000000,0.00000000
0.37120804,-2.16452527,-0.78804094,-0.14266978,2.39107823,0.00000000,0.00000000,0.11901221,2.16937351,1.14558005,0.63232368,-0.53432369,0.00000000,0.00000000
0.39530644,-2.15652895,-0.78745544,-0.12317155,2.40751600,0.00000000,0.00000000,0.15135545,2.16996622,1.14820552,0.63817465,-0.52619946,0.00000000,0.00000000
0.40496939,-2.14709711,-0.78829342,-0.10916754,2.42603874,0.00000000,0.00000000,0.18187740,2.16995215,1.15226936,0.63767296,-0.51561707,0.00000000,0.00000000
0.40035981,-2.13828301,-0.79042858,-0.10161304,2.44381738,0.00000000,0.00000000,0.20883080,2.16919637,1.15733016,0.63012338,-0.50352043,0.00000000,0.00000000
0.38075325,-2.13151026,-0.79383218,-0.10192381,2.46602631,0.00000000,0.00000000,0.22926843,2.16652918,1.16217864,0.61539978,-0.49571633,0.00000000,0.00000000
0.34526306,-2.12766910,-0.79850811,-0.11156955,2.48422265,0.00000000,0.00000000,0.24009177,2.16345978,1.16506660,0.59529674,-0.48475188,0.00000000,0.00000000
0.29461494,-2.12704349,-0.80440211,-0.13106613,2.50020075,0.00000000,0.00000000,0.24102862,2.16333342,1.16453874,0.57397342,-0.47327760,0.00000000,0.00000000
0.23137985,-2.12921166,-0.81136370,-0.15953630,2.51862693,0.00000000,0.00000000,0.23423609,2.16627312,1.16090488,0.55470574,-0.45992309,0.00000000,0.00000000
0.15949517,-2.13334084,-0.81910288,-0.19490471,2.54441833,0.00000000,0.00000000,0.22287728,2.16909981,1.15603364,0.53885084,-0.43905574,0.00000000,0.00000000
0.08293884,-2.13913727,-0.82717061,-0.23497114,2.56649995,0.00000000,0.00000000,0.20896660,2.16994572,1.15193689,0.52580225,-0.41530994,0.00000000,0.00000000
0.00524410,-2.14636827,-0.83502460,-0.27755624,2.58974767,0.00000000,0.00000000,0.19329722,2.17000008,1.15016246,0.51391411,-0.39225045,0.00000000,0.00000000
-0.07025788,-2.15440178,-0.84206653,-0.32039565,2.60899210,0.00000000,0.00000000,0.17602596,2.17000008,1.15155387,0.50162518,-0.36803445,0.00000000,0.00000000
-0.14025609,-2.16229105,-0.84768945,-0.36152506,2.63282657,0.00000000,0.00000000,0.15717569,2.17000008,1.15610003,0.48811331,-0.34623921,0.00000000,0.00000000
-0.20259933,-2.16797256,-0.85164249,-0.39993769,2.66033101,0.00000000,0.00000000,0.13633195,2.17000008,1.16295636,0.47323754,-0.32390118,0.00000000,0.00000000
-0.25617552,-2.16980362,-0.85394788,-0.43566522,2.68496299,0.00000000,0.00000000,0.11217377,2.16996288,1.17113674,0.45705515,-0.29960650,0.00000000,0.00000000
-0.30232245,-2.16999412,-0.85482079,-0.47036934,2.70984864,0.00000000,0.00000000,0.08437028,2.16938615,1.17968464,0.44014433,-0.27617508,0.00000000,0.00000000
-0.34413880,-2.17000008,-0.85515714,-0.50532097,2.73540401,0.00000000,0.00000000,0.05436729,2.16741252,1.18771899,0.42347088,-0.24764107,0.00000000,0.00000000
-0.38010970,-2.17000008,-0.85521901,-0.53899926,2.76276970,0.00000000,0.00000000,0.02366679,2.16433597,1.19487488,0.40759373,-0.22062284,0.00000000,0.00000000
-0.40810600,-2.17000008,-0.85486341,-0.56994319,2.79324532,0.00000000,0.00000000,-0.00699359,2.15994263,1.20137954,0.39248109,-0.19660328,0.00000000,0.00000000
-0.42644095,-2.17000008,-0.85370851,-0.59682661,2.82287169,0.00000000,0.00000000,-0.03687789,2.15449095,1.20739996,0.37839222,-0.17296714,0.00000000,0.00000000
-0.43236932,-2.17000008,-0.85171419,-0.61546916,2.85015988,0.00000000,0.00000000,-0.06528161,2.14919758,1.21285093,0.36590809,-0.15131481,0.00000000,0.00000000
-0.42540428,-2.17000008,-0.84978241,-0.62062865,2.87395215,0.00000000,0.00000000,-0.09059148,2.14578533,1.21759474,0.35631928,-0.13262908,0.00000000,0.00000000
-0.40564534,-2.17000008,-0.84794325,-0.61068684,2.87979317,0.00000000,0.00000000,-0.11071505,2.14551306,1.22162235,0.35125476,-0.10954451,0.00000000,0.00000000
-0.37210718,-2.17000008,-0.84549403,-0.58579141,2.87979317,0.00000000,0.00000000,-0.12471544,2.14798164,1.22515190,0.35139123,-0.08959912,0.00000000,0.00000000
-0.32602298,-2.17000008,-0.84212261,-0.54851615,2.87979317,0.00000000,0.00000000,-0.13282563,2.15221715,1.22840118,0.35638383,-0.08093770,0.00000000,0.00000000
-0.27105406,-2.16998148,-0.83783215,-0.50386071,2.87979317,0.00000000,0.00000000,-0.13596919,2.15670753,1.23162293,0.36493549,-0.07714870,0.00000000,0.00000000
-0.21067445,-2.16966701,-0.83231109,-0.45703197,2.87979317,0.00000000,0.00000000,-0.13259272,2.16100979,1.23502970,0.37702408,-0.06953206,0.00000000,0.00000000
-0.14760350,-2.16823602,-0.82548392,-0.41143903,2.87979317,0.00000000,0.00000000,-0.12247308,2.16369271,1.23893404,0.39184895,-0.05840921,0.00000000,0.00000000
-0.08271576,-2.16504669,-0.81750387,-0.36784291,2.87979317,0.00000000,0.00000000,-0.10860957,2.16498065,1.24304414,0.40751532,-0.05180945,0.00000000,0.00000000
-0.01432610,-2.16106153,-0.80823857,-0.32528022,2.87979317,0.00000000,0.00000000,-0.09480407,2.16641831,1.24667764,0.42219916,-0.04326590,0.00000000,0.00000000
0.05817263,-2.15939021,-0.79741704,-0.28388977,2.87979317,0.00000000,0.00000000,-0.08450126,2.16846037,1.24938321,0.43407005,-0.04023002,0.00000000,0.00000000
0.12993687,-2.16072106,-0.78573340,-0.24524513,2.87979317,0.00000000,0.00000000,-0.07848924,2.16969895,1.25159156,0.44211441,-0.03798307,0.00000000,0.00000000
0.19310001,-2.16247606,-0.77448410,-0.21088946,2.87979317,0.00000000,0.00000000,-0.07482653,2.16992068,1.25430942,0.44653803,-0.03636346,0.00000000,0.00000000
0.24364877,-2.16282916,-0.76431167,-0.18120785,2.87979317,0.00000000,0.00000000,-0.07091022,2.16891289,1.25843215,0.44804549,-0.03659264,0.00000000,0.00000000
0.28102878,-2.16199183,-0.75525951,-0.15614614,2.87979317,0.00000000,0.00000000,-0.06519692,2.16484189,1.26408279,0.44736207,-0.03185005,0.00000000,0.00000000
0.30455425,-2.16047883,-0.74734211,-0.13599320,2.87979317,0.00000000,0.00000000,-0.05683695,2.15804863,1.27057254,0.44553274,-0.03020089,0.00000000,0.00000000
0.31290227,-2.15867090,-0.74063468,-0.12161679,2.87979317,0.00000000,0.00000000,-0.04619400,2.15196276,1.27665806,0.44351116,-0.02497218,0.00000000,0.00000000
0.30484501,-2.15696549,-0.73521078,-0.11425186,2.87979317,0.00000000,0.00000000,-0.03487926,2.14969444,1.28108692,0.44177571,-0.01381147,0.00000000,0.00000000
0.27956998,-2.15524459,-0.73115909,-0.11492994,2.87979317,0.00000000,0.00000000,-0.02432826,2.15197945,1.28328967,0.44053456,-0.00938961,0.00000000,0.00000000
0.23693754,-2.15284586,-0.72858298,-0.12405063,2.87979317,0.00000000,0.00000000,-0.01529104,2.15759468,1.28346932,0.43991888,-0.00217652,0.00000000,0.00000000
0.17923218,-2.14993882,-0.72741139,-0.14106847,2.87979317,0.00000000,0.00000000,-0.00794389,2.16414452,1.28235507,0.44008628,0.00488426,0.00000000,0.00000000
0.11219941,-2.14745951,-0.72725743,-0.16409421,2.87979317,0.00000000,0.00000000,-0.00261403,2.16866302,1.28091395,0.44089821,0.01297731,0.00000000,0.00000000
0.04096022,-2.14323139,-0.72783726,-0.18975973,2.87979317,0.00000000,0.00000000,-0.00028254,2.16992092,1.27993214,0.44171011,0.02112726,0.00000000,0.00000000
-0.03235407,-2.13797641,-0.72882533,-0.21686807,2.87979317,0.00000000,0.00000000,-0.00190065,2.17000008,1.27978063,0.44177833,0.02250700,0.00000000,0.00000000
-0.10617340,-2.13386083,-0.72979921,-0.24480917,2.87979317,0.00000000,0.00000000,-0.00769403,2.17000008,1.28057849,0.44070405,0.02375457,0.00000000,0.00000000
-0.17899147,-2.13166618,-0.73044533,-0.27215457,2.87979317,0.00000000,0.00000000,-0.01714309,2.17000008,1.28221893,0.43862033,0.02888147,0.00000000,0.00000000
-0.24924314,-2.13026381,-0.73059613,-0.29654434,2.87979317,0.00000000,0.00000000,-0.02963141,2.16994929,1.28438473,0.43582392,0.03679685,0.00000000,0.00000000
-0.31560558,-2.13107514,-0.72981340,-0.31722134,2.87979317,0.00000000,0.00000000,-0.04507848,2.16912293,1.28666043,0.43225023,0.04685340,0.00000000,0.00000000
-0.37563449,-2.13386321,-0.72773588,-0.33287424,2.87979317,0.00000000,0.00000000,-0.06301171,2.16581917,1.28869033,0.42780948,0.05956571,0.00000000,0.00000000
-0.42661822,-2.13658285,-0.72421175,-0.34164476,2.87979317,0.00000000,0.00000000,-0.08169878,2.15984154,1.29022586,0.42289948,0.06675158,0.00000000,0.00000000
-0.46868402,-2.13881302,-0.71930003,-0.34414148,2.87979317,0.00000000,0.00000000,-0.09884578,2.15227389,1.29113412,0.41819757,0.07472488,0.00000000,0.00000000
-0.50157183,-2.14013863,-0.71298182,-0.34107482,2.87979317,0.00000000,0.00000000,-0.11343351,2.14366317,1.29144800,0.41384819,0.08906657,0.00000000,0.00000000
-0.52331233,-2.14026618,-0.70493644,-0.33236164,2.87979317,0.00000000,0.00000000,-0.12537020,2.13414526,1.29126346,0.40974829,0.10483928,0.00000000,0.00000000
-0.53214884,-2.13939142,-0.69481319,-0.31812584,2.87979317,0.00000000,0.00000000,-0.13455392,2.12407088,1.29062963,0.40605006,0.11767292,0.00000000,0.00000000
-0.52723676,-2.13823605,-0.68237400,-0.29908484,2.87979317,0.00000000,0.00000000,-0.14052297,2.11432219,1.28949618,0.40336296,0.12922022,0.00000000,0.00000000
-0.50880873,-2.13772917,-0.66759694,-0.27658331,2.87979317,0.00000000,0.00000000,-0.14276712,2.10605836,1.28775632,0.40250027,0.14324661,0.00000000,0.00000000
-0.47765291,-2.13854599,-0.65066195,-0.25221738,2.87979317,0.00000000,0.00000000,-0.14127246,2.10027027,1.28531396,0.40402517,0.15313597,0.00000000,0.00000000
-0.43524307,-2.14091420,-0.63194221,-0.22775270,2.87979317,0.00000000,0.00000000,-0.13660532,2.09759784,1.28210354,0.40811807,0.16127579,0.00000000,0.00000000
-0.38546273,-2.14498997,-0.61209220,-0.20575505,2.87979317,0.00000000,0.00000000,-0.12918632,2.09830213,1.27811587,0.41486797,0.16717348,0.00000000,0.00000000
-0.33461344,-2.15103054,-0.59195119,-0.18936980,2.87979317,0.00000000,0.00000000,-0.11854285,2.10196757,1.27353859,0.42455846,0.16936795,0.00000000,0.00000000
-0.28677383,-2.15798044,-0.57213038,-0.17980725,2.87979317,0.00000000,0.00000000,-0.10497156,2.10746551,1.26867437,0.43672049,0.17578289,0.00000000,0.00000000
-0.24273486,-2.16342092,-0.55296475,-0.17592618,2.87979317,0.00000000,0.00000000,-0.09010299,2.11340523,1.26376569,0.44984761,0.17508572,0.00000000,0.00000000
-0.20214498,-2.16693640,-0.53462493,-0.17599076,2.87979317,0.00000000,0.00000000,-0.07587778,2.11864257,1.25892484,0.46214685,0.17171390,0.00000000,0.00000000
-0.16572495,-2.16925287,-0.51740611,-0.17773509,2.87979317,0.00000000,0.00000000,-0.06365788,2.12226510,1.25421393,0.47213793,0.17338325,0.00000000,0.00000000
-0.13539520,-2.16995454,-0.50180358,-0.17794223,2.87979317,0.00000000,0.00000000,-0.05420424,2.12378383,1.24964416,0.47872162,0.17351955,0.00000000,0.00000000
-0.11263387,-2.17000008,-0.48822144,-0.17334710,2.87979317,0.00000000,0.00000000,-0.04819484,2.12278080,1.24527323,0.48092374,0.17368039,0.00000000,0.00000000
-0.09835453,-2.17000008,-0.47672945,-0.16312465,2.87979317,0.00000000,0.00000000,-0.04570463,2.11868215,1.24128640,0.47825587,0.17187811,0.00000000,0.00000000
-0.09236819,-2.17000008,-0.46698686,-0.14946368,2.87979317,0.00000000,0.00000000,-0.04626556,2.11127710,1.23781812,0.47087997,0.16393498,0.00000000,0.00000000
-0.09383121,-2.17000008,-0.45854175,-0.13530017,2.87979317,0.00000000,0.00000000,-0.04926842,2.10067272,1.23490155,0.45936641,0.16054222,0.00000000,0.00000000
-0.10218094,-2.17000008,-0.45111212,-0.12225348,2.87979317,0.00000000,0.00000000,-0.05374692,2.08685231,1.23261833,0.44462585,0.15568750,0.00000000,0.00000000
-0.11601025,-2.16999841,-0.44445321,-0.11086341,2.87979317,0.00000000,0.00000000,-0.05886017,2.07050610,1.23087871,0.42780238,0.15559931,0.00000000,0.00000000
-0.13265060,-2.16996694,-0.43832070,-0.10077699,2.87979317,0.00000000,0.00000000,-0.06436227,2.05342340,1.22932148,0.41007909,0.15531553,0.00000000,0.00000000
-0.14921039,-2.16976905,-0.43253788,-0.09140515,2.87979317,0.00000000,0.00000000,-0.07040861,2.03824615,1.22739434,0.39269629,0.15516052,0.00000000,0.00000000
-0.16388102,-2.16921496,-0.42704219,-0.08251412,2.87979317,0.00000000,0.00000000,-0.07692419,2.02767253,1.22458327,0.37698740,0.16060327,0.00000000,0.00000000
-0.17614843,-2.16810322,-0.42186704,-0.07414906,2.87979317,0.00000000,0.00000000,-0.08369792,2.02364612,1.22056758,0.36400926,0.16579176,0.00000000,0.00000000
-0.18620472,-2.16545820,-0.41710496,-0.06597234,2.87979317,0.00000000,0.00000000,-0.09070243,2.02661538,1.21531904,0.35402909,0.16528228,0.00000000,0.00000000
-0.19397722,-2.15977478,-0.41284785,-0.05711786,2.87979317,0.00000000,0.00000000,-0.09821889,2.03575659,1.20902658,0.34649655,0.15767798,0.00000000,0.00000000
-0.19963709,-2.15108681,-0.40916815,-0.04751511,2.87979317,0.00000000,0.00000000,-0.10627027,2.04960823,1.20200551,0.34071141,0.15801191,0.00000000,0.00000000
-0.20503585,-2.14233255,-0.40614441,-0.03918837,2.87979317,0.00000000,0.00000000,-0.11470275,2.06636548,1.19463015,0.33601227,0.15010300,0.00000000,0.00000000
-0.21193385,-2.13674283,-0.40383336,-0.03454521,2.87979317,0.00000000,0.00000000,-0.12347487,2.08393788,1.18730056,0.33171239,0.14387989,0.00000000,0.00000000
-0.22000259,-2.13492942,-0.40224642,-0.03408499,2.87979317,0.00000000,0.00000000,-0.13206993,2.10066056,1.18035901,0.32760254,0.13316065,0.00000000,0.00000000
-0.22974943,-2.13623929,-0.40140900,-0.03768434,2.87979317,0.00000000,0.00000000,-0.13961172,2.11531591,1.17408156,0.32382721,0.11454079,0.00000000,0.00000000
-0.24227521,-2.14027429,-0.40134594,-0.04538695,2.87979317,0.00000000,0.00000000,-0.14517429,2.12698913,1.16868675,0.32061538,0.09089793,0.00000000,0.00000000
-0.25762022,-2.14614701,-0.40205526,-0.05665067,2.87979317,0.00000000,0.00000000,-0.14845704,2.13516426,1.16426837,0.31790161,0.07274308,0.00000000,0.00000000
-0.27448735,-2.15286946,-0.40348953,-0.07058562,2.87979317,0.00000000,0.00000000,-0.14988890,2.14019346,1.16070783,0.31543142,0.05987162,0.00000000,0.00000000
-0.29112968,-2.15948343,-0.40556434,-0.08632179,2.87979317,0.00000000,0.00000000,-0.15012839,2.14284968,1.15779555,0.31297961,0.04656806,0.00000000,0.00000000
-0.30634093,-2.16495132,-0.40818942,-0.10316219,2.87979317,0.00000000,0.00000000,-0.14954486,2.14368844,1.15538883,0.31046373,0.03461875,0.00000000,0.00000000
-0.31959110,-2.16843009,-0.41127661,-0.12070964,2.87979317,0.00000000,0.00000000,-0.14792040,2.14313769,1.15342283,0.30812311,0.02023467,0.00000000,0.00000000
-0.33054608,-2.16975307,-0.41472065,-0.13873833,2.87979317,0.00000000,0.00000000,-0.14474779,2.14163065,1.15186393,0.30638599,0.01109771,0.00000000,0.00000000
-0.33848587,-2.16998768,-0.41836286,-0.15695144,2.87979317,0.00000000,0.00000000,-0.13957959,2.13950682,1.15069556,0.30568039,0.00293264,0.00000000,0.00000000
-0.34155956,-2.17000008,-0.42190757,-0.17479010,2.87979317,0.00000000,0.00000000,-0.13246867,2.13717151,1.14985442,0.30626291,-0.01222990,0.00000000,0.00000000
-0.33750871,-2.17000008,-0.42497641,-0.19169982,2.87979317,0.00000000,0.00000000,-0.12391561,2.13506174,1.14923060,0.30821738,-0.01495882,0.00000000,0.00000000
-0.32430625,-2.17000008,-0.42728281,-0.20585130,2.87979317,0.00000000,0.00000000,-0.11423364,2.13368297,1.14870667,0.31174022,-0.01864770,0.00000000,0.00000000
-0.29911914,-2.17000008,-0.42864388,-0.21322514,2.87979317,0.00000000,0.00000000,-0.10407127,2.13371372,1.14809155,0.31680992,-0.02171313,0.00000000,0.00000000
-0.26787600,-2.16997647,-0.42968801,-0.21481675,2.87979317,0.00000000,0.00000000,-0.09232824,2.13492513,1.14746463,0.32392630,-0.02574948,0.00000000,0.00000000
-0.23202738,-2.16962028,-0.43047810,-0.21170282,2.87979317,0.00000000,0.00000000,-0.07740706,2.13593411,1.14712954,0.33339432,-0.02283855,0.00000000,0.00000000
-0.19416198,-2.16852427,-0.43119293,-0.20579012,2.87979317,0.00000000,0.00000000,-0.05913702,2.13600039,1.14716244,0.34487167,-0.02150591,0.00000000,0.00000000
-0.15258974,-2.16754293,-0.43143463,-0.19940346,2.87979317,0.00000000,0.00000000,-0.03844013,2.13536406,1.14737916,0.35769665,-0.01757010,0.00000000,0.00000000
-0.10326047,-2.16756105,-0.43064228,-0.19329840,2.87979317,0.00000000,0.00000000,-0.01719522,2.13452601,1.14746583,0.37079459,-0.01543381,0.00000000,0.00000000
-0.04582185,-2.16854334,-0.42878044,-0.18807186,2.87979317,0.00000000,0.00000000,0.00224400,2.13373184,1.14712286,0.38286704,-0.01352044,0.00000000,0.00000000
0.01397454,-2.16962481,-0.42656398,-0.18449649,2.87979317,0.00000000,0.00000000,0.01882941,2.13304472,1.14623702,0.39328369,-0.01361659,0.00000000,0.00000000
0.06769800,-2.16997719,-0.42507157,-0.18255489,2.87979317,0.00000000,0.00000000,0.03347325,2.13245273,1.14496827,0.40227640,-0.01674551,0.00000000,0.00000000
0.11144935,-2.17000008,-0.42487568,-0.18118623,2.87979317,0.00000000,0.00000000,0.04721990,2.13175678,1.14365423,0.40997025,-0.01668432,0.00000000,0.00000000
0.14577882,-2.17000008,-0.42604324,-0.17864232,2.87979317,0.00000000,0.00000000,0.06029886,2.13062716,1.14267921,0.41606763,-0.01848145,0.00000000,0.00000000
0.17241189,-2.17000008,-0.42844424,-0.17383352,2.87979317,0.00000000,0.00000000,0.07253437,2.12893486,1.14234817,0.42038754,-0.01625719,0.00000000,0.00000000
0.19260229,-2.17000008,-0.43192270,-0.16680247,2.87979317,0.00000000,0.00000000,0.08362050,2.12655687,1.14285707,0.42301407,-0.01158700,0.00000000,0.00000000
0.20674355,-2.17000008,-0.43638599,-0.15821277,2.87979317,0.00000000,0.00000000,0.09317690,2.12364101,1.14417148,0.42432815,-0.01460834,0.00000000,0.00000000
0.21363677,-2.17000008,-0.44188601,-0.14923397,2.87979317,0.00000000,0.00000000,0.10134333,2.12196922,1.14574170,0.42578626,-0.02454159,0.00000000,0.00000000
0.21089092,-2.17000008,-0.44857386,-0.14142905,2.87979317,0.00000000,0.00000000,0.10866881,2.12461400,1.14661288,0.42993861,-0.03314873,0.00000000,0.00000000
0.19659393,-2.17000008,-0.45659074,-0.13575169,2.87979317,0.00000000,0.00000000,0.11482316,2.13310528,1.14608133,0.43810087,-0.03778540,0.00000000,0.00000000
0.17014536,-2.16992807,-0.46598408,-0.13257970,2.87979317,0.00000000,0.00000000,0.11888141,2.14598441,1.14420068,0.44926685,-0.04066222,0.00000000,0.00000000
0.13208149,-2.16880894,-0.47670189,-0.13219909,2.87979317,0.00000000,0.00000000,0.11958770,2.15921164,1.14176965,0.46095610,-0.04124550,0.00000000,0.00000000
0.08407658,-2.16498613,-0.48859003,-0.13495840,2.87979317,0.00000000,0.00000000,0.11712917,2.16761780,1.14018416,0.47120556,-0.03754374,0.00000000,0.00000000
0.02884958,-2.15939236,-0.50136691,-0.14154570,2.87979317,0.00000000,0.00000000,0.11230831,2.16986036,1.14058316,0.47882852,-0.03696426,0.00000000,0.00000000
-0.03143634,-2.15233207,-0.51482922,-0.15170561,2.87979317,0.00000000,0.00000000,0.10497743,2.17000008,1.14352262,0.48266196,-0.03528506,0.00000000,0.00000000
-0.09612165,-2.14327049,-0.52890146,-0.16475484,2.87979317,0.00000000,0.00000000,0.09381950,2.16994381,1.14885509,0.48167127,-0.03533121,0.00000000,0.00000000
-0.16461171,-2.13218760,-0.54348081,-0.18001390,2.87979317,0.00000000,0.00000000,0.07724298,2.16897678,1.15592754,0.47536930,-0.03397840,0.00000000,0.00000000
-0.23529935,-2.12149334,-0.55822325,-0.19752103,2.87979317,0.00000000,0.00000000,0.05484171,2.16451263,1.16385937,0.46437818,-0.03521567,0.00000000,0.00000000
-0.30541250,-2.11457968,-0.57255644,-0.21726844,2.87979317,0.00000000,0.00000000,0.02890342,2.15498757,1.17182279,0.45101482,-0.03894192,0.00000000,0.00000000
-0.37254772,-2.11099958,-0.58609104,-0.23749515,2.87979317,0.00000000,0.00000000,0.00251946,2.14213777,1.17919374,0.43786743,-0.04521649,0.00000000,0.00000000
-0.43143731,-2.11118889,-0.59799582,-0.25637111,2.87979317,0.00000000,0.00000000,-0.02413491,2.12800336,1.18540001,0.42565730,-0.04732704,0.00000000,0.00000000
-0.47751051,-2.11517835,-0.60753256,-0.27266324,2.87979317,0.00000000,0.00000000,-0.05062497,2.11445093,1.18998873,0.41520303,-0.05329893,0.00000000,0.00000000
-0.50902641,-2.12070394,-0.61449438,-0.28539076,2.87979317,0.00000000,0.00000000,-0.07443662,2.10324454,1.19275248,0.40839839,-0.05593401,0.00000000,0.00000000
-0.52358943,-2.12668824,-0.61851525,-0.29369110,2.87979317,0.00000000,0.00000000,-0.09336438,2.09606504,1.19349051,0.40694284,-0.06195666,0.00000000,0.00000000
-0.52074456,-2.13222790,-0.61953801,-0.29721943,2.87979317,0.00000000,0.00000000,-0.10595543,2.09379792,1.19210398,0.41188315,-0.07064857,0.00000000,0.00000000
-0.49983746,-2.13700461,-0.61745471,-0.29569295,2.87979317,0.00000000,0.00000000,-0.11158300,2.09643483,1.18859923,0.42352524,-0.08318657,0.00000000,0.00000000
-0.45901194,-2.14077234,-0.61203372,-0.28840360,2.87979317,0.00000000,0.00000000,-0.11095972,2.10386729,1.18285155,0.44138139,-0.09683699,0.00000000,0.00000000
-0.39887252,-2.14422679,-0.60337591,-0.27622676,2.87979317,0.00000000,0.00000000,-0.10519233,2.11598563,1.17467535,0.46475220,-0.11423814,0.00000000,0.00000000
-0.32510391,-2.15014577,-0.59213001,-0.26329765,2.87979317,0.00000000,0.00000000,-0.09439256,2.13164663,1.16425574,0.49321163,-0.12867901,0.00000000,0.00000000
-0.24159954,-2.15888548,-0.57892168,-0.25178146,2.87979317,0.00000000,0.00000000,-0.07931429,2.14765048,1.15230918,0.52531916,-0.14899285,0.00000000,0.00000000
-0.15221260,-2.16660690,-0.56468838,-0.24162009,2.87979317,0.00000000,0.00000000,-0.06182152,2.16076851,1.13957858,0.55899781,-0.16428743,0.00000000,0.00000000
-0.05952794,-2.16955805,-0.55037236,-0.23068430,2.87979317,0.00000000,0.00000000,-0.04408336,2.16806197,1.12733495,0.59156811,-0.17529145,0.00000000,0.00000000
0.03182987,-2.16998100,-0.53722113,-0.21613184,2.87979317,0.00000000,0.00000000,-0.02547510,2.16988850,1.11792123,0.62119353,-0.18205933,0.00000000,0.00000000
0.11586903,-2.17000008,-0.52643633,-0.19559681,2.87979317,0.00000000,0.00000000,-0.00401952,2.17000008,1.11343145,0.64682323,-0.18833783,0.00000000,0.00000000
0.18917625,-2.17000008,-0.51837564,-0.16898894,2.87979317,0.00000000,0.00000000,0.02069558,2.17000008,1.11433208,0.66724461,-0.19499053,0.00000000,0.00000000
0.24958445,-2.17000008,-0.51273030,-0.13974895,2.87979317,0.00000000,0.00000000,0.04876466,2.16996813,1.11999881,0.68183917,-0.20535855,0.00000000,0.00000000
0.29510030,-2.16991782,-0.50909364,-0.11166972,2.87979317,0.00000000,0.00000000,0.07944407,2.16942215,1.12921345,0.68998998,-0.20380284,0.00000000,0.00000000
0.32485250,-2.16869092,-0.50714046,-0.08656288,2.87979317,0.00000000,0.00000000,0.11032335,2.16694570,1.14034140,0.69101250,-0.20098995,0.00000000,0.00000000
0.33797747,-2.16518617,-0.50662839,-0.06660468,2.87979317,0.00000000,0.00000000,0.13848972,2.16190982,1.15161657,0.68513727,-0.19530283,0.00000000,0.00000000
0.33359072,-2.16279745,-0.50739998,-0.05475589,2.87979317,0.00000000,0.00000000,0.16147187,2.15619326,1.16114020,0.67388785,-0.18975915,0.00000000,0.00000000
0.31150314,-2.16370773,-0.50940281,-0.05254559,2.87979317,0.00000000,0.00000000,0.17754410,2.15281129,1.16704333,0.65950227,-0.18123226,0.00000000,0.00000000
0.27246541,-2.16664743,-0.51265323,-0.05951896,2.87979317,0.00000000,0.00000000,0.18625785,2.15413809,1.16827512,0.64407694,-0.17194295,0.00000000,0.00000000
0.21881844,-2.16918969,-0.51715761,-0.07391877,2.87979317,0.00000000,0.00000000,0.18907973,2.15969586,1.16550851,0.62913483,-0.16293211,0.00000000,0.00000000
0.15467888,-2.16995096,-0.52286571,-0.09298265,2.87979317,0.00000000,0.00000000,0.18872124,2.16579723,1.16096437,0.61543220,-0.15397562,0.00000000,0.00000000
0.08407156,-2.17000008,-0.52969974,-0.11376306,2.87979317,0.00000000,0.00000000,0.18658142,2.16915965,1.15690923,0.60252100,-0.14203633,0.00000000,0.00000000
0.01020608,-2.16996264,-0.53756309,-0.13371840,2.87979317,0.00000000,0.00000000,0.18303880,2.16995287,1.15520942,0.58942753,-0.12592770,0.00000000,0.00000000
-0.06471760,-2.16930890,-0.54631883,-0.15143816,2.87979317,0.00000000,0.00000000,0.17761075,2.17000008,1.15697706,0.57500851,-0.11261676,0.00000000,0.00000000
-0.13966155,-2.16621494,-0.55575848,-0.16726868,2.87979317,0.00000000,0.00000000,0.16838101,2.17000008,1.16212797,0.55784392,-0.10016233,0.00000000,0.00000000
-0.21342240,-2.15996718,-0.56552541,-0.18242885,2.87979317,0.00000000,0.00000000,0.15432379,2.16999245,1.17005277,0.53743964,-0.08826633,0.00000000,0.00000000
-0.28463551,-2.15327644,-0.57518846,-0.19816707,2.87979317,0.00000000,0.00000000,0.13712882,2.16982055,1.17988122,0.51543224,-0.07792225,0.00000000,0.00000000
-0.35104370,-2.14833593,-0.58427399,-0.21451360,2.87979317,0.00000000,0.00000000,0.11741030,2.16854644,1.19021690,0.49335495,-0.07171191,0.00000000,0.00000000
-0.40788776,-2.14658523,-0.59205252,-0.23023044,2.87979317,0.00000000,0.00000000,0.09313017,2.16475177,1.19987297,0.47088638,-0.06239929,0.00000000,0.00000000
-0.45244116,-2.14825177,-0.59808469,-0.24425475,2.87979317,0.00000000,0.00000000,0.06359954,2.15895414,1.20825338,0.44797799,-0.05622858,0.00000000,0.00000000
-0.48551491,-2.15215707,-0.60246551,-0.25623840,2.87979317,0.00000000,0.00000000,0.03101272,2.15258837,1.21510959,0.42587608,-0.04516136,0.00000000,0.00000000
-0.50708103,-2.15586019,-0.60534543,-0.26500410,2.87979317,0.00000000,0.00000000,-0.00168625,2.14700603,1.22030723,0.40599281,-0.03219886,0.00000000,0.00000000
-0.51608789,-2.15789223,-0.60670698,-0.26953116,2.87979317,0.00000000,0.00000000,-0.03211838,2.14291430,1.22389591,0.38927254,-0.02188811,0.00000000,0.00000000
-0.51231736,-2.15852785,-0.60649526,-0.26999444,2.87979317,0.00000000,0.00000000,-0.05863596,2.14067626,1.22600925,0.37637508,-0.01296412,0.00000000,0.00000000
-0.49516797,-2.15857935,-0.60455751,-0.26675525,2.87979317,0.00000000,0.00000000,-0.08046234,2.14073944,1.22670841,0.36766168,-0.01002636,0.00000000,0.00000000
-0.46370065,-2.15861607,-0.60072643,-0.26010212,2.87979317,0.00000000,0.00000000,-0.09753104,2.14350247,1.22599459,0.36313754,-0.01195172,0.00000000,0.00000000
-0.41740724,-2.15897775,-0.59494263,-0.25059563,2.87979317,0.00000000,0.00000000,-0.10998861,2.14885330,1.22393119,0.36256987,-0.01128172,0.00000000,0.00000000
-0.35657090,-2.15990663,-0.58730966,-0.23919056,2.87979317,0.00000000,0.00000000,-0.11810875,2.15608215,1.22066355,0.36552742,-0.01196089,0.00000000,0.00000000
-0.28409204,-2.16151214,-0.57826436,-0.22764178,2.87979317,0.00000000,0.00000000,-0.12173713,2.16351366,1.21654332,0.37161902,-0.01242767,0.00000000,0.00000000
-0.20729068,-2.16411543,-0.56869072,-0.21907312,2.87979317,0.00000000,0.00000000,-0.11983357,2.16852045,1.21229005,0.38060334,-0.01856228,0.00000000,0.00000000
-0.13159367,-2.16734934,-0.55925304,-0.21534067,2.87979317,0.00000000,0.00000000,-0.11267464,2.16991234,1.20878577,0.39122632,-0.02688601,0.00000000,0.00000000
-0.05733931,-2.16943407,-0.55017811,-0.21519919,2.87979317,0.00000000,0.00000000,-0.10274647,2.17000008,1.20662045,0.40125167,-0.03728779,0.00000000,0.00000000
0.01778134,-2.16996765,-0.54149419,-0.21553157,2.87979317,0.00000000,0.00000000,-0.09315996,2.17000008,1.20613468,0.40843129,-0.04728210,0.00000000,0.00000000
0.09414306,-2.17000008,-0.53335798,-0.21428806,2.87979317,0.00000000,0.00000000,-0.08554397,2.17000008,1.20750463,0.41162711,-0.05972199,0.00000000,0.00000000
0.16781740,-2.17000008,-0.52639711,-0.21028166,2.87979317,0.00000000,0.00000000,-0.07952904,2.17000008,1.21068311,0.41113818,-0.07857582,0.00000000,0.00000000
0.23005880,-2.17000008,-0.52194232,-0.20153680,2.87979317,0.00000000,0.00000000,-0.07334726,2.16998649,1.21539986,0.40824640,-0.09653634,0.00000000,0.00000000
0.27610290,-2.17000008,-0.52043813,-0.18816563,2.87979317,0.00000000,0.00000000,-0.06526778,2.16974211,1.22121346,0.40424547,-0.11661343,0.00000000,0.00000000
0.30299503,-2.17000008,-0.52188438,-0.17209087,2.87979317,0.00000000,0.00000000,-0.05443651,2.16851306,1.22747409,0.40011719,-0.13689186,0.00000000,0.00000000
0.31183717,-2.17000008,-0.52578759,-0.15576664,2.87979317,0.00000000,0.00000000,-0.04049329,2.16619897,1.23337221,0.39694113,-0.15471779,0.00000000,0.00000000
0.30400333,-2.17000008,-0.53158236,-0.14323114,2.87979317,0.00000000,0.00000000,-0.02374355,2.16493559,1.23816466,0.39567760,-0.17545459,0.00000000,0.00000000
0.27967176,-2.17000008,-0.53898287,-0.13792565,2.87979317,0.00000000,0.00000000,-0.00516846,2.16603184,1.24147940,0.39668679,-0.19955622,0.00000000,0.00000000
0.23978764,-2.17000008,-0.54788059,-0.14080703,2.87979317,0.00000000,0.00000000,0.01424000,2.16837573,1.24352324,0.39966801,-0.22370651,0.00000000,0.00000000
0.18627876,-2.16995072,-0.55824947,-0.15070745,2.87979317,0.00000000,0.00000000,0.03404336,2.16970515,1.24516094,0.40395886,-0.25344104,0.00000000,0.00000000
0.12175769,-2.16912889,-0.57003546,-0.16552728,2.87979317,0.00000000,0.00000000,0.05372003,2.16991282,1.24742818,0.40865511,-0.28177610,0.00000000,0.00000000
0.04893089,-2.16569138,-0.58302343,-0.18382056,2.87611508,0.00000000,0.00000000,0.07132453,2.16876817,1.25068629,0.41251606,-0.30577141,0.00000000,0.00000000
-0.02972521,-2.15966606,-0.59678471,-0.20540275,2.86528015,0.00000000,0.00000000,0.08392452,2.16421771,1.25448430,0.41427734,-0.33337849,0.00000000,0.00000000
-0.11177450,-2.15309048,-0.61081886,-0.22993016,2.85459328,0.00000000,0.00000000,0.08964282,2.15640116,1.25793958,0.41345274,-0.35455132,0.00000000,0.00000000
-0.19444565,-2.14499593,-0.62481666,-0.25478134,2.84486008,0.00000000,0.00000000,0.08864518,2.14767265,1.26030767,0.41052011,-0.37047946,0.00000000,0.00000000
-0.27579984,-2.13474989,-0.63851464,-0.27792302,2.83772492,0.00000000,0.00000000,0.08115620,2.13984847,1.26117826,0.40579876,-0.39169037,0.00000000,0.00000000
-0.35111311,-2.12394309,-0.65108263,-0.29782668,2.83163071,0.00000000,0.00000000,0.06637719,2.13339400,1.26044881,0.39888319,-0.40760845,0.00000000,0.00000000
-0.41499761,-2.11420083,-0.66154569,-0.31316769,2.82406545,0.00000000,0.00000000,0.04373574,2.12777948,1.25828576,0.38927084,-0.42835492,0.00000000,0.00000000
-0.46499065,-2.10654545,-0.66935509,-0.32396439,2.81647778,0.00000000,0.00000000,0.01425853,2.12226868,1.25500739,0.37719759,-0.44915512,0.00000000,0.00000000
-0.50336063,-2.10157704,-0.67470115,-0.33218676,2.80360627,0.00000000,0.00000000,-0.01915780,2.11659193,1.25094831,0.36394268,-0.47021347,0.00000000,0.00000000
-0.53308278,-2.09851980,-0.67804539,-0.33928302,2.79052114,0.00000000,0.00000000,-0.05298113,2.11086369,1.24640667,0.35118032,-0.48884383,0.00000000,0.00000000
-0.55305058,-2.09603667,-0.67927581,-0.34464055,2.77370882,0.00000000,0.00000000,-0.08452322,2.10497928,1.24166870,0.34002742,-0.50128049,0.00000000,0.00000000
-0.56042469,-2.09366727,-0.67788535,-0.34728491,2.75785637,0.00000000,0.00000000,-0.11206736,2.09852076,1.23701751,0.33099067,-0.51052231,0.00000000,0.00000000
-0.55344558,-2.09188890,-0.67340964,-0.34706891,2.75078249,0.00000000,0.00000000,-0.13431048,2.09136677,1.23264790,0.32447758,-0.51910609,0.00000000,0.00000000
-0.53097963,-2.09138465,-0.66547275,-0.34415066,2.74137926,0.00000000,0.00000000,-0.15067171,2.08392406,1.22860193,0.32069489,-0.53207892,0.00000000,0.00000000
-0.49125138,-2.09286690,-0.65363312,-0.33828425,2.73288345,0.00000000,0.00000000,-0.16130902,2.07693958,1.22480154,0.31958231,-0.54233277,0.00000000,0.00000000
-0.43395582,-2.09541869,-0.63792396,-0.32850680,2.72358656,0.00000000,0.00000000,-0.16611807,2.07141805,1.22112381,0.32131183,-0.55120128,0.00000000,0.00000000
-0.36402544,-2.09690380,-0.61941117,-0.31486684,2.72248507,0.00000000,0.00000000,-0.16424996,2.06837559,1.21747017,0.32658210,-0.56109726,0.00000000,0.00000000
-0.28641456,-2.10075879,-0.59857768,-0.30063346,2.71433592,0.00000000,0.00000000,-0.15578155,2.06858850,1.21369195,0.33572245,-0.57596034,0.00000000,0.00000000
-0.20510285,-2.10865426,-0.57597685,-0.28840950,2.70048857,0.00000000,0.00000000,-0.14232555,2.07205963,1.20963383,0.34791172,-0.59016800,0.00000000,0.00000000
-0.12210860,-2.12030721,-0.55207485,-0.27931607,2.68650770,0.00000000,0.00000000,-0.12730949,2.07860279,1.20500064,0.36115706,-0.60184437,0.00000000,0.00000000
-0.03839536,-2.13474154,-0.52721220,-0.27363393,2.67347813,0.00000000,0.00000000,-0.11494470,2.08727407,1.19955325,0.37282026,-0.61671019,0.00000000,0.00000000
0.04271960,-2.15014243,-0.50208485,-0.27167937,2.66327620,0.00000000,0.00000000,-0.10728345,2.09622765,1.19339430,0.38119128,-0.63287759,0.00000000,0.00000000
0.11420161,-2.16270208,-0.47802088,-0.27351943,2.65597677,0.00000000,0.00000000,-0.10379910,2.10318398,1.18695915,0.38578549,-0.64895475,0.00000000,0.00000000
0.16958180,-2.16866064,-0.45637682,-0.27777120,2.65237713,0.00000000,0.00000000,-0.10301723,2.10630345,1.18072283,0.38668427,-0.66227812,0.00000000,0.00000000
0.20661648,-2.16992760,-0.43790621,-0.28146532,2.64258838,0.00000000,0.00000000,-0.10339895,2.10496593,1.17495251,0.38427696,-0.67535764,0.00000000,0.00000000
0.22583614,-2.17000008,-0.42292097,-0.28079244,2.62547278,0.00000000,0.00000000,-0.10324907,2.10024738,1.16959500,0.37948504,-0.68787354,0.00000000,0.00000000
0.22862381,-2.17000008,-0.41131371,-0.27358809,2.60775805,0.00000000,0.00000000,-0.10112148,2.09493637,1.16422021,0.37380692,-0.69895530,0.00000000,0.00000000
0.21608642,-2.16992831,-0.40270108,-0.26032200,2.58789182,0.00000000,0.00000000,-0.09673707,2.09258199,1.15811193,0.36874115,-0.71452338,0.00000000,0.00000000
0.18904452,-2.16870904,-0.39652950,-0.24379846,2.57007909,0.00000000,0.00000000,-0.08980069,2.09558129,1.15077353,0.36568144,-0.72367132,0.00000000,0.00000000
0.15052038,-2.16326976,-0.39199930,-0.22643402,2.55599785,0.00000000,0.00000000,-0.07953998,2.10370517,1.14228415,0.36536726,-0.73040068,0.00000000,0.00000000
0.10608501,-2.15193820,-0.38816556,-0.20907414,2.54448771,0.00000000,0.00000000,-0.06583924,2.11405730,1.13320684,0.36720580,-0.73628283,0.00000000,0.00000000
0.06033396,-2.13621306,-0.38437283,-0.19194032,2.52406120,0.00000000,0.00000000,-0.04937546,2.12313032,1.12416279,0.37000141,-0.73506057,0.00000000,0.00000000
0.01578850,-2.11779284,-0.38031775,-0.17498806,2.50668836,0.00000000,0.00000000,-0.03163582,2.12924147,1.11534178,0.37285623,-0.73339331,0.00000000,0.00000000
-0.02600591,-2.09931326,-0.37580979,-0.15881172,2.48857427,0.00000000,0.00000000,-0.01515739,2.13248205,1.10647547,0.37488070,-0.73203009,0.00000000,0.00000000
-0.06302196,-2.08306766,-0.37067527,-0.14385374,2.46852326,0.00000000,0.00000000,-0.00300999,2.13308692,1.09718084,0.37471998,-0.73517627,0.00000000,0.00000000
-0.09384594,-2.06935644,-0.36490467,-0.12959996,2.44919348,0.00000000,0.00000000,0.00262549,2.13091540,1.08719599,0.37103334,-0.73978204,0.00000000,0.00000000
-0.11827846,-2.05853558,-0.35861576,-0.11580766,2.42935920,0.00000000,0.00000000,0.00115438,2.12627530,1.07633245,0.36324781,-0.74155521,0.00000000,0.00000000
-0.13669868,-2.05138922,-0.35197020,-0.10273554,2.41400051,0.00000000,0.00000000,-0.00648639,2.11988258,1.06451309,0.35156435,-0.74142104,0.00000000,0.00000000
-0.14945227,-2.04668379,-0.34517503,-0.08984701,2.40458775,0.00000000,0.00000000,-0.01864909,2.11211014,1.05184996,0.33638483,-0.74366534,0.00000000,0.00000000
-0.15754731,-2.04498196,-0.33842432,-0.07817768,2.39547801,0.00000000,0.00000000,-0.03408581,2.10250306,1.03861856,0.31777740,-0.75151688,0.00000000,0.00000000
-0.16332598,-2.04860783,-0.33191392,-0.07011863,2.38975573,0.00000000,0.00000000,-0.05148923,2.09151793,1.02498329,0.29639071,-0.75621307,0.00000000,0.00000000
-0.16867505,-2.05764961,-0.32580420,-0.06673710,2.38556910,0.00000000,0.00000000,-0.06940364,2.07989526,1.01110566,0.27322042,-0.76385039,0.00000000,0.00000000
-0.17575464,-2.07136416,-0.32023266,-0.06870776,2.37692261,0.00000000,0.00000000,-0.08641601,2.06842685,0.99716192,0.24946055,-0.77451575,0.00000000,0.00000000
-0.18461987,-2.08894610,-0.31521383,-0.07603374,2.37114239,0.00000000,0.00000000,-0.10161519,2.05839133,0.98323631,0.22638762,-0.78595036,0.00000000,0.00000000
-0.19120415,-2.10735369,-0.31057757,-0.08623511,2.36291218,0.00000000,0.00000000,-0.11488941,2.05094671,0.96937710,0.20485371,-0.80002773,0.00000000,0.00000000
-0.19480802,-2.12441063,-0.30624792,-0.09787183,2.35645437,0.00000000,0.00000000,-0.12601574,2.04685354,0.95569253,0.18555288,-0.81454772,0.00000000,0.00000000
-0.19520733,-2.13980031,-0.30213103,-0.11086368,2.35312319,0.00000000,0.00000000,-0.13473897,2.04629421,0.94234020,0.16891584,-0.82378083,0.00000000,0.00000000
-0.19242470,-2.15325952,-0.29815832,-0.12536468,2.35320020,0.00000000,0.00000000,-0.14047216,2.04910827,0.92950171,0.15534195,-0.82848823,0.00000000,0.00000000
-0.18837218,-2.16348267,-0.29442236,-0.14126687,2.35699654,0.00000000,0.00000000,-0.14213127,2.05449557,0.91740072,0.14518799,-0.83370346,0.00000000,0.00000000
-0.18432195,-2.16869974,-0.29103383,-0.15738164,2.35768199,0.00000000,0.00000000,-0.13949515,2.06104088,0.90621990,0.13814031,-0.84261274,0.00000000,0.00000000
-0.17975044,-2.16992664,-0.28800777,-0.17157689,2.35689282,0.00000000,0.00000000,-0.13362323,2.06779599,0.89601099,0.13341840,-0.84530711,0.00000000,0.00000000
-0.17335582,-2.17000008,-0.28528062,-0.18175711,2.35631371,0.00000000,0.00000000,-0.12591720,2.07441020,0.88675052,0.13027668,-0.84913838,0.00000000,0.00000000
-0.16317110,-2.17000008,-0.28266194,-0.18670465,2.35111928,0.00000000,0.00000000,-0.11731808,2.08071256,0.87841642,0.12824436,-0.85810632,0.00000000,0.00000000
-0.14820968,-2.17000008,-0.28000227,-0.18699254,2.34372497,0.00000000,0.00000000,-0.10861891,2.08651447,0.87098235,0.12685522,-0.86965233,0.00000000,0.00000000
-0.13072538,-2.17000008,-0.27751398,-0.18438181,2.34710360,0.00000000,0.00000000,-0.10055131,2.09178925,0.86440694,0.12570252,-0.88204771,0.00000000,0.00000000
-0.11175012,-2.17000008,-0.27530658,-0.17977767,2.35793972,0.00000000,0.00000000,-0.09369640,2.09644938,0.85865879,0.12445211,-0.90011191,0.00000000,0.00000000
-0.09314576,-2.17000008,-0.27361199,-0.17291801,2.37389803,0.00000000,0.00000000,-0.08804007,2.10061789,0.85372764,0.12313709,-0.91856682,0.00000000,0.00000000
-0.07761110,-2.17000008,-0.27269787,-0.16441873,2.39140248,0.00000000,0.00000000,-0.08323797,2.10443640,0.84962499,0.12196446,-0.93482351,0.00000000,0.00000000
-0.06744475,-2.17000008,-0.27275109,-0.15542254,2.40663862,0.00000000,0.00000000,-0.07881364,2.10775328,0.84638667,0.12111170,-0.95834899,0.00000000,0.00000000
-0.06360737,-2.17000008,-0.27383587,-0.14650653,2.42011333,0.00000000,0.00000000,-0.07441885,2.11026049,0.84404749,0.12064675,-0.98427498,0.00000000,0.00000000
-0.06488499,-2.17000008,-0.27584022,-0.13735327,2.42846870,0.00000000,0.00000000,-0.07034969,2.11206579,0.84258711,0.12053738,-1.00925159,0.00000000,0.00000000
-0.07002457,-2.17000008,-0.27865624,-0.12788638,2.43701458,0.00000000,0.00000000,-0.06704730,2.11407614,0.84192973,0.12105945,-1.03916430,0.00000000,0.00000000
-0.07828522,-2.17000008,-0.28221077,-0.11856807,2.44637156,0.00000000,0.00000000,-0.06467334,2.11762238,0.84197485,0.12278331,-1.06998777,0.00000000,0.00000000
-0.08916758,-2.16995001,-0.28645292,-0.10975705,2.45832539,0.00000000,0.00000000,-0.06344386,2.12311888,0.84264821,0.12583022,-1.10516846,0.00000000,0.00000000
-0.10223897,-2.16916323,-0.29133508,-0.10196975,2.47571039,0.00000000,0.00000000,-0.06377238,2.13008189,0.84390175,0.12981142,-1.14076889,0.00000000,0.00000000
-0.11730158,-2.16636491,-0.29681930,-0.09607775,2.49417424,0.00000000,0.00000000,-0.06588541,2.13772058,0.84570831,0.13426267,-1.17534375,0.00000000,0.00000000
-0.13448900,-2.16224957,-0.30288696,-0.09297463,2.51307726,0.00000000,0.00000000,-0.06956732,2.14531803,0.84806174,0.13891618,-1.21599805,0.00000000,0.00000000
-0.15395507,-2.15821314,-0.30952483,-0.09324662,2.52571011,0.00000000,0.00000000,-0.07444291,2.15222740,0.85096383,0.14360355,-1.25532591,0.00000000,0.00000000
-0.17580310,-2.15550017,-0.31671846,-0.09737283,2.54123592,0.00000000,0.00000000,-0.08011972,2.15798283,0.85440731,0.14825459,-1.29119194,0.00000000,0.00000000
-0.20014893,-2.15512204,-0.32445094,-0.10574104,2.55248141,0.00000000,0.00000000,-0.08606103,2.16241574,0.85837674,0.15299472,-1.31646872,0.00000000,0.00000000
-0.22699495,-2.15732169,-0.33269766,-0.11827130,2.56402612,0.00000000,0.00000000,-0.09168077,2.16561913,0.86284471,0.15806121,-1.33962190,0.00000000,0.00000000
-0.25595477,-2.16143298,-0.34141052,-0.13428228,2.57635379,0.00000000,0.00000000,-0.09665119,2.16789174,0.86775464,0.16364162,-1.36027753,0.00000000,0.00000000
-0.28629342,-2.16597176,-0.35051468,-0.15258564,2.58536124,0.00000000,0.00000000,-0.10086594,2.16939020,0.87304729,0.16978355,-1.37643027,0.00000000,0.00000000
-0.31714126,-2.16907811,-0.35991240,-0.17175464,2.59404063,0.00000000,0.00000000,-0.10418348,2.16992283,0.87873483,0.17627729,-1.39227402,0.00000000,0.00000000
-0.34753656,-2.16994524,-0.36949021,-0.19024989,2.60568786,0.00000000,0.00000000,-0.10670891,2.16999674,0.88486201,0.18270974,-1.40779018,0.00000000,0.00000000
-0.37643138,-2.17000008,-0.37911686,-0.20658331,2.61277246,0.00000000,0.00000000,-0.10884268,2.17000008,0.89145237,0.18865767,-1.42411733,0.00000000,0.00000000
-0.40241936,-2.17000008,-0.38859370,-0.21970659,2.61548924,0.00000000,0.00000000,-0.11068493,2.17000008,0.89854157,0.19397238,-1.44465947,0.00000000,0.00000000
-0.42366406,-2.17000008,-0.39763266,-0.22910953,2.61860704,0.00000000,0.00000000,-0.11149439,2.16993928,0.90621144,0.19898957,-1.46257639,0.00000000,0.00000000
-0.43802974,-2.17000008,-0.40587530,-0.23458302,2.62327981,0.00000000,0.00000000,-0.10973433,2.16895056,0.91456074,0.20458183,-1.47531259,0.00000000,0.00000000
-0.44327387,-2.17000008,-0.41293654,-0.23599954,2.63200831,0.00000000,0.00000000,-0.10363200,2.16503930,0.92363685,0.21202190,-1.48663127,0.00000000,0.00000000
-0.43703687,-2.17000008,-0.41844606,-0.23310626,2.64414358,0.00000000,0.00000000,-0.09211748,2.15799665,0.93337315,0.22252622,-1.49989164,0.00000000,0.00000000
-0.41727579,-2.17000008,-0.42214045,-0.22562225,2.65570951,0.00000000,0.00000000,-0.07520173,2.14911509,0.94359809,0.23687115,-1.51005113,0.00000000,0.00000000
-0.38349640,-2.17000008,-0.42402530,-0.21366300,2.66929412,0.00000000,0.00000000,-0.05356282,2.13973212,0.95408350,0.25540134,-1.50881302,0.00000000,0.00000000
-0.33751756,-2.16996479,-0.42443860,-0.19802167,2.68408132,0.00000000,0.00000000,-0.02783939,2.13091922,0.96461105,0.27832741,-1.50574124,0.00000000,0.00000000
-0.28243625,-2.16941953,-0.42388946,-0.17960988,2.69780517,0.00000000,0.00000000,0.00171664,2.12352681,0.97499847,0.30578393,-1.50516033,0.00000000,0.00000000
-0.22053124,-2.16768122,-0.42279896,-0.15878800,2.70760584,0.00000000,0.00000000,0.03455922,2.11810684,0.98504245,0.33737203,-1.49348009,0.00000000,0.00000000
-0.15178789,-2.16684008,-0.42125630,-0.13632753,2.71440625,0.00000000,0.00000000,0.06925426,2.11546493,0.99436378,0.37208295,-1.48049855,0.00000000,0.00000000
-0.07634749,-2.16887331,-0.41940758,-0.11191706,2.71947408,0.00000000,0.00000000,0.10341669,2.11724043,1.00228977,0.40852973,-1.47035623,0.00000000,0.00000000
0.00126617,-2.16992426,-0.41781458,-0.08379634,2.72490287,0.00000000,0.00000000,0.13680053,2.12392068,1.00863492,0.44587541,-1.45297182,0.00000000,0.00000000
0.07382791,-2.17000008,-0.41695902,-0.05319095,2.72917366,0.00000000,0.00000000,0.17212954,2.13414621,1.01407433,0.48423496,-1.43864155,0.00000000,0.00000000
0.13825752,-2.16994524,-0.41693649,-0.02214083,2.73475289,0.00000000,0.00000000,0.20974757,2.14502978,1.01940536,0.52231544,-1.42828107,0.00000000,0.00000000
0.19517744,-2.16902637,-0.41769665,0.00864082,2.74381971,0.00000000,0.00000000,0.24694331,2.15438032,1.02488899,0.55760741,-1.41525531,0.00000000,0.00000000
0.24475858,-2.16504574,-0.41921520,0.03848085,2.74863935,0.00000000,0.00000000,0.28174737,2.16127300,1.03060293,0.58784115,-1.40782535,0.00000000,0.00000000
0.28516677,-2.15702009,-0.42146531,0.06567307,2.75262880,0.00000000,0.00000000,0.31347960,2.16541004,1.03660500,0.61135978,-1.39361072,0.00000000,0.00000000
0.31330064,-2.14631319,-0.42435828,0.08821581,2.75886750,0.00000000,0.00000000,0.34106123,2.16711164,1.04257214,0.62705201,-1.37116706,0.00000000,0.00000000
0.32603759,-2.13466477,-0.42774597,0.10442463,2.76466179,0.00000000,0.00000000,0.36253563,2.16692638,1.04773819,0.63416862,-1.35069156,0.00000000,0.00000000
0.32134238,-2.12333655,-0.43148622,0.11315598,2.77272701,0.00000000,0.00000000,0.37481770,2.16573620,1.05075669,0.63224703,-1.32480836,0.00000000,0.00000000
0.29866940,-2.11278439,-0.43550101,0.11406095,2.78541875,0.00000000,0.00000000,0.37434328,2.16500807,1.04992568,0.62157375,-1.30035460,0.00000000,0.00000000
0.25843742,-2.10357523,-0.43980628,0.10702177,2.79397607,0.00000000,0.00000000,0.35907027,2.16581392,1.04424548,0.60384554,-1.27578461,0.00000000,0.00000000
0.20233053,-2.09664059,-0.44455457,0.09216486,2.80407715,0.00000000,0.00000000,0.33182126,2.16774035,1.03453159,0.58292568,-1.26046431,0.00000000,0.00000000
0.13646674,-2.09215856,-0.45011804,0.07144182,2.81516004,0.00000000,0.00000000,0.29736164,2.16944551,1.02272749,0.56212419,-1.24742615,0.00000000,0.00000000
0.06892493,-2.09048390,-0.45684788,0.04756540,2.82456875,0.00000000,0.00000000,0.25908616,2.16996646,1.01151025,0.54133219,-1.23427367,0.00000000,0.00000000
0.00211851,-2.09076309,-0.46469918,0.02211453,2.83937454,0.00000000,0.00000000,0.22110744,2.17000008,1.00408471,0.51919639,-1.22159028,0.00000000,0.00000000
-0.06261074,-2.09144306,-0.47353607,-0.00357766,2.84917617,0.00000000,0.00000000,0.18571205,2.17000008,1.00210822,0.49498996,-1.21071672,0.00000000,0.00000000
-0.12477167,-2.09253740,-0.48321930,-0.02942087,2.85907984,0.00000000,0.00000000,0.15209264,2.16996050,1.00518751,0.46816611,-1.19808912,0.00000000,0.00000000
-0.18637836,-2.09517884,-0.49361554,-0.05667921,2.87330151,0.00000000,0.00000000,0.11972594,2.16933131,1.01181591,0.43962413,-1.18606734,0.00000000,0.00000000
-0.24959631,-2.09963369,-0.50460702,-0.08617708,2.87979317,0.00000000,0.00000000,0.08866603,2.16701770,1.02011752,0.41154096,-1.17197752,0.00000000,0.00000000
-0.31282192,-2.10674357,-0.51589793,-0.11791750,2.87979317,0.00000000,0.00000000,0.05653914,2.16345143,1.02828717,0.38478950,-1.16146266,0.00000000,0.00000000
-0.37046507,-2.11789441,-0.52686673,-0.15093362,2.87979317,0.00000000,0.00000000,0.02091996,2.15975738,1.03547561,0.35894513,-1.14591789,0.00000000,0.00000000
-0.41800231,-2.13297963,-0.53689492,-0.18374756,2.87979317,0.00000000,0.00000000,-0.01739115,2.15638781,1.04170084,0.33439919,-1.13085878,0.00000000,0.00000000
-0.45655850,-2.14923382,-0.54593658,-0.21535343,2.87979317,0.00000000,0.00000000,-0.05403462,2.15355730,1.04740810,0.31308979,-1.11199808,0.00000000,0.00000000
-0.48973060,-2.16207981,-0.55439132,-0.24471015,2.87979317,0.00000000,0.00000000,-0.08539234,2.15176201,1.05289137,0.29657719,-1.09447885,0.00000000,0.00000000
-0.51676720,-2.16845369,-0.56223518,-0.26991227,2.87979317,0.00000000,0.00000000,-0.11087415,2.15116286,1.05820811,0.28478754,-1.08529198,0.00000000,0.00000000
-0.53510749,-2.16991377,-0.56908143,-0.28979892,2.87979317,0.00000000,0.00000000,-0.13072294,2.15131855,1.06344676,0.27715459,-1.07797277,0.00000000,0.00000000
-0.54400629,-2.17000008,-0.57474679,-0.30409756,2.87979317,0.00000000,0.00000000,-0.14556308,2.15204000,1.06863761,0.27314028,-1.06885731,0.00000000,0.00000000
-0.54372609,-2.17000008,-0.57919854,-0.31293902,2.87979317,0.00000000,0.00000000,-0.15595657,2.15321469,1.07379889,0.27225655,-1.06430554,0.00000000,0.00000000
-0.53378385,-2.17000008,-0.58225334,-0.31653589,2.87979317,0.00000000,0.00000000,-0.16186199,2.15477347,1.07897770,0.27427897,-1.06289172,0.00000000,0.00000000
-0.51308930,-2.17000008,-0.58366817,-0.31494901,2.87979317,0.00000000,0.00000000,-0.16342375,2.15687919,1.08416855,0.27897173,-1.05997992,0.00000000,0.00000000
-0.48031864,-2.17000008,-0.58321625,-0.30820113,2.87979317,0.00000000,0.00000000,-0.16097656,2.15984035,1.08932662,0.28614032,-1.06038749,0.00000000,0.00000000
-0.43462041,-2.17000008,-0.58081770,-0.29649946,2.87979317,0.00000000,0.00000000,-0.15486018,2.16361094,1.09444320,0.29561025,-1.05876517,0.00000000,0.00000000
-0.37713417,-2.17000008,-0.57684928,-0.28028435,2.87979317,0.00000000,0.00000000,-0.14587951,2.16718054,1.09959507,0.30674797,-1.05393076,0.00000000,0.00000000
-0.31250465,-2.17000008,-0.57234007,-0.26023722,2.87979317,0.00000000,0.00000000,-0.13476722,2.16935158,1.10488307,0.31889334,-1.05117321,0.00000000,0.00000000
-0.24739918,-2.17000008,-0.56866169,-0.23638463,2.87979317,0.00000000,0.00000000,-0.12114114,2.16948128,1.11050189,0.33189920,-1.04699945,0.00000000,0.00000000
-0.18291913,-2.16992188,-0.56625342,-0.20683526,2.87979317,0.00000000,0.00000000,-0.10346738,2.16763711,1.11670876,0.34615952,-1.04704678,0.00000000,0.00000000
-0.11542945,-2.16870785,-0.56453520,-0.17090519,2.87979317,0.00000000,0.00000000,-0.08127643,2.16425276,1.12329733,0.36203700,-1.04924703,0.00000000,0.00000000
-0.04225673,-2.16459155,-0.56287342,-0.13111953,2.87979317,0.00000000,0.00000000,-0.05697012,2.16059566,1.12972593,0.37849620,-1.05520892,0.00000000,0.00000000
0.03499326,-2.15885520,-0.56124842,-0.09054738,2.87979317,0.00000000,0.00000000,-0.03349542,2.15755820,1.13559532,0.39405209,-1.06989527,0.00000000,0.00000000
0.10861543,-2.15248084,-0.56019467,-0.05235119,2.87979317,0.00000000,0.00000000,-0.01102303,2.15490937,1.14109302,0.40838921,-1.08323205,0.00000000,0.00000000
0.17256723,-2.14550257,-0.56007284,-0.01859071,2.87979317,0.00000000,0.00000000,0.01039870,2.15116763,1.14675009,0.42093039,-1.09854579,0.00000000,0.00000000
0.22522248,-2.13805103,-0.56096816,0.01001971,2.87979317,0.00000000,0.00000000,0.02886595,2.14571476,1.15270483,0.43044141,-1.10955215,0.00000000,0.00000000
0.26609364,-2.13042903,-0.56289738,0.03316903,2.87979317,0.00000000,0.00000000,0.04286344,2.13930607,1.15875769,0.43637598,-1.12353361,0.00000000,0.00000000
0.29408363,-2.12319112,-0.56586146,0.05035413,2.87979317,0.00000000,0.00000000,0.05234602,2.13329792,1.16461253,0.43927220,-1.13428950,0.00000000,0.00000000
0.30777621,-2.11686850,-0.56984144,0.06096644,2.87979317,0.00000000,0.00000000,0.05793530,2.12990522,1.16972041,0.44053140,-1.14817238,0.00000000,0.00000000
0.30627918,-2.11193871,-0.57481909,0.06443875,2.87979317,0.00000000,0.00000000,0.06026014,2.13102579,1.17353940,0.44166014,-1.16472483,0.00000000,0.00000000
0.28953284,-2.10875297,-0.58079803,0.06030175,2.87979317,0.00000000,0.00000000,0.05999316,2.13697004,1.17593741,0.44369286,-1.18603015,0.00000000,0.00000000
0.25874126,-2.10715199,-0.58781677,0.04856697,2.87979317,0.00000000,0.00000000,0.05783267,2.14603925,1.17736709,0.44691443,-1.20249796,0.00000000,0.00000000
0.21590361,-2.10701180,-0.59593213,0.02950312,2.87979317,0.00000000,0.00000000,0.05402296,2.15566444,1.17854989,0.45087487,-1.21838832,0.00000000,0.00000000
0.16309319,-2.10835004,-0.60517716,0.00357300,2.85817218,0.00000000,0.00000000,0.04846311,2.16322899,1.18017900,0.45461163,-1.23669398,0.00000000,0.00000000
0.10220689,-2.11126709,-0.61552805,-0.02854037,2.82889366,0.00000000,0.00000000,0.04105359,2.16662121,1.18269694,0.45703706,-1.26090932,0.00000000,0.00000000
0.03512867,-2.11604714,-0.62688118,-0.06599934,2.79334283,0.00000000,0.00000000,0.03196421,2.16547799,1.18601370,0.45762563,-1.29071367,0.00000000,0.00000000
-0.03557179,-2.12261343,-0.63901913,-0.10738596,2.75343704,0.00000000,0.00000000,0.02103738,2.16138458,1.18947196,0.45636174,-1.31955862,0.00000000,0.00000000
-0.10549408,-2.13018322,-0.65154916,-0.15018816,2.71481729,0.00000000,0.00000000,0.00640357,2.15608501,1.19224548,0.45254698,-1.34700251,0.00000000,0.00000000
-0.16924241,-2.13865709,-0.66383541,-0.19189131,2.68060923,0.00000000,0.00000000,-0.01415062,2.15029669,1.19382775,0.44512591,-1.37298822,0.00000000,0.00000000
-0.22419548,-2.15016413,-0.67521703,-0.23273796,2.64409971,0.00000000,0.00000000,-0.04056592,2.14390326,1.19421375,0.43403041,-1.39944029,0.00000000,0.00000000
-0.27132493,-2.16159296,-0.68579924,-0.27278730,2.61149096,0.00000000,0.00000000,-0.06993915,2.13700557,1.19366646,0.42069960,-1.42069912,0.00000000,0.00000000
-0.31292063,-2.16823363,-0.69611001,-0.31148681,2.58530235,0.00000000,0.00000000,-0.09940202,2.13028312,1.19235587,0.40671209,-1.44350505,0.00000000,0.00000000
-0.34702852,-2.16989851,-0.70589137,-0.34778577,2.56467462,0.00000000,0.00000000,-0.12819032,2.12403655,1.19037533,0.39249387,-1.46427238,0.00000000,0.00000000
-0.37086725,-2.17000008,-0.71450168,-0.38083747,2.55093527,0.00000000,0.00000000,-0.15620992,2.11804605,1.18789017,0.37803626,-1.48670685,0.00000000,0.00000000
-0.38060194,-2.17000008,-0.72077578,-0.40920445,2.53350210,0.00000000,0.00000000,-0.18258719,2.11269832,1.18502045,0.36390388,-1.50716007,0.00000000,0.00000000
-0.37165201,-2.17000008,-0.72355163,-0.42905703,2.51814866,0.00000000,0.00000000,-0.20527540,2.10919333,1.18181705,0.35145283,-1.52763927,0.00000000,0.00000000
-0.34743941,-2.17000008,-0.72415668,-0.43651313,2.50133395,0.00000000,0.00000000,-0.22278810,2.10763693,1.17848420,0.34144831,-1.54953766,0.00000000,0.00000000
-0.31178540,-2.17000008,-0.72331911,-0.43156672,2.48114634,0.00000000,0.00000000,-0.23419608,2.10710073,1.17535901,0.33415622,-1.57744598,0.00000000,0.00000000
-0.26627427,-2.17000008,-0.72093755,-0.41573489,2.46348977,0.00000000,0.00000000,-0.23905107,2.10650396,1.17275441,0.32959527,-1.60566461,0.00000000,0.00000000
-0.21171056,-2.16999435,-0.71699387,-0.39032170,2.45337605,0.00000000,0.00000000,-0.23730698,2.10566592,1.17077625,0.32786626,-1.62581062,0.00000000,0.00000000
-0.14896627,-2.16985440,-0.71165603,-0.35680881,2.44998240,0.00000000,0.00000000,-0.22893876,2.10559940,1.16929722,0.32940072,-1.65130162,0.00000000,0.00000000
-0.08083017,-2.16876817,-0.70537442,-0.31797591,2.43578911,0.00000000,0.00000000,-0.21369711,2.10801983,1.16806340,0.33485919,-1.67213964,0.00000000,0.00000000
-0.01181398,-2.16618800,-0.69865441,-0.27822638,2.42280579,0.00000000,0.00000000,-0.19184791,2.11368155,1.16692162,0.34421644,-1.68312323,0.00000000,0.00000000
0.05572408,-2.16439676,-0.69168401,-0.24109475,2.41301489,0.00000000,0.00000000,-0.16544802,2.12137485,1.16588664,0.35585409,-1.69624782,0.00000000,0.00000000
0.12211744,-2.16439581,-0.68456447,-0.20748378,2.40619183,0.00000000,0.00000000,-0.13767108,2.12960505,1.16489661,0.36746222,-1.71185410,0.00000000,0.00000000
0.18822400,-2.16582060,-0.67742968,-0.17703003,2.40407395,0.00000000,0.00000000,-0.11175870,2.13747025,1.16377759,0.37684569,-1.73053217,0.00000000,0.00000000
0.25226709,-2.16793394,-0.67060602,-0.14987046,2.39803123,0.00000000,0.00000000,-0.08922938,2.14348459,1.16270185,0.38251686,-1.74578965,0.00000000,0.00000000
0.30840889,-2.16951990,-0.66469222,-0.12719162,2.39355636,0.00000000,0.00000000,-0.06863388,2.14521098,1.16241169,0.38434756,-1.76211810,0.00000000,0.00000000
0.35263678,-2.16997147,-0.66009969,-0.10926296,2.39496922,0.00000000,0.00000000,-0.04984374,2.14094400,1.16345000,0.38200164,-1.77023578,0.00000000,0.00000000
0.38445532,-2.17000008,-0.65694767,-0.09515993,2.39530158,0.00000000,0.00000000,-0.03279949,2.13163352,1.16579461,0.37602076,-1.77225912,0.00000000,0.00000000
0.40350810,-2.17000008,-0.65525848,-0.08455518,2.39457154,0.00000000,0.00000000,-0.01590819,2.11994338,1.16913784,0.36830661,-1.76935148,0.00000000,0.00000000
0.40825978,-2.17000008,-0.65506399,-0.07812478,2.39379787,0.00000000,0.00000000,0.00178446,2.10981369,1.17278469,0.36092249,-1.76542401,0.00000000,0.00000000
0.39699686,-2.17000008,-0.65639591,-0.07708412,2.38904476,0.00000000,0.00000000,0.01904377,2.10522723,1.17580736,0.35505608,-1.75604272,0.00000000,0.00000000
0.36893350,-2.16997957,-0.65928262,-0.08235180,2.39117622,0.00000000,0.00000000,0.03358787,2.10806322,1.17759693,0.35095257,-1.74393785,0.00000000,0.00000000
0.32440469,-2.16958761,-0.66375744,-0.09404375,2.39812517,0.00000000,0.00000000,0.04414677,2.11713243,1.17825973,0.34846148,-1.73184431,0.00000000,0.00000000
0.26488298,-2.16726685,-0.66982055,-0.11153666,2.40750980,0.00000000,0.00000000,0.05055064,2.12919068,1.17846751,0.34717739,-1.71607661,0.00000000,0.00000000
0.19358970,-2.16086912,-0.67733562,-0.13351546,2.41473913,0.00000000,0.00000000,0.05244015,2.14046502,1.17901504,0.34613979,-1.70525873,0.00000000,0.00000000
0.11560722,-2.15063071,-0.68593067,-0.15800580,2.41692948,0.00000000,0.00000000,0.04871781,2.14795208,1.18042469,0.34396684,-1.69819689,0.00000000,0.00000000
0.03539842,-2.13907099,-0.69504797,-0.18382825,2.41758847,0.00000000,0.00000000,0.03823610,2.15061092,1.18272936,0.33968815,-1.68588889,0.00000000,0.00000000
-0.04514163,-2.12966228,-0.70411706,-0.21119143,2.41856265,0.00000000,0.00000000,0.02067302,2.14947534,1.18559086,0.33327940,-1.67906356,0.00000000,0.00000000
-0.12404347,-2.12424159,-0.71258181,-0.23954107,2.41709590,0.00000000,0.00000000,-0.00301888,2.14631319,1.18865216,0.32548556,-1.67571616,0.00000000,0.00000000
-0.19825445,-2.12172246,-0.71996170,-0.26664999,2.41881967,0.00000000,0.00000000,-0.03116461,2.14262247,1.19170690,0.31727281,-1.67208040,0.00000000,0.00000000
-0.26491275,-2.12218618,-0.72564548,-0.29138637,2.41522670,0.00000000,0.00000000,-0.06265778,2.13933921,1.19466281,0.30915099,-1.66442180,0.00000000,0.00000000
-0.32175007,-2.12763762,-0.72889775,-0.31456378,2.40131474,0.00000000,0.00000000,-0.09628523,2.13703704,1.19752610,0.30155772,-1.65263093,0.00000000,0.00000000
-0.36719283,-2.13677835,-0.72952795,-0.33589804,2.38952541,0.00000000,0.00000000,-0.12952916,2.13603473,1.20043433,0.29544622,-1.64362681,0.00000000,0.00000000
-0.40484062,-2.14696193,-0.72836292,-0.35607615,2.37535977,0.00000000,0.00000000,-0.15942167,2.13639498,1.20359397,0.29189637,-1.63616037,0.00000000,0.00000000
-0.43804026,-2.15642571,-0.72619033,-0.37570170,2.35274839,0.00000000,0.00000000,-0.18392397,2.13797212,1.20717990,0.29158729,-1.62421036,0.00000000,0.00000000
-0.46720275,-2.16404462,-0.72330087,-0.39445713,2.33255029,0.00000000,0.00000000,-0.20205273,2.14036584,1.21132815,0.29475823,-1.60977292,0.00000000,0.00000000
-0.49189723,-2.16861343,-0.71983051,-0.41170695,2.31683350,0.00000000,0.00000000,-0.21372448,2.14299750,1.21612966,0.30127138,-1.59052610,0.00000000,0.00000000
-0.51178306,-2.16989374,-0.71588087,-0.42674947,2.29889703,0.00000000,0.00000000,-0.21952382,2.14521766,1.22162843,0.31071955,-1.57064426,0.00000000,0.00000000
-0.52629811,-2.16999817,-0.71141785,-0.43885520,2.27940607,0.00000000,0.00000000,-0.22037916,2.14673686,1.22777200,0.32265875,-1.55077934,0.00000000,0.00000000
-0.53463769,-2.17000008,-0.70626271,-0.44728047,2.26206017,0.00000000,0.00000000,-0.21726377,2.14748430,1.23445332,0.33670375,-1.53663993,0.00000000,0.00000000
-0.53578496,-2.17000008,-0.70015776,-0.45115158,2.24538517,0.00000000,0.00000000,-0.21108706,2.14746213,1.24154770,0.35257351,-1.52424836,0.00000000,0.00000000
-0.52815920,-2.17000008,-0.69274199,-0.44927987,2.22563791,0.00000000,0.00000000,-0.20274450,2.14699316,1.24886835,0.37010539,-1.51031077,0.00000000,0.00000000
-0.50974917,-2.17000008,-0.68353248,-0.44054738,2.20930529,0.00000000,0.00000000,-0.19288282,2.14655638,1.25620830,0.38924196,-1.49376893,0.00000000,0.00000000
-0.47961977,-2.17000008,-0.67227888,-0.42473188,2.19446063,0.00000000,0.00000000,-0.18210357,2.14655709,1.26337075,0.40980360,-1.47528529,0.00000000,0.00000000
-0.43891603,-2.17000008,-0.65915310,-0.40291804,2.18132234,0.00000000,0.00000000,-0.17121199,2.14728141,1.27015650,0.43127751,-1.45671272,0.00000000,0.00000000
-0.39084548,-2.16998506,-0.64468020,-0.37745565,2.16614246,0.00000000,0.00000000,-0.16111676,2.14860535,1.27643418,0.45273983,-1.43767989,0.00000000,0.00000000
-0.33811146,-2.16972709,-0.62916237,-0.35096890,2.14704442,0.00000000,0.00000000,-0.15245792,2.15002966,1.28215778,0.47308907,-1.42764759,0.00000000,0.00000000
-0.28151995,-2.16852069,-0.61250067,-0.32560086,2.13156343,0.00000000,0.00000000,-0.14545278,2.15098429,1.28730726,0.49132416,-1.41944647,0.00000000,0.00000000
-0.22077079,-2.16615343,-0.59447587,-0.30297083,2.12095833,0.00000000,0.00000000,-0.14009798,2.15104628,1.29184735,0.50670040,-1.40968704,0.00000000,0.00000000
-0.15516457,-2.16400886,-0.57491601,-0.28427309,2.11170244,0.00000000,0.00000000,-0.13680185,2.14993191,1.29574203,0.51857179,-1.40354919,0.00000000,0.00000000
-0.08539868,-2.16309977,-0.55397195,-0.27056989,2.10809350,0.00000000,0.00000000,-0.13633744,2.14721632,1.29907990,0.52631384,-1.40079248,0.00000000,0.00000000
-0.01607734,-2.16319394,-0.53242826,-0.26325163,2.09355021,0.00000000,0.00000000,-0.13830821,2.14202523,1.30230594,0.52994770,-1.40003932,0.00000000,0.00000000
0.04611273,-2.16534567,-0.51127875,-0.26352653,2.07206154,0.00000000,0.00000000,-0.14063546,2.13353467,1.30605197,0.53044295,-1.40335691,0.00000000,0.00000000
0.09734382,-2.16869164,-0.49133998,-0.26892266,2.04895067,0.00000000,0.00000000,-0.14193138,2.12150693,1.31065929,0.52857584,-1.40507269,0.00000000,0.00000000
0.13553190,-2.16991711,-0.47352326,-0.27416629,2.02412987,0.00000000,0.00000000,-0.14181487,2.10685325,1.31595397,0.52481174,-1.40941477,0.00000000,0.00000000
0.15811162,-2.17000008,-0.45881617,-0.27471650,2.00144696,0.00000000,0.00000000,-0.14032291,2.09237432,1.32103908,0.51989079,-1.40930998,0.00000000,0.00000000
0.16457500,-2.16996479,-0.44762611,-0.26771155,1.98296094,0.00000000,0.00000000,-0.13829148,2.08185887,1.32452929,0.51463932,-1.41148615,0.00000000,0.00000000
0.15660532,-2.16920567,-0.43956584,-0.25292602,1.96080232,0.00000000,0.00000000,-0.13684417,2.07757092,1.32544172,0.50953436,-1.40524137,0.00000000,0.00000000
0.13733700,-2.16395712,-0.43376175,-0.23188290,1.94132245,0.00000000,0.00000000,-0.13698591,2.07944489,1.32358694,0.50444430,-1.39731967,0.00000000,0.00000000
0.11040541,-2.14892817,-0.42925692,-0.20692070,1.91729236,0.00000000,0.00000000,-0.13929409,2.08570433,1.31942940,0.49884266,-1.39097798,0.00000000,0.00000000
0.07891171,-2.12633252,-0.42532635,-0.18038765,1.90157306,0.00000000,0.00000000,-0.14336301,2.09328794,1.31395280,0.49227771,-1.38433921,0.00000000,0.00000000
0.04548576,-2.10057282,-0.42152545,-0.15394114,1.89104497,0.00000000,0.00000000,-0.14799888,2.09887552,1.30830395,0.48467320,-1.37699223,0.00000000,0.00000000
0.01219358,-2.07423925,-0.41766736,-0.12836380,1.87806904,0.00000000,0.00000000,-0.15179555,2.10090923,1.30313146,0.47656810,-1.36882770,0.00000000,0.00000000
-0.02001780,-2.04889870,-0.41377622,-0.10424913,1.86777508,0.00000000,0.00000000,-0.15354548,2.09996629,1.29841387,0.46886823,-1.36225009,0.00000000,0.00000000
-0.05201040,-2.02652860,-0.41000974,-0.08305731,1.86404967,0.00000000,0.00000000,-0.15290765,2.09727240,1.29383790,0.46202242,-1.36396670,0.00000000,0.00000000
-0.08511294,-2.00904608,-0.40653250,-0.06647004,1.85971582,0.00000000,0.00000000,-0.15055123,2.09365797,1.28910542,0.45569637,-1.36610889,0.00000000,0.00000000
-0.11790657,-1.99728954,-0.40337580,-0.05477379,1.85175347,0.00000000,0.00000000,-0.14732286,2.08979177,1.28395629,0.44935435,-1.37182200,0.00000000,0.00000000
-0.15010579,-1.99083543,-0.40062270,-0.04758865,1.84345007,0.00000000,0.00000000,-0.14413154,2.08620214,1.27818573,0.44241461,-1.38194478,0.00000000,0.00000000
-0.18256561,-1.98969197,-0.39835277,-0.04501805,1.83865333,0.00000000,0.00000000,-0.14138046,2.08324504,1.27169740,0.43458489,-1.39265597,0.00000000,0.00000000
-0.21575013,-1.99351597,-0.39659849,-0.04691352,1.83709192,0.00000000,0.00000000,-0.13916677,2.08111978,1.26448143,0.42576778,-1.40335572,0.00000000,0.00000000
-0.24965361,-2.00184894,-0.39535663,-0.05297587,1.82943630,0.00000000,0.00000000,-0.13744646,2.07994008,1.25658166,0.41599309,-1.41588259,0.00000000,0.00000000
-0.28395662,-2.01457596,-0.39459294,-0.06309111,1.82020640,0.00000000,0.00000000,-0.13600984,2.07978320,1.24808466,0.40542853,-1.43197703,0.00000000,0.00000000
-0.31824297,-2.03136611,-0.39424956,-0.07710008,1.81108892,0.00000000,0.00000000,-0.13455421,2.08084226,1.23907506,0.39440113,-1.44283843,0.00000000,0.00000000
-0.35181290,-2.05165148,-0.39422962,-0.09475592,1.80436027,0.00000000,0.00000000,-0.13276248,2.08356333,1.22958589,0.38347861,-1.45279992,0.00000000,0.00000000
-0.38385496,-2.07460046,-0.39439923,-0.11574002,1.79861557,0.00000000,0.00000000,-0.13015528,2.08824539,1.21969306,0.37329379,-1.46396697,0.00000000,0.00000000
-0.41320345,-2.09885526,-0.39457700,-0.13941449,1.79433036,0.00000000,0.00000000,-0.12645745,2.09506536,1.20947850,0.36426723,-1.47602999,0.00000000,0.00000000
-0.43810460,-2.12256956,-0.39451525,-0.16475663,1.79251051,0.00000000,0.00000000,-0.12165844,2.10428977,1.19897676,0.35670909,-1.48869956,0.00000000,0.00000000
-0.45699722,-2.14344215,-0.39395523,-0.19051522,1.79046679,0.00000000,0.00000000,-0.11544006,2.11546326,1.18838429,0.35090789,-1.49366689,0.00000000,0.00000000
-0.46891949,-2.15908766,-0.39266196,-0.21544096,1.78569877,0.00000000,0.00000000,-0.10731855,2.12703228,1.17810726,0.34687859,-1.50191212,0.00000000,0.00000000
-0.47329301,-2.16767788,-0.39042827,-0.23835492,1.78135502,0.00000000,0.00000000,-0.09704085,2.13704491,1.16858649,0.34435251,-1.51144814,0.00000000,0.00000000
-0.47039351,-2.16986513,-0.38721624,-0.25799665,1.77733552,0.00000000,0.00000000,-0.08521871,2.14442515,1.15999746,0.34281650,-1.52413177,0.00000000,0.00000000
-0.46142560,-2.17000008,-0.38322309,-0.27318326,1.77823448,0.00000000,0.00000000,-0.07329331,2.14879560,1.15228665,0.34147903,-1.53613710,0.00000000,0.00000000
-0.44785509,-2.17000008,-0.37874973,-0.28323737,1.78230715,0.00000000,0.00000000,-0.06264202,2.14979506,1.14537358,0.33950129,-1.54175806,0.00000000,0.00000000
-0.43074784,-2.17000008,-0.37403458,-0.28812072,1.78800189,0.00000000,0.00000000,-0.05396741,2.14742470,1.13915205,0.33640113,-1.54514658,0.00000000,0.00000000
