isaac-sim2real/sage/motion_files/wr75s/amass/0-Eyes_Japan_Dataset_kudo_walk-08-lookfor-kudo_poses_idx61.txt
l_joint1,l_joint2,l_joint3,l_joint4,l_joint5,l_joint6,l_joint7,r_joint1,r_joint2,r_joint3,r_joint4,r_joint5,r_joint6,r_joint7
-0.66785604,-1.18075144,0.24627608,0.61243242,0.14646845,0.00000000,0.00000000,-1.76657772,0.73362315,-0.39345819,0.26414022,0.13981541,0.00000000,0.00000000
-0.66754013,-1.18141639,0.24647202,0.61267936,0.16171713,0.00000000,0.00000000,-1.76669550,0.73319501,-0.39411986,0.26441291,0.15380242,0.00000000,0.00000000
-0.66693264,-1.18251419,0.24677098,0.61316055,0.17987569,0.00000000,0.00000000,-1.76686084,0.73266673,-0.39532003,0.26495731,0.16910954,0.00000000,0.00000000
-0.66603816,-1.18384087,0.24709721,0.61385065,0.19816245,0.00000000,0.00000000,-1.76700091,0.73232377,-0.39696407,0.26576418,0.18493024,0.00000000,0.00000000
-0.66486633,-1.18523169,0.24743041,0.61470389,0.21603899,0.00000000,0.00000000,-1.76706386,0.73230582,-0.39897910,0.26679805,0.19858333,0.00000000,0.00000000
-0.66342932,-1.18657231,0.24780510,0.61568111,0.23502553,0.00000000,0.00000000,-1.76702130,0.73263526,-0.40132272,0.26802182,0.21425915,0.00000000,0.00000000
-0.66174066,-1.18777978,0.24828209,0.61676735,0.25232646,0.00000000,0.00000000,-1.76686227,0.73329711,-0.40397194,0.26941460,0.22852522,0.00000000,0.00000000
-0.65981388,-1.18877733,0.24892974,0.61799836,0.26968017,0.00000000,0.00000000,-1.76658976,0.73426878,-0.40692124,0.27097332,0.24237555,0.00000000,0.00000000
-0.65766257,-1.18948865,0.24983166,0.61944562,0.28519055,0.00000000,0.00000000,-1.76621985,0.73548925,-0.41017962,0.27268243,0.25638679,0.00000000,0.00000000
-0.65529621,-1.18988156,0.25108847,0.62118053,0.30181587,0.00000000,0.00000000,-1.76577926,0.73682100,-0.41376472,0.27448124,0.26989037,0.00000000,0.00000000
-0.65271294,-1.19002926,0.25279972,0.62323236,0.32163265,0.00000000,0.00000000,-1.76529455,0.73805285,-0.41769126,0.27625251,0.28285688,0.00000000,0.00000000
-0.64989990,-1.19008160,0.25503257,0.62558508,0.34189510,0.00000000,0.00000000,-1.76478136,0.73899138,-0.42196125,0.27787989,0.29348856,0.00000000,0.00000000
-0.64684057,-1.19017780,0.25780061,0.62820572,0.36154899,0.00000000,0.00000000,-1.76423669,0.73954439,-0.42655838,0.27929899,0.30256903,0.00000000,0.00000000
-0.64351600,-1.19043863,0.26104689,0.63103908,0.38263127,0.00000000,0.00000000,-1.76363134,0.73972613,-0.43143919,0.28047928,0.31735286,0.00000000,0.00000000
-0.63990092,-1.19100523,0.26463363,0.63398904,0.40251794,0.00000000,0.00000000,-1.76290834,0.73963994,-0.43652999,0.28140086,0.32489339,0.00000000,0.00000000
-0.63596737,-1.19202101,0.26837063,0.63695711,0.42362735,0.00000000,0.00000000,-1.76199377,0.73944938,-0.44174021,0.28206038,0.33219934,0.00000000,0.00000000
-0.63169038,-1.19358814,0.27204502,0.63988763,0.44345421,0.00000000,0.00000000,-1.76080787,0.73935109,-0.44697499,0.28247470,0.34112668,0.00000000,0.00000000
-0.62705117,-1.19575095,0.27544415,0.64277738,0.45949247,0.00000000,0.00000000,-1.75927043,0.73954314,-0.45213997,0.28265661,0.34692800,0.00000000,0.00000000
-0.62203169,-1.19852948,0.27836347,0.64562887,0.47452262,0.00000000,0.00000000,-1.75730538,0.74020916,-0.45714274,0.28259116,0.35566196,0.00000000,0.00000000
-0.61661512,-1.20194125,0.28064021,0.64840442,0.49276656,0.00000000,0.00000000,-1.75485027,0.74150229,-0.46190578,0.28224665,0.36011451,0.00000000,0.00000000
-0.61079323,-1.20596099,0.28219238,0.65103918,0.51350218,0.00000000,0.00000000,-1.75186515,0.74355167,-0.46637574,0.28162315,0.36161792,0.00000000,0.00000000
-0.60457492,-1.21048903,0.28304061,0.65350688,0.53464609,0.00000000,0.00000000,-1.74833310,0.74643135,-0.47052571,0.28076619,0.35959253,0.00000000,0.00000000
-0.59798884,-1.21533883,0.28329480,0.65586722,0.55294216,0.00000000,0.00000000,-1.74426603,0.75013822,-0.47435656,0.27974644,0.35193437,0.00000000,0.00000000
-0.59108227,-1.22024834,0.28313059,0.65825927,0.56813020,0.00000000,0.00000000,-1.73970985,0.75459063,-0.47790357,0.27863914,0.34619808,0.00000000,0.00000000
-0.58391607,-1.22491062,0.28275973,0.66085291,0.57715201,0.00000000,0.00000000,-1.73474216,0.75965637,-0.48123124,0.27751473,0.34373549,0.00000000,0.00000000
-0.57655275,-1.22904074,0.28239527,0.66378736,0.57948339,0.00000000,0.00000000,-1.72945452,0.76517242,-0.48440939,0.27641958,0.34435090,0.00000000,0.00000000
-0.56904161,-1.23246229,0.28222045,0.66712302,0.58394587,0.00000000,0.00000000,-1.72393143,0.77094549,-0.48748881,0.27535498,0.34299532,0.00000000,0.00000000
-0.56141168,-1.23513615,0.28236440,0.67083365,0.59068596,0.00000000,0.00000000,-1.71823967,0.77678782,-0.49049354,0.27429482,0.34370372,0.00000000,0.00000000
-0.55367684,-1.23711121,0.28289348,0.67484170,0.59295052,0.00000000,0.00000000,-1.71243000,0.78256810,-0.49342772,0.27322492,0.34064001,0.00000000,0.00000000
-0.54584461,-1.23850107,0.28384280,0.67904848,0.59305298,0.00000000,0.00000000,-1.70654607,0.78815073,-0.49628836,0.27212214,0.33665890,0.00000000,0.00000000
-0.53792244,-1.23945832,0.28522161,0.68334848,0.58694851,0.00000000,0.00000000,-1.70061886,0.79337621,-0.49906164,0.27093145,0.33137149,0.00000000,0.00000000
-0.52992469,-1.24011075,0.28700852,0.68762755,0.57777780,0.00000000,0.00000000,-1.69466066,0.79811370,-0.50172108,0.26959145,0.32604593,0.00000000,0.00000000
-0.52187955,-1.24053013,0.28915459,0.69175887,0.56644613,0.00000000,0.00000000,-1.68867528,0.80228782,-0.50423628,0.26806301,0.32409111,0.00000000,0.00000000
-0.51383114,-1.24075055,0.29158032,0.69562185,0.55729091,0.00000000,0.00000000,-1.68266380,0.80587012,-0.50658047,0.26632616,0.32431737,0.00000000,0.00000000
-0.50582790,-1.24085772,0.29417777,0.69911236,0.54702276,0.00000000,0.00000000,-1.67662454,0.80883932,-0.50872934,0.26435062,0.32661954,0.00000000,0.00000000
-0.49790668,-1.24104989,0.29682195,0.70212954,0.53894967,0.00000000,0.00000000,-1.67054880,0.81118900,-0.51065612,0.26210523,0.33256882,0.00000000,0.00000000
-0.49009824,-1.24154651,0.29938221,0.70457536,0.52523822,0.00000000,0.00000000,-1.66442156,0.81299150,-0.51233137,0.25961176,0.33982736,0.00000000,0.00000000
-0.48245916,-1.24242425,0.30172515,0.70639873,0.51037157,0.00000000,0.00000000,-1.65823269,0.81440115,-0.51373047,0.25695485,0.34313533,0.00000000,0.00000000
-0.47508717,-1.24358749,0.30372036,0.70765185,0.49540392,0.00000000,0.00000000,-1.65198398,0.81555390,-0.51483989,0.25421625,0.34891957,0.00000000,0.00000000
-0.46808890,-1.24487722,0.30526376,0.70848858,0.47656614,0.00000000,0.00000000,-1.64569044,0.81650019,-0.51565719,0.25143147,0.35571289,0.00000000,0.00000000
-0.46154416,-1.24612904,0.30630618,0.70908821,0.46220273,0.00000000,0.00000000,-1.63938105,0.81724524,-0.51619107,0.24863172,0.36263970,0.00000000,0.00000000
-0.45551592,-1.24714088,0.30685553,0.70957094,0.44754151,0.00000000,0.00000000,-1.63310158,0.81780487,-0.51646191,0.24589470,0.37288985,0.00000000,0.00000000
-0.45004961,-1.24772477,0.30696172,0.70998138,0.43134114,0.00000000,0.00000000,-1.62690127,0.81823820,-0.51649219,0.24333915,0.38182434,0.00000000,0.00000000
-0.44506127,-1.24780500,0.30670005,0.71031243,0.41627809,0.00000000,0.00000000,-1.62081289,0.81867719,-0.51628834,0.24109372,0.39135334,0.00000000,0.00000000
-0.44035649,-1.24723864,0.30613369,0.71054357,0.39664701,0.00000000,0.00000000,-1.61483967,0.81924194,-0.51583230,0.23922712,0.40110397,0.00000000,0.00000000
-0.43591169,-1.24592376,0.30527824,0.71066934,0.37396592,0.00000000,0.00000000,-1.60895908,0.81992793,-0.51508462,0.23769589,0.41581091,0.00000000,0.00000000
-0.43180618,-1.24403846,0.30409986,0.71068829,0.35665023,0.00000000,0.00000000,-1.60313666,0.82058346,-0.51399761,0.23636487,0.43241331,0.00000000,0.00000000
-0.42811632,-1.24186575,0.30256552,0.71058929,0.33710453,0.00000000,0.00000000,-1.59733129,0.82101709,-0.51251870,0.23508045,0.44349647,0.00000000,0.00000000
-0.42485607,-1.23958290,0.30069816,0.71033674,0.31852186,0.00000000,0.00000000,-1.59149206,0.82109225,-0.51058745,0.23372053,0.45999092,0.00000000,0.00000000
-0.42194423,-1.23727226,0.29859486,0.70989037,0.29986525,0.00000000,0.00000000,-1.58554256,0.82079506,-0.50812328,0.23220158,0.48273340,0.00000000,0.00000000
-0.41923171,-1.23509097,0.29634348,0.70926827,0.28221086,0.00000000,0.00000000,-1.57936871,0.82020879,-0.50501657,0.23043111,0.50107068,0.00000000,0.00000000
-0.41655123,-1.23327374,0.29400140,0.70853072,0.26530594,0.00000000,0.00000000,-1.57282925,0.81946045,-0.50113624,0.22830001,0.52369928,0.00000000,0.00000000
-0.41376984,-1.23193216,0.29159555,0.70771736,0.25082451,0.00000000,0.00000000,-1.56578135,0.81869352,-0.49635056,0.22573033,0.54526120,0.00000000,0.00000000
-0.41083226,-1.23096871,0.28911933,0.70683920,0.23694751,0.00000000,0.00000000,-1.55808961,0.81807721,-0.49053258,0.22268894,0.56665444,0.00000000,0.00000000
-0.40769321,-1.23027110,0.28652945,0.70591301,0.21774903,0.00000000,0.00000000,-1.54961538,0.81779867,-0.48355255,0.21913156,0.59251648,0.00000000,0.00000000
-0.40426573,-1.22974646,0.28375614,0.70499235,0.19757996,0.00000000,0.00000000,-1.54020309,0.81803542,-0.47526684,0.21495029,0.62034321,0.00000000,0.00000000
-0.40058625,-1.22919536,0.28071523,0.70415306,0.17549624,0.00000000,0.00000000,-1.52968383,0.81887835,-0.46552333,0.20996615,0.65536380,0.00000000,0.00000000
-0.39684901,-1.22847414,0.27729869,0.70346695,0.15322739,0.00000000,0.00000000,-1.51789546,0.82024944,-0.45417917,0.20394942,0.68931645,0.00000000,0.00000000
-0.39324254,-1.22747767,0.27338481,0.70299780,0.13400902,0.00000000,0.00000000,-1.50469303,0.82192361,-0.44111180,0.19664976,0.72198123,0.00000000,0.00000000
-0.38971311,-1.22624183,0.26895919,0.70276141,0.11823027,0.00000000,0.00000000,-1.48993671,0.82384819,-0.42620650,0.18790478,0.74936813,0.00000000,0.00000000
-0.38601926,-1.22477460,0.26414293,0.70277017,0.10200604,0.00000000,0.00000000,-1.47348571,0.82624179,-0.40935275,0.17766899,0.78000665,0.00000000,0.00000000
-0.38194457,-1.22313178,0.25910529,0.70301670,0.08652943,0.00000000,0.00000000,-1.45521700,0.82935959,-0.39046401,0.16593537,0.80323750,0.00000000,0.00000000
-0.37737986,-1.22134519,0.25398925,0.70346385,0.07610456,0.00000000,0.00000000,-1.43503535,0.83332765,-0.36948872,0.15267088,0.82572716,0.00000000,0.00000000
-0.37230447,-1.21941662,0.24889185,0.70405072,0.06175143,0.00000000,0.00000000,-1.41286838,0.83817530,-0.34640929,0.13782400,0.85342151,0.00000000,0.00000000
-0.36674824,-1.21739376,0.24387088,0.70471376,0.05353380,0.00000000,0.00000000,-1.38866293,0.84387690,-0.32124090,0.12134413,0.87924784,0.00000000,0.00000000
-0.36077186,-1.21536469,0.23895667,0.70540422,0.04536066,0.00000000,0.00000000,-1.36238635,0.85036767,-0.29403463,0.10319894,0.90891737,0.00000000,0.00000000
-0.35450330,-1.21341097,0.23415011,0.70608914,0.04266147,0.00000000,0.00000000,-1.33402908,0.85750514,-0.26488104,0.08337051,0.93320239,0.00000000,0.00000000
-0.34813243,-1.21154141,0.22944905,0.70672739,0.04138944,0.00000000,0.00000000,-1.30360973,0.86506325,-0.23391367,0.06186298,0.95555532,0.00000000,0.00000000
-0.34176809,-1.20966077,0.22490245,0.70726746,0.03740844,0.00000000,0.00000000,-1.27118003,0.87293822,-0.20130943,0.03878671,0.97125763,0.00000000,0.00000000
-0.33545837,-1.20768332,0.22057912,0.70768172,0.03730087,0.00000000,0.00000000,-1.23682690,0.88112903,-0.16728811,0.01433579,0.98224008,0.00000000,0.00000000
-0.32928053,-1.20560801,0.21651956,0.70799387,0.03965843,0.00000000,0.00000000,-1.20066643,0.88961112,-0.13210975,-0.01126683,0.98693967,0.00000000,0.00000000
-0.32337636,-1.20346689,0.21273710,0.70825821,0.04185213,0.00000000,0.00000000,-1.16284215,0.89824712,-0.09607092,-0.03780395,0.99828690,0.00000000,0.00000000
-0.31791237,-1.20125604,0.20925121,0.70852149,0.03791561,0.00000000,0.00000000,-1.12352407,0.90680927,-0.05949985,-0.06506662,1.01203752,0.00000000,0.00000000
-0.31301245,-1.19896591,0.20610660,0.70881701,0.03311976,0.00000000,0.00000000,-1.08290982,0.91509491,-0.02275054,-0.09283148,1.02170801,0.00000000,0.00000000
-0.30872273,-1.19667208,0.20336385,0.70917904,0.02001067,0.00000000,0.00000000,-1.04122221,0.92302787,0.01380357,-0.12083543,1.03062320,0.00000000,0.00000000
-0.30503780,-1.19452250,0.20108329,0.70964485,0.00732570,0.00000000,0.00000000,-0.99870294,0.93065035,0.04977711,-0.14877106,1.03696203,0.00000000,0.00000000
-0.30194813,-1.19263399,0.19931428,0.71024227,-0.00460410,0.00000000,0.00000000,-0.95560515,0.93803447,0.08478264,-0.17630628,1.04475927,0.00000000,0.00000000
-0.29942805,-1.19110703,0.19808464,0.71096867,-0.01621786,0.00000000,0.00000000,-0.91218829,0.94518298,0.11844222,-0.20313397,1.05429661,0.00000000,0.00000000
-0.29743418,-1.18996239,0.19740213,0.71183562,-0.02914287,0.00000000,0.00000000,-0.86871254,0.95206797,0.15039626,-0.22900058,1.06470156,0.00000000,0.00000000
-0.29597563,-1.18922663,0.19726641,0.71287453,-0.03989528,0.00000000,0.00000000,-0.82543075,0.95869440,0.18031153,-0.25370777,1.07130706,0.00000000,0.00000000
-0.29504177,-1.18899810,0.19765316,0.71409220,-0.04946810,0.00000000,0.00000000,-0.78258252,0.96501470,0.20788507,-0.27714422,1.07972932,0.00000000,0.00000000
-0.29467019,-1.18918610,0.19851170,0.71552420,-0.06109072,0.00000000,0.00000000,-0.74038637,0.97099113,0.23284863,-0.29922435,1.08372474,0.00000000,0.00000000
-0.29484278,-1.18982220,0.19977847,0.71714878,-0.07023206,0.00000000,0.00000000,-0.69905007,0.97644657,0.25498825,-0.31992033,1.08240700,0.00000000,0.00000000
-0.29550272,-1.19085741,0.20141341,0.71897608,-0.07830089,0.00000000,0.00000000,-0.65876126,0.98131597,0.27415586,-0.33917403,1.07666850,0.00000000,0.00000000
-0.29649585,-1.19225323,0.20339225,0.72103119,-0.08473802,0.00000000,0.00000000,-0.61968458,0.98556817,0.29026797,-0.35695007,1.07154727,0.00000000,0.00000000
-0.29770720,-1.19380283,0.20570633,0.72342783,-0.09089059,0.00000000,0.00000000,-0.58194256,0.98932403,0.30329445,-0.37319151,1.06430888,0.00000000,0.00000000
-0.29902506,-1.19543493,0.20832503,0.72625947,-0.09855253,0.00000000,0.00000000,-0.54563403,0.99247962,0.31326327,-0.38798416,1.05329287,0.00000000,0.00000000
-0.30034807,-1.19699681,0.21118620,0.72964931,-0.11229289,0.00000000,0.00000000,-0.51081723,0.99496204,0.32024890,-0.40147102,1.04108536,0.00000000,0.00000000
-0.30157968,-1.19831419,0.21421386,0.73371524,-0.12174826,0.00000000,0.00000000,-0.47750524,0.99683636,0.32435960,-0.41384494,1.03024232,0.00000000,0.00000000
-0.30265087,-1.19936955,0.21734467,0.73852056,-0.12751840,0.00000000,0.00000000,-0.44567072,0.99819368,0.32571390,-0.42540380,1.01755357,0.00000000,0.00000000
-0.30355129,-1.20031595,0.22054575,0.74410737,-0.13358819,0.00000000,0.00000000,-0.41524464,0.99911511,0.32442462,-0.43650332,1.00224519,0.00000000,0.00000000
-0.30428711,-1.20145941,0.22380121,0.75051546,-0.13800058,0.00000000,0.00000000,-0.38611889,0.99978405,0.32061768,-0.44741538,0.98819977,0.00000000,0.00000000
-0.30481848,-1.20327544,0.22707205,0.75772339,-0.14343190,0.00000000,0.00000000,-0.35815543,1.00063086,0.31445807,-0.45823041,0.96864080,0.00000000,0.00000000
-0.30507270,-1.20629942,0.23029874,0.76562577,-0.15099113,0.00000000,0.00000000,-0.33121401,1.00217319,0.30613187,-0.46897817,0.95207000,0.00000000,0.00000000
-0.30498096,-1.21103048,0.23343034,0.77404606,-0.16389680,0.00000000,0.00000000,-0.30515599,1.00491929,0.29582572,-0.47969180,0.93301094,0.00000000,0.00000000
-0.30445710,-1.21796083,0.23644622,0.78273439,-0.17890286,0.00000000,0.00000000,-0.27983293,1.00940347,0.28373957,-0.49034256,0.91966552,0.00000000,0.00000000
-0.30336383,-1.22765529,0.23934215,0.79134423,-0.19180587,0.00000000,0.00000000,-0.25506756,1.01634407,0.27011514,-0.50070679,0.90283614,0.00000000,0.00000000
-0.30153105,-1.24077356,0.24209276,0.79943299,-0.20470168,0.00000000,0.00000000,-0.23063958,1.02665496,0.25525942,-0.51037169,0.87900382,0.00000000,0.00000000
-0.29877067,-1.25797319,0.24461666,0.80651593,-0.21725990,0.00000000,0.00000000,-0.20627166,1.04129314,0.23960321,-0.51887071,0.86191285,0.00000000,0.00000000
-0.29483178,-1.27977443,0.24675013,0.81212860,-0.23117347,0.00000000,0.00000000,-0.18160786,1.06121349,0.22380620,-0.52573407,0.84188938,0.00000000,0.00000000
-0.28937128,-1.30653143,0.24824561,0.81585526,-0.24686486,0.00000000,0.00000000,-0.15620416,1.08746982,0.20881414,-0.53037995,0.82908285,0.00000000,0.00000000
-0.28207007,-1.33856010,0.24881780,0.81734663,-0.26601255,0.00000000,0.00000000,-0.12955800,1.12114191,0.19575079,-0.53204483,0.81389302,0.00000000,0.00000000
-0.27285033,-1.37625098,0.24821013,0.81631476,-0.28264776,0.00000000,0.00000000,-0.10117512,1.16296661,0.18569545,-0.52988666,0.80357194,0.00000000,0.00000000
-0.26197955,-1.41991282,0.24622469,0.81242055,-0.30461502,0.00000000,0.00000000,-0.07067516,1.21292150,0.17951058,-0.52320004,0.79780173,0.00000000,0.00000000
-0.24995194,-1.46937478,0.24271227,0.80511791,-0.32588524,0.00000000,0.00000000,-0.03793101,1.27020466,0.17777188,-0.51153427,0.79569298,0.00000000,0.00000000
-0.23729008,-1.52388978,0.23756519,0.79369265,-0.34346339,0.00000000,0.00000000,-0.00315251,1.33372319,0.18075809,-0.49461770,0.78848010,0.00000000,0.00000000
-0.22444022,-1.58254325,0.23072208,0.77746880,-0.35319108,0.00000000,0.00000000,0.03313032,1.40254188,0.18846050,-0.47218427,0.77647078,0.00000000,0.00000000
-0.21176170,-1.64436734,0.22215088,0.75596362,-0.35823718,0.00000000,0.00000000,0.07007404,1.47561610,0.20061384,-0.44393101,0.76590389,0.00000000,0.00000000
-0.19946222,-1.70817542,0.21175428,0.72890097,-0.35874107,0.00000000,0.00000000,0.10645328,1.55147457,0.21673195,-0.40956870,0.75912434,0.00000000,0.00000000
-0.18767440,-1.77255571,0.19929388,0.69619566,-0.36178368,0.00000000,0.00000000,0.14081392,1.62850451,0.23618947,-0.36901847,0.75503606,0.00000000,0.00000000
-0.17674439,-1.83607757,0.18451785,0.65800101,-0.36026651,0.00000000,0.00000000,0.17198001,1.70530367,0.25836530,-0.32267049,0.75233328,0.00000000,0.00000000
-0.16723873,-1.89746475,0.16732889,0.61472487,-0.36257106,0.00000000,0.00000000,0.19930372,1.78049314,0.28272793,-0.27150479,0.74743783,0.00000000,0.00000000
-0.15961075,-1.95566034,0.14777797,0.56690133,-0.36183241,0.00000000,0.00000000,0.22249395,1.85244465,0.30880234,-0.21701184,0.74009085,0.00000000,0.00000000
-0.15392645,-2.00977468,0.12593931,0.51507604,-0.36064860,0.00000000,0.00000000,0.24142395,1.91934478,0.33611473,-0.16090746,0.73531801,0.00000000,0.00000000
-0.14987375,-2.05878353,0.10186420,0.45993572,-0.35803780,0.00000000,0.00000000,0.25604603,1.97952962,0.36419839,-0.10476716,0.72918576,0.00000000,0.00000000
-0.14681618,-2.10113859,0.07560609,0.40253389,-0.35278308,0.00000000,0.00000000,0.26646626,2.03201365,0.39263356,-0.04964987,0.72925997,0.00000000,0.00000000
-0.14366871,-2.13477182,0.04721516,0.34425348,-0.34841743,0.00000000,0.00000000,0.27319899,2.07649827,0.42105535,0.00393692,0.73840642,0.00000000,0.00000000
-0.13933437,-2.15727234,0.01685836,0.28670496,-0.34691685,0.00000000,0.00000000,0.27684194,2.11275721,0.44916716,0.05558519,0.74189061,0.00000000,0.00000000
-0.13313195,-2.16758537,-0.01513874,0.23185146,-0.34731042,0.00000000,0.00000000,0.27784842,2.14038563,0.47673839,0.10476334,0.74532294,0.00000000,0.00000000
-0.12497041,-2.16986632,-0.04835143,0.18198594,-0.34785250,0.00000000,0.00000000,0.27659488,2.15880108,0.50360137,0.15080374,0.74675006,0.00000000,0.00000000
-0.11523784,-2.17000008,-0.08235878,0.13924739,-0.34999233,0.00000000,0.00000000,0.27355695,2.16776228,0.52968723,0.19271234,0.75239444,0.00000000,0.00000000
-0.10448425,-2.17000008,-0.11683481,0.10515856,-0.35239935,0.00000000,0.00000000,0.26949060,2.16987324,0.55509269,0.22910373,0.75767463,0.00000000,0.00000000
-0.09329202,-2.17000008,-0.15157034,0.08045680,-0.35392055,0.00000000,0.00000000,0.26544106,2.17000008,0.58007091,0.25865045,0.75839275,0.00000000,0.00000000
-0.08231076,-2.17000008,-0.18645221,0.06502511,-0.36095604,0.00000000,0.00000000,0.26233435,2.17000008,0.60487014,0.28067777,0.76072145,0.00000000,0.00000000
-0.07223246,-2.16997671,-0.22143824,0.05781026,-0.36287072,0.00000000,0.00000000,0.26046482,2.17000008,0.62955022,0.29526556,0.76132941,0.00000000,0.00000000
-0.06370032,-2.16946840,-0.25653797,0.05676363,-0.36623275,0.00000000,0.00000000,0.25938663,2.17000008,0.65391666,0.30306587,0.76274079,0.00000000,0.00000000
-0.05725053,-2.16588879,-0.29179984,0.05904160,-0.37292990,0.00000000,0.00000000,0.25827354,2.16995406,0.67757678,0.30520982,0.76726151,0.00000000,0.00000000
-0.05323882,-2.15550804,-0.32730076,0.06170291,-0.37590793,0.00000000,0.00000000,0.25635201,2.16923523,0.70005500,0.30321845,0.77525628,0.00000000,0.00000000
-0.05167775,-2.13959718,-0.36313567,0.06251419,-0.37442461,0.00000000,0.00000000,0.25314599,2.16673946,0.72092617,0.29870495,0.78011930,0.00000000,0.00000000
-0.05215774,-2.12074757,-0.39940673,0.06015578,-0.37066567,0.00000000,0.00000000,0.24853604,2.16330576,0.73992342,0.29296958,0.78525788,0.00000000,0.00000000
-0.05404412,-2.10066009,-0.43620783,0.05397526,-0.36532578,0.00000000,0.00000000,0.24263230,2.16029119,0.75694835,0.28680572,0.79574209,0.00000000,0.00000000
-0.05676566,-2.08050561,-0.47360644,0.04369163,-0.35453513,0.00000000,0.00000000,0.23546953,2.15842843,0.77199394,0.28052077,0.80768090,0.00000000,0.00000000
-0.05993440,-2.06119752,-0.51163369,0.02920092,-0.34574449,0.00000000,0.00000000,0.22668429,2.15793824,0.78506368,0.27398652,0.80969810,0.00000000,0.00000000
-0.06329665,-2.04348946,-0.55028051,0.01050688,-0.33008960,0.00000000,0.00000000,0.21548036,2.15863657,0.79615861,0.26669565,0.80801117,0.00000000,0.00000000
-0.06664056,-2.02797031,-0.58949566,-0.01227722,-0.31379506,0.00000000,0.00000000,0.20094079,2.15996504,0.80531687,0.25790685,0.80055529,0.00000000,0.00000000
-0.06978665,-2.01508284,-0.62918472,-0.03894652,-0.29737234,0.00000000,0.00000000,0.18241759,2.16112089,0.81264848,0.24687284,0.79150414,0.00000000,0.00000000
-0.07275283,-2.00521278,-0.66921437,-0.06930590,-0.27914861,0.00000000,0.00000000,0.15986533,2.16135359,0.81833839,0.23313293,0.78437048,0.00000000,0.00000000
-0.07610083,-1.99879360,-0.70942962,-0.10335602,-0.25954387,0.00000000,0.00000000,0.13417993,2.16032314,0.82263392,0.21684581,0.77417660,0.00000000,0.00000000
-0.08103295,-1.99638045,-0.74966979,-0.14140244,-0.24084240,0.00000000,0.00000000,0.10729767,2.15815973,0.82583034,0.19888431,0.76399899,0.00000000,0.00000000
-0.08801216,-1.99851823,-0.78969657,-0.18352287,-0.22643991,0.00000000,0.00000000,0.08119093,2.15509725,0.82820642,0.18027031,0.75349480,0.00000000,0.00000000
-0.09540793,-2.00533009,-0.82910913,-0.22886831,-0.21068689,0.00000000,0.00000000,0.05642775,2.15147758,0.82990968,0.16154721,0.74422795,0.00000000,0.00000000
-0.10219184,-2.01658130,-0.86752754,-0.27667895,-0.19719234,0.00000000,0.00000000,0.03316773,2.14763522,0.83105594,0.14309727,0.73845720,0.00000000,0.00000000
-0.10806904,-2.03167844,-0.90463805,-0.32629839,-0.18018971,0.00000000,0.00000000,0.01150875,2.14391565,0.83175981,0.12528720,0.72955656,0.00000000,0.00000000
-0.11272749,-2.04969406,-0.94017071,-0.37687963,-0.16118813,0.00000000,0.00000000,-0.00843410,2.14062858,0.83213979,0.10848581,0.72144264,0.00000000,0.00000000
-0.11590265,-2.06951380,-0.97392291,-0.42751244,-0.14097087,0.00000000,0.00000000,-0.02632943,2.13791418,0.83232886,0.09308466,0.71288151,0.00000000,0.00000000
-0.11745745,-2.09001994,-1.00576913,-0.47739837,-0.11901246,0.00000000,0.00000000,-0.04169143,2.13557482,0.83246964,0.07940229,0.70432371,0.00000000,0.00000000
-0.11725043,-2.11017823,-1.03564131,-0.52586544,-0.09791453,0.00000000,0.00000000,-0.05403030,2.13316607,0.83269632,0.06765993,0.69491255,0.00000000,0.00000000
-0.11509135,-2.12896538,-1.06354558,-0.57230765,-0.07855887,0.00000000,0.00000000,-0.06284986,2.13033628,0.83311957,0.05810806,0.68184161,0.00000000,0.00000000
-0.11091383,-2.14525151,-1.08962286,-0.61619884,-0.06813554,0.00000000,0.00000000,-0.06759788,2.12697959,0.83382547,0.05108378,0.66699177,0.00000000,0.00000000
-0.10475427,-2.15787959,-1.11412263,-0.65711844,-0.05556080,0.00000000,0.00000000,-0.06776755,2.12304616,0.83487952,0.04687492,0.64928454,0.00000000,0.00000000
-0.09642961,-2.16590023,-1.13724566,-0.69470787,-0.04506741,0.00000000,0.00000000,-0.06301191,2.11837506,0.83632994,0.04560852,0.63284397,0.00000000,0.00000000
-0.08561751,-2.16927147,-1.15912592,-0.72869927,-0.03402127,0.00000000,0.00000000,-0.05319586,2.11287761,0.83820480,0.04730931,0.61812752,0.00000000,0.00000000
-0.07255001,-2.16996098,-1.18012488,-0.75905526,-0.02130328,0.00000000,0.00000000,-0.03857657,2.10683727,0.84050179,0.05194242,0.60321367,0.00000000,0.00000000
-0.05833383,-2.17000008,-1.20104206,-0.78600270,-0.00606709,0.00000000,0.00000000,-0.01994408,2.10092092,0.84318179,0.05936192,0.59365016,0.00000000,0.00000000
-0.04440913,-2.17000008,-1.22284520,-0.80992591,0.01332529,0.00000000,0.00000000,0.00154807,2.09595156,0.84616941,0.06929400,0.58746076,0.00000000,0.00000000
-0.03183823,-2.17000008,-1.24624944,-0.83119971,0.03828621,0.00000000,0.00000000,0.02460732,2.09272122,0.84935498,0.08134772,0.58583838,0.00000000,0.00000000
-0.02101961,-2.17000008,-1.27153301,-0.85006130,0.06101558,0.00000000,0.00000000,0.04794157,2.09188914,0.85259765,0.09501813,0.58377540,0.00000000,0.00000000
-0.01170120,-2.17000008,-1.29854226,-0.86655569,0.09144317,0.00000000,0.00000000,0.07034922,2.09382868,0.85573888,0.10966844,0.57944816,0.00000000,0.00000000
-0.00297437,-2.17000008,-1.32672417,-0.88050270,0.11648120,0.00000000,0.00000000,0.09081766,2.09848309,0.85862291,0.12455411,0.57728219,0.00000000,0.00000000
0.00678658,-2.17000008,-1.35506785,-0.89150310,0.14096242,0.00000000,0.00000000,0.10863300,2.10535836,0.86112100,0.13891971,0.57622331,0.00000000,0.00000000
0.01968277,-2.17000008,-1.38206708,-0.89908677,0.16233161,0.00000000,0.00000000,0.12348822,2.11361814,0.86315113,0.15211226,0.57722312,0.00000000,0.00000000
0.03631958,-2.17000008,-1.40608358,-0.90370041,0.18174513,0.00000000,0.00000000,0.13562787,2.12220955,0.86469507,0.16367771,0.57191521,0.00000000,0.00000000
0.05339921,-2.17000008,-1.42632544,-0.90779173,0.20149238,0.00000000,0.00000000,0.14552334,2.13014030,0.86576748,0.17329307,0.56749147,0.00000000,0.00000000
0.06775592,-2.17000008,-1.44313633,-0.91322726,0.22165403,0.00000000,0.00000000,0.15302679,2.13664770,0.86634934,0.18046242,0.56313628,0.00000000,0.00000000
0.08014061,-2.17000008,-1.45647883,-0.91941166,0.24006054,0.00000000,0.00000000,0.15808903,2.14071894,0.86647230,0.18465430,0.55500299,0.00000000,0.00000000
0.09374635,-2.17000008,-1.46552134,-0.92451042,0.25769445,0.00000000,0.00000000,0.16133609,2.14109969,0.86625826,0.18556857,0.54952735,0.00000000,0.00000000
0.11124748,-2.17000008,-1.46988487,-0.92707855,0.27193230,0.00000000,0.00000000,0.16355717,2.13713789,0.86580974,0.18324970,0.55389637,0.00000000,0.00000000
0.13279057,-2.16999650,-1.47049272,-0.92702681,0.28680483,0.00000000,0.00000000,0.16482286,2.12951064,0.86508131,0.17798790,0.55764997,0.00000000,0.00000000
0.15571544,-2.16995096,-1.46843123,-0.92599148,0.30111691,0.00000000,0.00000000,0.16454613,2.11970949,0.86393255,0.17016079,0.56120414,0.00000000,0.00000000
0.17611949,-2.16988039,-1.46390462,-0.92673457,0.31655228,0.00000000,0.00000000,0.16246255,2.10909438,0.86228049,0.16031225,0.56934679,0.00000000,0.00000000
0.19149928,-2.16995096,-1.45700419,-0.93120414,0.32645655,0.00000000,0.00000000,0.15882945,2.09858489,0.86013538,0.14911729,0.57198191,0.00000000,0.00000000
0.20060274,-2.16999674,-1.44886911,-0.94030744,0.33424291,0.00000000,0.00000000,0.15379442,2.08867717,0.85754919,0.13708104,0.57471746,0.00000000,0.00000000
0.20792250,-2.17000008,-1.44097531,-0.95155275,0.33929756,0.00000000,0.00000000,0.14689969,2.07947779,0.85457605,0.12430748,0.57729220,0.00000000,0.00000000
0.21360706,-2.17000008,-1.43371928,-0.96475297,0.34312090,0.00000000,0.00000000,0.13784891,2.07106161,0.85128975,0.11094974,0.58309811,0.00000000,0.00000000
0.21817872,-2.17000008,-1.42902851,-0.97882515,0.34709537,0.00000000,0.00000000,0.12668753,2.06398344,0.84776151,0.09749179,0.59286898,0.00000000,0.00000000
0.22200784,-2.17000008,-1.42668045,-0.99247223,0.35046172,0.00000000,0.00000000,0.11398418,2.05891323,0.84408331,0.08465764,0.59874076,0.00000000,0.00000000
0.22569343,-2.17000008,-1.42592561,-1.00442231,0.35123631,0.00000000,0.00000000,0.10046243,2.05668426,0.84034377,0.07326236,0.60379839,0.00000000,0.00000000
0.22984655,-2.17000008,-1.42593420,-1.01393151,0.35848638,0.00000000,0.00000000,0.08679686,2.05805349,0.83662260,0.06406061,0.60369480,0.00000000,0.00000000
0.23476440,-2.17000008,-1.42614090,-1.02101326,0.36617386,0.00000000,0.00000000,0.07359824,2.06338525,0.83299422,0.05764434,0.59985363,0.00000000,0.00000000
0.23980482,-2.17000008,-1.42673707,-1.02643311,0.37262216,0.00000000,0.00000000,0.06147648,2.07250309,0.82952458,0.05437935,0.59496295,0.00000000,0.00000000
0.24275163,-2.17000008,-1.42864084,-1.03153586,0.38066363,0.00000000,0.00000000,0.05114360,2.08478880,0.82626617,0.05443513,0.59222090,0.00000000,0.00000000
0.24172410,-2.17000008,-1.43288493,-1.03702855,0.38950747,0.00000000,0.00000000,0.04341471,2.09941816,0.82325381,0.05786957,0.59419793,0.00000000,0.00000000
0.23650378,-2.17000008,-1.43947017,-1.04254067,0.39622805,0.00000000,0.00000000,0.03918762,2.11543989,0.82050866,0.06466248,0.59687483,0.00000000,0.00000000
0.22847745,-2.17000008,-1.44654763,-1.04716265,0.39969552,0.00000000,0.00000000,0.03926344,2.13160515,0.81804538,0.07453565,0.60112262,0.00000000,0.00000000
0.21974969,-2.17000008,-1.45141757,-1.05009305,0.40169442,0.00000000,0.00000000,0.04396920,2.14637661,0.81586790,0.08674475,0.60404670,0.00000000,0.00000000
0.21199827,-2.17000008,-1.45196271,-1.05102289,0.40201268,0.00000000,0.00000000,0.05276231,2.15816784,0.81395227,0.10003141,0.60644549,0.00000000,0.00000000
0.20618001,-2.17000008,-1.44731808,-1.04981315,0.39969656,0.00000000,0.00000000,0.06396171,2.16566777,0.81221783,0.11274502,0.60782164,0.00000000,0.00000000
0.20275009,-2.17000008,-1.43768990,-1.04603219,0.40021557,0.00000000,0.00000000,0.07501096,2.16815734,0.81051338,0.12318014,0.61300594,0.00000000,0.00000000
0.20220663,-2.17000008,-1.42369628,-1.03881717,0.39343128,0.00000000,0.00000000,0.08347851,2.16563535,0.80865085,0.13007739,0.61300355,0.00000000,0.00000000
0.20477153,-2.17000008,-1.40600228,-1.02751303,0.38456708,0.00000000,0.00000000,0.08833016,2.15862417,0.80648959,0.13305242,0.60846078,0.00000000,0.00000000
0.20889486,-2.17000008,-1.38545382,-1.01281810,0.37811631,0.00000000,0.00000000,0.09032664,2.14793015,0.80398554,0.13263227,0.60203546,0.00000000,0.00000000
0.21152426,-2.17000008,-1.36310625,-0.99665076,0.36825135,0.00000000,0.00000000,0.09096838,2.13461828,0.80114144,0.12979490,0.59622699,0.00000000,0.00000000
0.21041998,-2.17000008,-1.33992898,-0.98061854,0.36065701,0.00000000,0.00000000,0.09120024,2.11999345,0.79793316,0.12540957,0.58868873,0.00000000,0.00000000
0.20553376,-2.17000008,-1.31658626,-0.96509010,0.35434490,0.00000000,0.00000000,0.09104875,2.10538244,0.79429990,0.11997814,0.57997060,0.00000000,0.00000000
0.19817822,-2.17000008,-1.29302859,-0.94997263,0.34936363,0.00000000,0.00000000,0.09012900,2.09176469,0.79019189,0.11369277,0.56788957,0.00000000,0.00000000
0.18941276,-2.17000008,-1.26837015,-0.93583035,0.34405786,0.00000000,0.00000000,0.08820887,2.07962561,0.78560507,0.10662486,0.55742317,0.00000000,0.00000000
0.17954114,-2.17000008,-1.24223566,-0.92342669,0.33684281,0.00000000,0.00000000,0.08532533,2.06922030,0.78057081,0.09888289,0.55126554,0.00000000,0.00000000
0.16910048,-2.17000008,-1.21432126,-0.91283357,0.32956898,0.00000000,0.00000000,0.08169256,2.06072783,0.77513915,0.09062725,0.54685789,0.00000000,0.00000000
0.15902705,-2.17000008,-1.18398547,-0.90365070,0.32134879,0.00000000,0.00000000,0.07749023,2.05424261,0.76936811,0.08198068,0.54788780,0.00000000,0.00000000
0.14927882,-2.17000008,-1.15155673,-0.89562458,0.31213602,0.00000000,0.00000000,0.07285877,2.04983830,0.76331902,0.07306210,0.54387873,0.00000000,0.00000000
0.13890378,-2.17000008,-1.11835182,-0.88880056,0.30539167,0.00000000,0.00000000,0.06776704,2.04752874,0.75705278,0.06393415,0.53843468,0.00000000,0.00000000
0.12703459,-2.17000008,-1.08621538,-0.88316053,0.29324445,0.00000000,0.00000000,0.06197106,2.04718328,0.75063169,0.05454483,0.53814721,0.00000000,0.00000000
0.11312294,-2.17000008,-1.05666375,-0.87859118,0.28081313,0.00000000,0.00000000,0.05510990,2.04842854,0.74412572,0.04470453,0.54287839,0.00000000,0.00000000
0.09736180,-2.17000008,-1.03196156,-0.87419456,0.26462936,0.00000000,0.00000000,0.04694967,2.05075598,0.73761475,0.03423207,0.54293698,0.00000000,0.00000000
0.08009518,-2.17000008,-1.01510274,-0.86844456,0.25013816,0.00000000,0.00000000,0.03771259,2.05363584,0.73119038,0.02316039,0.54532802,0.00000000,0.00000000
0.06222845,-2.17000008,-1.00755107,-0.85964477,0.23654155,0.00000000,0.00000000,0.02806018,2.05646729,0.72494882,0.01171902,0.54916823,0.00000000,0.00000000
0.04554068,-2.17000008,-1.00961244,-0.84546453,0.22963546,0.00000000,0.00000000,0.01891274,2.05853391,0.71898013,0.00020445,0.55258214,0.00000000,0.00000000
0.03054681,-2.16987538,-1.02143574,-0.82439637,0.22793062,0.00000000,0.00000000,0.01125822,2.05912662,0.71336049,-0.01110119,0.55658889,0.00000000,0.00000000
0.01712285,-2.16774178,-1.04221058,-0.79676533,0.22520190,0.00000000,0.00000000,0.00601110,2.05789590,0.70815140,-0.02185562,0.55884361,0.00000000,0.00000000
0.00630103,-2.15807009,-1.06907856,-0.76475632,0.22602640,0.00000000,0.00000000,0.00421735,2.05507135,0.70340240,-0.03145929,0.56337672,0.00000000,0.00000000
-0.00096331,-2.13781834,-1.09851086,-0.73171228,0.22471844,0.00000000,0.00000000,0.00702420,2.05127406,0.69915318,-0.03911743,0.56959599,0.00000000,0.00000000
-0.00257790,-2.11093593,-1.12738907,-0.69950980,0.21384430,0.00000000,0.00000000,0.01488570,2.04717827,0.69544452,-0.04427272,0.57629323,0.00000000,0.00000000
0.00442973,-2.08178449,-1.15359366,-0.66799712,0.19711460,0.00000000,0.00000000,0.02715103,2.04360247,0.69233179,-0.04675496,0.58844274,0.00000000,0.00000000
0.02391314,-2.05278873,-1.17579246,-0.63508207,0.17870714,0.00000000,0.00000000,0.04234366,2.04153061,0.68988383,-0.04670290,0.60321438,0.00000000,0.00000000
0.05940130,-2.02593517,-1.19305110,-0.59757781,0.16549452,0.00000000,0.00000000,0.05857456,2.04181361,0.68816531,-0.04452804,0.61576319,0.00000000,0.00000000
0.10740156,-2.00394535,-1.20534444,-0.55600679,0.15712659,0.00000000,0.00000000,0.07501164,2.04486108,0.68719709,-0.04049275,0.62718809,0.00000000,0.00000000
0.15693210,-1.98716474,-1.21444118,-0.51559579,0.15127935,0.00000000,0.00000000,0.09309214,2.05077457,0.68693489,-0.03421174,0.64106154,0.00000000,0.00000000
0.19990076,-1.97429764,-1.22207618,-0.48055559,0.14378388,0.00000000,0.00000000,0.11313844,2.05895185,0.68733442,-0.02593413,0.65722543,0.00000000,0.00000000
0.23487760,-1.96453595,-1.22887838,-0.45156801,0.13741378,0.00000000,0.00000000,0.13362753,2.06814122,0.68836415,-0.01676904,0.67202085,0.00000000,0.00000000
0.26250958,-1.95746827,-1.23505974,-0.42814916,0.13354202,0.00000000,0.00000000,0.15335257,2.07736015,0.68998325,-0.00757975,0.68699998,0.00000000,0.00000000
0.28347191,-1.95297909,-1.24072886,-0.40984857,0.12944110,0.00000000,0.00000000,0.17162925,2.08634114,0.69214743,0.00126707,0.70378691,0.00000000,0.00000000
0.29838637,-1.95126045,-1.24590647,-0.39633104,0.12488368,0.00000000,0.00000000,0.18752539,2.09531546,0.69481343,0.00947930,0.71708488,0.00000000,0.00000000
0.30756813,-1.95262206,-1.25059283,-0.38751769,0.12699606,0.00000000,0.00000000,0.19949986,2.10447931,0.69793743,0.01638738,0.73186487,0.00000000,0.00000000
0.31070411,-1.95727217,-1.25483406,-0.38377687,0.12784703,0.00000000,0.00000000,0.20569836,2.11354256,0.70148087,0.02088739,0.74430203,0.00000000,0.00000000
0.30694616,-1.96514499,-1.25874484,-0.38587520,0.12392014,0.00000000,0.00000000,0.20455647,2.12199712,0.70542562,0.02198254,0.75845391,0.00000000,0.00000000
0.29546207,-1.97585618,-1.26247108,-0.39461991,0.12075127,0.00000000,0.00000000,0.19498487,2.12984014,0.70978528,0.01936147,0.77077800,0.00000000,0.00000000
0.27602637,-1.98892343,-1.26609695,-0.41043416,0.11292707,0.00000000,0.00000000,0.17608944,2.13762760,0.71461064,0.01329225,0.78133237,0.00000000,0.00000000
0.24890526,-2.00398946,-1.26958835,-0.43330327,0.10286018,0.00000000,0.00000000,0.14802128,2.14596248,0.71999586,0.00447468,0.79004538,0.00000000,0.00000000
0.21375744,-2.02087641,-1.27284181,-0.46335176,0.09619316,0.00000000,0.00000000,0.11440221,2.15468574,0.72606689,-0.00560486,0.80187297,0.00000000,0.00000000
0.17016603,-2.03962946,-1.27563131,-0.50060707,0.09249227,0.00000000,0.00000000,0.08019061,2.16209793,0.73293644,-0.01574185,0.81082755,0.00000000,0.00000000
0.11997115,-2.06042671,-1.27744746,-0.54370439,0.08774139,0.00000000,0.00000000,0.04672750,2.16668558,0.74069786,-0.02600345,0.81364191,0.00000000,0.00000000
0.06687382,-2.08330250,-1.27758980,-0.59013414,0.08332456,0.00000000,0.00000000,0.01358049,2.16794562,0.74944651,-0.03659566,0.81453162,0.00000000,0.00000000
0.01594567,-2.10813308,-1.27519977,-0.63659620,0.07739596,0.00000000,0.00000000,-0.01979810,2.16587782,0.75928634,-0.04743768,0.81198090,0.00000000,0.00000000
-0.02866433,-2.13365459,-1.26996553,-0.68015623,0.07207189,0.00000000,0.00000000,-0.05220970,2.16087294,0.77029127,-0.05750250,0.80776691,0.00000000,0.00000000
-0.06682558,-2.15476227,-1.26371753,-0.72024149,0.06597367,0.00000000,0.00000000,-0.07913853,2.15395117,0.78246301,-0.06415751,0.80029917,0.00000000,0.00000000
-0.09795348,-2.16597152,-1.25858176,-0.75827742,0.05939916,0.00000000,0.00000000,-0.09850959,2.14609504,0.79584324,-0.06580830,0.78718311,0.00000000,0.00000000
-0.12123527,-2.16943026,-1.25417066,-0.79692578,0.05374990,0.00000000,0.00000000,-0.11173662,2.13746762,0.81052744,-0.06269744,0.77067524,0.00000000,0.00000000
-0.13689095,-2.16997290,-1.25040948,-0.83769792,0.04663274,0.00000000,0.00000000,-0.12040323,2.12801099,0.82659405,-0.05536041,0.75971031,0.00000000,0.00000000
-0.14487080,-2.17000008,-1.24737275,-0.88061208,0.03765897,0.00000000,0.00000000,-0.12533112,2.11767602,0.84408236,-0.04414929,0.74820888,0.00000000,0.00000000
-0.14356014,-2.17000008,-1.24536538,-0.92232633,0.02965695,0.00000000,0.00000000,-0.12669237,2.10657501,0.86300021,-0.02921114,0.73720378,0.00000000,0.00000000
-0.13234782,-2.17000008,-1.24574983,-0.95667148,0.01934731,0.00000000,0.00000000,-0.12420762,2.09515047,0.88333189,-0.01047700,0.72344869,0.00000000,0.00000000
-0.11376644,-2.17000008,-1.24885249,-0.98209083,0.01011725,0.00000000,0.00000000,-0.11747416,2.08399057,0.90503752,0.01220562,0.70723957,0.00000000,0.00000000
-0.08834434,-2.17000008,-1.25375366,-0.99853218,0.00187742,0.00000000,0.00000000,-0.10638481,2.07348967,0.92804939,0.03884333,0.69135100,0.00000000,0.00000000
-0.05606363,-2.17000008,-1.25995791,-1.00599885,-0.00863450,0.00000000,0.00000000,-0.09114571,2.06394553,0.95226473,0.06931823,0.67824125,0.00000000,0.00000000
-0.01815110,-2.17000008,-1.26775420,-1.00517404,-0.01938884,0.00000000,0.00000000,-0.07219692,2.05603218,0.97752154,0.10350071,0.66754174,0.00000000,0.00000000
0.02143439,-2.17000008,-1.27795529,-0.99849808,-0.02890714,0.00000000,0.00000000,-0.04980521,2.05076146,1.00359654,0.14134851,0.66023821,0.00000000,0.00000000
0.05725844,-2.17000008,-1.29107523,-0.98968989,-0.03534112,0.00000000,0.00000000,-0.02387590,2.04852962,1.03025699,0.18267894,0.64958489,0.00000000,0.00000000
0.08893684,-2.17000008,-1.30704391,-0.97935575,-0.03545557,0.00000000,0.00000000,0.00456201,2.04905128,1.05721819,0.22649115,0.63860363,0.00000000,0.00000000
0.11820520,-2.17000008,-1.32575846,-0.96668375,-0.04434442,0.00000000,0.00000000,0.03363891,2.05206132,1.08410716,0.27135146,0.63115460,0.00000000,0.00000000
0.14719927,-2.16998792,-1.34682691,-0.95067865,-0.06158057,0.00000000,0.00000000,0.06118180,2.05759454,1.11045289,0.31576166,0.62542522,0.00000000,0.00000000
0.17846656,-2.16972399,-1.36941898,-0.93022341,-0.07481125,0.00000000,0.00000000,0.08498147,2.06597638,1.13571179,0.35831922,0.61819959,0.00000000,0.00000000
0.21161790,-2.16788983,-1.39240479,-0.90625548,-0.08201209,0.00000000,0.00000000,0.10450392,2.07727671,1.15954566,0.39842588,0.61191362,0.00000000,0.00000000
0.24128804,-2.16267180,-1.41468871,-0.88303626,-0.08670942,0.00000000,0.00000000,0.12287212,2.09023428,1.18231201,0.43702757,0.60692340,0.00000000,0.00000000
0.26409698,-2.15482998,-1.43551219,-0.86342990,-0.09276697,0.00000000,0.00000000,0.14246054,2.10242462,1.20467985,0.47454166,0.60629416,0.00000000,0.00000000
0.28098589,-2.14541292,-1.45452368,-0.84716421,-0.09356309,0.00000000,0.00000000,0.15977570,2.11270189,1.22653925,0.50882024,0.60641325,0.00000000,0.00000000
0.29308489,-2.13481283,-1.47176433,-0.83365554,-0.09695754,0.00000000,0.00000000,0.17219314,2.12075090,1.24773908,0.53847957,0.60295445,0.00000000,0.00000000
0.30086157,-2.12327576,-1.48740292,-0.82271177,-0.09894518,0.00000000,0.00000000,0.17961499,2.12630534,1.26840186,0.56352335,0.59749424,0.00000000,0.00000000
0.30477613,-2.11124301,-1.50149417,-0.81418192,-0.09900478,0.00000000,0.00000000,0.18218887,2.12959027,1.28851342,0.58422053,0.59666735,0.00000000,0.00000000
0.30529955,-2.09952950,-1.51388574,-0.80799222,-0.09705716,0.00000000,0.00000000,0.17985982,2.13163853,1.30773926,0.60088766,0.59840685,0.00000000,0.00000000
0.30288872,-2.08928227,-1.52423966,-0.80418092,-0.09034638,0.00000000,0.00000000,0.17322248,2.13379765,1.32564795,0.61420077,0.59697831,0.00000000,0.00000000
0.29815140,-2.08174896,-1.53213644,-0.80275422,-0.08280677,0.00000000,0.00000000,0.16364463,2.13689899,1.34201515,0.62512273,0.59606189,0.00000000,0.00000000
0.29194462,-2.07795930,-1.53721476,-0.80351174,-0.07279897,0.00000000,0.00000000,0.15223888,2.14113736,1.35681462,0.63435739,0.59420997,0.00000000,0.00000000
0.28519726,-2.07849741,-1.53928328,-0.80604643,-0.06076875,0.00000000,0.00000000,0.13910869,2.14635706,1.37009096,0.64196914,0.59184533,0.00000000,0.00000000
0.27850938,-2.08349371,-1.53833842,-0.80999142,-0.05285118,0.00000000,0.00000000,0.12408701,2.15201449,1.38204062,0.64778209,0.58861333,0.00000000,0.00000000
0.27181950,-2.09264803,-1.53458190,-0.81528169,-0.04097426,0.00000000,0.00000000,0.10845397,2.15719318,1.39310563,0.65242177,0.59036607,0.00000000,0.00000000
0.26455772,-2.10504675,-1.52854466,-0.82204157,-0.02949193,0.00000000,0.00000000,0.09397087,2.16150784,1.40350974,0.65695798,0.59153140,0.00000000,0.00000000
0.25646305,-2.11911678,-1.52111709,-0.83003086,-0.01915797,0.00000000,0.00000000,0.08032122,2.16498613,1.41312373,0.66130751,0.59716892,0.00000000,0.00000000
0.24788836,-2.13274264,-1.51348233,-0.83846331,-0.01096643,0.00000000,0.00000000,0.06552903,2.16751313,1.42174852,0.66436827,0.60390890,0.00000000,0.00000000
0.23969249,-2.14383006,-1.50680292,-0.84623057,-0.00271974,0.00000000,0.00000000,0.04779865,2.16900826,1.42918110,0.66524136,0.61541826,0.00000000,0.00000000
0.23302180,-2.15108275,-1.50178111,-0.85223585,0.00769579,0.00000000,0.00000000,0.02708185,2.16967010,1.43519700,0.66423637,0.63315314,0.00000000,0.00000000
0.22897957,-2.15413189,-1.49858761,-0.85563868,0.01676236,0.00000000,0.00000000,0.00491403,2.16993213,1.43952847,0.66261017,0.65280086,0.00000000,0.00000000
0.22853237,-2.15333223,-1.49698460,-0.85588092,0.03246845,0.00000000,0.00000000,-0.01706738,2.16999626,1.44213367,0.66136098,0.67331338,0.00000000,0.00000000
0.23232356,-2.14959764,-1.49644291,-0.85278177,0.05326337,0.00000000,0.00000000,-0.03767043,2.17000008,1.44338512,0.66087979,0.69782782,0.00000000,0.00000000
0.24040116,-2.14424276,-1.49625707,-0.84667927,0.07658350,0.00000000,0.00000000,-0.05622800,2.17000008,1.44378257,0.66120583,0.71903187,0.00000000,0.00000000
0.25210816,-2.13870597,-1.49571228,-0.83842802,0.09979657,0.00000000,0.00000000,-0.07256759,2.17000008,1.44382834,0.66211385,0.74583763,0.00000000,0.00000000
0.26632053,-2.13414836,-1.49429262,-0.82912421,0.12191825,0.00000000,0.00000000,-0.08688965,2.17000008,1.44419730,0.66305703,0.77621055,0.00000000,0.00000000
0.28203800,-2.13124752,-1.49175441,-0.81962585,0.14321847,0.00000000,0.00000000,-0.09941972,2.17000008,1.44573128,0.66336608,0.80311042,0.00000000,0.00000000
0.29868200,-2.13036966,-1.48799753,-0.81037068,0.16037235,0.00000000,0.00000000,-0.10988750,2.16993761,1.44910765,0.66271859,0.82657611,0.00000000,0.00000000
0.31559473,-2.13185191,-1.48290598,-0.80180049,0.17886305,0.00000000,0.00000000,-0.11738452,2.16885638,1.45450914,0.66135496,0.84798390,0.00000000,0.00000000
0.33157277,-2.13595104,-1.47636473,-0.79471773,0.20030591,0.00000000,0.00000000,-0.12061310,2.16376781,1.46157265,0.65993917,0.87117732,0.00000000,0.00000000
0.34512261,-2.14250851,-1.46839619,-0.79007983,0.22273910,0.00000000,0.00000000,-0.11835401,2.15233946,1.46966040,0.65918887,0.89591247,0.00000000,0.00000000
0.35490507,-2.15078855,-1.45920980,-0.78866851,0.23823759,0.00000000,0.00000000,-0.10991628,2.13559651,1.47809327,0.65955061,0.91773903,0.00000000,0.00000000
0.35977340,-2.15943265,-1.44921517,-0.79104090,0.25311670,0.00000000,0.00000000,-0.09539871,2.11575937,1.48615932,0.66110724,0.93817914,0.00000000,0.00000000
0.35872737,-2.16623354,-1.43916750,-0.79748386,0.27151957,0.00000000,0.00000000,-0.07560970,2.09501386,1.49310243,0.66369313,0.95732796,0.00000000,0.00000000
0.35124537,-2.16932964,-1.43033981,-0.80772632,0.28568676,0.00000000,0.00000000,-0.05190750,2.07530046,1.49820423,0.66694635,0.97453046,0.00000000,0.00000000
0.33790085,-2.16996431,-1.42428291,-0.82065809,0.29426393,0.00000000,0.00000000,-0.02620896,2.05814934,1.50086236,0.67018217,0.98778397,0.00000000,0.00000000
0.32069543,-2.17000008,-1.42211902,-0.83438891,0.30124646,0.00000000,0.00000000,-0.00092586,2.04464078,1.50062716,0.67234296,1.00087011,0.00000000,0.00000000
0.30295846,-2.17000008,-1.42409158,-0.84646797,0.30753291,0.00000000,0.00000000,0.02128586,2.03539085,1.49722159,0.67212552,1.01125896,0.00000000,0.00000000
0.28882429,-2.16994858,-1.42942536,-0.85429746,0.30756003,0.00000000,0.00000000,0.03791741,2.03060484,1.49053895,0.66823471,1.02362895,0.00000000,0.00000000
0.28126761,-2.16909814,-1.43660676,-0.85632551,0.30632323,0.00000000,0.00000000,0.04761172,2.03022194,1.48062646,0.65996939,1.03611255,0.00000000,0.00000000
0.27974302,-2.16556382,-1.44421518,-0.85323370,0.30164495,0.00000000,0.00000000,0.05146426,2.03404999,1.46768856,0.64796317,1.05235481,0.00000000,0.00000000
0.28121245,-2.15898967,-1.45126617,-0.84721529,0.29417127,0.00000000,0.00000000,0.05252136,2.04154325,1.45217156,0.63392192,1.06812620,0.00000000,0.00000000
0.28330845,-2.15140772,-1.45684922,-0.84015453,0.28352991,0.00000000,0.00000000,0.05314136,2.05149722,1.43476856,0.61910659,1.08430588,0.00000000,0.00000000
0.28614381,-2.14517355,-1.46005082,-0.83247530,0.27145529,0.00000000,0.00000000,0.05258250,2.06251359,1.41609669,0.60298783,1.10393643,0.00000000,0.00000000
0.29044500,-2.14177847,-1.46030486,-0.82413489,0.26112571,0.00000000,0.00000000,0.04958609,2.07362843,1.39657128,0.58484215,1.12909353,0.00000000,0.00000000
0.29633796,-2.14187813,-1.45743251,-0.81531787,0.25515085,0.00000000,0.00000000,0.04410586,2.08419228,1.37655139,0.56471556,1.15277386,0.00000000,0.00000000
0.30361491,-2.14538217,-1.45156848,-0.80624098,0.24788177,0.00000000,0.00000000,0.03647610,2.09377384,1.35633957,0.54290164,1.17896879,0.00000000,0.00000000
0.31188375,-2.15152121,-1.44311309,-0.79704875,0.24432935,0.00000000,0.00000000,0.02697898,2.10202670,1.33619988,0.51965123,1.20880210,0.00000000,0.00000000
0.32061705,-2.15890646,-1.43269289,-0.78781235,0.23887058,0.00000000,0.00000000,0.01585883,2.10849309,1.31641316,0.49514049,1.23849618,0.00000000,0.00000000
0.32926342,-2.16545129,-1.42119586,-0.77848816,0.23215207,0.00000000,0.00000000,0.00301939,2.11290479,1.29715312,0.46936724,1.27222311,0.00000000,0.00000000
0.33708876,-2.16906404,-1.40987968,-0.76903009,0.22924224,0.00000000,0.00000000,-0.01213735,2.11582017,1.27829778,0.44220114,1.30395985,0.00000000,0.00000000
0.34295982,-2.16994667,-1.40023994,-0.75962508,0.22677131,0.00000000,0.00000000,-0.02996350,2.11803961,1.25968242,0.41368151,1.33727551,0.00000000,0.00000000
0.34572610,-2.17000008,-1.39347947,-0.75064534,0.22394978,0.00000000,0.00000000,-0.05014665,2.11994958,1.24133122,0.38412970,1.36692798,0.00000000,0.00000000
0.34458944,-2.16996145,-1.38997829,-0.74255043,0.21849579,0.00000000,0.00000000,-0.07201423,2.12168312,1.22339284,0.35409373,1.39313126,0.00000000,0.00000000
0.33874783,-2.16930389,-1.38910556,-0.73617238,0.21385524,0.00000000,0.00000000,-0.09395762,2.12305140,1.20616829,0.32470390,1.41909635,0.00000000,0.00000000
0.32652354,-2.16632009,-1.38978243,-0.73312086,0.20914689,0.00000000,0.00000000,-0.11220605,2.12384701,1.19011533,0.29838306,1.44220209,0.00000000,0.00000000
0.30641800,-2.16004419,-1.39125311,-0.73476613,0.20448008,0.00000000,0.00000000,-0.12410720,2.12513018,1.17535663,0.27719221,1.46394527,0.00000000,0.00000000
0.27885589,-2.15175390,-1.39272356,-0.74118108,0.19667624,0.00000000,0.00000000,-0.13097714,2.12748313,1.16179752,0.26065305,1.48425686,0.00000000,0.00000000
0.24555030,-2.14333558,-1.39327216,-0.75161624,0.19271304,0.00000000,0.00000000,-0.13602938,2.13042688,1.14936483,0.24682190,1.50460970,0.00000000,0.00000000
0.20884888,-2.13644576,-1.39192426,-0.76494169,0.18737061,0.00000000,0.00000000,-0.14314058,2.13333726,1.13795531,0.23334812,1.52067280,0.00000000,0.00000000
0.17126432,-2.13247824,-1.38770449,-0.77994657,0.17878620,0.00000000,0.00000000,-0.15582511,2.13607526,1.12742960,0.21826969,1.54109657,0.00000000,0.00000000
0.13386066,-2.13228869,-1.37993908,-0.79622382,0.17956206,0.00000000,0.00000000,-0.17389590,2.13905668,1.11781132,0.20177332,1.56055093,0.00000000,0.00000000
0.09632790,-2.13594460,-1.36840856,-0.81400901,0.17873418,0.00000000,0.00000000,-0.19152133,2.14233303,1.10947657,0.18690901,1.58160615,0.00000000,0.00000000
0.06129668,-2.14286113,-1.35291576,-0.83155888,0.17539930,0.00000000,0.00000000,-0.20329572,2.14494038,1.10286164,0.17626837,1.59498584,0.00000000,0.00000000
0.03122262,-2.15165424,-1.33364546,-0.84696585,0.17195036,0.00000000,0.00000000,-0.20801261,2.14681387,1.09806395,0.17052582,1.60946226,0.00000000,0.00000000
0.00776643,-2.16058016,-1.31100094,-0.85865420,0.17033455,0.00000000,0.00000000,-0.20647745,2.14794087,1.09505296,0.16930476,1.62653816,0.00000000,0.00000000
-0.00809328,-2.16714144,-1.28586340,-0.86512476,0.17334996,0.00000000,0.00000000,-0.19982389,2.14793324,1.09379947,0.17190033,1.64442503,0.00000000,0.00000000
-0.01647454,-2.16960001,-1.25980401,-0.86513704,0.17251450,0.00000000,0.00000000,-0.18918113,2.14611030,1.09428203,0.17745703,1.66159379,0.00000000,0.00000000
-0.01810621,-2.16998172,-1.23456955,-0.85776871,0.17726904,0.00000000,0.00000000,-0.17560019,2.14170694,1.09647679,0.18507317,1.67976725,0.00000000,0.00000000
-0.01360037,-2.17000008,-1.21142507,-0.84233111,0.18357335,0.00000000,0.00000000,-0.15979426,2.13410759,1.10035229,0.19401838,1.70016944,0.00000000,0.00000000
-0.00341344,-2.17000008,-1.19101906,-0.81841481,0.18736954,0.00000000,0.00000000,-0.14213951,2.12311053,1.10584712,0.20382756,1.71995556,0.00000000,0.00000000
0.01083134,-2.16997385,-1.17352104,-0.78667372,0.19314742,0.00000000,0.00000000,-0.12260370,2.10900354,1.11286700,0.21438029,1.74312913,0.00000000,0.00000000
0.02548583,-2.16946673,-1.15860200,-0.74948019,0.19996087,0.00000000,0.00000000,-0.09968129,2.09188128,1.12142384,0.22627179,1.76786041,0.00000000,0.00000000
0.03877089,-2.16647744,-1.14526057,-0.70874655,0.20926391,0.00000000,0.00000000,-0.07095548,2.07183003,1.13158321,0.24058852,1.79181945,0.00000000,0.00000000
0.05222359,-2.15868902,-1.13194060,-0.66493601,0.21895754,0.00000000,0.00000000,-0.03527413,2.05023336,1.14316213,0.25812763,1.81674719,0.00000000,0.00000000
0.06895765,-2.14741302,-1.11711752,-0.61775368,0.22796606,0.00000000,0.00000000,0.00685974,2.02953386,1.15569186,0.27910188,1.84074855,0.00000000,0.00000000
0.09124961,-2.13506103,-1.09984171,-0.56723368,0.24246053,0.00000000,0.00000000,0.05374157,2.01221371,1.16854334,0.30310008,1.86235499,0.00000000,0.00000000
0.11900682,-2.12369633,-1.07986081,-0.51449031,0.25101650,0.00000000,0.00000000,0.10278439,2.00002909,1.18104982,0.32907766,1.88756120,0.00000000,0.00000000
0.14989154,-2.11497951,-1.05749881,-0.46160313,0.26078081,0.00000000,0.00000000,0.15099838,1.99369931,1.19262302,0.35558596,1.91098416,0.00000000,0.00000000
0.17967814,-2.10979891,-1.03356922,-0.41129294,0.26758504,0.00000000,0.00000000,0.19542925,1.99285138,1.20286000,0.38104481,1.93760586,0.00000000,0.00000000
0.20434004,-2.10794687,-1.00905061,-0.36574143,0.27537626,0.00000000,0.00000000,0.23310152,1.99656880,1.21149206,0.40386897,1.96407282,0.00000000,0.00000000
0.22272362,-2.10876107,-0.98455137,-0.32546607,0.28021634,0.00000000,0.00000000,0.26184744,2.00454903,1.21823239,0.42313594,1.99441791,0.00000000,0.00000000
0.23490800,-2.11172462,-0.96041471,-0.29038563,0.28566557,0.00000000,0.00000000,0.28091592,2.01673365,1.22289968,0.43867090,2.02143168,0.00000000,0.00000000
0.24123371,-2.11651206,-0.93686563,-0.26035327,0.29445174,0.00000000,0.00000000,0.29044545,2.03250837,1.22555244,0.45049417,2.04688454,0.00000000,0.00000000
0.24221833,-2.12281656,-0.91406238,-0.23513156,0.29904440,0.00000000,0.00000000,0.29108375,2.05063391,1.22648180,0.45862570,2.06913543,0.00000000,0.00000000
0.23815723,-2.13026166,-0.89214820,-0.21452671,0.30067644,0.00000000,0.00000000,0.28399372,2.06957197,1.22612619,0.46323195,2.09281301,0.00000000,0.00000000
0.22885677,-2.13832426,-0.87128049,-0.19846642,0.30584860,0.00000000,0.00000000,0.27074108,2.08794451,1.22493351,0.46473631,2.11456299,0.00000000,0.00000000
0.21417052,-2.14617920,-0.85160244,-0.18669669,0.31294465,0.00000000,0.00000000,0.25229642,2.10527444,1.22305918,0.46352473,2.13618803,0.00000000,0.00000000
0.19458121,-2.15293956,-0.83317852,-0.17861690,0.31942406,0.00000000,0.00000000,0.22995602,2.12183857,1.22048879,0.46041000,2.15526891,0.00000000,0.00000000
0.17095186,-2.15820599,-0.81597620,-0.17360525,0.32575387,0.00000000,0.00000000,0.20624068,2.13772917,1.21736312,0.45680550,2.17320204,0.00000000,0.00000000
0.14386229,-2.16229010,-0.79990643,-0.17139649,0.32843795,0.00000000,0.00000000,0.18430644,2.15194964,1.21415281,0.45408964,2.19523454,0.00000000,0.00000000
0.11411035,-2.16560864,-0.78484070,-0.17162278,0.33027527,0.00000000,0.00000000,0.16566834,2.16271400,1.21136677,0.45245537,2.22170901,0.00000000,0.00000000
0.08310008,-2.16816807,-0.77062422,-0.17344312,0.32919240,0.00000000,0.00000000,0.15013561,2.16848087,1.20939291,0.45112255,2.25156379,0.00000000,0.00000000
0.05264086,-2.16960907,-0.75710487,-0.17557672,0.32898164,0.00000000,0.00000000,0.13668846,2.16991282,1.20850945,0.44899327,2.28779674,0.00000000,0.00000000
0.02442330,-2.16997766,-0.74417150,-0.17660517,0.33105427,0.00000000,0.00000000,0.12382474,2.17000008,1.20880818,0.44499713,2.32316327,0.00000000,0.00000000
-0.00029362,-2.16999197,-0.73174822,-0.17537636,0.33082783,0.00000000,0.00000000,0.10965569,2.17000008,1.21008885,0.43823951,2.35744071,0.00000000,0.00000000
-0.02060466,-2.16985726,-0.71973532,-0.17138077,0.33186349,0.00000000,0.00000000,0.09276782,2.16997385,1.21199620,0.42833126,2.38861918,0.00000000,0.00000000
-0.03581661,-2.16924381,-0.70798290,-0.16483170,0.33806640,0.00000000,0.00000000,0.07368530,2.16954041,1.21427417,0.41594335,2.42557120,0.00000000,0.00000000
-0.04561836,-2.16794705,-0.69638568,-0.15622088,0.34664857,0.00000000,0.00000000,0.05488333,2.16774917,1.21678996,0.40278226,2.46039605,0.00000000,0.00000000
-0.05041279,-2.16611576,-0.68496406,-0.14602180,0.35914516,0.00000000,0.00000000,0.03906051,2.16443682,1.21945930,0.39067504,2.49386835,0.00000000,0.00000000
-0.05117196,-2.16378307,-0.67382675,-0.13476562,0.36890873,0.00000000,0.00000000,0.02797075,2.16050363,1.22224522,0.38088176,2.52997303,0.00000000,0.00000000
-0.04880769,-2.16107154,-0.66308218,-0.12310201,0.38240847,0.00000000,0.00000000,0.02219366,2.15667272,1.22515738,0.37395227,2.56030226,0.00000000,0.00000000
-0.04370343,-2.15849376,-0.65279269,-0.11174470,0.39182290,0.00000000,0.00000000,0.02124128,2.15311146,1.22823417,0.36979598,2.58848834,0.00000000,0.00000000
-0.03584540,-2.15679002,-0.64299035,-0.10138956,0.40092662,0.00000000,0.00000000,0.02402665,2.14956665,1.23154759,0.36792132,2.61119318,0.00000000,0.00000000
-0.02533886,-2.15655017,-0.63371652,-0.09267011,0.40831691,0.00000000,0.00000000,0.02950070,2.14550662,1.23521638,0.36775562,2.63648033,0.00000000,0.00000000
-0.01267986,-2.15797710,-0.62503266,-0.08611545,0.41836533,0.00000000,0.00000000,0.03693555,2.14028025,1.23939300,0.36881629,2.65998960,0.00000000,0.00000000
0.00145613,-2.16086817,-0.61700147,-0.08205574,0.42962378,0.00000000,0.00000000,0.04571551,2.13330555,1.24421430,0.37067944,2.68370724,0.00000000,0.00000000
0.01651456,-2.16459203,-0.60967153,-0.08050779,0.44272539,0.00000000,0.00000000,0.05503214,2.12426472,1.24974477,0.37291449,2.70655632,0.00000000,0.00000000
0.03205063,-2.16792083,-0.60308683,-0.08110823,0.45424387,0.00000000,0.00000000,0.06387278,2.11323953,1.25594950,0.37513456,2.72320724,0.00000000,0.00000000
0.04744175,-2.16960382,-0.59731257,-0.08311415,0.47089300,0.00000000,0.00000000,0.07132951,2.10075188,1.26270187,0.37715507,2.74214530,0.00000000,0.00000000
0.06171069,-2.16997814,-0.59245080,-0.08549148,0.48530701,0.00000000,0.00000000,0.07690796,2.08767581,1.26981509,0.37909463,2.76231885,0.00000000,0.00000000
0.07360221,-2.17000008,-0.58862519,-0.08720484,0.50094229,0.00000000,0.00000000,0.08058474,2.07503438,1.27708030,0.38130563,2.77819037,0.00000000,0.00000000
0.08176622,-2.17000008,-0.58594739,-0.08762083,0.51673669,0.00000000,0.00000000,0.08264093,2.06376171,1.28430045,0.38419199,2.78924084,0.00000000,0.00000000
0.08498012,-2.17000008,-0.58448738,-0.08673400,0.53147417,0.00000000,0.00000000,0.08344569,2.05454969,1.29131413,0.38806635,2.80033922,0.00000000,0.00000000
0.08246139,-2.17000008,-0.58425647,-0.08508698,0.53971326,0.00000000,0.00000000,0.08328839,2.04781127,1.29800367,0.39310437,2.80844092,0.00000000,0.00000000
0.07405399,-2.17000008,-0.58520973,-0.08350723,0.54874176,0.00000000,0.00000000,0.08227724,2.04368901,1.30429709,0.39934269,2.81261230,0.00000000,0.00000000
0.05993757,-2.17000008,-0.58727437,-0.08289985,0.56198549,0.00000000,0.00000000,0.08035791,2.04206061,1.31016874,0.40668797,2.81872654,0.00000000,0.00000000
0.04069122,-2.17000008,-0.59036386,-0.08393070,0.57298404,0.00000000,0.00000000,0.07738311,2.04266691,1.31561017,0.41494220,2.82084942,0.00000000,0.00000000
0.01794232,-2.17000008,-0.59435350,-0.08671702,0.58715111,0.00000000,0.00000000,0.07322828,2.04530811,1.32058406,0.42386919,2.82402873,0.00000000,0.00000000
-0.00640480,-2.17000008,-0.59910625,-0.09111764,0.60582405,0.00000000,0.00000000,0.06806627,2.04981613,1.32504177,0.43332693,2.82782865,0.00000000,0.00000000
-0.03082642,-2.17000008,-0.60449862,-0.09693747,0.62325692,0.00000000,0.00000000,0.06226697,2.05598712,1.32893610,0.44322997,2.83217812,0.00000000,0.00000000
-0.05413190,-2.17000008,-0.61042136,-0.10389351,0.63891810,0.00000000,0.00000000,0.05615750,2.06353736,1.33222866,0.45346722,2.83834124,0.00000000,0.00000000
-0.07531814,-2.17000008,-0.61677808,-0.11156041,0.65341532,0.00000000,0.00000000,0.04994243,2.07208610,1.33490229,0.46391293,2.84339261,0.00000000,0.00000000
-0.09355988,-2.17000008,-0.62348700,-0.11937600,0.66913670,0.00000000,0.00000000,0.04375205,2.08122253,1.33695102,0.47449824,2.85048437,0.00000000,0.00000000
-0.10830043,-2.17000008,-0.63048446,-0.12674081,0.68669361,0.00000000,0.00000000,0.03770557,2.09062243,1.33835316,0.48525673,2.85388422,0.00000000,0.00000000
-0.11932374,-2.17000008,-0.63772845,-0.13314751,0.70777637,0.00000000,0.00000000,0.03192513,2.10009146,1.33905673,0.49631014,2.85870242,0.00000000,0.00000000
-0.12671526,-2.17000008,-0.64519960,-0.13822791,0.72880465,0.00000000,0.00000000,0.02652235,2.10945964,1.33900702,0.50781137,2.85933256,0.00000000,0.00000000
-0.13076624,-2.17000008,-0.65290022,-0.14174731,0.74994636,0.00000000,0.00000000,0.02160623,2.11842918,1.33819246,0.51989204,2.85625076,0.00000000,0.00000000
-0.13192303,-2.17000008,-0.66084373,-0.14365965,0.77119619,0.00000000,0.00000000,0.01728013,2.12661505,1.33662796,0.53265327,2.85040188,0.00000000,0.00000000
-0.13076843,-2.17000008,-0.66903996,-0.14419876,0.78695208,0.00000000,0.00000000,0.01355713,2.13383865,1.33425558,0.54617357,2.84576488,0.00000000,0.00000000
-0.12796059,-2.17000008,-0.67748779,-0.14385395,0.80473930,0.00000000,0.00000000,0.01022730,2.14033175,1.33085537,0.56046343,2.84379959,0.00000000,0.00000000
-0.12414426,-2.17000008,-0.68618059,-0.14320357,0.81909400,0.00000000,0.00000000,0.00684384,2.14652872,1.32609808,0.57538635,2.83707166,0.00000000,0.00000000
-0.11990017,-2.17000008,-0.69511235,-0.14275819,0.82906568,0.00000000,0.00000000,0.00289811,2.15265799,1.31968927,0.59066576,2.83333111,0.00000000,0.00000000
-0.11574871,-2.17000008,-0.70427710,-0.14292468,0.83605558,0.00000000,0.00000000,-0.00196752,2.15857220,1.31145954,0.60600907,2.82654738,0.00000000,0.00000000
-0.11216967,-2.16999555,-0.71366435,-0.14404298,0.84411883,0.00000000,0.00000000,-0.00792013,2.16382957,1.30136108,0.62119186,2.81857443,0.00000000,0.00000000
-0.10959565,-2.16992068,-0.72325832,-0.14640421,0.85422355,0.00000000,0.00000000,-0.01506659,2.16770363,1.28947031,0.63597041,2.81625652,0.00000000,0.00000000
-0.10835337,-2.16959500,-0.73303783,-0.15022083,0.86787319,0.00000000,0.00000000,-0.02350422,2.16956091,1.27608502,0.64994293,2.82069397,0.00000000,0.00000000
-0.10861783,-2.16893911,-0.74297374,-0.15558945,0.88021457,0.00000000,0.00000000,-0.03318609,2.16997576,1.26182926,0.66256553,2.83189702,0.00000000,0.00000000
-0.11044861,-2.16805172,-0.75303113,-0.16248992,0.89953983,0.00000000,0.00000000,-0.04384859,2.17000008,1.24760771,0.67327559,2.84143615,0.00000000,0.00000000
-0.11385334,-2.16696405,-0.76317257,-0.17079948,0.91383976,0.00000000,0.00000000,-0.05519237,2.17000008,1.23442864,0.68151200,2.85001564,0.00000000,0.00000000
-0.11879946,-2.16555166,-0.77336079,-0.18029261,0.93011087,0.00000000,0.00000000,-0.06709646,2.17000008,1.22323704,0.68665028,2.85164165,0.00000000,0.00000000
-0.12520564,-2.16356993,-0.78355789,-0.19064514,0.94318223,0.00000000,0.00000000,-0.07955066,2.17000008,1.21484935,0.68805867,2.85622025,0.00000000,0.00000000
-0.13294846,-2.16065955,-0.79372978,-0.20143478,0.95893288,0.00000000,0.00000000,-0.09234028,2.17000008,1.21000087,0.68528980,2.86418390,0.00000000,0.00000000
-0.14184937,-2.15634561,-0.80384827,-0.21214853,0.97095627,0.00000000,0.00000000,-0.10489698,2.17000008,1.20933497,0.67822117,2.87191391,0.00000000,0.00000000
-0.15168773,-2.15017939,-0.81388515,-0.22228195,0.98361528,0.00000000,0.00000000,-0.11658310,2.17000008,1.21315563,0.66703558,2.87979317,0.00000000,0.00000000
-0.16227508,-2.14204049,-0.82379138,-0.23152953,0.99365324,0.00000000,0.00000000,-0.12707989,2.16995835,1.22104526,0.65220302,2.87979317,0.00000000,0.00000000
-0.17346157,-2.13236165,-0.83347237,-0.23988418,1.00217152,0.00000000,0.00000000,-0.13646540,2.16924906,1.23170161,0.63457674,2.87979317,0.00000000,0.00000000
-0.18488514,-2.12206173,-0.84276366,-0.24748397,1.01084852,0.00000000,0.00000000,-0.14494762,2.16606712,1.24333358,0.61539537,2.87979317,0.00000000,0.00000000
-0.19563273,-2.11232471,-0.85141391,-0.25435680,1.02526665,0.00000000,0.00000000,-0.15255134,2.15957117,1.25443208,0.59597284,2.87979317,0.00000000,0.00000000
-0.20432886,-2.10444355,-0.85910445,-0.26038224,1.04076946,0.00000000,0.00000000,-0.15910205,2.15146112,1.26410329,0.57738817,2.87979317,0.00000000,0.00000000
-0.20967780,-2.09958673,-0.86552906,-0.26542079,1.05650711,0.00000000,0.00000000,-0.16434792,2.14384818,1.27184117,0.56051111,2.87979317,0.00000000,0.00000000
-0.21090467,-2.09843516,-0.87048674,-0.26934814,1.07565188,0.00000000,0.00000000,-0.16801515,2.13832402,1.27734733,0.54606283,2.87979317,0.00000000,0.00000000
-0.20779313,-2.10099006,-0.87391907,-0.27199772,1.08916378,0.00000000,0.00000000,-0.16989745,2.13580036,1.28053427,0.53449476,2.87979317,0.00000000,0.00000000
-0.20049818,-2.10668492,-0.87588710,-0.27315411,1.09974718,0.00000000,0.00000000,-0.16997249,2.13643813,1.28150892,0.52587348,2.87979317,0.00000000,0.00000000
-0.18943784,-2.11470127,-0.87652820,-0.27267560,1.11405087,0.00000000,0.00000000,-0.16835035,2.13985562,1.28049421,0.51997429,2.87979317,0.00000000,0.00000000
-0.17535684,-2.12426376,-0.87602699,-0.27066267,1.12864566,0.00000000,0.00000000,-0.16503079,2.14538860,1.27776754,0.51651353,2.87979317,0.00000000,0.00000000
-0.15942156,-2.13466501,-0.87461835,-0.26749101,1.14526927,0.00000000,0.00000000,-0.15976527,2.15219474,1.27363873,0.51525968,2.87979317,0.00000000,0.00000000
-0.14316306,-2.14508176,-0.87259412,-0.26366326,1.15879405,0.00000000,0.00000000,-0.15230212,2.15923691,1.26843369,0.51588130,2.87979317,0.00000000,0.00000000
-0.12818778,-2.15452671,-0.87027085,-0.25962144,1.17434561,0.00000000,0.00000000,-0.14278184,2.16527414,1.26246452,0.51773477,2.87979317,0.00000000,0.00000000
-0.11568693,-2.16208220,-0.86790603,-0.25561628,1.18819678,0.00000000,0.00000000,-0.13175739,2.16895342,1.25602317,0.51990885,2.87979317,0.00000000,0.00000000
-0.10596643,-2.16710520,-0.86562967,-0.25158739,1.20296872,0.00000000,0.00000000,-0.11988985,2.16993856,1.24939358,0.52145851,2.87979317,0.00000000,0.00000000
-0.09852855,-2.16944122,-0.86347049,-0.24716255,1.21396315,0.00000000,0.00000000,-0.10767958,2.17000008,1.24280620,0.52163655,2.87979317,0.00000000,0.00000000
-0.09274748,-2.16996908,-0.86144710,-0.24190068,1.21997190,0.00000000,0.00000000,-0.09533761,2.16995430,1.23634207,0.52006882,2.87979317,0.00000000,0.00000000
-0.08821553,-2.17000008,-0.85959417,-0.23552486,1.22955501,0.00000000,0.00000000,-0.08279312,2.16921544,1.22991455,0.51679307,2.87979317,0.00000000,0.00000000
-0.08446757,-2.16997385,-0.85790622,-0.22795518,1.23903024,0.00000000,0.00000000,-0.06987512,2.16633487,1.22329831,0.51215231,2.87979317,0.00000000,0.00000000
-0.08067667,-2.16954350,-0.85630643,-0.21919239,1.24726140,0.00000000,0.00000000,-0.05661500,2.16136289,1.21616864,0.50656593,2.87979317,0.00000000,0.00000000
-0.07596941,-2.16777253,-0.85469723,-0.20931312,1.25840819,0.00000000,0.00000000,-0.04336360,2.15547228,1.20822275,0.50026947,2.87979317,0.00000000,0.00000000
-0.07062133,-2.16432762,-0.85308915,-0.19879979,1.27127862,0.00000000,0.00000000,-0.03031564,2.14930987,1.19938755,0.49332020,2.87979317,0.00000000,0.00000000
-0.06654835,-2.15964270,-0.85163695,-0.18872461,1.27906692,0.00000000,0.00000000,-0.01702134,2.14242578,1.18994415,0.48572102,2.87979317,0.00000000,0.00000000
-0.06533487,-2.15460944,-0.85044312,-0.18011224,1.28272033,0.00000000,0.00000000,-0.00361651,2.13316083,1.18041396,0.47673580,2.87979317,0.00000000,0.00000000
-0.06762585,-2.15004778,-0.84953731,-0.17360707,1.27933609,0.00000000,0.00000000,0.00859716,2.12036824,1.17101705,0.46512946,2.87979317,0.00000000,0.00000000
-0.07399123,-2.14632654,-0.84896880,-0.16968133,1.28037918,0.00000000,0.00000000,0.01878463,2.10442066,1.16160941,0.45037368,2.87979317,0.00000000,0.00000000
-0.08499518,-2.14338183,-0.84880495,-0.16863212,1.27948117,0.00000000,0.00000000,0.02687337,2.08660913,1.15191865,0.43269098,2.87979317,0.00000000,0.00000000
-0.10098378,-2.14093757,-0.84909761,-0.17055149,1.28008771,0.00000000,0.00000000,0.03304322,2.06852341,1.14166963,0.41267246,2.87979317,0.00000000,0.00000000
-0.12211658,-2.13867855,-0.84987319,-0.17541975,1.27834070,0.00000000,0.00000000,0.03715483,2.05171537,1.13059878,0.39088732,2.87979317,0.00000000,0.00000000
-0.14843088,-2.13642120,-0.85112727,-0.18323943,1.27386272,0.00000000,0.00000000,0.03820207,2.03713822,1.11851394,0.36735249,2.87979317,0.00000000,0.00000000
-0.17992847,-2.13431001,-0.85281622,-0.19419956,1.26901817,0.00000000,0.00000000,0.03510451,2.02505374,1.10539448,0.34180072,2.87979317,0.00000000,0.00000000
-0.21634386,-2.13287854,-0.85483158,-0.20860802,1.26345456,0.00000000,0.00000000,0.02764826,2.01551509,1.09138453,0.31426474,2.87979317,0.00000000,0.00000000
-0.25674742,-2.13274789,-0.85698348,-0.22652484,1.25732255,0.00000000,0.00000000,0.01645744,2.00866318,1.07672048,0.28519344,2.87979317,0.00000000,0.00000000
-0.29951909,-2.13412547,-0.85902703,-0.24743955,1.25748527,0.00000000,0.00000000,0.00229976,2.00464058,1.06166840,0.25513950,2.87979317,0.00000000,0.00000000
-0.34278226,-2.13680100,-0.86069059,-0.27040827,1.25729597,0.00000000,0.00000000,-0.01438718,2.00340223,1.04649830,0.22449143,2.87979317,0.00000000,0.00000000
-0.38487789,-2.14061737,-0.86167449,-0.29449099,1.25595939,0.00000000,0.00000000,-0.03329874,2.00477076,1.03148544,0.19358079,2.87979317,0.00000000,0.00000000
-0.42447662,-2.14577794,-0.86163628,-0.31900474,1.25355268,0.00000000,0.00000000,-0.05383543,2.00859141,1.01691270,0.16292924,2.87979317,0.00000000,0.00000000
-0.46022806,-2.15211725,-0.86026466,-0.34321958,1.24637318,0.00000000,0.00000000,-0.07513604,2.01472092,1.00306141,0.13322371,2.87979317,0.00000000,0.00000000
-0.48984894,-2.15811372,-0.85731608,-0.36611485,1.23576021,0.00000000,0.00000000,-0.09669378,2.02296758,0.99017864,0.10499386,2.87979317,0.00000000,0.00000000
-0.51261955,-2.16348362,-0.85255128,-0.38901401,1.22241819,0.00000000,0.00000000,-0.11862099,2.03313041,0.97846413,0.07848962,2.87979317,0.00000000,0.00000000
-0.53106332,-2.16773653,-0.84623563,-0.41443700,1.20938218,0.00000000,0.00000000,-0.14076315,2.04508591,0.96810097,0.05412564,2.87979317,0.00000000,0.00000000
-0.54645628,-2.16962004,-0.83879066,-0.44264704,1.19815445,0.00000000,0.00000000,-0.16239545,2.05856681,0.95926225,0.03252961,2.87979317,0.00000000,0.00000000
-0.55821991,-2.16998053,-0.83040208,-0.47252685,1.18137491,0.00000000,0.00000000,-0.18253402,2.07299852,0.95209205,0.01432966,2.87979317,0.00000000,0.00000000
-0.56478244,-2.17000008,-0.82081324,-0.50276130,1.16480720,0.00000000,0.00000000,-0.20002943,2.08766508,0.94668961,0.00019318,2.87979317,0.00000000,0.00000000
-0.56238693,-2.17000008,-0.80969995,-0.52967423,1.14637864,0.00000000,0.00000000,-0.21361460,2.10207224,0.94310725,-0.00904747,2.87979317,0.00000000,0.00000000
-0.55059344,-2.17000008,-0.79807955,-0.54916090,1.12334967,0.00000000,0.00000000,-0.22182725,2.11606789,0.94135660,-0.01234891,2.87979317,0.00000000,0.00000000
-0.53395134,-2.17000008,-0.78665179,-0.56210107,1.09826803,0.00000000,0.00000000,-0.22336565,2.12929010,0.94141787,-0.00888864,2.87979317,0.00000000,0.00000000
-0.51094079,-2.17000008,-0.77563781,-0.56595761,1.07111812,0.00000000,0.00000000,-0.21728429,2.14085460,0.94325316,0.00166342,2.87979317,0.00000000,0.00000000
-0.47920930,-2.17000008,-0.76470500,-0.55857420,1.03939462,0.00000000,0.00000000,-0.20305526,2.14936352,0.94682336,0.01906274,2.87979317,0.00000000,0.00000000
-0.44015166,-2.17000008,-0.75423485,-0.54010797,1.01115620,0.00000000,0.00000000,-0.18048029,2.15363812,0.95209384,0.04275019,2.87979317,0.00000000,0.00000000
-0.39636081,-2.17000008,-0.74512690,-0.51102728,0.98844570,0.00000000,0.00000000,-0.14991528,2.15383291,0.95899820,0.07213777,2.87979317,0.00000000,0.00000000
-0.35249388,-2.17000008,-0.73848164,-0.47313184,0.96546328,0.00000000,0.00000000,-0.11159170,2.15155530,0.96740073,0.10703030,2.87979317,0.00000000,0.00000000
-0.31422064,-2.16994786,-0.73495609,-0.43003038,0.94716990,0.00000000,0.00000000,-0.06505943,2.14846849,0.97710788,0.14749876,2.87979317,0.00000000,0.00000000
-0.27808610,-2.16909623,-0.73292369,-0.38282001,0.93103355,0.00000000,0.00000000,-0.01220402,2.14583182,0.98774713,0.19237001,2.87979317,0.00000000,0.00000000
-0.23841341,-2.16568589,-0.73047203,-0.33224908,0.91479546,0.00000000,0.00000000,0.04273706,2.14505363,0.99866402,0.23940653,2.87979317,0.00000000,0.00000000
-0.19264734,-2.15971041,-0.72673976,-0.27989542,0.89683872,0.00000000,0.00000000,0.09476683,2.14707732,1.00903678,0.28588554,2.87979317,0.00000000,0.00000000
-0.14287047,-2.15314245,-0.72192478,-0.22826247,0.88176268,0.00000000,0.00000000,0.14102563,2.15208769,1.01821220,0.32989064,2.87979317,0.00000000,0.00000000
-0.09512422,-2.14768863,-0.71680617,-0.18067969,0.86717993,0.00000000,0.00000000,0.18201113,2.15930891,1.02601886,0.37082088,2.87979317,0.00000000,0.00000000
-0.05368232,-2.14417386,-0.71192747,-0.13935359,0.85700852,0.00000000,0.00000000,0.21669123,2.16581869,1.03260291,0.40685511,2.87979317,0.00000000,0.00000000
-0.01938008,-2.14255381,-0.70749778,-0.10475339,0.84812415,0.00000000,0.00000000,0.24178511,2.16917944,1.03797829,0.43533918,2.87979317,0.00000000,0.00000000
0.00792589,-2.14239740,-0.70363247,-0.07676230,0.84043002,0.00000000,0.00000000,0.25554296,2.16995430,1.04207015,0.45498517,2.87979317,0.00000000,0.00000000
0.02834277,-2.14320517,-0.70042461,-0.05521627,0.83838218,0.00000000,0.00000000,0.25737068,2.17000008,1.04462874,0.46563986,2.87979317,0.00000000,0.00000000
0.04184019,-2.14442897,-0.69794685,-0.03995240,0.83704948,0.00000000,0.00000000,0.24720694,2.17000008,1.04527175,0.46777561,2.87979317,0.00000000,0.00000000
0.04830193,-2.14551091,-0.69624919,-0.03079922,0.83683193,0.00000000,0.00000000,0.22590142,2.16998506,1.04378712,0.46228361,2.87979317,0.00000000,0.00000000
0.04739504,-2.14601398,-0.69536114,-0.02766760,0.83305234,0.00000000,0.00000000,0.19580072,2.16973758,1.04040647,0.45048702,2.87979317,0.00000000,0.00000000
0.03825691,-2.14564800,-0.69530064,-0.03065964,0.83043557,0.00000000,0.00000000,0.16089509,2.16867399,1.03573537,0.43436855,2.87979317,0.00000000,0.00000000
0.02008367,-2.14424634,-0.69607121,-0.03986439,0.83037138,0.00000000,0.00000000,0.12419305,2.16654396,1.03014123,0.41571170,2.87979317,0.00000000,0.00000000
-0.00661137,-2.14217925,-0.69763607,-0.05513176,0.83056635,0.00000000,0.00000000,0.08573436,2.16367078,1.02358210,0.39499176,2.87979317,0.00000000,0.00000000
-0.04012268,-2.14039946,-0.69989479,-0.07615174,0.83083743,0.00000000,0.00000000,0.04415894,2.16047430,1.01590717,0.37201774,2.87979317,0.00000000,0.00000000
-0.07809754,-2.14008117,-0.70265955,-0.10245709,0.83283073,0.00000000,0.00000000,-0.00214536,2.15747881,1.00697625,0.34655389,2.87979317,0.00000000,0.00000000
-0.11738842,-2.14216566,-0.70562011,-0.13311514,0.83595282,0.00000000,0.00000000,-0.05428208,2.15549779,0.99671417,0.31871828,2.87979317,0.00000000,0.00000000
-0.15493159,-2.14693713,-0.70838708,-0.16682306,0.84066272,0.00000000,0.00000000,-0.11102774,2.15551615,0.98531133,0.28974098,2.87979317,0.00000000,0.00000000
-0.18941145,-2.15397334,-0.71062964,-0.20247862,0.84711063,0.00000000,0.00000000,-0.16719659,2.15806723,0.97341663,0.26249319,2.87979317,0.00000000,0.00000000
-0.22003958,-2.16185927,-0.71207798,-0.23867704,0.84974921,0.00000000,0.00000000,-0.21601449,2.16227078,0.96195424,0.24010496,2.87979317,0.00000000,0.00000000
-0.24423568,-2.16777992,-0.71242017,-0.27277914,0.85693544,0.00000000,0.00000000,-0.25455043,2.16626954,0.95154142,0.22358669,2.87979317,0.00000000,0.00000000
-0.25962797,-2.16976237,-0.71152061,-0.30181068,0.86344254,0.00000000,0.00000000,-0.28376639,2.16886139,0.94233060,0.21233657,2.87979317,0.00000000,0.00000000
-0.26571175,-2.16999197,-0.70954835,-0.32352886,0.87881547,0.00000000,0.00000000,-0.30527812,2.16982651,0.93433404,0.20559888,2.87979317,0.00000000,0.00000000
-0.26324877,-2.17000008,-0.70678931,-0.33675605,0.89041984,0.00000000,0.00000000,-0.31989342,2.16999149,0.92760688,0.20292950,2.87979317,0.00000000,0.00000000
-0.25328746,-2.17000008,-0.70344770,-0.34122059,0.90400136,0.00000000,0.00000000,-0.32772237,2.17000008,0.92226291,0.20403422,2.87979317,0.00000000,0.00000000
-0.23685695,-2.17000008,-0.69962329,-0.33732980,0.92493707,0.00000000,0.00000000,-0.32888070,2.17000008,0.91848922,0.20819189,2.87074494,0.00000000,0.00000000
-0.21560879,-2.17000008,-0.69541395,-0.32635197,0.94542092,0.00000000,0.00000000,-0.32361042,2.17000008,0.91663265,0.21386692,2.86117363,0.00000000,0.00000000
-0.19255067,-2.17000008,-0.69103253,-0.31056127,0.96991444,0.00000000,0.00000000,-0.31132278,2.17000008,0.91712439,0.21975720,2.84474325,0.00000000,0.00000000
-0.16992871,-2.17000008,-0.68667752,-0.29174784,1.00178492,0.00000000,0.00000000,-0.29120067,2.16994786,0.92003089,0.22603822,2.82522464,0.00000000,0.00000000
-0.14735444,-2.17000008,-0.68223149,-0.27065790,1.03744709,0.00000000,0.00000000,-0.26348069,2.16910386,0.92509860,0.23327285,2.80397964,0.00000000,0.00000000
-0.12317649,-2.17000008,-0.67741191,-0.24774604,1.06904054,0.00000000,0.00000000,-0.22924854,2.16582894,0.93185478,0.24215959,2.78507829,0.00000000,0.00000000
-0.09607235,-2.17000008,-0.67201805,-0.22364748,1.10032821,0.00000000,0.00000000,-0.19060302,2.16037846,0.93969190,0.25298506,2.76174736,0.00000000,0.00000000
-0.06547061,-2.17000008,-0.66601145,-0.19908378,1.12475848,0.00000000,0.00000000,-0.15075047,2.15469599,0.94797063,0.26513502,2.73772836,0.00000000,0.00000000
-0.03124652,-2.17000008,-0.65947431,-0.17459793,1.14816368,0.00000000,0.00000000,-0.11334660,2.15015912,0.95612967,0.27731764,2.71580768,0.00000000,0.00000000
0.00550760,-2.17000008,-0.65262491,-0.15082537,1.16429949,0.00000000,0.00000000,-0.08164974,2.14707518,0.96376586,0.28811505,2.69675040,0.00000000,0.00000000
0.04095438,-2.17000008,-0.64587843,-0.12895992,1.18485224,0.00000000,0.00000000,-0.05741123,2.14524603,0.97069329,0.29671881,2.68093276,0.00000000,0.00000000
0.07029507,-2.17000008,-0.63966656,-0.11015158,1.20856130,0.00000000,0.00000000,-0.04036218,2.14410663,0.97699082,0.30311805,2.66409993,0.00000000,0.00000000
0.09115163,-2.17000008,-0.63419014,-0.09471859,1.23542309,0.00000000,0.00000000,-0.02973979,2.14257073,0.98287714,0.30728143,2.64935827,0.00000000,0.00000000
0.10323878,-2.17000008,-0.62947965,-0.08239395,1.26332939,0.00000000,0.00000000,-0.02507024,2.13967419,0.98853719,0.30902982,2.63457489,0.00000000,0.00000000
0.10683234,-2.17000008,-0.62552077,-0.07274126,1.29029810,0.00000000,0.00000000,-0.02595208,2.13528156,0.99403328,0.30840680,2.62132120,0.00000000,0.00000000
0.10212016,-2.17000008,-0.62229979,-0.06528810,1.31810915,0.00000000,0.00000000,-0.03183298,2.13020706,0.99930650,0.30586290,2.60924649,0.00000000,0.00000000
0.08912175,-2.17000008,-0.61980605,-0.05956795,1.34113646,0.00000000,0.00000000,-0.04181487,2.12575674,1.00426805,0.30224195,2.59762168,0.00000000,0.00000000
0.06785078,-2.17000008,-0.61801821,-0.05523272,1.36478961,0.00000000,0.00000000,-0.05460435,2.12309504,1.00890386,0.29860872,2.58845305,0.00000000,0.00000000
0.03859303,-2.17000008,-0.61688578,-0.05220081,1.39155352,0.00000000,0.00000000,-0.06877204,2.12282467,1.01330721,0.29594243,2.57299089,0.00000000,0.00000000
0.00226353,-2.17000008,-0.61631852,-0.05066057,1.41730928,0.00000000,0.00000000,-0.08323366,2.12479711,1.01764488,0.29476944,2.55819726,0.00000000,0.00000000
-0.03935553,-2.16998720,-0.61618990,-0.05089296,1.44349849,0.00000000,0.00000000,-0.09761347,2.12810016,1.02211225,0.29493394,2.54278159,0.00000000,0.00000000
-0.08373632,-2.16978574,-0.61635101,-0.05301610,1.46557820,0.00000000,0.00000000,-0.11229536,2.13140464,1.02687645,0.29569146,2.52327895,0.00000000,0.00000000
-0.12785389,-2.16906762,-0.61664206,-0.05671922,1.48537993,0.00000000,0.00000000,-0.12812425,2.13354349,1.03202713,0.29608861,2.50585222,0.00000000,0.00000000
-0.16853926,-2.16790438,-0.61690283,-0.06114897,1.50638735,0.00000000,0.00000000,-0.14505918,2.13384247,1.03766179,0.29578573,2.48913455,0.00000000,0.00000000
-0.20374957,-2.16632605,-0.61700684,-0.06540538,1.52624154,0.00000000,0.00000000,-0.16022037,2.13222671,1.04404914,0.29609355,2.47174191,0.00000000,0.00000000
-0.23314781,-2.16432738,-0.61687738,-0.06906831,1.54401183,0.00000000,0.00000000,-0.16963992,2.12901044,1.05149543,0.29906526,2.45883036,0.00000000,0.00000000
-0.25568470,-2.16171360,-0.61642611,-0.07149490,1.56489515,0.00000000,0.00000000,-0.17230503,2.12438989,1.06005383,0.30528551,2.44589233,0.00000000,0.00000000
-0.27006388,-2.15855002,-0.61556482,-0.07218835,1.58484244,0.00000000,0.00000000,-0.16956092,2.11841059,1.06957996,0.31410730,2.43768525,0.00000000,0.00000000
-0.27598867,-2.15539098,-0.61424440,-0.07125975,1.60803902,0.00000000,0.00000000,-0.16279580,2.11122823,1.07989466,0.32487530,2.43000412,0.00000000,0.00000000
-0.27403203,-2.15303087,-0.61245894,-0.06924136,1.63203013,0.00000000,0.00000000,-0.15283279,2.10315371,1.09082878,0.33723250,2.42564821,0.00000000,0.00000000
-0.26499152,-2.15211463,-0.61022884,-0.06670213,1.65712285,0.00000000,0.00000000,-0.14026907,2.09450746,1.10221386,0.35089144,2.42004657,0.00000000,0.00000000
-0.24977721,-2.15288234,-0.60759747,-0.06409680,1.67069209,0.00000000,0.00000000,-0.12549043,2.08571291,1.11386311,0.36566383,2.41685271,0.00000000,0.00000000
-0.23035380,-2.15524220,-0.60465109,-0.06209392,1.68874121,0.00000000,0.00000000,-0.10831165,2.07761216,1.12554169,0.38175917,2.41674638,0.00000000,0.00000000
-0.20991895,-2.15897655,-0.60151213,-0.06172965,1.70968986,0.00000000,0.00000000,-0.08832533,2.07112598,1.13699639,0.39951575,2.41687155,0.00000000,0.00000000
-0.18992944,-2.16338015,-0.59825146,-0.06331212,1.73165381,0.00000000,0.00000000,-0.06625573,2.06672144,1.14793169,0.41855621,2.42108107,0.00000000,0.00000000
-0.17015333,-2.16724730,-0.59489137,-0.06642606,1.75042880,0.00000000,0.00000000,-0.04366199,2.06449461,1.15802681,0.43794751,2.42467952,0.00000000,0.00000000
-0.15047701,-2.16942358,-0.59146309,-0.07053068,1.76936960,0.00000000,0.00000000,-0.02218502,2.06415129,1.16703379,0.45654589,2.42726469,0.00000000,0.00000000
-0.13106892,-2.16996717,-0.58802062,-0.07489983,1.77902961,0.00000000,0.00000000,-0.00328244,2.06512475,1.17479455,0.47316206,2.43244910,0.00000000,0.00000000
-0.11171593,-2.17000008,-0.58462143,-0.07841522,1.78379238,0.00000000,0.00000000,0.01181305,2.06697011,1.18116355,0.48674276,2.43999147,0.00000000,0.00000000
-0.09182505,-2.17000008,-0.58131945,-0.07973027,1.79285550,0.00000000,0.00000000,0.02205048,2.06953454,1.18596721,0.49647442,2.44696474,0.00000000,0.00000000
-0.07165932,-2.17000008,-0.57819766,-0.07787970,1.80333376,0.00000000,0.00000000,0.02696843,2.07264280,1.18913615,0.50193155,2.45506835,0.00000000,0.00000000
-0.05322111,-2.17000008,-0.57537758,-0.07289216,1.81757462,0.00000000,0.00000000,0.02750039,2.07572174,1.19090879,0.50334537,2.46101904,0.00000000,0.00000000
-0.03879608,-2.17000008,-0.57295233,-0.06539685,1.82983339,0.00000000,0.00000000,0.02543860,2.07791305,1.19173992,0.50139761,2.46732450,0.00000000,0.00000000
-0.02979217,-2.17000008,-0.57095534,-0.05604960,1.84967232,0.00000000,0.00000000,0.02225072,2.07845426,1.19204795,0.49677068,2.47368860,0.00000000,0.00000000
-0.02680150,-2.17000008,-0.56937832,-0.04537155,1.86632860,0.00000000,0.00000000,0.01889577,2.07699823,1.19209290,0.49011809,2.48135400,0.00000000,0.00000000
-0.02985900,-2.17000008,-0.56819069,-0.03371479,1.88318133,0.00000000,0.00000000,0.01600609,2.07376003,1.19194996,0.48213345,2.49020410,0.00000000,0.00000000
-0.03851241,-2.17000008,-0.56734765,-0.02132527,1.90058446,0.00000000,0.00000000,0.01368377,2.06949544,1.19149899,0.47338766,2.49642181,0.00000000,0.00000000
-0.05197801,-2.17000008,-0.56680018,-0.00857767,1.91469717,0.00000000,0.00000000,0.01130087,2.06523252,1.19048226,0.46413001,2.50133204,0.00000000,0.00000000
-0.06943673,-2.16992950,-0.56651038,0.00385719,1.92540574,0.00000000,0.00000000,0.00787433,2.06190062,1.18864441,0.45436859,2.50601768,0.00000000,0.00000000
-0.09018505,-2.16879916,-0.56646258,0.01510552,1.93220615,0.00000000,0.00000000,0.00252445,2.06009769,1.18583584,0.44402424,2.50786233,0.00000000,0.00000000
-0.11375769,-2.16454291,-0.56666154,0.02428699,1.93593156,0.00000000,0.00000000,-0.00538860,2.06009030,1.18202043,0.43298715,2.51153135,0.00000000,0.00000000
-0.13970073,-2.15746856,-0.56712508,0.03071488,1.93771517,0.00000000,0.00000000,-0.01641142,2.06186295,1.17724478,0.42105272,2.51349092,0.00000000,0.00000000
-0.16721174,-2.14913368,-0.56787837,0.03400795,1.94259131,0.00000000,0.00000000,-0.03106230,2.06519437,1.17161047,0.40791783,2.51756668,0.00000000,0.00000000
-0.19549179,-2.14089513,-0.56894040,0.03402973,1.95050764,0.00000000,0.00000000,-0.04961567,2.06989479,1.16524160,0.39338127,2.52415633,0.00000000,0.00000000
-0.22365525,-2.13367701,-0.57031363,0.03094338,1.95776784,0.00000000,0.00000000,-0.07190219,2.07598925,1.15826392,0.37753406,2.52369714,0.00000000,0.00000000
-0.25026354,-2.12803578,-0.57198513,0.02524465,1.96914113,0.00000000,0.00000000,-0.09720994,2.08346891,1.15086985,0.36076495,2.52594185,0.00000000,0.00000000
-0.27453303,-2.12445474,-0.57390881,0.01718781,1.97590005,0.00000000,0.00000000,-0.12387902,2.09204078,1.14339817,0.34390491,2.53143072,0.00000000,0.00000000
-0.29706615,-2.12316871,-0.57600021,0.00666038,1.97896159,0.00000000,0.00000000,-0.14948931,2.10160136,1.13620770,0.32827386,2.53777933,0.00000000,0.00000000
-0.31794998,-2.12393975,-0.57816058,-0.00606738,1.97939849,0.00000000,0.00000000,-0.17222348,2.11208224,1.12958097,0.31492576,2.54401422,0.00000000,0.00000000
-0.33643210,-2.12650514,-0.58027846,-0.02044589,1.97867656,0.00000000,0.00000000,-0.19151688,2.12297297,1.12375259,0.30414557,2.54616737,0.00000000,0.00000000
-0.35169166,-2.13070107,-0.58222574,-0.03597738,1.97803366,0.00000000,0.00000000,-0.20757580,2.13344622,1.11892450,0.29570702,2.55012155,0.00000000,0.00000000
-0.36305785,-2.13632154,-0.58386213,-0.05222924,1.97096407,0.00000000,0.00000000,-0.22079685,2.14258528,1.11527383,0.28921905,2.54841948,0.00000000,0.00000000
-0.37007633,-2.14301896,-0.58504558,-0.06878334,1.96380496,0.00000000,0.00000000,-0.23146923,2.14957476,1.11295033,0.28432924,2.53803062,0.00000000,0.00000000
-0.37258291,-2.15024257,-0.58564609,-0.08521093,1.95152080,0.00000000,0.00000000,-0.23968755,2.15388632,1.11205959,0.28083432,2.52975774,0.00000000,0.00000000
-0.37064499,-2.15726757,-0.58555484,-0.10108367,1.93758762,0.00000000,0.00000000,-0.24534300,2.15541434,1.11264789,0.27874246,2.52246976,0.00000000,0.00000000
-0.36441800,-2.16331267,-0.58468568,-0.11601570,1.92430615,0.00000000,0.00000000,-0.24808529,2.15446568,1.11470997,0.27830634,2.51560688,0.00000000,0.00000000
-0.35414019,-2.16757011,-0.58298188,-0.12969176,1.90945303,0.00000000,0.00000000,-0.24733545,2.15157485,1.11821687,0.27997315,2.51179051,0.00000000,0.00000000
-0.34038687,-2.16954231,-0.58044875,-0.14182734,1.89515996,0.00000000,0.00000000,-0.24252242,2.14727068,1.12312973,0.28419748,2.50550461,0.00000000,0.00000000
-0.32435584,-2.16997480,-0.57719958,-0.15204930,1.87051153,0.00000000,0.00000000,-0.23348622,2.14199471,1.12937737,0.29119241,2.49923539,0.00000000,0.00000000
-0.30774778,-2.17000008,-0.57345825,-0.15981084,1.84780979,0.00000000,0.00000000,-0.22066407,2.13615036,1.13682580,0.30081326,2.49060392,0.00000000,0.00000000
-0.29215619,-2.17000008,-0.56947893,-0.16448492,1.82328284,0.00000000,0.00000000,-0.20482099,2.13006735,1.14530039,0.31265023,2.48910975,0.00000000,0.00000000
-0.27839240,-2.17000008,-0.56543338,-0.16557840,1.80561721,0.00000000,0.00000000,-0.18664405,2.12388682,1.15463793,0.32619569,2.48834872,0.00000000,0.00000000
-0.26625255,-2.17000008,-0.56135225,-0.16290110,1.78585887,0.00000000,0.00000000,-0.16655725,2.11761856,1.16469860,0.34097868,2.48742962,0.00000000,0.00000000
-0.25480303,-2.17000008,-0.55715424,-0.15657735,1.76153326,0.00000000,0.00000000,-0.14475659,2.11140442,1.17532516,0.35666814,2.48720360,0.00000000,0.00000000
-0.24286023,-2.17000008,-0.55272275,-0.14692149,1.73835707,0.00000000,0.00000000,-0.12140352,2.10575938,1.18628061,0.37308553,2.48973346,0.00000000,0.00000000
-0.23044966,-2.17000008,-0.54803407,-0.13475306,1.70842814,0.00000000,0.00000000,-0.09683996,2.10151577,1.19723403,0.39010045,2.49468136,0.00000000,0.00000000
-0.21970716,-2.17000008,-0.54320830,-0.12178311,1.68569267,0.00000000,0.00000000,-0.07167069,2.09929681,1.20785785,0.40745166,2.49675536,0.00000000,0.00000000
-0.21096118,-2.17000008,-0.53826249,-0.10909718,1.65741110,0.00000000,0.00000000,-0.04667175,2.09913898,1.21792293,0.42470887,2.49740410,0.00000000,0.00000000
-0.20266873,-2.17000008,-0.53314108,-0.09687756,1.62362516,0.00000000,0.00000000,-0.02270469,2.10090518,1.22722137,0.44139460,2.49554086,0.00000000,0.00000000
-0.19289529,-2.17000008,-0.52780592,-0.08502258,1.58699095,0.00000000,0.00000000,-0.00072588,2.10450935,1.23552048,0.45700458,2.49512386,0.00000000,0.00000000
-0.17953596,-2.17000008,-0.52224964,-0.07325775,1.55012929,0.00000000,0.00000000,0.01851901,2.11006594,1.24255645,0.47120586,2.49372530,0.00000000,0.00000000
-0.16086201,-2.17000008,-0.51651335,-0.06129903,1.51510441,0.00000000,0.00000000,0.03494292,2.11789632,1.24807668,0.48408005,2.49499965,0.00000000,0.00000000
-0.13736340,-2.17000008,-0.51072210,-0.04960866,1.48322523,0.00000000,0.00000000,0.04920229,2.12798834,1.25200009,0.49603674,2.49725652,0.00000000,0.00000000
-0.11244755,-2.17000008,-0.50506693,-0.03963213,1.45105970,0.00000000,0.00000000,0.06180351,2.13940763,1.25451624,0.50722235,2.50359273,0.00000000,0.00000000
-0.08921452,-2.17000008,-0.49970338,-0.03247278,1.42040110,0.00000000,0.00000000,0.07193371,2.15066934,1.25588298,0.51702440,2.50947762,0.00000000,0.00000000
-0.06853494,-2.17000008,-0.49471298,-0.02830729,1.39337003,0.00000000,0.00000000,0.07870070,2.16029620,1.25637496,0.52484292,2.51245666,0.00000000,0.00000000
-0.05025321,-2.17000008,-0.49014169,-0.02685066,1.36165345,0.00000000,0.00000000,0.08203840,2.16678834,1.25637758,0.53053588,2.51652670,0.00000000,0.00000000
-0.03404608,-2.17000008,-0.48602331,-0.02759849,1.32979167,0.00000000,0.00000000,0.08252516,2.16945815,1.25639725,0.53428102,2.52036023,0.00000000,0.00000000
-0.01964321,-2.17000008,-0.48238814,-0.02979955,1.29639828,0.00000000,0.00000000,0.08102590,2.16997194,1.25695312,0.53641874,2.53175688,0.00000000,0.00000000
-0.00689378,-2.17000008,-0.47926840,-0.03244434,1.26250994,0.00000000,0.00000000,0.07831006,2.17000008,1.25841951,0.53732693,2.54014754,0.00000000,0.00000000
0.00421619,-2.17000008,-0.47669983,-0.03447818,1.23000932,0.00000000,0.00000000,0.07486816,2.17000008,1.26095521,0.53736264,2.54803133,0.00000000,0.00000000
0.01353818,-2.17000008,-0.47471869,-0.03516875,1.20325065,0.00000000,0.00000000,0.07100790,2.17000008,1.26455879,0.53688014,2.55390811,0.00000000,0.00000000
0.02070096,-2.17000008,-0.47335902,-0.03432219,1.17859793,0.00000000,0.00000000,0.06696299,2.17000008,1.26909971,0.53626436,2.55694032,0.00000000,0.00000000
0.02507129,-2.17000008,-0.47265258,-0.03216133,1.15290987,0.00000000,0.00000000,0.06298286,2.17000008,1.27434504,0.53595757,2.55985856,0.00000000,0.00000000
0.02585648,-2.17000008,-0.47262788,-0.02905694,1.12642670,0.00000000,0.00000000,0.05948650,2.17000008,1.28007972,0.53644013,2.56501794,0.00000000,0.00000000
0.02237977,-2.17000008,-0.47330555,-0.02541007,1.10198760,0.00000000,0.00000000,0.05699880,2.17000008,1.28624010,0.53805465,2.57312155,0.00000000,0.00000000
0.01430999,-2.17000008,-0.47469616,-0.02167381,1.07333863,0.00000000,0.00000000,0.05570853,2.17000008,1.29287040,0.54075456,2.58900833,0.00000000,0.00000000
0.00169212,-2.17000008,-0.47680426,-0.01834362,1.04754329,0.00000000,0.00000000,0.05511420,2.17000008,1.29996502,0.54405195,2.60144544,0.00000000,0.00000000
-0.01515205,-2.17000008,-0.47963402,-0.01585347,1.02495933,0.00000000,0.00000000,0.05413461,2.17000008,1.30742490,0.54718363,2.61106014,0.00000000,0.00000000
-0.03560501,-2.17000008,-0.48319057,-0.01446819,1.00559664,0.00000000,0.00000000,0.05136614,2.17000008,1.31515145,0.54922950,2.61955500,0.00000000,0.00000000
-0.05857958,-2.17000008,-0.48747692,-0.01424714,0.98854637,0.00000000,0.00000000,0.04501868,2.16999388,1.32303679,0.54906976,2.62724018,0.00000000,0.00000000
-0.08244225,-2.17000008,-0.49249125,-0.01503280,0.96436173,0.00000000,0.00000000,0.03297138,2.16985941,1.33077872,0.54553533,2.63773370,0.00000000,0.00000000
-0.10551642,-2.17000008,-0.49822751,-0.01663832,0.95102018,0.00000000,0.00000000,0.01475014,2.16892862,1.33798373,0.53853995,2.64903474,0.00000000,0.00000000
-0.12699679,-2.17000008,-0.50468051,-0.01912815,0.93720347,0.00000000,0.00000000,-0.00599092,2.16628051,1.34457302,0.53031927,2.66238928,0.00000000,0.00000000
-0.14650019,-2.17000008,-0.51184523,-0.02240342,0.92064959,0.00000000,0.00000000,-0.02458701,2.16240501,1.35062408,0.52367294,2.67010546,0.00000000,0.00000000
-0.16324303,-2.17000008,-0.51970959,-0.02600508,0.90260673,0.00000000,0.00000000,-0.03888365,2.15828872,1.35609221,0.51995736,2.67731833,0.00000000,0.00000000
-0.17623954,-2.16998577,-0.52825433,-0.02948395,0.88102043,0.00000000,0.00000000,-0.04855186,2.15464926,1.36087298,0.51942438,2.68322921,0.00000000,0.00000000
-0.18448633,-2.16974187,-0.53745341,-0.03260528,0.86582738,0.00000000,0.00000000,-0.05382139,2.15183592,1.36490428,0.52188891,2.68621469,0.00000000,0.00000000
-0.18697441,-2.16863656,-0.54727268,-0.03542824,0.84601319,0.00000000,0.00000000,-0.05498442,2.14976811,1.36821449,0.52696621,2.68745041,0.00000000,0.00000000
-0.18323888,-2.16651154,-0.55767882,-0.03842770,0.83137780,0.00000000,0.00000000,-0.05215098,2.14811802,1.37088847,0.53425932,2.68147087,0.00000000,0.00000000
-0.17378335,-2.16456175,-0.56864882,-0.04246467,0.81424141,0.00000000,0.00000000,-0.04538636,2.14666939,1.37295699,0.54339361,2.67346191,0.00000000,0.00000000
-0.15985686,-2.16412997,-0.58016866,-0.04851125,0.79790872,0.00000000,0.00000000,-0.03491027,2.14548683,1.37433267,0.55398315,2.66953540,0.00000000,0.00000000
-0.14303082,-2.16566491,-0.59223390,-0.05724009,0.78880477,0.00000000,0.00000000,-0.02122227,2.14484787,1.37482202,0.56556773,2.66435552,0.00000000,0.00000000
-0.12538362,-2.16811371,-0.60487723,-0.06876798,0.77860445,0.00000000,0.00000000,-0.00512208,2.14507985,1.37417459,0.57755178,2.65604210,0.00000000,0.00000000
-0.11007108,-2.16961765,-0.61821198,-0.08281921,0.76828861,0.00000000,0.00000000,0.01256193,2.14635324,1.37217832,0.58928263,2.65222692,0.00000000,0.00000000
-0.09954408,-2.16997862,-0.63237691,-0.09864365,0.76154357,0.00000000,0.00000000,0.03090834,2.14858103,1.36870110,0.60001224,2.64514017,0.00000000,0.00000000
-0.09415321,-2.17000008,-0.64746505,-0.11490692,0.75391042,0.00000000,0.00000000,0.04855769,2.15163398,1.36359763,0.60881108,2.63737988,0.00000000,0.00000000
-0.09343254,-2.17000008,-0.66352022,-0.13056727,0.74745625,0.00000000,0.00000000,0.06425489,2.15519857,1.35680568,0.61485422,2.62432408,0.00000000,0.00000000
-0.09658081,-2.16994905,-0.68051249,-0.14514898,0.73841602,0.00000000,0.00000000,0.07707246,2.15865946,1.34841001,0.61748302,2.61199093,0.00000000,0.00000000
-0.10231224,-2.16910529,-0.69829983,-0.15859641,0.72815716,0.00000000,0.00000000,0.08638372,2.16123056,1.33859909,0.61616337,2.59998536,0.00000000,0.00000000
-0.10902029,-2.16555452,-0.71663499,-0.17112020,0.71339709,0.00000000,0.00000000,0.09186953,2.16216803,1.32759166,0.61051583,2.59129310,0.00000000,0.00000000
-0.11511086,-2.15860820,-0.73522770,-0.18294321,0.69632393,0.00000000,0.00000000,0.09350165,2.16086173,1.31560373,0.60035306,2.57801509,0.00000000,0.00000000
-0.11916141,-2.14939451,-0.75379610,-0.19414701,0.67721623,0.00000000,0.00000000,0.09145840,2.15677714,1.30286288,0.58566350,2.56121111,0.00000000,0.00000000
-0.12019964,-2.13931894,-0.77209985,-0.20481825,0.65826863,0.00000000,0.00000000,0.08601887,2.14945102,1.28959870,0.56657737,2.54801702,0.00000000,0.00000000
-0.11820910,-2.12956691,-0.78998411,-0.21531223,0.63891077,0.00000000,0.00000000,0.07758373,2.13872766,1.27596378,0.54343218,2.53034329,0.00000000,0.00000000
-0.11403696,-2.12115026,-0.80737543,-0.22623385,0.62095511,0.00000000,0.00000000,0.06687015,2.12501621,1.26197958,0.51692790,2.51686740,0.00000000,0.00000000
-0.10881281,-2.11482859,-0.82424128,-0.23817915,0.60460925,0.00000000,0.00000000,0.05479723,2.10911298,1.24759912,0.48801804,2.50695896,0.00000000,0.00000000
-0.10358053,-2.11092067,-0.84057665,-0.25150743,0.58672386,0.00000000,0.00000000,0.04203522,2.09185100,1.23278177,0.45756403,2.49450684,0.00000000,0.00000000
-0.09913102,-2.10930324,-0.85639107,-0.26624501,0.56887472,0.00000000,0.00000000,0.02871258,2.07400274,1.21749485,0.42612660,2.47487879,0.00000000,0.00000000
-0.09596837,-2.10971332,-0.87167543,-0.28217098,0.55239332,0.00000000,0.00000000,0.01451487,2.05644894,1.20168018,0.39405981,2.45706725,0.00000000,0.00000000
-0.09436186,-2.11197782,-0.88638240,-0.29898119,0.53878748,0.00000000,0.00000000,-0.00090666,2.04033780,1.18526053,0.36178645,2.43973374,0.00000000,0.00000000
-0.09437930,-2.11584163,-0.90045476,-0.31634697,0.52626032,0.00000000,0.00000000,-0.01757122,2.02702045,1.16819036,0.32996729,2.42273688,0.00000000,0.00000000
-0.09592962,-2.12067747,-0.91387570,-0.33387429,0.50944978,0.00000000,0.00000000,-0.03518185,2.01782012,1.15049648,0.29940841,2.40691924,0.00000000,0.00000000
-0.09879804,-2.12554312,-0.92667389,-0.35106507,0.49165457,0.00000000,0.00000000,-0.05334140,2.01379395,1.13228571,0.27088687,2.38785887,0.00000000,0.00000000
-0.10269771,-2.12950873,-0.93888521,-0.36734799,0.47186407,0.00000000,0.00000000,-0.07155045,2.01562619,1.11373603,0.24515797,2.36873817,0.00000000,0.00000000
-0.10728960,-2.13194203,-0.95050722,-0.38218516,0.45167729,0.00000000,0.00000000,-0.08909145,2.02356458,1.09508526,0.22300151,2.34865236,0.00000000,0.00000000
-0.11208737,-2.13259649,-0.96146613,-0.39516112,0.42832744,0.00000000,0.00000000,-0.10505655,2.03731179,1.07661152,0.20511538,2.32771230,0.00000000,0.00000000
-0.11636116,-2.13154864,-0.97160745,-0.40597728,0.40897602,0.00000000,0.00000000,-0.11853778,2.05592370,1.05860662,0.19192469,2.30767393,0.00000000,0.00000000
-0.11935036,-2.12908125,-0.98073882,-0.41442627,0.39340881,0.00000000,0.00000000,-0.12881504,2.07787013,1.04134738,0.18349449,2.28996491,0.00000000,0.00000000
-0.12061154,-2.12554336,-0.98870349,-0.42037380,0.37767842,0.00000000,0.00000000,-0.13548362,2.10126638,1.02506959,0.17953800,2.27179551,0.00000000,0.00000000
-0.12010686,-2.12133741,-0.99540102,-0.42378247,0.36513507,0.00000000,0.00000000,-0.13851161,2.12408400,1.00995636,0.17942570,2.25248671,0.00000000,0.00000000
-0.11799484,-2.11706495,-1.00073504,-0.42478776,0.35061523,0.00000000,0.00000000,-0.13820302,2.14421749,0.99614757,0.18220219,2.23581886,0.00000000,0.00000000
-0.11439997,-2.11353993,-1.00457656,-0.42372403,0.33535525,0.00000000,0.00000000,-0.13503678,2.15943933,0.98376691,0.18667217,2.22156906,0.00000000,0.00000000
-0.10949896,-2.11153221,-1.00682330,-0.42107192,0.32134789,0.00000000,0.00000000,-0.12942651,2.16776609,0.97296005,0.19153048,2.21232867,0.00000000,0.00000000
-0.10386462,-2.11143875,-1.00751150,-0.41738978,0.30517310,0.00000000,0.00000000,-0.12155983,2.16987085,0.96390641,0.19549547,2.20441389,0.00000000,0.00000000
-0.09862033,-2.11313343,-1.00686324,-0.41326165,0.29229102,0.00000000,0.00000000,-0.11145100,2.17000008,0.95673448,0.19761528,2.19151211,0.00000000,0.00000000
-0.09503993,-2.11606693,-1.00520515,-0.40918362,0.27469999,0.00000000,0.00000000,-0.09915736,2.16994190,0.95137107,0.19771254,2.17446375,0.00000000,0.00000000
-0.09373800,-2.11943722,-1.00282347,-0.40530658,0.25691390,0.00000000,0.00000000,-0.08508682,2.16902089,0.94749737,0.19639996,2.15736556,0.00000000,0.00000000
-0.09443389,-2.12248707,-0.99987328,-0.40142021,0.24269676,0.00000000,0.00000000,-0.07002392,2.16564965,0.94469261,0.19456625,2.13693452,0.00000000,0.00000000
-0.09671559,-2.12489724,-0.99640208,-0.39739779,0.22153844,0.00000000,0.00000000,-0.05482947,2.16038203,0.94262290,0.19280876,2.11651969,0.00000000,0.00000000
-0.10020506,-2.12663603,-0.99240422,-0.39319313,0.19987226,0.00000000,0.00000000,-0.04028124,2.15470743,0.94105518,0.19138996,2.09400439,0.00000000,0.00000000
-0.10440820,-2.12781334,-0.98783201,-0.38873261,0.17692164,0.00000000,0.00000000,-0.02692343,2.14972258,0.93983853,0.19038521,2.07355332,0.00000000,0.00000000
-0.10867970,-2.12859178,-0.98261064,-0.38388249,0.15560484,0.00000000,0.00000000,-0.01514578,2.14602852,0.93888050,0.18972798,2.05698371,0.00000000,0.00000000
-0.11241964,-2.12899494,-0.97669995,-0.37846515,0.13432041,0.00000000,0.00000000,-0.00525565,2.14413166,0.93810046,0.18935443,2.03925157,0.00000000,0.00000000
-0.11536975,-2.12916350,-0.97008318,-0.37248033,0.11530849,0.00000000,0.00000000,0.00272127,2.14421964,0.93746322,0.18921050,2.01973605,0.00000000,0.00000000
-0.11741685,-2.12936187,-0.96274179,-0.36603230,0.10033289,0.00000000,0.00000000,0.00907651,2.14618969,0.93697882,0.18928133,2.00385284,0.00000000,0.00000000
