isaac-sim2real/sage/motion_files/wr75s/amass/0-Eyes_Japan_Dataset_hamada_walk-18-shuffle forward-hamada_poses_idx49.txt
l_joint1,l_joint2,l_joint3,l_joint4,l_joint5,l_joint6,l_joint7,r_joint1,r_joint2,r_joint3,r_joint4,r_joint5,r_joint6,r_joint7
-0.74970442,-1.13105893,0.19895492,0.39631128,0.01588623,0.00000000,0.00000000,-1.73981404,0.81216633,0.13541898,-0.20007503,0.00457822,0.00000000,0.00000000
-0.74941784,-1.13134956,0.19889317,0.39630827,0.00999682,0.00000000,0.00000000,-1.73982573,0.81228387,0.13528351,-0.19992548,0.01230114,0.00000000,0.00000000
-0.74887067,-1.13193071,0.19879763,0.39628178,0.00332337,0.00000000,0.00000000,-1.73985410,0.81249338,0.13501212,-0.19964607,0.02481014,0.00000000,0.00000000
-0.74808347,-1.13281059,0.19870168,0.39620829,-0.00334975,0.00000000,0.00000000,-1.73990428,0.81274140,0.13459353,-0.19927107,0.03764060,0.00000000,0.00000000
-0.74710637,-1.13393724,0.19867469,0.39611864,-0.01233623,0.00000000,0.00000000,-1.73996937,0.81287909,0.13402933,-0.19889747,0.04827857,0.00000000,0.00000000
-0.74601781,-1.13513088,0.19880435,0.39612231,-0.01924109,0.00000000,0.00000000,-1.74002361,0.81279856,0.13334048,-0.19860737,0.05383306,0.00000000,0.00000000
-0.74488980,-1.13619781,0.19916549,0.39631402,-0.02936036,0.00000000,0.00000000,-1.74002981,0.81247526,0.13255547,-0.19845346,0.05750266,0.00000000,0.00000000
-0.74377501,-1.13699567,0.19982484,0.39676049,-0.03763281,0.00000000,0.00000000,-1.73994482,0.81188828,0.13170445,-0.19850914,0.05908907,0.00000000,0.00000000
-0.74270076,-1.13743877,0.20082894,0.39749315,-0.04537017,0.00000000,0.00000000,-1.73972023,0.81104720,0.13081741,-0.19882344,0.06088773,0.00000000,0.00000000
-0.74166870,-1.13747358,0.20218372,0.39851007,-0.05500888,0.00000000,0.00000000,-1.73930848,0.81006473,0.12991610,-0.19936247,0.06177271,0.00000000,0.00000000
-0.74066287,-1.13708270,0.20386891,0.39980012,-0.06562247,0.00000000,0.00000000,-1.73866796,0.80908877,0.12900895,-0.20006581,0.06383061,0.00000000,0.00000000
-0.73964405,-1.13637221,0.20585154,0.40132549,-0.07777087,0.00000000,0.00000000,-1.73776567,0.80818594,0.12809117,-0.20090945,0.07055824,0.00000000,0.00000000
-0.73853767,-1.13554752,0.20807192,0.40300131,-0.09168565,0.00000000,0.00000000,-1.73657632,0.80741417,0.12714538,-0.20188285,0.07487201,0.00000000,0.00000000
-0.73725897,-1.13481259,0.21045588,0.40472323,-0.10512219,0.00000000,0.00000000,-1.73508203,0.80687463,0.12614474,-0.20295078,0.07922322,0.00000000,0.00000000
-0.73573947,-1.13434672,0.21292996,0.40638831,-0.11721548,0.00000000,0.00000000,-1.73328054,0.80665118,0.12504224,-0.20408757,0.08271768,0.00000000,0.00000000
-0.73392487,-1.13427925,0.21541479,0.40788060,-0.13059752,0.00000000,0.00000000,-1.73118472,0.80682236,0.12377343,-0.20528655,0.08849790,0.00000000,0.00000000
-0.73178369,-1.13470149,0.21786080,0.40911010,-0.14235392,0.00000000,0.00000000,-1.72879589,0.80739880,0.12228801,-0.20656535,0.09630558,0.00000000,0.00000000
-0.72931552,-1.13569605,0.22027889,0.41001502,-0.15745206,0.00000000,0.00000000,-1.72609067,0.80829209,0.12056372,-0.20797464,0.10412599,0.00000000,0.00000000
-0.72656238,-1.13717806,0.22272758,0.41064510,-0.16785125,0.00000000,0.00000000,-1.72301686,0.80941868,0.11861247,-0.20957616,0.11571212,0.00000000,0.00000000
-0.72359765,-1.13888383,0.22528942,0.41115591,-0.18309945,0.00000000,0.00000000,-1.71949887,0.81079119,0.11647104,-0.21139447,0.13129961,0.00000000,0.00000000
-0.72051203,-1.14054751,0.22807221,0.41167745,-0.19597144,0.00000000,0.00000000,-1.71545660,0.81241524,0.11418187,-0.21344104,0.15437321,0.00000000,0.00000000
-0.71738237,-1.14198720,0.23117606,0.41226858,-0.20741507,0.00000000,0.00000000,-1.71081352,0.81428379,0.11178293,-0.21572064,0.17676322,0.00000000,0.00000000
-0.71426225,-1.14297998,0.23465283,0.41301399,-0.21352372,0.00000000,0.00000000,-1.70550048,0.81648880,0.10930329,-0.21819790,0.19883031,0.00000000,0.00000000
-0.71118873,-1.14329135,0.23850575,0.41400298,-0.21802974,0.00000000,0.00000000,-1.69946730,0.81916624,0.10675076,-0.22082774,0.22388430,0.00000000,0.00000000
-0.70818108,-1.14291406,0.24272336,0.41522112,-0.21743232,0.00000000,0.00000000,-1.69268799,0.82227236,0.10410625,-0.22365482,0.24595019,0.00000000,0.00000000
-0.70524228,-1.14200020,0.24729638,0.41657269,-0.21527281,0.00000000,0.00000000,-1.68514752,0.82563335,0.10133886,-0.22677937,0.26354462,0.00000000,0.00000000
-0.70236546,-1.14065182,0.25220993,0.41796792,-0.20362382,0.00000000,0.00000000,-1.67683077,0.82912040,0.09841803,-0.23028053,0.27530879,0.00000000,0.00000000
-0.69950134,-1.13913381,0.25741908,0.41932517,-0.19873358,0.00000000,0.00000000,-1.66773403,0.83269066,0.09529331,-0.23421352,0.28828427,0.00000000,0.00000000
-0.69652468,-1.13814151,0.26283431,0.42053211,-0.19706430,0.00000000,0.00000000,-1.65787971,0.83639687,0.09187310,-0.23856786,0.30415323,0.00000000,0.00000000
-0.69341183,-1.13781822,0.26844126,0.42163095,-0.19111115,0.00000000,0.00000000,-1.64723885,0.84026897,0.08813731,-0.24334708,0.31389996,0.00000000,0.00000000
-0.69021422,-1.13802230,0.27427694,0.42267790,-0.18614124,0.00000000,0.00000000,-1.63575435,0.84428114,0.08410840,-0.24858506,0.32325965,0.00000000,0.00000000
-0.68700665,-1.13856947,0.28037053,0.42374557,-0.17844251,0.00000000,0.00000000,-1.62336254,0.84837544,0.07982075,-0.25432345,0.32792619,0.00000000,0.00000000
-0.68385583,-1.13926244,0.28673339,0.42492265,-0.16999269,0.00000000,0.00000000,-1.61000311,0.85252333,0.07530507,-0.26060614,0.33406192,0.00000000,0.00000000
-0.68081754,-1.13995433,0.29339027,0.42627853,-0.16175075,0.00000000,0.00000000,-1.59562063,0.85669351,0.07058660,-0.26749203,0.33629742,0.00000000,0.00000000
-0.67795962,-1.14046228,0.30036616,0.42789873,-0.15220337,0.00000000,0.00000000,-1.58015394,0.86084068,0.06570172,-0.27503192,0.34005928,0.00000000,0.00000000
-0.67533886,-1.14059365,0.30763915,0.42985797,-0.14177848,0.00000000,0.00000000,-1.56354702,0.86500263,0.06067998,-0.28320253,0.34774354,0.00000000,0.00000000
-0.67295754,-1.14029586,0.31511876,0.43214121,-0.13111542,0.00000000,0.00000000,-1.54576945,0.86937201,0.05550523,-0.29187578,0.35749707,0.00000000,0.00000000
-0.67078543,-1.13969982,0.32267892,0.43465510,-0.12502646,0.00000000,0.00000000,-1.52682304,0.87415248,0.05011072,-0.30090484,0.37048745,0.00000000,0.00000000
-0.66880250,-1.13901794,0.33019933,0.43731168,-0.12108799,0.00000000,0.00000000,-1.50671971,0.87945247,0.04442152,-0.31019023,0.38658378,0.00000000,0.00000000
-0.66697776,-1.13846982,0.33758709,0.44002941,-0.11731289,0.00000000,0.00000000,-1.48546410,0.88534582,0.03839069,-0.31965959,0.40561974,0.00000000,0.00000000
-0.66525042,-1.13830447,0.34477678,0.44268537,-0.11062939,0.00000000,0.00000000,-1.46305251,0.89188057,0.03200394,-0.32928398,0.42536166,0.00000000,0.00000000
-0.66356844,-1.13877463,0.35170063,0.44518444,-0.09593977,0.00000000,0.00000000,-1.43947721,0.89906764,0.02527890,-0.33906066,0.44021997,0.00000000,0.00000000
-0.66193426,-1.14008629,0.35829580,0.44745070,-0.07862630,0.00000000,0.00000000,-1.41473126,0.90679961,0.01825923,-0.34903848,0.45850599,0.00000000,0.00000000
-0.66036069,-1.14233160,0.36454219,0.44940504,-0.06227474,0.00000000,0.00000000,-1.38880289,0.91496110,0.01102934,-0.35926303,0.47896370,0.00000000,0.00000000
-0.65883350,-1.14544225,0.37045169,0.45102936,-0.04513391,0.00000000,0.00000000,-1.36167932,0.92358041,0.00371488,-0.36964071,0.50363791,0.00000000,0.00000000
-0.65737736,-1.14918375,0.37604988,0.45238993,-0.02635338,0.00000000,0.00000000,-1.33335364,0.93268222,-0.00352325,-0.38000622,0.53004467,0.00000000,0.00000000
-0.65605479,-1.15322220,0.38139293,0.45363832,-0.00442137,0.00000000,0.00000000,-1.30382955,0.94217974,-0.01049731,-0.39024130,0.55139130,0.00000000,0.00000000
-0.65494883,-1.15711164,0.38656959,0.45500898,0.02017880,0.00000000,0.00000000,-1.27312148,0.95184708,-0.01699059,-0.40033138,0.56965369,0.00000000,0.00000000
-0.65413839,-1.16036344,0.39163914,0.45671669,0.04762316,0.00000000,0.00000000,-1.24126613,0.96143520,-0.02280418,-0.41031089,0.58590168,0.00000000,0.00000000
-0.65363765,-1.16272581,0.39662075,0.45881400,0.07409045,0.00000000,0.00000000,-1.20834112,0.97077149,-0.02782856,-0.42019227,0.59930724,0.00000000,0.00000000
-0.65341115,-1.16422617,0.40152898,0.46126258,0.09942492,0.00000000,0.00000000,-1.17446184,0.97968531,-0.03206366,-0.42998818,0.60926163,0.00000000,0.00000000
-0.65337497,-1.16506147,0.40635487,0.46398461,0.12604614,0.00000000,0.00000000,-1.13977396,0.98813963,-0.03561348,-0.43963030,0.62218183,0.00000000,0.00000000
-0.65342027,-1.16555083,0.41105774,0.46684062,0.15138949,0.00000000,0.00000000,-1.10444045,0.99622488,-0.03865680,-0.44897538,0.63268971,0.00000000,0.00000000
-0.65344417,-1.16606510,0.41556737,0.46963277,0.17387767,0.00000000,0.00000000,-1.06862366,1.00405097,-0.04138462,-0.45787758,0.63640159,0.00000000,0.00000000
-0.65334201,-1.16689491,0.41978800,0.47218704,0.19770832,0.00000000,0.00000000,-1.03247416,1.01179886,-0.04395168,-0.46617767,0.63687944,0.00000000,0.00000000
-0.65300512,-1.16814375,0.42362311,0.47443306,0.22594973,0.00000000,0.00000000,-0.99612975,1.01970613,-0.04643753,-0.47370890,0.63696760,0.00000000,0.00000000
-0.65245980,-1.16965425,0.42698276,0.47648513,0.24813820,0.00000000,0.00000000,-0.95971853,1.02767789,-0.04883446,-0.48046646,0.64452606,0.00000000,0.00000000
-0.65181243,-1.17120254,0.42981672,0.47858086,0.27447557,0.00000000,0.00000000,-0.92337471,1.03532922,-0.05109987,-0.48656648,0.65061742,0.00000000,0.00000000
-0.65105742,-1.17277372,0.43213016,0.48086837,0.30023128,0.00000000,0.00000000,-0.88723844,1.04236126,-0.05319670,-0.49206373,0.65470314,0.00000000,0.00000000
-0.65009516,-1.17453945,0.43394533,0.48329264,0.32778400,0.00000000,0.00000000,-0.85144907,1.04863811,-0.05511200,-0.49694028,0.66376197,0.00000000,0.00000000
-0.64879245,-1.17675495,0.43525124,0.48565146,0.36024302,0.00000000,0.00000000,-0.81614017,1.05417359,-0.05686226,-0.50114286,0.67251956,0.00000000,0.00000000
-0.64702159,-1.17972803,0.43601105,0.48771378,0.38880336,0.00000000,0.00000000,-0.78144008,1.05904722,-0.05850067,-0.50460678,0.68539482,0.00000000,0.00000000
-0.64469749,-1.18363965,0.43617901,0.48933566,0.42020535,0.00000000,0.00000000,-0.74746329,1.06330478,-0.06006406,-0.50728178,0.69384593,0.00000000,0.00000000
-0.64179450,-1.18838954,0.43569216,0.49051237,0.45095840,0.00000000,0.00000000,-0.71429807,1.06696486,-0.06152885,-0.50914860,0.70608336,0.00000000,0.00000000
-0.63835067,-1.19356787,0.43448892,0.49140877,0.47956884,0.00000000,0.00000000,-0.68200964,1.07002354,-0.06282733,-0.51021600,0.72282273,0.00000000,0.00000000
-0.63445753,-1.19864130,0.43256134,0.49232689,0.50332344,0.00000000,0.00000000,-0.65063828,1.07242155,-0.06390068,-0.51050675,0.74183303,0.00000000,0.00000000
-0.63022733,-1.20310175,0.42995828,0.49360046,0.52708715,0.00000000,0.00000000,-0.62018025,1.07404792,-0.06469057,-0.51009625,0.76054668,0.00000000,0.00000000
-0.62576634,-1.20647991,0.42675734,0.49555939,0.55132580,0.00000000,0.00000000,-0.59056902,1.07475603,-0.06509129,-0.50908834,0.77517247,0.00000000,0.00000000
-0.62114990,-1.20861506,0.42302316,0.49844176,0.57671112,0.00000000,0.00000000,-0.56165826,1.07450128,-0.06499122,-0.50754124,0.78835756,0.00000000,0.00000000
-0.61639148,-1.20967460,0.41882288,0.50228947,0.60268444,0.00000000,0.00000000,-0.53322440,1.07334614,-0.06425077,-0.50546354,0.79670542,0.00000000,0.00000000
-0.61141640,-1.20986223,0.41420496,0.50701112,0.62579322,0.00000000,0.00000000,-0.50500596,1.07148564,-0.06264088,-0.50279772,0.80748069,0.00000000,0.00000000
-0.60614425,-1.20953965,0.40920088,0.51245439,0.64408928,0.00000000,0.00000000,-0.47667152,1.06918132,-0.05988220,-0.49944809,0.82037228,0.00000000,0.00000000
-0.60055143,-1.20919263,0.40385491,0.51848286,0.66136569,0.00000000,0.00000000,-0.44783863,1.06670642,-0.05569835,-0.49525917,0.82813358,0.00000000,0.00000000
-0.59465748,-1.20923388,0.39823580,0.52507639,0.67908359,0.00000000,0.00000000,-0.41808361,1.06433475,-0.04976467,-0.48995894,0.83053690,0.00000000,0.00000000
-0.58848995,-1.21035445,0.39250502,0.53217846,0.69292969,0.00000000,0.00000000,-0.38684532,1.06238890,-0.04167506,-0.48320583,0.83385152,0.00000000,0.00000000
-0.58203435,-1.21343255,0.38682511,0.53955877,0.70400643,0.00000000,0.00000000,-0.35353047,1.06141257,-0.03098065,-0.47457588,0.83971637,0.00000000,0.00000000
-0.57523632,-1.21917772,0.38122261,0.54690659,0.71124500,0.00000000,0.00000000,-0.31768551,1.06221163,-0.01724331,-0.46353871,0.84608245,0.00000000,0.00000000
-0.56802934,-1.22836900,0.37563354,0.55379266,0.71795630,0.00000000,0.00000000,-0.27893913,1.06591094,-0.00003178,-0.44940129,0.85518283,0.00000000,0.00000000
-0.56028968,-1.24199331,0.36986405,0.55953634,0.71876806,0.00000000,0.00000000,-0.23704892,1.07413208,0.02107473,-0.43127298,0.86624712,0.00000000,0.00000000
-0.55185425,-1.26114380,0.36342746,0.56314015,0.71653724,0.00000000,0.00000000,-0.19208802,1.08899581,0.04640499,-0.40816888,0.87521142,0.00000000,0.00000000
-0.54254287,-1.28711760,0.35561863,0.56322843,0.71658033,0.00000000,0.00000000,-0.14450508,1.11278832,0.07614866,-0.37918520,0.88907725,0.00000000,0.00000000
-0.53222883,-1.32134020,0.34577763,0.55818874,0.71119440,0.00000000,0.00000000,-0.09511027,1.14701331,0.11033100,-0.34381503,0.90000743,0.00000000,0.00000000
-0.52100509,-1.36470044,0.33338892,0.54660141,0.69844598,0.00000000,0.00000000,-0.04508545,1.19168103,0.14877920,-0.30219719,0.91249603,0.00000000,0.00000000
-0.50919884,-1.41701138,0.31807068,0.52757454,0.68626332,0.00000000,0.00000000,0.00403648,1.24548793,0.19110864,-0.25506088,0.92170876,0.00000000,0.00000000
-0.49718589,-1.47673833,0.29951915,0.50097227,0.66883391,0.00000000,0.00000000,0.05040175,1.30650878,0.23673534,-0.20346482,0.93315613,0.00000000,0.00000000
-0.48506090,-1.54139543,0.27748314,0.46737701,0.64779669,0.00000000,0.00000000,0.09208248,1.37315798,0.28490582,-0.14850831,0.94573617,0.00000000,0.00000000
-0.47246787,-1.60802746,0.25179753,0.42792708,0.62629306,0.00000000,0.00000000,0.12739986,1.44461906,0.33474517,-0.09119388,0.95997953,0.00000000,0.00000000
-0.45892581,-1.67393696,0.22260512,0.38389093,0.60371387,0.00000000,0.00000000,0.15489866,1.52026510,0.38532117,-0.03245312,0.97805530,0.00000000,0.00000000
-0.44447690,-1.73748839,0.19050619,0.33620545,0.58167857,0.00000000,0.00000000,0.17346358,1.59921968,0.43571347,0.02678630,0.98570949,0.00000000,0.00000000
-0.43001387,-1.79785097,0.15638112,0.28554380,0.55909771,0.00000000,0.00000000,0.18281591,1.68026161,0.48509815,0.08565277,0.99113321,0.00000000,0.00000000
-0.41687220,-1.85496974,0.12107073,0.23220529,0.53874779,0.00000000,0.00000000,0.18372956,1.76155329,0.53286284,0.14326602,0.99877208,0.00000000,0.00000000
-0.40603542,-1.90950310,0.08513025,0.17619735,0.51860070,0.00000000,0.00000000,0.17779522,1.84070170,0.57869196,0.19873983,1.00324070,0.00000000,0.00000000
-0.39751589,-1.96196389,0.04882063,0.11779095,0.49686816,0.00000000,0.00000000,0.16687615,1.91468549,0.62258834,0.25099114,1.00609004,0.00000000,0.00000000
-0.39034703,-2.01229382,0.01232042,0.05767494,0.47808048,0.00000000,0.00000000,0.15302518,1.97960281,0.66492677,0.29860759,1.01015270,0.00000000,0.00000000
-0.38313976,-2.05929828,-0.02410794,-0.00288313,0.46020061,0.00000000,0.00000000,0.13857572,2.03059793,0.70649469,0.33985826,1.01012301,0.00000000,0.00000000
-0.37500218,-2.10081005,-0.06010083,-0.06231491,0.44403189,0.00000000,0.00000000,0.12534933,2.06392741,0.74811232,0.37336969,1.01023686,0.00000000,0.00000000
-0.36612833,-2.13432789,-0.09531417,-0.11911543,0.42616925,0.00000000,0.00000000,0.11334590,2.07871962,0.79006141,0.39833692,1.01147890,0.00000000,0.00000000
-0.35776648,-2.15705204,-0.12956071,-0.17163618,0.41596293,0.00000000,0.00000000,0.10083281,2.07589436,0.83208317,0.41399765,1.01380992,0.00000000,0.00000000
-0.35173431,-2.16753912,-0.16287403,-0.21790414,0.40905681,0.00000000,0.00000000,0.08487146,2.05779219,0.87344044,0.41974765,1.01031053,0.00000000,0.00000000
-0.35051796,-2.16986370,-0.19556440,-0.25618002,0.40304554,0.00000000,0.00000000,0.06289536,2.02878213,0.91306251,0.41613638,1.01030850,0.00000000,0.00000000
-0.35787269,-2.17000008,-0.22829401,-0.28577927,0.39932540,0.00000000,0.00000000,0.03516689,1.99452376,0.95007354,0.40559596,1.00207543,0.00000000,0.00000000
-0.37660578,-2.17000008,-0.26163539,-0.30717316,0.39396143,0.00000000,0.00000000,0.00452602,1.96053553,0.98400885,0.39174026,0.98798311,0.00000000,0.00000000
-0.40352598,-2.16995788,-0.29508826,-0.32133520,0.39121273,0.00000000,0.00000000,-0.02600682,1.93062019,1.01473522,0.37769884,0.97490191,0.00000000,0.00000000
-0.43394572,-2.16928387,-0.32776389,-0.33022770,0.38829848,0.00000000,0.00000000,-0.05361279,1.90642118,1.04246926,0.36575502,0.96764618,0.00000000,0.00000000
-0.46495727,-2.16678143,-0.35896498,-0.33694544,0.38500294,0.00000000,0.00000000,-0.07664064,1.88804293,1.06753480,0.35707831,0.95378113,0.00000000,0.00000000
-0.49326736,-2.16301823,-0.38797253,-0.34327912,0.38233799,0.00000000,0.00000000,-0.09452770,1.87490010,1.09021866,0.35205370,0.93277490,0.00000000,0.00000000
-0.51633257,-2.15988564,-0.41428974,-0.34997231,0.38351282,0.00000000,0.00000000,-0.10710306,1.86612546,1.11078787,0.35079837,0.91693276,0.00000000,0.00000000
-0.53305775,-2.15868616,-0.43772802,-0.35748941,0.38549128,0.00000000,0.00000000,-0.11445369,1.86089313,1.12945151,0.35334966,0.89457178,0.00000000,0.00000000
-0.54299611,-2.15946317,-0.45826229,-0.36576876,0.38980174,0.00000000,0.00000000,-0.11685719,1.85893214,1.14627528,0.35984439,0.87259442,0.00000000,0.00000000
-0.54567766,-2.16148305,-0.47584239,-0.37444586,0.39320412,0.00000000,0.00000000,-0.11476614,1.86064756,1.16115618,0.37047747,0.85691243,0.00000000,0.00000000
-0.54037815,-2.16414571,-0.49025953,-0.38341495,0.39358467,0.00000000,0.00000000,-0.10866372,1.86684453,1.17387855,0.38546094,0.83385581,0.00000000,0.00000000
-0.52650446,-2.16703415,-0.50123757,-0.39301854,0.39802793,0.00000000,0.00000000,-0.09895460,1.87817383,1.18422031,0.40489891,0.80946440,0.00000000,0.00000000
-0.50403965,-2.16927886,-0.50863737,-0.40372103,0.40809605,0.00000000,0.00000000,-0.08620952,1.89410508,1.19213581,0.42822728,0.78323781,0.00000000,0.00000000
-0.47395486,-2.16995621,-0.51291615,-0.41428614,0.42748249,0.00000000,0.00000000,-0.07138584,1.91251242,1.19785857,0.45386833,0.76473808,0.00000000,0.00000000
-0.43828666,-2.17000008,-0.51538807,-0.42017263,0.45273596,0.00000000,0.00000000,-0.05559300,1.93116462,1.20163882,0.47988296,0.74613219,0.00000000,0.00000000
-0.39906844,-2.17000008,-0.51708019,-0.41740203,0.47952047,0.00000000,0.00000000,-0.03981689,1.94895411,1.20352983,0.50457031,0.72737253,0.00000000,0.00000000
-0.36275274,-2.17000008,-0.51917756,-0.40746444,0.51136053,0.00000000,0.00000000,-0.02357163,1.96386218,1.20408618,0.52654123,0.70377427,0.00000000,0.00000000
-0.32848847,-2.16996574,-0.52118540,-0.39130175,0.54647839,0.00000000,0.00000000,-0.00664782,1.97407198,1.20387125,0.54422277,0.67589778,0.00000000,0.00000000
-0.29247361,-2.16943002,-0.52199596,-0.36975423,0.58333373,0.00000000,0.00000000,0.01092740,1.97919762,1.20308709,0.55645847,0.65142387,0.00000000,0.00000000
-0.25188777,-2.16759682,-0.52069890,-0.34488910,0.61966288,0.00000000,0.00000000,0.02889868,1.97977960,1.20165110,0.56252992,0.62815332,0.00000000,0.00000000
-0.20596425,-2.16543007,-0.51690733,-0.31932876,0.64760000,0.00000000,0.00000000,0.04637408,1.97647524,1.19934940,0.56174332,0.60505718,0.00000000,0.00000000
-0.15745561,-2.16462922,-0.51109242,-0.29541606,0.67847824,0.00000000,0.00000000,0.06225690,1.96969771,1.19601560,0.55348033,0.58612275,0.00000000,0.00000000
-0.11239123,-2.16560411,-0.50435096,-0.27525413,0.70843458,0.00000000,0.00000000,0.07618137,1.95968938,1.19165730,0.53764963,0.56498867,0.00000000,0.00000000
-0.07569139,-2.16768456,-0.49755260,-0.25992432,0.73455191,0.00000000,0.00000000,0.08829148,1.94635963,1.18647587,0.51451701,0.53903085,0.00000000,0.00000000
-0.04937517,-2.16944218,-0.49109155,-0.24904345,0.76244724,0.00000000,0.00000000,0.09912025,1.92927957,1.18082786,0.48462266,0.51635832,0.00000000,0.00000000
-0.03410940,-2.16996646,-0.48515421,-0.24152660,0.78877050,0.00000000,0.00000000,0.10988005,1.90812564,1.17508793,0.44910806,0.49660999,0.00000000,0.00000000
-0.02986675,-2.17000008,-0.47987318,-0.23593228,0.81913245,0.00000000,0.00000000,0.12228530,1.88330090,1.16945398,0.40987995,0.47577530,0.00000000,0.00000000
-0.03534509,-2.17000008,-0.47529101,-0.23028351,0.83993101,0.00000000,0.00000000,0.13612293,1.85679352,1.16357684,0.36875042,0.46014631,0.00000000,0.00000000
-0.04741321,-2.17000008,-0.47126529,-0.22219855,0.85985959,0.00000000,0.00000000,0.14787884,1.83270466,1.15648878,0.32724985,0.44293940,0.00000000,0.00000000
-0.06240560,-2.16990757,-0.46754149,-0.21002235,0.88323325,0.00000000,0.00000000,0.15885623,1.81629217,1.14765477,0.29017797,0.42542654,0.00000000,0.00000000
-0.07693645,-2.16841793,-0.46378779,-0.19378853,0.91146600,0.00000000,0.00000000,0.17001688,1.80923021,1.13723266,0.25956994,0.41170859,0.00000000,0.00000000
-0.08802463,-2.16272449,-0.45967045,-0.17491022,0.94077724,0.00000000,0.00000000,0.18081614,1.81126881,1.12555027,0.23509595,0.40176538,0.00000000,0.00000000
-0.09292983,-2.15325356,-0.45493311,-0.15512547,0.97028512,0.00000000,0.00000000,0.19114590,1.82170415,1.11297131,0.21637276,0.39723247,0.00000000,0.00000000
-0.08945285,-2.14300680,-0.44943926,-0.13606603,0.99835736,0.00000000,0.00000000,0.20147589,1.83882916,1.09993768,0.20306073,0.38949680,0.00000000,0.00000000
-0.07694376,-2.13512492,-0.44321653,-0.11935069,1.02756584,0.00000000,0.00000000,0.21293528,1.86000121,1.08694422,0.19493732,0.38531518,0.00000000,0.00000000
-0.05623426,-2.13146210,-0.43643412,-0.10625257,1.06182301,0.00000000,0.00000000,0.22611973,1.88337147,1.07428813,0.19168210,0.38162443,0.00000000,0.00000000
-0.02866763,-2.13209105,-0.42930481,-0.09722735,1.09545505,0.00000000,0.00000000,0.23946016,1.90788460,1.06200290,0.19176622,0.37670180,0.00000000,0.00000000
0.00282628,-2.13655877,-0.42208284,-0.09277546,1.11743200,0.00000000,0.00000000,0.25040096,1.93210518,1.05006468,0.19260775,0.37329578,0.00000000,0.00000000
0.03402372,-2.14421010,-0.41504028,-0.09355443,1.14185297,0.00000000,0.00000000,0.25875300,1.95458210,1.03857303,0.19282083,0.36713594,0.00000000,0.00000000
0.06116622,-2.15379620,-0.40841085,-0.09982447,1.16853130,0.00000000,0.00000000,0.26552987,1.97556460,1.02753973,0.19250983,0.35525584,0.00000000,0.00000000
0.08111167,-2.16299295,-0.40242997,-0.11113121,1.19453144,0.00000000,0.00000000,0.27132377,1.99539137,1.01696241,0.19194289,0.34848544,0.00000000,0.00000000
0.09102865,-2.16850066,-0.39742070,-0.12551424,1.22032070,0.00000000,0.00000000,0.27634248,2.01391625,1.00687683,0.19129895,0.34606943,0.00000000,0.00000000
0.08986004,-2.16991329,-0.39370862,-0.13935518,1.24249053,0.00000000,0.00000000,0.27875817,2.03119159,0.99718267,0.19007765,0.34374562,0.00000000,0.00000000
0.07868982,-2.17000008,-0.39147285,-0.14907235,1.25822055,0.00000000,0.00000000,0.27647540,2.04734707,0.98777187,0.18789931,0.33993697,0.00000000,0.00000000
0.05955817,-2.17000008,-0.39069641,-0.15276296,1.27321291,0.00000000,0.00000000,0.26992735,2.06267285,0.97870356,0.18561809,0.33692321,0.00000000,0.00000000
0.03467238,-2.17000008,-0.39115700,-0.15109991,1.28561366,0.00000000,0.00000000,0.26169458,2.07565737,0.97035789,0.18413538,0.34049577,0.00000000,0.00000000
0.00568988,-2.17000008,-0.39255193,-0.14651562,1.29746258,0.00000000,0.00000000,0.25334960,2.08481312,0.96305126,0.18352894,0.34418556,0.00000000,0.00000000
-0.02565528,-2.17000008,-0.39459306,-0.14092700,1.30696130,0.00000000,0.00000000,0.24500254,2.08976483,0.95689017,0.18348920,0.34841278,0.00000000,0.00000000
-0.05717543,-2.17000008,-0.39703670,-0.13498616,1.31803584,0.00000000,0.00000000,0.23652749,2.09135175,0.95183676,0.18414333,0.35412765,0.00000000,0.00000000
-0.08636654,-2.17000008,-0.39964771,-0.12896931,1.32850075,0.00000000,0.00000000,0.22768846,2.09198451,0.94768137,0.18626501,0.36065939,0.00000000,0.00000000
-0.11111520,-2.17000008,-0.40223724,-0.12307201,1.34203625,0.00000000,0.00000000,0.21846108,2.09356284,0.94422811,0.19055799,0.36134046,0.00000000,0.00000000
-0.13131918,-2.17000008,-0.40478551,-0.11749815,1.35765517,0.00000000,0.00000000,0.20869948,2.09630895,0.94136703,0.19677988,0.35906714,0.00000000,0.00000000
-0.14872178,-2.17000008,-0.40739506,-0.11292671,1.37315154,0.00000000,0.00000000,0.19778192,2.09916854,0.93904066,0.20355216,0.35979202,0.00000000,0.00000000
-0.16521972,-2.17000008,-0.41017544,-0.11003011,1.39128876,0.00000000,0.00000000,0.18612126,2.10150814,0.93724036,0.21007071,0.36397561,0.00000000,0.00000000
-0.18191585,-2.17000008,-0.41321474,-0.10853641,1.41017354,0.00000000,0.00000000,0.17421618,2.10313845,0.93595237,0.21613955,0.36526617,0.00000000,0.00000000
-0.19934680,-2.16998124,-0.41657373,-0.10776374,1.43152165,0.00000000,0.00000000,0.16198757,2.10521817,0.93499583,0.22244334,0.36398774,0.00000000,0.00000000
-0.21798535,-2.16965961,-0.42027602,-0.10751785,1.45560467,0.00000000,0.00000000,0.15043624,2.10947108,0.93417895,0.23090994,0.36296973,0.00000000,0.00000000
-0.23794973,-2.16820669,-0.42429665,-0.10780104,1.48450470,0.00000000,0.00000000,0.14018783,2.11690426,0.93330562,0.24311289,0.35558510,0.00000000,0.00000000
-0.25831705,-2.16524911,-0.42853558,-0.10846006,1.51470160,0.00000000,0.00000000,0.13113527,2.12777877,0.93218184,0.25993851,0.35733509,0.00000000,0.00000000
-0.27666488,-2.16184926,-0.43278772,-0.10925921,1.54195046,0.00000000,0.00000000,0.12273628,2.14137673,0.93070489,0.28154349,0.36085281,0.00000000,0.00000000
-0.29002178,-2.15965486,-0.43681088,-0.11004294,1.55738914,0.00000000,0.00000000,0.11474615,2.15544701,0.92904085,0.30750623,0.36484790,0.00000000,0.00000000
-0.29590666,-2.15977454,-0.44041261,-0.11070415,1.56973910,0.00000000,0.00000000,0.10768481,2.16578341,0.92779791,0.33694613,0.36910340,0.00000000,0.00000000
-0.29258734,-2.16204786,-0.44348928,-0.11089644,1.58011723,0.00000000,0.00000000,0.10262570,2.16946554,0.92819363,0.36817077,0.37013665,0.00000000,0.00000000
-0.27891046,-2.16526914,-0.44601735,-0.10999332,1.59633696,0.00000000,0.00000000,0.10122038,2.16997743,0.93211317,0.39866310,0.36751637,0.00000000,0.00000000
-0.25457320,-2.16812158,-0.44805169,-0.10746606,1.61650598,0.00000000,0.00000000,0.10373066,2.17000008,0.94101733,0.42602611,0.36516723,0.00000000,0.00000000
-0.22050799,-2.16943812,-0.44975197,-0.10278399,1.63212311,0.00000000,0.00000000,0.10873144,2.16998482,0.95505822,0.44926658,0.36860684,0.00000000,0.00000000
-0.17993708,-2.16853285,-0.45141372,-0.09588388,1.64081895,0.00000000,0.00000000,0.11578175,2.16961360,0.97324455,0.46962914,0.36606821,0.00000000,0.00000000
-0.13880694,-2.16593218,-0.45339915,-0.08870603,1.66196501,0.00000000,0.00000000,0.12180854,2.16669559,0.99378771,0.48608336,0.36442813,0.00000000,0.00000000
-0.10241946,-2.16431212,-0.45594770,-0.08421092,1.68236887,0.00000000,0.00000000,0.11721342,2.15848708,1.01309037,0.49453086,0.36168566,0.00000000,0.00000000
-0.07282627,-2.16304708,-0.45919493,-0.08244617,1.70806229,0.00000000,0.00000000,0.10178702,2.14771247,1.02969980,0.49585083,0.36023444,0.00000000,0.00000000
-0.05108058,-2.16146278,-0.46322411,-0.08311443,1.73736632,0.00000000,0.00000000,0.07876479,2.13657665,1.04353905,0.49200180,0.35785720,0.00000000,0.00000000
-0.03778036,-2.16012335,-0.46806753,-0.08653865,1.76571739,0.00000000,0.00000000,0.05053388,2.12613750,1.05463171,0.48424602,0.34866980,0.00000000,0.00000000
-0.03268326,-2.15913963,-0.47372335,-0.09267343,1.79923010,0.00000000,0.00000000,0.01900849,2.11694288,1.06310523,0.47351161,0.34180510,0.00000000,0.00000000
-0.03505505,-2.15820408,-0.48016584,-0.10125643,1.83193862,0.00000000,0.00000000,-0.01428210,2.10909152,1.06918979,0.46051261,0.33072028,0.00000000,0.00000000
-0.04448210,-2.15814281,-0.48734143,-0.11291898,1.86292410,0.00000000,0.00000000,-0.04779929,2.10267639,1.07315874,0.44606614,0.31755888,0.00000000,0.00000000
-0.06086034,-2.15977764,-0.49520576,-0.12852958,1.89500093,0.00000000,0.00000000,-0.08014026,2.09791160,1.07525992,0.43108869,0.29517183,0.00000000,0.00000000
-0.08387032,-2.16230607,-0.50374830,-0.14798734,1.92256868,0.00000000,0.00000000,-0.11017817,2.09485388,1.07574773,0.41638020,0.27490431,0.00000000,0.00000000
-0.11296797,-2.16520834,-0.51293558,-0.17120855,1.95217848,0.00000000,0.00000000,-0.13712893,2.09332681,1.07487726,0.40250373,0.25645807,0.00000000,0.00000000
-0.14813727,-2.16791248,-0.52279258,-0.19822261,1.97596872,0.00000000,0.00000000,-0.16047117,2.09359622,1.07276046,0.39007831,0.24149962,0.00000000,0.00000000
-0.18958406,-2.16954756,-0.53343087,-0.22853339,2.00021696,0.00000000,0.00000000,-0.18004295,2.09607172,1.06942236,0.37956664,0.22986631,0.00000000,0.00000000
-0.23737848,-2.16997385,-0.54508400,-0.26055831,2.02168226,0.00000000,0.00000000,-0.19638674,2.10067773,1.06489372,0.37086576,0.22274666,0.00000000,0.00000000
-0.29044455,-2.17000008,-0.55796498,-0.29164982,2.03974676,0.00000000,0.00000000,-0.21087363,2.10746145,1.05907691,0.36346599,0.21828263,0.00000000,0.00000000
-0.34718814,-2.17000008,-0.57219690,-0.31922802,2.05986786,0.00000000,0.00000000,-0.22500589,2.11618614,1.05190527,0.35658354,0.21416909,0.00000000,0.00000000
-0.40625867,-2.17000008,-0.58773255,-0.34191576,2.07345891,0.00000000,0.00000000,-0.23966859,2.12600422,1.04348361,0.34948337,0.20948093,0.00000000,0.00000000
-0.46569297,-2.17000008,-0.60414428,-0.35939223,2.08598161,0.00000000,0.00000000,-0.25516191,2.13587117,1.03400636,0.34166509,0.20099601,0.00000000,0.00000000
-0.52282929,-2.17000008,-0.62065434,-0.37198257,2.10219550,0.00000000,0.00000000,-0.27104345,2.14508581,1.02368045,0.33313453,0.19108775,0.00000000,0.00000000
-0.57438487,-2.17000008,-0.63622159,-0.38024375,2.11305857,0.00000000,0.00000000,-0.28580400,2.15339899,1.01273406,0.32456490,0.18285145,0.00000000,0.00000000
-0.61652511,-2.16999841,-0.64967531,-0.38444382,2.12063956,0.00000000,0.00000000,-0.29714549,2.16061854,1.00144851,0.31701913,0.17970830,0.00000000,0.00000000
-0.64616030,-2.16997743,-0.66008425,-0.38464689,2.12272716,0.00000000,0.00000000,-0.30265188,2.16613245,0.99017733,0.31158614,0.17338485,0.00000000,0.00000000
-0.66160023,-2.16993356,-0.66691345,-0.38107818,2.12905455,0.00000000,0.00000000,-0.30032772,2.16917896,0.97929609,0.30919424,0.16768788,0.00000000,0.00000000
-0.66255605,-2.16994429,-0.67004222,-0.37426123,2.14061785,0.00000000,0.00000000,-0.28934538,2.16995239,0.96914911,0.31012005,0.16358972,0.00000000,0.00000000
-0.64993763,-2.16998458,-0.66972464,-0.36490473,2.15112448,0.00000000,0.00000000,-0.27022031,2.17000008,0.96001577,0.31381857,0.16212870,0.00000000,0.00000000
-0.62510079,-2.16999912,-0.66640818,-0.35364065,2.15807724,0.00000000,0.00000000,-0.24425533,2.17000008,0.95207763,0.31928501,0.15763845,0.00000000,0.00000000
-0.58932793,-2.17000008,-0.66061944,-0.34074929,2.16115594,0.00000000,0.00000000,-0.21317343,2.17000008,0.94535458,0.32549205,0.15800451,0.00000000,0.00000000
-0.54378569,-2.17000008,-0.65293664,-0.32609466,2.16432786,0.00000000,0.00000000,-0.17905630,2.17000008,0.93966317,0.33161330,0.15415566,0.00000000,0.00000000
-0.48999739,-2.17000008,-0.64390177,-0.30974621,2.16969895,0.00000000,0.00000000,-0.14349128,2.17000008,0.93464005,0.33765069,0.14418608,0.00000000,0.00000000
-0.43072581,-2.17000008,-0.63400310,-0.29282209,2.17736244,0.00000000,0.00000000,-0.10680211,2.17000008,0.93004835,0.34431845,0.14136714,0.00000000,0.00000000
-0.36783704,-2.17000008,-0.62349933,-0.27626297,2.18333530,0.00000000,0.00000000,-0.06868643,2.17000008,0.92603642,0.35185483,0.13858452,0.00000000,0.00000000
-0.30162233,-2.17000008,-0.61253393,-0.25979334,2.18788362,0.00000000,0.00000000,-0.02960206,2.17000008,0.92281538,0.35960126,0.14426535,0.00000000,0.00000000
-0.23323862,-2.17000008,-0.60141677,-0.24293137,2.18766618,0.00000000,0.00000000,0.00893503,2.17000008,0.92041278,0.36630028,0.15369909,0.00000000,0.00000000
-0.16556115,-2.17000008,-0.59062535,-0.22561832,2.19017649,0.00000000,0.00000000,0.04572045,2.16999841,0.91868287,0.37113452,0.15951850,0.00000000,0.00000000
-0.09947738,-2.16997480,-0.58049452,-0.20569645,2.19225311,0.00000000,0.00000000,0.08127900,2.16986585,0.91778308,0.37375593,0.16882178,0.00000000,0.00000000
-0.03684794,-2.16950750,-0.57143509,-0.18072766,2.19183040,0.00000000,0.00000000,0.11787431,2.16811347,0.91830605,0.37408826,0.17977983,0.00000000,0.00000000
0.01841288,-2.16698742,-0.56357610,-0.15282944,2.19340634,0.00000000,0.00000000,0.15729515,2.16264367,0.92008048,0.37342846,0.18931229,0.00000000,0.00000000
0.06493782,-2.16077280,-0.55662501,-0.12551066,2.18826795,0.00000000,0.00000000,0.19960780,2.15608430,0.92235792,0.37315822,0.19718122,0.00000000,0.00000000
0.10381859,-2.15161943,-0.55033702,-0.10006941,2.18261147,0.00000000,0.00000000,0.24447146,2.14971995,0.92482346,0.37376896,0.20376866,0.00000000,0.00000000
0.13645850,-2.14079428,-0.54461968,-0.07673045,2.17926669,0.00000000,0.00000000,0.29211852,2.14270806,0.92758042,0.37556711,0.20497419,0.00000000,0.00000000
0.16352944,-2.12987375,-0.53945839,-0.05606224,2.17329502,0.00000000,0.00000000,0.33916503,2.13507271,0.93008375,0.37716398,0.20426600,0.00000000,0.00000000
0.18499470,-2.12013125,-0.53489631,-0.03869450,2.16625786,0.00000000,0.00000000,0.38145483,2.12680984,0.93170142,0.37688759,0.20524539,0.00000000,0.00000000
0.20035742,-2.11221981,-0.53100401,-0.02508543,2.15508795,0.00000000,0.00000000,0.41704163,2.11904597,0.93193942,0.37477720,0.20517178,0.00000000,0.00000000
0.20893361,-2.10706854,-0.52784026,-0.01590351,2.14717388,0.00000000,0.00000000,0.44584918,2.11391902,0.93041998,0.37210721,0.20341602,0.00000000,0.00000000
0.21024257,-2.10559654,-0.52544284,-0.01177264,2.13902569,0.00000000,0.00000000,0.46769354,2.11219025,0.92704183,0.36941868,0.20077865,0.00000000,0.00000000
0.20416772,-2.10819292,-0.52382803,-0.01296301,2.12576556,0.00000000,0.00000000,0.48199460,2.11365175,0.92184347,0.36672181,0.19934149,0.00000000,0.00000000
0.19091223,-2.11452937,-0.52299219,-0.01933421,2.12482572,0.00000000,0.00000000,0.48842442,2.11806774,0.91489762,0.36424464,0.19885568,0.00000000,0.00000000
0.17090023,-2.12367201,-0.52291363,-0.03046607,2.12525606,0.00000000,0.00000000,0.48689869,2.12525988,0.90629989,0.36241284,0.19998653,0.00000000,0.00000000
0.14478461,-2.13434958,-0.52355599,-0.04577449,2.11969471,0.00000000,0.00000000,0.47762483,2.13477707,0.89622658,0.36168614,0.20040017,0.00000000,0.00000000
0.11360563,-2.14506674,-0.52486873,-0.06442731,2.11355948,0.00000000,0.00000000,0.46112528,2.14551091,0.88496822,0.36238134,0.19685425,0.00000000,0.00000000
0.07849458,-2.15452075,-0.52679229,-0.08555320,2.10704398,0.00000000,0.00000000,0.43783623,2.15585566,0.87282151,0.36450627,0.18774696,0.00000000,0.00000000
0.04012078,-2.16196847,-0.52927649,-0.10857073,2.10483313,0.00000000,0.00000000,0.40785888,2.16410828,0.85999817,0.36779106,0.17685877,0.00000000,0.00000000
-0.00162848,-2.16698360,-0.53232282,-0.13321917,2.09865952,0.00000000,0.00000000,0.37112099,2.16874456,0.84667927,0.37170425,0.16034445,0.00000000,0.00000000
-0.04574652,-2.16940284,-0.53587294,-0.15881056,2.09570432,0.00000000,0.00000000,0.32811671,2.16992712,0.83325076,0.37550488,0.14887242,0.00000000,0.00000000
-0.08822593,-2.16996646,-0.53965580,-0.18366224,2.09654069,0.00000000,0.00000000,0.28178999,2.17000008,0.82076073,0.37865084,0.13174988,0.00000000,0.00000000
-0.13033600,-2.17000008,-0.54395229,-0.20704941,2.10321498,0.00000000,0.00000000,0.23736349,2.17000008,0.81085980,0.38078910,0.11965427,0.00000000,0.00000000
-0.17488116,-2.17000008,-0.54951435,-0.22608313,2.11077166,0.00000000,0.00000000,0.19696786,2.17000008,0.80466980,0.38033104,0.10629386,0.00000000,0.00000000
-0.22038732,-2.17000008,-0.55638760,-0.23877440,2.11530757,0.00000000,0.00000000,0.15786491,2.16995621,0.80221510,0.37409103,0.09137277,0.00000000,0.00000000
-0.26530775,-2.17000008,-0.56413347,-0.24633358,2.12408662,0.00000000,0.00000000,0.11502021,2.16916490,0.80235958,0.35892144,0.08081638,0.00000000,0.00000000
-0.31002232,-2.17000008,-0.57230186,-0.25184944,2.13314247,0.00000000,0.00000000,0.06955417,2.16513824,0.80389839,0.33687103,0.06962113,0.00000000,0.00000000
-0.35546505,-2.17000008,-0.58069330,-0.25732669,2.14011383,0.00000000,0.00000000,0.02406554,2.15614319,0.80561227,0.31253383,0.05723357,0.00000000,0.00000000
-0.40286514,-2.17000008,-0.58937079,-0.26362199,2.14566755,0.00000000,0.00000000,-0.02026378,2.14478874,0.80678433,0.28860030,0.04329273,0.00000000,0.00000000
-0.45289868,-2.17000008,-0.59842867,-0.27093518,2.14822817,0.00000000,0.00000000,-0.06324062,2.13319540,0.80715936,0.26568148,0.02653559,0.00000000,0.00000000
-0.50469279,-2.16996312,-0.60776269,-0.27903017,2.14693308,0.00000000,0.00000000,-0.10490242,2.12264466,0.80662543,0.24392751,0.01407781,0.00000000,0.00000000
-0.55588579,-2.16937447,-0.61705226,-0.28730673,2.14862657,0.00000000,0.00000000,-0.14471392,2.11414075,0.80522156,0.22372170,0.00559736,0.00000000,0.00000000
-0.60371274,-2.16716766,-0.62585962,-0.29525435,2.14388084,0.00000000,0.00000000,-0.18161243,2.10856175,0.80307907,0.20577206,-0.00475898,0.00000000,0.00000000
-0.64628029,-2.16363430,-0.63375497,-0.30288854,2.13450742,0.00000000,0.00000000,-0.21385166,2.10573435,0.80047971,0.19063714,-0.00910657,0.00000000,0.00000000
-0.68192476,-2.15993214,-0.64028239,-0.31028435,2.12554884,0.00000000,0.00000000,-0.23966014,2.10521960,0.79770148,0.17877783,-0.00765594,0.00000000,0.00000000
-0.70884031,-2.15705562,-0.64495742,-0.31726474,2.11613321,0.00000000,0.00000000,-0.25762713,2.10690951,0.79493135,0.17064327,-0.00211846,0.00000000,0.00000000
-0.72521859,-2.15566993,-0.64729279,-0.32346693,2.10377598,0.00000000,0.00000000,-0.26657945,2.11085987,0.79229790,0.16667305,0.00799101,0.00000000,0.00000000
-0.72975338,-2.15602255,-0.64692068,-0.32856178,2.08932781,0.00000000,0.00000000,-0.26592696,2.11700106,0.78987437,0.16707829,0.02155497,0.00000000,0.00000000
-0.72181815,-2.15801477,-0.64364320,-0.33240074,2.07643795,0.00000000,0.00000000,-0.25577056,2.12508416,0.78768069,0.17178026,0.03528128,0.00000000,0.00000000
-0.70164818,-2.16131639,-0.63745886,-0.33517468,2.06859446,0.00000000,0.00000000,-0.23670332,2.13457441,0.78571558,0.18044664,0.04864390,0.00000000,0.00000000
-0.67042112,-2.16533208,-0.62857807,-0.33746198,2.06037474,0.00000000,0.00000000,-0.20962505,2.14437509,0.78399849,0.19245489,0.05914631,0.00000000,0.00000000
-0.62979901,-2.16862202,-0.61741090,-0.33973166,2.05287004,0.00000000,0.00000000,-0.17597151,2.15345383,0.78252316,0.20718987,0.06869138,0.00000000,0.00000000
-0.58160388,-2.16982985,-0.60455513,-0.34192723,2.04833293,0.00000000,0.00000000,-0.13779625,2.16116738,0.78123665,0.22411175,0.07352234,0.00000000,0.00000000
-0.52756405,-2.16999316,-0.59071267,-0.34348232,2.03819275,0.00000000,0.00000000,-0.09722674,2.16672730,0.78011614,0.24253267,0.07362017,0.00000000,0.00000000
-0.46943483,-2.17000008,-0.57660604,-0.34360600,2.02964592,0.00000000,0.00000000,-0.05549828,2.16937494,0.77928942,0.26164338,0.07482518,0.00000000,0.00000000
-0.41009226,-2.17000008,-0.56307745,-0.34183022,2.02627897,0.00000000,0.00000000,-0.01338158,2.16996551,0.77920222,0.27973107,0.07366598,0.00000000,0.00000000
-0.35337093,-2.17000008,-0.55108947,-0.33782482,2.02576017,0.00000000,0.00000000,0.02755361,2.17000008,0.78073412,0.29323503,0.07298171,0.00000000,0.00000000
-0.29991874,-2.17000008,-0.54116577,-0.32954642,2.03250480,0.00000000,0.00000000,0.06753524,2.17000008,0.78468853,0.30074641,0.07495692,0.00000000,0.00000000
-0.24754326,-2.17000008,-0.53318036,-0.31471869,2.04118371,0.00000000,0.00000000,0.10734199,2.16991067,0.79113245,0.30321899,0.07767128,0.00000000,0.00000000
-0.19492202,-2.17000008,-0.52676922,-0.29291832,2.05399275,0.00000000,0.00000000,0.14552990,2.16843629,0.79924351,0.30219766,0.08555786,0.00000000,0.00000000
-0.14315952,-2.16986084,-0.52166253,-0.26568165,2.06819415,0.00000000,0.00000000,0.18028918,2.16239548,0.80813521,0.29878667,0.08469388,0.00000000,0.00000000
-0.09215969,-2.16769600,-0.51732427,-0.23464292,2.08169675,0.00000000,0.00000000,0.21243390,2.15138507,0.81735957,0.29452169,0.08282720,0.00000000,0.00000000
-0.04187874,-2.16034532,-0.51325303,-0.20159714,2.09208107,0.00000000,0.00000000,0.24507274,2.13879108,0.82673019,0.29189184,0.07720990,0.00000000,0.00000000
0.00372712,-2.15042853,-0.50951082,-0.17007704,2.10508561,0.00000000,0.00000000,0.27983603,2.12763834,0.83603191,0.29242152,0.06981678,0.00000000,0.00000000
0.04288576,-2.14102173,-0.50612682,-0.14202924,2.11889577,0.00000000,0.00000000,0.31674054,2.11864805,0.84512180,0.29616299,0.06980136,0.00000000,0.00000000
0.07573181,-2.13337350,-0.50307173,-0.11795030,2.12834215,0.00000000,0.00000000,0.35525137,2.11223793,0.85381329,0.30296615,0.06374266,0.00000000,0.00000000
0.10250057,-2.12766218,-0.50037754,-0.09781011,2.13903284,0.00000000,0.00000000,0.39418802,2.10900283,0.86181140,0.31257007,0.05509247,0.00000000,0.00000000
0.12376188,-2.12358308,-0.49808106,-0.08124959,2.14644623,0.00000000,0.00000000,0.43043125,2.10906625,0.86863232,0.32361856,0.04772401,0.00000000,0.00000000
0.14048463,-2.12105322,-0.49619398,-0.06794116,2.15664911,0.00000000,0.00000000,0.46039063,2.11146927,0.87388623,0.33406678,0.03798376,0.00000000,0.00000000
0.15307641,-2.12000704,-0.49474722,-0.05772311,2.16458893,0.00000000,0.00000000,0.48218346,2.11492348,0.87746632,0.34255043,0.02471117,0.00000000,0.00000000
0.16065337,-2.12033725,-0.49380776,-0.05077142,2.16963315,0.00000000,0.00000000,0.49523616,2.11887980,0.87934065,0.34860295,0.01545470,0.00000000,0.00000000
0.16185483,-2.12195969,-0.49344125,-0.04740758,2.17183685,0.00000000,0.00000000,0.49895483,2.12376904,0.87934554,0.35215679,0.00013417,0.00000000,0.00000000
0.15604877,-2.12456775,-0.49368322,-0.04763623,2.17997289,0.00000000,0.00000000,0.49296787,2.13014150,0.87735611,0.35346389,-0.02212023,0.00000000,0.00000000
0.14327085,-2.12772059,-0.49454391,-0.05115108,2.19309092,0.00000000,0.00000000,0.47790685,2.13797331,0.87348473,0.35322860,-0.04694355,0.00000000,0.00000000
0.12372345,-2.13107729,-0.49602008,-0.05759683,2.20442867,0.00000000,0.00000000,0.45519820,2.14689183,0.86799943,0.35251778,-0.07380747,0.00000000,0.00000000
0.09802619,-2.13452172,-0.49808425,-0.06657547,2.21680880,0.00000000,0.00000000,0.42676607,2.15609074,0.86129904,0.35249937,-0.09989124,0.00000000,0.00000000
0.06760378,-2.13802958,-0.50066829,-0.07750664,2.23382688,0.00000000,0.00000000,0.39475927,2.16398811,0.85392666,0.35412502,-0.12512015,0.00000000,0.00000000
0.03434081,-2.14158225,-0.50366753,-0.08972978,2.25217915,0.00000000,0.00000000,0.36080560,2.16868877,0.84641427,0.35783345,-0.15248838,0.00000000,0.00000000
0.00037079,-2.14496827,-0.50694764,-0.10244658,2.27168369,0.00000000,0.00000000,0.32580295,2.16992331,0.83921200,0.36347860,-0.18416539,0.00000000,0.00000000
-0.03237608,-2.14867139,-0.51033616,-0.11536177,2.29174638,0.00000000,0.00000000,0.29058430,2.17000008,0.83293599,0.37026638,-0.21304014,0.00000000,0.00000000
-0.06263676,-2.15498400,-0.51361042,-0.12967543,2.31240678,0.00000000,0.00000000,0.25535572,2.17000008,0.82846385,0.37598523,-0.23845196,0.00000000,0.00000000
-0.08929425,-2.16219068,-0.51670301,-0.14477518,2.33388638,0.00000000,0.00000000,0.22079585,2.17000008,0.82671809,0.37820867,-0.26356003,0.00000000,0.00000000
-0.11558908,-2.16720438,-0.51994199,-0.16031536,2.35357594,0.00000000,0.00000000,0.19000867,2.17000008,0.82836276,0.37667474,-0.28783450,0.00000000,0.00000000
-0.14459437,-2.16946411,-0.52358383,-0.17675680,2.37233233,0.00000000,0.00000000,0.16165113,2.16985202,0.83268160,0.37086925,-0.30965516,0.00000000,0.00000000
-0.17687342,-2.16997027,-0.52765989,-0.19418912,2.38831329,0.00000000,0.00000000,0.13197067,2.16752124,0.83832043,0.36042202,-0.33184189,0.00000000,0.00000000
-0.21133153,-2.17000008,-0.53205609,-0.21217716,2.40471578,0.00000000,0.00000000,0.09860135,2.15924430,0.84400988,0.34626591,-0.35197723,0.00000000,0.00000000
-0.24663347,-2.17000008,-0.53671342,-0.22951132,2.42014265,0.00000000,0.00000000,0.06166230,2.14688683,0.84901142,0.33022276,-0.37015021,0.00000000,0.00000000
-0.28318197,-2.17000008,-0.54182959,-0.24511708,2.42838836,0.00000000,0.00000000,0.02312617,2.13362789,0.85307831,0.31432509,-0.38796830,0.00000000,0.00000000
-0.32273367,-2.17000008,-0.54777044,-0.25850922,2.43298674,0.00000000,0.00000000,-0.01509796,2.12134814,0.85615450,0.30001807,-0.40184206,0.00000000,0.00000000
-0.36645395,-2.17000008,-0.55479258,-0.26946715,2.42640281,0.00000000,0.00000000,-0.05209076,2.11092448,0.85824293,0.28793150,-0.41834435,0.00000000,0.00000000
-0.41376784,-2.17000008,-0.56286037,-0.27777216,2.41577601,0.00000000,0.00000000,-0.08764579,2.10310578,0.85931474,0.27839252,-0.43320689,0.00000000,0.00000000
-0.46248293,-2.16996336,-0.57164448,-0.28327900,2.40486789,0.00000000,0.00000000,-0.12162402,2.09818697,0.85940164,0.27150804,-0.44685140,0.00000000,0.00000000
-0.51006234,-2.16936374,-0.58068484,-0.28635675,2.39234304,0.00000000,0.00000000,-0.15355189,2.09553123,0.85868549,0.26711407,-0.45613700,0.00000000,0.00000000
-0.55437779,-2.16697431,-0.58950013,-0.28795624,2.37882447,0.00000000,0.00000000,-0.18267551,2.09466910,0.85735744,0.26524734,-0.46646112,0.00000000,0.00000000
-0.59376961,-2.16288376,-0.59759754,-0.28927937,2.36616015,0.00000000,0.00000000,-0.20759833,2.09486437,0.85569406,0.26602051,-0.48200938,0.00000000,0.00000000
-0.62686133,-2.15874648,-0.60453099,-0.29116452,2.35278296,0.00000000,0.00000000,-0.22711556,2.09566450,0.85390133,0.26948377,-0.49433357,0.00000000,0.00000000
-0.65215391,-2.15602422,-0.60987729,-0.29383567,2.33868957,0.00000000,0.00000000,-0.24060985,2.09744430,0.85201705,0.27577737,-0.50689477,0.00000000,0.00000000
-0.66803074,-2.15534735,-0.61324990,-0.29699340,2.32959867,0.00000000,0.00000000,-0.24805015,2.10106659,0.84996867,0.28510952,-0.52382118,0.00000000,0.00000000
-0.67347628,-2.15668392,-0.61439741,-0.30021906,2.32106471,0.00000000,0.00000000,-0.24976261,2.10711145,0.84769076,0.29751498,-0.54265672,0.00000000,0.00000000
-0.66878605,-2.15969300,-0.61328304,-0.30343461,2.31503344,0.00000000,0.00000000,-0.24589117,2.11529517,0.84523815,0.31279609,-0.55718040,0.00000000,0.00000000
-0.65584219,-2.16372705,-0.61017156,-0.30707458,2.31214571,0.00000000,0.00000000,-0.23671117,2.12444544,0.84275705,0.33034083,-0.57502419,0.00000000,0.00000000
-0.63759148,-2.16747475,-0.60562426,-0.31175399,2.30490518,0.00000000,0.00000000,-0.22349031,2.13276744,0.84036297,0.34891060,-0.58783424,0.00000000,0.00000000
-0.61731023,-2.16949558,-0.60038328,-0.31777483,2.29994226,0.00000000,0.00000000,-0.20847303,2.13866186,0.83800054,0.36701670,-0.59545302,0.00000000,0.00000000
-0.59790087,-2.16997170,-0.59516764,-0.32499886,2.29368305,0.00000000,0.00000000,-0.19376981,2.14092183,0.83555537,0.38342419,-0.60535032,0.00000000,0.00000000
-0.58122450,-2.17000008,-0.59045273,-0.33298939,2.29109645,0.00000000,0.00000000,-0.18036827,2.13784432,0.83318478,0.39718780,-0.61416972,0.00000000,0.00000000
-0.56726444,-2.17000008,-0.58627105,-0.34098721,2.29084587,0.00000000,0.00000000,-0.16806360,2.12858725,0.83114034,0.40822703,-0.62395954,0.00000000,0.00000000
-0.55530715,-2.17000008,-0.58250260,-0.34803051,2.28384781,0.00000000,0.00000000,-0.15625748,2.11304140,0.82972968,0.41691548,-0.63540626,0.00000000,0.00000000
-0.54597306,-2.17000008,-0.57937211,-0.35318965,2.28035569,0.00000000,0.00000000,-0.14454366,2.09143186,0.82944947,0.42358041,-0.64566338,0.00000000,0.00000000
-0.54041231,-2.17000008,-0.57730019,-0.35553536,2.27790642,0.00000000,0.00000000,-0.13244288,2.06509113,0.83110261,0.42834026,-0.65189701,0.00000000,0.00000000
-0.53684485,-2.17000008,-0.57613778,-0.35393533,2.27669263,0.00000000,0.00000000,-0.11917192,2.03723693,0.83570570,0.43078813,-0.65859979,0.00000000,0.00000000
-0.53228956,-2.17000008,-0.57537794,-0.34805393,2.27551985,0.00000000,0.00000000,-0.10404143,2.01136589,0.84390885,0.43031514,-0.66441244,0.00000000,0.00000000
-0.52639085,-2.17000008,-0.57495683,-0.33863351,2.27665973,0.00000000,0.00000000,-0.08748643,1.98853683,0.85557401,0.42692563,-0.66560751,0.00000000,0.00000000
-0.51924628,-2.17000008,-0.57486558,-0.32634860,2.28143740,0.00000000,0.00000000,-0.07062420,1.96984756,0.87021029,0.42120928,-0.66399401,0.00000000,0.00000000
-0.50946176,-2.17000008,-0.57473236,-0.31144205,2.28421235,0.00000000,0.00000000,-0.05428485,1.95675695,0.88736397,0.41417328,-0.65946186,0.00000000,0.00000000
-0.49459189,-2.16998243,-0.57397646,-0.29377162,2.28572488,0.00000000,0.00000000,-0.03920464,1.94970691,0.90655786,0.40719205,-0.65125895,0.00000000,0.00000000
-0.47252810,-2.16967440,-0.57218504,-0.27292210,2.28174901,0.00000000,0.00000000,-0.02674549,1.94670200,0.92697459,0.40183902,-0.64606893,0.00000000,0.00000000
-0.44281220,-2.16817975,-0.56916887,-0.24953298,2.28382182,0.00000000,0.00000000,-0.01773993,1.94704604,0.94738114,0.39940444,-0.64062905,0.00000000,0.00000000
-0.40592998,-2.16510296,-0.56478935,-0.22543433,2.29245067,0.00000000,0.00000000,-0.01179936,1.95205283,0.96686149,0.40071130,-0.63783836,0.00000000,0.00000000
-0.36350906,-2.16190076,-0.55918062,-0.20241971,2.30385876,0.00000000,0.00000000,-0.00786581,1.96257579,0.98499954,0.40614635,-0.63913339,0.00000000,0.00000000
-0.31764430,-2.15986538,-0.55265802,-0.18174902,2.32139754,0.00000000,0.00000000,-0.00494016,1.97843623,1.00172424,0.41566920,-0.63686502,0.00000000,0.00000000
-0.27017644,-2.15945220,-0.54554325,-0.16425157,2.33646536,0.00000000,0.00000000,-0.00233187,1.99878168,1.01713204,0.42881447,-0.63262725,0.00000000,0.00000000
-0.22252060,-2.16050816,-0.53810799,-0.15038358,2.35263968,0.00000000,0.00000000,0.00009838,2.02226520,1.03131795,0.44456255,-0.62548488,0.00000000,0.00000000
-0.17570360,-2.16269922,-0.53055453,-0.14040726,2.36893916,0.00000000,0.00000000,0.00269583,2.04705191,1.04453897,0.46187150,-0.61999744,0.00000000,0.00000000
-0.13006282,-2.16577983,-0.52299261,-0.13441293,2.37944579,0.00000000,0.00000000,0.00585915,2.07157326,1.05709982,0.47992820,-0.60605758,0.00000000,0.00000000
-0.08571679,-2.16859055,-0.51553214,-0.13189796,2.39133668,0.00000000,0.00000000,0.00980345,2.09386492,1.06944942,0.49777296,-0.59177685,0.00000000,0.00000000
-0.04350666,-2.16978455,-0.50838524,-0.13176477,2.40876412,0.00000000,0.00000000,0.01401564,2.11268759,1.08181036,0.51457751,-0.58007365,0.00000000,0.00000000
-0.00502108,-2.16998959,-0.50187451,-0.13235715,2.42708039,0.00000000,0.00000000,0.01754710,2.12814665,1.09404421,0.53006572,-0.56888300,0.00000000,0.00000000
0.02844490,-2.17000008,-0.49631739,-0.13169868,2.43989325,0.00000000,0.00000000,0.02041077,2.14052272,1.10613179,0.54475576,-0.55196148,0.00000000,0.00000000
0.05598978,-2.17000008,-0.49195915,-0.12813219,2.45040250,0.00000000,0.00000000,0.02380890,2.14999318,1.11826420,0.55974817,-0.52958995,0.00000000,0.00000000
0.07660858,-2.17000008,-0.48894346,-0.12119068,2.46280670,0.00000000,0.00000000,0.02815604,2.15675402,1.13050938,0.57509685,-0.50713152,0.00000000,0.00000000
0.08934636,-2.16994619,-0.48729578,-0.11148999,2.47917914,0.00000000,0.00000000,0.03219955,2.16090894,1.14270103,0.58923334,-0.48376691,0.00000000,0.00000000
0.09387342,-2.16908145,-0.48694730,-0.09960870,2.50047040,0.00000000,0.00000000,0.03419903,2.16235924,1.15461469,0.60024476,-0.46368781,0.00000000,0.00000000
0.09024974,-2.16574216,-0.48776007,-0.08644232,2.51783490,0.00000000,0.00000000,0.03321290,2.16146493,1.16594613,0.60708493,-0.44246817,0.00000000,0.00000000
0.07892312,-2.15980577,-0.48955283,-0.07363750,2.53981757,0.00000000,0.00000000,0.02852042,2.15907359,1.17623806,0.60919434,-0.41711017,0.00000000,0.00000000
0.06036613,-2.15216541,-0.49218136,-0.06295612,2.56386733,0.00000000,0.00000000,0.01963431,2.15586424,1.18512559,0.60626203,-0.38973442,0.00000000,0.00000000
0.03451384,-2.14437771,-0.49558082,-0.05570416,2.58062530,0.00000000,0.00000000,0.00672065,2.15226936,1.19243240,0.59841233,-0.36237213,0.00000000,0.00000000
0.00168122,-2.13794255,-0.49970829,-0.05257265,2.60055590,0.00000000,0.00000000,-0.00955295,2.14858246,1.19808853,0.58621460,-0.33707917,0.00000000,0.00000000
-0.03672417,-2.13365555,-0.50450718,-0.05355578,2.61566925,0.00000000,0.00000000,-0.02857071,2.14519548,1.20195341,0.57044858,-0.31279272,0.00000000,0.00000000
-0.07914874,-2.13117003,-0.50993603,-0.05797714,2.62683344,0.00000000,0.00000000,-0.04970608,2.14262581,1.20380592,0.55210787,-0.29491106,0.00000000,0.00000000
-0.12433250,-2.12971091,-0.51596266,-0.06496935,2.63544750,0.00000000,0.00000000,-0.07194852,2.14110923,1.20365608,0.53238708,-0.27657962,0.00000000,0.00000000
-0.17105660,-2.12906218,-0.52253574,-0.07399651,2.64001441,0.00000000,0.00000000,-0.09414538,2.14038706,1.20178926,0.51234621,-0.26096815,0.00000000,0.00000000
-0.21850568,-2.12912202,-0.52960438,-0.08481713,2.64188981,0.00000000,0.00000000,-0.11552686,2.14014673,1.19843626,0.49277142,-0.25581264,0.00000000,0.00000000
-0.26619709,-2.13021541,-0.53710890,-0.09762581,2.64535952,0.00000000,0.00000000,-0.13559668,2.14032912,1.19370222,0.47420642,-0.25100234,0.00000000,0.00000000
-0.31393841,-2.13273621,-0.54498821,-0.11277561,2.65416551,0.00000000,0.00000000,-0.15411958,2.14095688,1.18763709,0.45687118,-0.24641632,0.00000000,0.00000000
-0.36169764,-2.13687801,-0.55318081,-0.13050579,2.66427827,0.00000000,0.00000000,-0.17123166,2.14216828,1.18021929,0.44063392,-0.24513292,0.00000000,0.00000000
-0.40941498,-2.14266777,-0.56161284,-0.15086184,2.67593884,0.00000000,0.00000000,-0.18728605,2.14437199,1.17134106,0.42522481,-0.24024014,0.00000000,0.00000000
-0.45703605,-2.14973712,-0.57020575,-0.17359670,2.68365932,0.00000000,0.00000000,-0.20261338,2.14789367,1.16091013,0.41030398,-0.23829994,0.00000000,0.00000000
-0.50457233,-2.15713501,-0.57889217,-0.19813621,2.68852448,0.00000000,0.00000000,-0.21714075,2.15244937,1.14900899,0.39550698,-0.23505984,0.00000000,0.00000000
-0.55181384,-2.16359329,-0.58758575,-0.22370672,2.69543171,0.00000000,0.00000000,-0.22996359,2.15754580,1.13586915,0.38092604,-0.23072718,0.00000000,0.00000000
-0.59799320,-2.16792107,-0.59612226,-0.24944155,2.70297885,0.00000000,0.00000000,-0.23990469,2.16254139,1.12179124,0.36690393,-0.22753321,0.00000000,0.00000000
-0.64184016,-2.16965818,-0.60424113,-0.27446941,2.71499300,0.00000000,0.00000000,-0.24620353,2.16660213,1.10707498,0.35367191,-0.22639379,0.00000000,0.00000000
-0.68150699,-2.16998243,-0.61153990,-0.29803976,2.72776437,0.00000000,0.00000000,-0.24826939,2.16921186,1.09197426,0.34161627,-0.22378550,0.00000000,0.00000000
-0.71514392,-2.17000008,-0.61752176,-0.31972352,2.74925089,0.00000000,0.00000000,-0.24529892,2.16995287,1.07697260,0.33081532,-0.22533266,0.00000000,0.00000000
-0.74115026,-2.17000008,-0.62169838,-0.33920300,2.77004862,0.00000000,0.00000000,-0.23669484,2.17000008,1.06254971,0.32119074,-0.22986417,0.00000000,0.00000000
-0.75800085,-2.17000008,-0.62362766,-0.35600507,2.78367591,0.00000000,0.00000000,-0.22241265,2.16999078,1.04891372,0.31283927,-0.22989400,0.00000000,0.00000000
-0.76410437,-2.17000008,-0.62289983,-0.36949855,2.79542255,0.00000000,0.00000000,-0.20265874,2.16984272,1.03603840,0.30627814,-0.22909874,0.00000000,0.00000000
-0.75792676,-2.17000008,-0.61913586,-0.37914321,2.80715108,0.00000000,0.00000000,-0.17732158,2.16930890,1.02380478,0.30263370,-0.22627144,0.00000000,0.00000000
-0.73869228,-2.17000008,-0.61213475,-0.38482758,2.82152700,0.00000000,0.00000000,-0.14648405,2.16869092,1.01205039,0.30302107,-0.21649520,0.00000000,0.00000000
-0.70745999,-2.17000008,-0.60216838,-0.38701630,2.83686543,0.00000000,0.00000000,-0.11223792,2.16866231,1.00053728,0.30697891,-0.21004066,0.00000000,0.00000000
-0.66579437,-2.17000008,-0.58966750,-0.38643172,2.85167336,0.00000000,0.00000000,-0.07566801,2.16918945,0.98939282,0.31399342,-0.20239045,0.00000000,0.00000000
-0.61573005,-2.17000008,-0.57536167,-0.38331431,2.85856318,0.00000000,0.00000000,-0.03569817,2.16978860,0.97934628,0.32431525,-0.19650367,0.00000000,0.00000000
-0.55897808,-2.17000008,-0.56018198,-0.37669986,2.86265063,0.00000000,0.00000000,0.00670570,2.16998720,0.97122514,0.33685771,-0.18975371,0.00000000,0.00000000
-0.49719718,-2.17000008,-0.54491782,-0.36582896,2.86990738,0.00000000,0.00000000,0.04877460,2.17000008,0.96517611,0.35023326,-0.18586737,0.00000000,0.00000000
-0.43448842,-2.17000008,-0.53048420,-0.35165295,2.87266135,0.00000000,0.00000000,0.09035907,2.16999722,0.96112704,0.36449584,-0.18701997,0.00000000,0.00000000
-0.37242103,-2.17000008,-0.51720262,-0.33453533,2.87523293,0.00000000,0.00000000,0.13246140,2.16991210,0.95927531,0.37932131,-0.19413680,0.00000000,0.00000000
-0.30937052,-2.17000008,-0.50476855,-0.31392717,2.87943912,0.00000000,0.00000000,0.17431203,2.16908956,0.95911825,0.39422834,-0.19968665,0.00000000,0.00000000
-0.24398446,-2.17000008,-0.49281785,-0.28981531,2.87979317,0.00000000,0.00000000,0.21367231,2.16672373,0.95964384,0.40851009,-0.20523775,0.00000000,0.00000000
-0.17711040,-2.17000008,-0.48126715,-0.26311925,2.87979317,0.00000000,0.00000000,0.24809685,2.16418386,0.95991302,0.42120537,-0.21421330,0.00000000,0.00000000
-0.11157463,-2.17000008,-0.47035569,-0.23497485,2.87979317,0.00000000,0.00000000,0.27695793,2.16320610,0.95936298,0.43188956,-0.21420214,0.00000000,0.00000000
-0.05056363,-2.17000008,-0.46032405,-0.20670836,2.87979317,0.00000000,0.00000000,0.30118838,2.16414380,0.95792472,0.44035578,-0.22171918,0.00000000,0.00000000
0.00183732,-2.17000008,-0.45141220,-0.17971282,2.87979317,0.00000000,0.00000000,0.32694542,2.16434908,0.95697826,0.44775158,-0.23010473,0.00000000,0.00000000
0.04327763,-2.17000008,-0.44377449,-0.15253498,2.87979317,0.00000000,0.00000000,0.35433981,2.16314936,0.95653647,0.45331085,-0.23416854,0.00000000,0.00000000
0.07598942,-2.17000008,-0.43709269,-0.12339824,2.87979317,0.00000000,0.00000000,0.38170570,2.16173601,0.95589733,0.45642671,-0.23874478,0.00000000,0.00000000
0.10107381,-2.16997242,-0.43114278,-0.09304105,2.87979317,0.00000000,0.00000000,0.40967253,2.16046333,0.95490289,0.45787361,-0.24592747,0.00000000,0.00000000
0.11844093,-2.16951585,-0.42584178,-0.06332780,2.87979317,0.00000000,0.00000000,0.43802091,2.15997982,0.95318609,0.45855621,-0.25537005,0.00000000,0.00000000
0.12874749,-2.16758800,-0.42113113,-0.03573429,2.87979317,0.00000000,0.00000000,0.46432874,2.16141987,0.94992501,0.45884103,-0.26564288,0.00000000,0.00000000
0.13373312,-2.16378236,-0.41698632,-0.01089321,2.87979317,0.00000000,0.00000000,0.48476100,2.16459298,0.94441938,0.45814818,-0.27384308,0.00000000,0.00000000
0.13448703,-2.15867853,-0.41344845,0.01083880,2.87979317,0.00000000,0.00000000,0.49658495,2.16774702,0.93657362,0.45552179,-0.27616957,0.00000000,0.00000000
0.13085486,-2.15304852,-0.41058835,0.02891733,2.87979317,0.00000000,0.00000000,0.49989566,2.16953039,0.92674971,0.45095921,-0.28060469,0.00000000,0.00000000
0.12245212,-2.14741492,-0.40847173,0.04281851,2.87979317,0.00000000,0.00000000,0.49615493,2.16997337,0.91540945,0.44515225,-0.28619784,0.00000000,0.00000000
0.10956860,-2.14234328,-0.40716374,0.05210389,2.87979317,0.00000000,0.00000000,0.48683023,2.17000008,0.90306067,0.43878952,-0.28968567,0.00000000,0.00000000
0.09288298,-2.13840771,-0.40672606,0.05645362,2.87979317,0.00000000,0.00000000,0.47292635,2.17000008,0.89013845,0.43243575,-0.29498163,0.00000000,0.00000000
0.07305860,-2.13594842,-0.40720347,0.05578877,2.87979317,0.00000000,0.00000000,0.45530239,2.17000008,0.87700355,0.42671874,-0.29865745,0.00000000,0.00000000
0.05069197,-2.13520288,-0.40861657,0.05016271,2.87979317,0.00000000,0.00000000,0.43467918,2.17000008,0.86395878,0.42222169,-0.31050086,0.00000000,0.00000000
0.02615873,-2.13631725,-0.41095003,0.03961852,2.87979317,0.00000000,0.00000000,0.41135609,2.17000008,0.85117024,0.41931546,-0.31887037,0.00000000,0.00000000
-0.00017868,-2.13931513,-0.41415647,0.02420488,2.87979317,0.00000000,0.00000000,0.38526133,2.17000008,0.83874249,0.41796640,-0.32679528,0.00000000,0.00000000
-0.02803364,-2.14402676,-0.41815951,0.00403727,2.87979317,0.00000000,0.00000000,0.35569996,2.17000008,0.82666868,0.41755220,-0.33172387,0.00000000,0.00000000
-0.05713422,-2.15004706,-0.42286313,-0.02060119,2.87979317,0.00000000,0.00000000,0.32129648,2.17000008,0.81485665,0.41688120,-0.34565261,0.00000000,0.00000000
-0.08685462,-2.15668535,-0.42815349,-0.04912026,2.87979317,0.00000000,0.00000000,0.28081569,2.17000008,0.80334836,0.41440508,-0.35858455,0.00000000,0.00000000
-0.11680555,-2.16323209,-0.43390864,-0.08097240,2.87979317,0.00000000,0.00000000,0.23705542,2.17000008,0.79290593,0.40996876,-0.37212357,0.00000000,0.00000000
-0.14961740,-2.16830873,-0.44019273,-0.11592366,2.87979317,0.00000000,0.00000000,0.19747989,2.17000008,0.78500390,0.40555495,-0.39008418,0.00000000,0.00000000
-0.18835610,-2.16988659,-0.44732648,-0.15250146,2.87979317,0.00000000,0.00000000,0.16184548,2.17000008,0.78009075,0.39949137,-0.40720126,0.00000000,0.00000000
-0.22988580,-2.16999936,-0.45532712,-0.18744574,2.87979317,0.00000000,0.00000000,0.12494170,2.17000008,0.77770895,0.38841212,-0.41744408,0.00000000,0.00000000
-0.27183333,-2.17000008,-0.46420199,-0.21752015,2.87979317,0.00000000,0.00000000,0.08461287,2.16999531,0.77744293,0.37147522,-0.42510736,0.00000000,0.00000000
-0.31559944,-2.17000008,-0.47423559,-0.24112430,2.87979317,0.00000000,0.00000000,0.04409420,2.16982675,0.77934712,0.35077804,-0.43299702,0.00000000,0.00000000
-0.36451545,-2.17000008,-0.48578945,-0.25913775,2.87979317,0.00000000,0.00000000,0.00807567,2.16809869,0.78337985,0.32902077,-0.44291225,0.00000000,0.00000000
-0.42007422,-2.17000008,-0.49885947,-0.27345496,2.87979317,0.00000000,0.00000000,-0.02318468,2.16307592,0.78856021,0.30750117,-0.44989365,0.00000000,0.00000000
-0.47776565,-2.17000008,-0.51268804,-0.28395176,2.87979317,0.00000000,0.00000000,-0.05592953,2.15708303,0.79300666,0.28555974,-0.45573509,0.00000000,0.00000000
-0.53277028,-2.16999269,-0.52649295,-0.29006711,2.87979317,0.00000000,0.00000000,-0.09158869,2.15124893,0.79620665,0.26336130,-0.46300337,0.00000000,0.00000000
-0.58357161,-2.16983175,-0.53985244,-0.29275188,2.87979317,0.00000000,0.00000000,-0.12822597,2.14623475,0.79835135,0.24192132,-0.46403515,0.00000000,0.00000000
-0.62895560,-2.16868854,-0.55231106,-0.29331860,2.87979317,0.00000000,0.00000000,-0.16327357,2.14243221,0.79974008,0.22228773,-0.45853183,0.00000000,0.00000000
-0.66702241,-2.16553211,-0.56332326,-0.29260695,2.87979317,0.00000000,0.00000000,-0.19395666,2.13994765,0.80070114,0.20549366,-0.45347139,0.00000000,0.00000000
-0.69583029,-2.16141272,-0.57240087,-0.29096937,2.87979317,0.00000000,0.00000000,-0.21781409,2.13869190,0.80152625,0.19243693,-0.44904694,0.00000000,0.00000000
-0.71328217,-2.15793777,-0.57908422,-0.28840762,2.87979317,0.00000000,0.00000000,-0.23254105,2.13872886,0.80245638,0.18414439,-0.44386852,0.00000000,0.00000000
-0.71738601,-2.15626335,-0.58297795,-0.28475866,2.87979317,0.00000000,0.00000000,-0.23607294,2.14018321,0.80368316,0.18167652,-0.43597046,0.00000000,0.00000000
-0.70708603,-2.15689611,-0.58390659,-0.27999502,2.87979317,0.00000000,0.00000000,-0.22738026,2.14287400,0.80532098,0.18556228,-0.42196909,0.00000000,0.00000000
-0.68261760,-2.15964484,-0.58198678,-0.27440211,2.87979317,0.00000000,0.00000000,-0.20692286,2.14648962,0.80736840,0.19563028,-0.40911254,0.00000000,0.00000000
-0.64529043,-2.16362262,-0.57759154,-0.26847875,2.87979317,0.00000000,0.00000000,-0.17653519,2.15078855,0.80969906,0.21113472,-0.40044180,0.00000000,0.00000000
-0.59686136,-2.16736460,-0.57122612,-0.26268235,2.87979317,0.00000000,0.00000000,-0.13867247,2.15556145,0.81211531,0.23108518,-0.38626519,0.00000000,0.00000000
-0.53903651,-2.16945744,-0.56342411,-0.25720251,2.87979317,0.00000000,0.00000000,-0.09574354,2.16043711,0.81442261,0.25445142,-0.37609640,0.00000000,0.00000000
-0.47354737,-2.16996908,-0.55473834,-0.25187585,2.87979317,0.00000000,0.00000000,-0.04994782,2.16506314,0.81644517,0.28018159,-0.36746749,0.00000000,0.00000000
-0.40412012,-2.17000008,-0.54593796,-0.24683735,2.87979317,0.00000000,0.00000000,-0.00266631,2.16870165,0.81820726,0.30703381,-0.35920584,0.00000000,0.00000000
-0.33624348,-2.17000008,-0.53798229,-0.24227333,2.87979317,0.00000000,0.00000000,0.04553095,2.16989326,0.82047135,0.33201104,-0.34875247,0.00000000,0.00000000
-0.27051222,-2.17000008,-0.53130436,-0.23584761,2.87979317,0.00000000,0.00000000,0.09303316,2.16992664,0.82453674,0.34994084,-0.33203244,0.00000000,0.00000000
-0.20395887,-2.17000008,-0.52580005,-0.22449134,2.87979317,0.00000000,0.00000000,0.13899504,2.16874933,0.83114415,0.35855025,-0.32167134,0.00000000,0.00000000
-0.13544628,-2.16996765,-0.52133834,-0.20702067,2.87979317,0.00000000,0.00000000,0.18368356,2.16382837,0.83985609,0.36045074,-0.31294188,0.00000000,0.00000000
-0.06794785,-2.16933966,-0.51807368,-0.18446384,2.87979317,0.00000000,0.00000000,0.22645853,2.15390825,0.84961557,0.35925275,-0.31106451,0.00000000,0.00000000
-0.00393483,-2.16569471,-0.51595819,-0.15905344,2.87979317,0.00000000,0.00000000,0.26900172,2.14007020,0.85996056,0.35806960,-0.30702838,0.00000000,0.00000000
0.05517363,-2.15711284,-0.51474339,-0.13403074,2.87979317,0.00000000,0.00000000,0.31350440,2.12583280,0.87047160,0.35955402,-0.30341545,0.00000000,0.00000000
0.10718406,-2.14719582,-0.51429391,-0.11243666,2.87979317,0.00000000,0.00000000,0.36013237,2.11380196,0.88070732,0.36483559,-0.30536538,0.00000000,0.00000000
0.15206851,-2.13895392,-0.51447833,-0.09503148,2.87979317,0.00000000,0.00000000,0.40732592,2.10475540,0.89030820,0.37347043,-0.30331647,0.00000000,0.00000000
0.19240244,-2.13448286,-0.51508969,-0.08165257,2.87979317,0.00000000,0.00000000,0.45060927,2.09869814,0.89859182,0.38324159,-0.30413163,0.00000000,0.00000000
0.22861108,-2.13356233,-0.51613981,-0.07193185,2.87979317,0.00000000,0.00000000,0.48423219,2.09480667,0.90479565,0.39095318,-0.31287917,0.00000000,0.00000000
0.25754014,-2.13503766,-0.51781279,-0.06621525,2.87979317,0.00000000,0.00000000,0.50742388,2.09239745,0.90886992,0.39550480,-0.32125887,0.00000000,0.00000000
0.27534258,-2.13831472,-0.52027118,-0.06534784,2.87979317,0.00000000,0.00000000,0.52019602,2.09131718,0.91079009,0.39592183,-0.33022621,0.00000000,0.00000000
0.27978924,-2.14272928,-0.52360386,-0.06965947,2.87979317,0.00000000,0.00000000,0.52152133,2.09178996,0.91033697,0.39126873,-0.33659589,0.00000000,0.00000000
0.27061856,-2.14802289,-0.52782559,-0.07914124,2.87979317,0.00000000,0.00000000,0.51080900,2.09547043,0.90715146,0.38232791,-0.34107906,0.00000000,0.00000000
0.24907784,-2.15423775,-0.53289169,-0.09352406,2.87979317,0.00000000,0.00000000,0.48919168,2.10384870,0.90122449,0.37143591,-0.34222233,0.00000000,0.00000000
0.21727833,-2.16076994,-0.53872687,-0.11195496,2.87979317,0.00000000,0.00000000,0.45789081,2.11619043,0.89297456,0.36021912,-0.34578994,0.00000000,0.00000000
0.17810231,-2.16619825,-0.54522032,-0.13292922,2.87979317,0.00000000,0.00000000,0.41891506,2.13080668,0.88309878,0.35006341,-0.35140762,0.00000000,0.00000000
0.13470390,-2.16920328,-0.55222350,-0.15469432,2.87979317,0.00000000,0.00000000,0.37453607,2.14588881,0.87234199,0.34225729,-0.36080557,0.00000000,0.00000000
0.08813079,-2.16995430,-0.55972433,-0.17660645,2.87979317,0.00000000,0.00000000,0.32643524,2.15908766,0.86140311,0.33740127,-0.36902654,0.00000000,0.00000000
0.03672601,-2.17000008,-0.56788427,-0.20036936,2.87979317,0.00000000,0.00000000,0.27579752,2.16752243,0.85094672,0.33534256,-0.38099205,0.00000000,0.00000000
-0.01570836,-2.17000008,-0.57644159,-0.22558711,2.87979317,0.00000000,0.00000000,0.22521363,2.16985297,0.84197921,0.33564249,-0.39397237,0.00000000,0.00000000
-0.06769535,-2.17000008,-0.58558285,-0.24993376,2.87979317,0.00000000,0.00000000,0.17895944,2.17000008,0.83580989,0.33793944,-0.40001497,0.00000000,0.00000000
-0.11982277,-2.17000008,-0.59573656,-0.27107981,2.87979317,0.00000000,0.00000000,0.13818757,2.17000008,0.83346039,0.33987597,-0.41155696,0.00000000,0.00000000
-0.17209569,-2.17000008,-0.60711539,-0.28729081,2.87979317,0.00000000,0.00000000,0.10259846,2.16999030,0.83578616,0.33775529,-0.42107216,0.00000000,0.00000000
-0.22438838,-2.17000008,-0.61951923,-0.29868048,2.87979317,0.00000000,0.00000000,0.06848931,2.16975570,0.84226465,0.32834190,-0.42562336,0.00000000,0.00000000
-0.27576733,-2.17000008,-0.63218570,-0.30719405,2.87979317,0.00000000,0.00000000,0.03259905,2.16791463,0.85082138,0.31342867,-0.43303248,0.00000000,0.00000000
-0.32496855,-2.17000008,-0.64437550,-0.31429392,2.87979317,0.00000000,0.00000000,-0.00400812,2.16249728,0.85995716,0.29736051,-0.43236342,0.00000000,0.00000000
-0.37226442,-2.17000008,-0.65593690,-0.32054171,2.87979317,0.00000000,0.00000000,-0.03956868,2.15470147,0.86911261,0.28239763,-0.43001691,0.00000000,0.00000000
-0.41798589,-2.17000008,-0.66676635,-0.32668352,2.87979317,0.00000000,0.00000000,-0.07261494,2.14623809,0.87814504,0.26939261,-0.42707342,0.00000000,0.00000000
-0.46214333,-2.17000008,-0.67669183,-0.33366615,2.87979317,0.00000000,0.00000000,-0.10210709,2.13824201,0.88701093,0.25879857,-0.42217243,0.00000000,0.00000000
-0.50529581,-2.17000008,-0.68577272,-0.34205619,2.87979317,0.00000000,0.00000000,-0.12821484,2.13188457,0.89558679,0.25070363,-0.42316818,0.00000000,0.00000000
-0.54658842,-2.17000008,-0.69403338,-0.35106310,2.87979317,0.00000000,0.00000000,-0.15187535,2.12886882,0.90364164,0.24526092,-0.42089260,0.00000000,0.00000000
-0.58333004,-2.17000008,-0.70125169,-0.35895032,2.87979317,0.00000000,0.00000000,-0.17340340,2.12940621,0.91117388,0.24224798,-0.41414687,0.00000000,0.00000000
-0.61434966,-2.17000008,-0.70731324,-0.36506417,2.87979317,0.00000000,0.00000000,-0.19237274,2.13231349,0.91839701,0.24123183,-0.40776613,0.00000000,0.00000000
-0.64002681,-2.17000008,-0.71223205,-0.36975554,2.87979317,0.00000000,0.00000000,-0.20823289,2.13652921,0.92550665,0.24194823,-0.39673471,0.00000000,0.00000000
-0.66051459,-2.17000008,-0.71595424,-0.37331221,2.87979317,0.00000000,0.00000000,-0.22065094,2.14144993,0.93261051,0.24427155,-0.38523704,0.00000000,0.00000000
-0.67520565,-2.17000008,-0.71829623,-0.37569442,2.87979317,0.00000000,0.00000000,-0.22940905,2.14661860,0.93978435,0.24818464,-0.37012130,0.00000000,0.00000000
-0.68317342,-2.17000008,-0.71905202,-0.37671527,2.87979317,0.00000000,0.00000000,-0.23457542,2.15188766,0.94704568,0.25378376,-0.36519012,0.00000000,0.00000000
-0.68362248,-2.17000008,-0.71805775,-0.37626353,2.87979317,0.00000000,0.00000000,-0.23613451,2.15733957,0.95439720,0.26140872,-0.35661358,0.00000000,0.00000000
-0.67618430,-2.17000008,-0.71525162,-0.37441149,2.87979317,0.00000000,0.00000000,-0.23384009,2.16278911,0.96191198,0.27156079,-0.34133798,0.00000000,0.00000000
-0.66144943,-2.17000008,-0.71086961,-0.37139672,2.87979317,0.00000000,0.00000000,-0.22824337,2.16723800,0.96971661,0.28422022,-0.31946963,0.00000000,0.00000000
-0.64092958,-2.17000008,-0.70546401,-0.36747959,2.87979317,0.00000000,0.00000000,-0.22109066,2.16946745,0.97797900,0.29844373,-0.29509524,0.00000000,0.00000000
-0.61618346,-2.17000008,-0.69963479,-0.36283419,2.87979317,0.00000000,0.00000000,-0.21423166,2.16997051,0.98699826,0.31283829,-0.27306554,0.00000000,0.00000000
-0.58811319,-2.17000008,-0.69380963,-0.35748696,2.87979317,0.00000000,0.00000000,-0.20866352,2.17000008,0.99724627,0.32617426,-0.25642979,0.00000000,0.00000000
-0.55681103,-2.17000008,-0.68822682,-0.35121924,2.87979317,0.00000000,0.00000000,-0.20467453,2.17000008,1.00918543,0.33778584,-0.24007474,0.00000000,0.00000000
-0.52182347,-2.17000008,-0.68298525,-0.34366727,2.87979317,0.00000000,0.00000000,-0.20216486,2.17000008,1.02311015,0.34757072,-0.22515018,0.00000000,0.00000000
-0.48269928,-2.17000008,-0.67812669,-0.33457026,2.87979317,0.00000000,0.00000000,-0.20083952,2.17000008,1.03908026,0.35577971,-0.21118845,0.00000000,0.00000000
-0.43958536,-2.17000008,-0.67370230,-0.32407764,2.87979317,0.00000000,0.00000000,-0.20034488,2.16991520,1.05685556,0.36289224,-0.20007642,0.00000000,0.00000000
-0.39313155,-2.17000008,-0.66972750,-0.31279069,2.87979317,0.00000000,0.00000000,-0.20039071,2.16855431,1.07589817,0.36953342,-0.19278511,0.00000000,0.00000000
-0.34357980,-2.17000008,-0.66606528,-0.30145842,2.87979317,0.00000000,0.00000000,-0.20083186,2.16341782,1.09549451,0.37631622,-0.18226594,0.00000000,0.00000000
-0.29073092,-2.17000008,-0.66248685,-0.29085585,2.87979317,0.00000000,0.00000000,-0.20153005,2.15488505,1.11493421,0.38364092,-0.16832072,0.00000000,0.00000000
-0.23450597,-2.17000008,-0.65880752,-0.28179151,2.87979317,0.00000000,0.00000000,-0.20222384,2.14493346,1.13364434,0.39161596,-0.15865697,0.00000000,0.00000000
-0.17536242,-2.17000008,-0.65502626,-0.27470654,2.87979317,0.00000000,0.00000000,-0.20294262,2.13530707,1.15116942,0.40003115,-0.14973527,0.00000000,0.00000000
-0.11468831,-2.17000008,-0.65133351,-0.26984650,2.87979317,0.00000000,0.00000000,-0.20400095,2.12747121,1.16710603,0.40851799,-0.14644593,0.00000000,0.00000000
-0.05500786,-2.17000008,-0.64806449,-0.26763535,2.87979317,0.00000000,0.00000000,-0.20562489,2.12249660,1.18114102,0.41677111,-0.15053871,0.00000000,0.00000000
0.00016453,-2.17000008,-0.64575821,-0.26829064,2.87979317,0.00000000,0.00000000,-0.20762114,2.12074733,1.19312370,0.42457619,-0.15486605,0.00000000,0.00000000
0.04758364,-2.17000008,-0.64508808,-0.27105004,2.87979317,0.00000000,0.00000000,-0.20932731,2.12189364,1.20307696,0.43187782,-0.16223675,0.00000000,0.00000000
0.08584745,-2.17000008,-0.64652503,-0.27447811,2.87979317,0.00000000,0.00000000,-0.21003431,2.12505817,1.21119058,0.43871102,-0.17005715,0.00000000,0.00000000
0.11481225,-2.17000008,-0.65024215,-0.27751184,2.87979317,0.00000000,0.00000000,-0.20898952,2.12933135,1.21771908,0.44522047,-0.17676441,0.00000000,0.00000000
0.13454643,-2.17000008,-0.65622008,-0.27998862,2.87979317,0.00000000,0.00000000,-0.20557675,2.13389754,1.22292101,0.45155978,-0.18470748,0.00000000,0.00000000
0.14523724,-2.17000008,-0.66428947,-0.28246680,2.87979317,0.00000000,0.00000000,-0.19959065,2.13793850,1.22703445,0.45774916,-0.18390764,0.00000000,0.00000000
0.14834036,-2.16997075,-0.67403555,-0.28518859,2.87979317,0.00000000,0.00000000,-0.19095369,2.14106178,1.23018622,0.46392131,-0.18583894,0.00000000,0.00000000
0.14636931,-2.16940498,-0.68495089,-0.28731591,2.87979317,0.00000000,0.00000000,-0.17953415,2.14373708,1.23230410,0.47059941,-0.18874355,0.00000000,0.00000000
0.13968532,-2.16608381,-0.69677776,-0.28912756,2.87979317,0.00000000,0.00000000,-0.16546780,2.14711285,1.23314977,0.47862607,-0.18724830,0.00000000,0.00000000
0.12900724,-2.15765405,-0.70920950,-0.29132202,2.87979317,0.00000000,0.00000000,-0.14954036,2.15195560,1.23252785,0.48867059,-0.18902466,0.00000000,0.00000000
0.11597449,-2.14635801,-0.72171724,-0.29486790,2.87979317,0.00000000,0.00000000,-0.13276266,2.15807700,1.23041832,0.50089437,-0.19182923,0.00000000,0.00000000
0.10121065,-2.13507915,-0.73393112,-0.30070060,2.87979317,0.00000000,0.00000000,-0.11627105,2.16426945,1.22705781,0.51477534,-0.19399066,0.00000000,0.00000000
0.08506420,-2.12432647,-0.74573785,-0.30850080,2.87979317,0.00000000,0.00000000,-0.10139975,2.16854668,1.22298729,0.52924085,-0.18682310,0.00000000,0.00000000
0.06856636,-2.11453819,-0.75690603,-0.31742650,2.87979317,0.00000000,0.00000000,-0.08927947,2.16986680,1.21905673,0.54299682,-0.17202017,0.00000000,0.00000000
0.05336122,-2.10627127,-0.76707697,-0.32647127,2.87979317,0.00000000,0.00000000,-0.08045596,2.16999626,1.21623850,0.55482906,-0.15903582,0.00000000,0.00000000
0.04084521,-2.09992647,-0.77592152,-0.33479157,2.87979317,0.00000000,0.00000000,-0.07494598,2.17000008,1.21505404,0.56409609,-0.15385932,0.00000000,0.00000000
0.03125742,-2.09627914,-0.78320622,-0.34231216,2.87979317,0.00000000,0.00000000,-0.07265334,2.17000008,1.21531057,0.57068288,-0.14961700,0.00000000,0.00000000
0.02402264,-2.09603167,-0.78882462,-0.34932023,2.87979317,0.00000000,0.00000000,-0.07341307,2.17000008,1.21651113,0.57470357,-0.14144319,0.00000000,0.00000000
0.01825449,-2.09899330,-0.79285878,-0.35582745,2.87979317,0.00000000,0.00000000,-0.07675152,2.16997957,1.21833563,0.57640630,-0.12608741,0.00000000,0.00000000
0.01280494,-2.10451460,-0.79552144,-0.36183769,2.87979317,0.00000000,0.00000000,-0.08207788,2.16963816,1.22053957,0.57620800,-0.10893699,0.00000000,0.00000000
0.00647393,-2.11160874,-0.79711151,-0.36734226,2.87979317,0.00000000,0.00000000,-0.08882713,2.16813445,1.22287571,0.57454932,-0.08599514,0.00000000,0.00000000
-0.00176437,-2.11979342,-0.79786837,-0.37251794,2.87979317,0.00000000,0.00000000,-0.09617426,2.16462159,1.22534060,0.57168585,-0.06436524,0.00000000,0.00000000
-0.01261147,-2.12892771,-0.79796487,-0.37759626,2.87979317,0.00000000,0.00000000,-0.10350493,2.15805507,1.22837293,0.56718189,-0.03685784,0.00000000,0.00000000
-0.02709712,-2.13795137,-0.79778802,-0.38252863,2.87979317,0.00000000,0.00000000,-0.11110050,2.14784122,1.23224771,0.56010002,-0.00238950,0.00000000,0.00000000
-0.04590564,-2.14584184,-0.79765230,-0.38713831,2.87979317,0.00000000,0.00000000,-0.11980916,2.13506269,1.23654819,0.54986924,0.03679822,0.00000000,0.00000000
-0.06799348,-2.15279794,-0.79734594,-0.39104500,2.87979317,0.00000000,0.00000000,-0.13026541,2.12185431,1.24047649,0.53670901,0.07286873,0.00000000,0.00000000
-0.09145582,-2.15896082,-0.79649478,-0.39344603,2.87979317,0.00000000,0.00000000,-0.14275478,2.11022472,1.24328566,0.52138847,0.10851359,0.00000000,0.00000000
-0.11487884,-2.16395879,-0.79492593,-0.39349693,2.87979317,0.00000000,0.00000000,-0.15699896,2.10193491,1.24436915,0.50516933,0.14092705,0.00000000,0.00000000
-0.13794218,-2.16739368,-0.79273856,-0.39082804,2.87979317,0.00000000,0.00000000,-0.17184882,2.09791636,1.24348307,0.48956761,0.18001467,0.00000000,0.00000000
-0.16027200,-2.16864109,-0.79018492,-0.38520119,2.87979317,0.00000000,0.00000000,-0.18603322,2.09871316,1.24053633,0.47594538,0.22413741,0.00000000,0.00000000
-0.18001504,-2.16701055,-0.78738838,-0.37688512,2.87979317,0.00000000,0.00000000,-0.19919378,2.10393548,1.23564112,0.46470907,0.26730245,0.00000000,0.00000000
-0.20025931,-2.16511250,-0.78472191,-0.37079838,2.87979317,0.00000000,0.00000000,-0.21200022,2.11200356,1.22916746,0.45518020,0.30748850,0.00000000,0.00000000
-0.22365065,-2.16407561,-0.78267056,-0.36928010,2.87979317,0.00000000,0.00000000,-0.22481129,2.12200451,1.22133541,0.44695920,0.34435490,0.00000000,0.00000000
-0.24904428,-2.16361380,-0.78124493,-0.37133804,2.87979317,0.00000000,0.00000000,-0.23752196,2.13297009,1.21237576,0.43983907,0.38148069,0.00000000,0.00000000
-0.27502856,-2.16396070,-0.78022760,-0.37603667,2.87979317,0.00000000,0.00000000,-0.24970187,2.14368796,1.20255065,0.43365625,0.41455847,0.00000000,0.00000000
-0.30121616,-2.16524053,-0.77950102,-0.38298789,2.87979317,0.00000000,0.00000000,-0.26107073,2.15326548,1.19198322,0.42813236,0.44149369,0.00000000,0.00000000
-0.32776320,-2.16717911,-0.77903527,-0.39202717,2.87979317,0.00000000,0.00000000,-0.27127501,2.16115069,1.18072557,0.42312330,0.47030708,0.00000000,0.00000000
-0.35510579,-2.16891670,-0.77888316,-0.40296608,2.87979317,0.00000000,0.00000000,-0.27980703,2.16668129,1.16890562,0.41859213,0.50038981,0.00000000,0.00000000
-0.38328543,-2.16979122,-0.77900082,-0.41551879,2.87979317,0.00000000,0.00000000,-0.28589144,2.16935110,1.15679359,0.41454598,0.52995646,0.00000000,0.00000000
-0.41211712,-2.16998863,-0.77929574,-0.42935762,2.87979317,0.00000000,0.00000000,-0.28868002,2.16996384,1.14481080,0.41074887,0.56001520,0.00000000,0.00000000
-0.44170389,-2.17000008,-0.77978098,-0.44418594,2.87979317,0.00000000,0.00000000,-0.28766271,2.17000008,1.13341653,0.40650299,0.58821970,0.00000000,0.00000000
-0.47228295,-2.16999269,-0.78052896,-0.45973268,2.87979317,0.00000000,0.00000000,-0.28269887,2.17000008,1.12287879,0.40100577,0.61920148,0.00000000,0.00000000
-0.50361222,-2.16985869,-0.78154707,-0.47546753,2.87979317,0.00000000,0.00000000,-0.27412540,2.16995454,1.11316109,0.39360848,0.64710391,0.00000000,0.00000000
-0.53516805,-2.16917276,-0.78278399,-0.49071205,2.87979317,0.00000000,0.00000000,-0.26252392,2.16921043,1.10396659,0.38407481,0.66255754,0.00000000,0.00000000
-0.56755030,-2.16811228,-0.78438580,-0.50515485,2.87979317,0.00000000,0.00000000,-0.24839194,2.16619802,1.09486234,0.37265989,0.67936516,0.00000000,0.00000000
-0.60054731,-2.16767287,-0.78642124,-0.51786375,2.87979317,0.00000000,0.00000000,-0.23212203,2.16072154,1.08544195,0.35984519,0.69845408,0.00000000,0.00000000
-0.62975162,-2.16711402,-0.78831685,-0.52588165,2.87979317,0.00000000,0.00000000,-0.21379367,2.15404153,1.07545853,0.34628636,0.71963036,0.00000000,0.00000000
-0.65179092,-2.16774225,-0.78864372,-0.52904969,2.87979317,0.00000000,0.00000000,-0.19344503,2.14720082,1.06484127,0.33253151,0.73738706,0.00000000,0.00000000
-0.66409558,-2.16932344,-0.78608900,-0.52827460,2.87979317,0.00000000,0.00000000,-0.17084047,2.14117432,1.05356967,0.31918141,0.75466627,0.00000000,0.00000000
-0.66366905,-2.16994905,-0.77988809,-0.52303243,2.87979317,0.00000000,0.00000000,-0.14528674,2.13673854,1.04171550,0.30695805,0.77064687,0.00000000,0.00000000
-0.64926827,-2.16999960,-0.76964432,-0.51343280,2.87979317,0.00000000,0.00000000,-0.11640863,2.13424230,1.02943337,0.29644960,0.78449297,0.00000000,0.00000000
-0.62141091,-2.17000008,-0.75549567,-0.50020826,2.87979317,0.00000000,0.00000000,-0.08427579,2.13377309,1.01693761,0.28813806,0.79961729,0.00000000,0.00000000
-0.58168072,-2.17000008,-0.73807585,-0.48418942,2.87979317,0.00000000,0.00000000,-0.04927119,2.13504839,1.00448632,0.28232020,0.81050795,0.00000000,0.00000000
-0.53214651,-2.17000008,-0.71827161,-0.46611953,2.87979317,0.00000000,0.00000000,-0.01211776,2.13727784,0.99231511,0.27889141,0.81865251,0.00000000,0.00000000
-0.47502640,-2.17000008,-0.69710463,-0.44647980,2.87979317,0.00000000,0.00000000,0.02605785,2.13932347,0.98059946,0.27719077,0.82406735,0.00000000,0.00000000
-0.41214889,-2.17000008,-0.67548090,-0.42548171,2.87979317,0.00000000,0.00000000,0.06439273,2.14054775,0.96942395,0.27651399,0.83116019,0.00000000,0.00000000
-0.34559250,-2.17000008,-0.65422219,-0.40341106,2.87979317,0.00000000,0.00000000,0.10190082,2.14139724,0.95868236,0.27626857,0.84059948,0.00000000,0.00000000
-0.27883136,-2.17000008,-0.63436747,-0.38066325,2.87979317,0.00000000,0.00000000,0.13669838,2.14155054,0.94826418,0.27536649,0.85590303,0.00000000,0.00000000
-0.21517840,-2.17000008,-0.61691326,-0.35698140,2.87979317,0.00000000,0.00000000,0.16867737,2.13953876,0.93834436,0.27368993,0.87303865,0.00000000,0.00000000
-0.15501182,-2.17000008,-0.60215580,-0.33125466,2.87979317,0.00000000,0.00000000,0.19968012,2.13497281,0.92910075,0.27241927,0.88885683,0.00000000,0.00000000
-0.09687682,-2.17000008,-0.58973789,-0.30282605,2.87979317,0.00000000,0.00000000,0.22928920,2.12977266,0.92019367,0.27211404,0.90459692,0.00000000,0.00000000
-0.03957751,-2.16994333,-0.57912862,-0.27171955,2.87979317,0.00000000,0.00000000,0.25665420,2.12443566,0.91145718,0.27235562,0.92381668,0.00000000,0.00000000
0.01730758,-2.16905904,-0.56978631,-0.23817421,2.87979317,0.00000000,0.00000000,0.28280610,2.11878943,0.90300471,0.27328637,0.93900084,0.00000000,0.00000000
0.07185474,-2.16603947,-0.56136161,-0.20321865,2.87979317,0.00000000,0.00000000,0.30914280,2.11562157,0.89458048,0.27630845,0.95298994,0.00000000,0.00000000
0.11715021,-2.16200161,-0.55396193,-0.17187759,2.87979317,0.00000000,0.00000000,0.33561277,2.11698747,0.88584340,0.28191316,0.96729934,0.00000000,0.00000000
0.15262367,-2.15858960,-0.54732901,-0.14582379,2.87979317,0.00000000,0.00000000,0.36186683,2.12222791,0.87677878,0.28961879,0.98903322,0.00000000,0.00000000
0.18070020,-2.15681362,-0.54116058,-0.12476412,2.87979317,0.00000000,0.00000000,0.38645643,2.12991261,0.86740291,0.29835585,1.00719404,0.00000000,0.00000000
0.20349610,-2.15669703,-0.53532052,-0.10800166,2.87979317,0.00000000,0.00000000,0.40724891,2.13836217,0.85773677,0.30679271,1.01909292,0.00000000,0.00000000
0.22240449,-2.15738988,-0.52978677,-0.09449605,2.87979317,0.00000000,0.00000000,0.42325741,2.14589787,0.84795105,0.31416136,1.02847052,0.00000000,0.00000000
0.23743159,-2.15807915,-0.52462083,-0.08361590,2.87979317,0.00000000,0.00000000,0.43460622,2.15190721,0.83818436,0.32056510,1.03168499,0.00000000,0.00000000
0.24765974,-2.15836596,-0.51991302,-0.07529907,2.87979317,0.00000000,0.00000000,0.44163394,2.15665126,0.82843781,0.32646829,1.03197694,0.00000000,0.00000000
0.25198048,-2.15825915,-0.51574022,-0.06986234,2.87979317,0.00000000,0.00000000,0.44428951,2.16057301,0.81858712,0.33216560,1.02843308,0.00000000,0.00000000
0.24952476,-2.15811110,-0.51214999,-0.06780712,2.87979317,0.00000000,0.00000000,0.44202995,2.16395235,0.80842644,0.33764514,1.03069127,0.00000000,0.00000000
0.23971677,-2.15851998,-0.50916457,-0.06973986,2.87979317,0.00000000,0.00000000,0.43427432,2.16682482,0.79776376,0.34280178,1.03751802,0.00000000,0.00000000
0.22229673,-2.16008019,-0.50678605,-0.07623774,2.87979317,0.00000000,0.00000000,0.42089748,2.16887331,0.78651750,0.34763753,1.04136443,0.00000000,0.00000000
0.19732302,-2.16286874,-0.50500679,-0.08758266,2.87979317,0.00000000,0.00000000,0.40210596,2.16979551,0.77469164,0.35222760,1.04150724,0.00000000,0.00000000
0.16523236,-2.16621304,-0.50381345,-0.10365146,2.87979317,0.00000000,0.00000000,0.37813312,2.16998911,0.76234591,0.35654932,1.03582859,0.00000000,0.00000000
0.12689629,-2.16883492,-0.50319099,-0.12395333,2.87979317,0.00000000,0.00000000,0.34917951,2.17000008,0.74963951,0.36031413,1.02847123,0.00000000,0.00000000
0.08322403,-2.16983652,-0.50314832,-0.14763685,2.87979317,0.00000000,0.00000000,0.31544748,2.17000008,0.73680198,0.36303079,1.01441419,0.00000000,0.00000000
0.03522626,-2.16999245,-0.50370425,-0.17329937,2.87979317,0.00000000,0.00000000,0.27690455,2.17000008,0.72406572,0.36391354,0.99937648,0.00000000,0.00000000
-0.01546095,-2.17000008,-0.50481403,-0.19920842,2.87979317,0.00000000,0.00000000,0.23425153,2.17000008,0.71190250,0.36200577,0.98298311,0.00000000,0.00000000
-0.06813480,-2.17000008,-0.50660402,-0.22338043,2.87979317,0.00000000,0.00000000,0.19148161,2.17000008,0.70130616,0.35774237,0.97219497,0.00000000,0.00000000
-0.12173244,-2.17000008,-0.50936675,-0.24228869,2.87979317,0.00000000,0.00000000,0.15150401,2.17000008,0.69300669,0.35142234,0.96147335,0.00000000,0.00000000
-0.17222315,-2.17000008,-0.51281315,-0.25416028,2.87979317,0.00000000,0.00000000,0.11136390,2.17000008,0.68697733,0.34006885,0.95038205,0.00000000,0.00000000
-0.22089110,-2.17000008,-0.51694381,-0.26135236,2.87979317,0.00000000,0.00000000,0.06708785,2.16992760,0.68274319,0.32073194,0.93757117,0.00000000,0.00000000
-0.26858693,-2.17000008,-0.52151531,-0.26659420,2.87979317,0.00000000,0.00000000,0.02030634,2.16878581,0.68000972,0.29451916,0.92664194,0.00000000,0.00000000
-0.31727156,-2.17000008,-0.52653348,-0.27203369,2.87979317,0.00000000,0.00000000,-0.02267627,2.16477036,0.67841971,0.26734918,0.90606290,0.00000000,0.00000000
-0.36850855,-2.17000008,-0.53219515,-0.27834338,2.87979317,0.00000000,0.00000000,-0.05953809,2.15942001,0.67738479,0.24292329,0.88126022,0.00000000,0.00000000
-0.42039835,-2.17000008,-0.53841656,-0.28432795,2.87979317,0.00000000,0.00000000,-0.09179649,2.15544653,0.67630297,0.22216661,0.85464066,0.00000000,0.00000000
-0.46937668,-2.17000008,-0.54477477,-0.28903571,2.87979317,0.00000000,0.00000000,-0.12052900,2.15308809,0.67498344,0.20471446,0.82821083,0.00000000,0.00000000
-0.51403356,-2.17000008,-0.55100071,-0.29283777,2.87979317,0.00000000,0.00000000,-0.14583594,2.15167069,0.67347419,0.19005620,0.80198485,0.00000000,0.00000000
-0.55421507,-2.17000008,-0.55696887,-0.29648322,2.87979317,0.00000000,0.00000000,-0.16780414,2.15065217,0.67184329,0.17774504,0.77670109,0.00000000,0.00000000
-0.58940566,-2.17000008,-0.56247294,-0.30051941,2.87979317,0.00000000,0.00000000,-0.18636501,2.14976430,0.67015302,0.16759817,0.75570732,0.00000000,0.00000000
-0.61879051,-2.17000008,-0.56722099,-0.30528647,2.87979317,0.00000000,0.00000000,-0.20117252,2.14878178,0.66845745,0.15957628,0.73855329,0.00000000,0.00000000
-0.64154673,-2.17000008,-0.57088494,-0.31103158,2.87979317,0.00000000,0.00000000,-0.21162705,2.14761448,0.66679180,0.15374327,0.72285229,0.00000000,0.00000000
-0.65662771,-2.17000008,-0.57309109,-0.31781527,2.87979317,0.00000000,0.00000000,-0.21683761,2.14655948,0.66519725,0.15051489,0.70682305,0.00000000,0.00000000
-0.66276175,-2.17000008,-0.57345426,-0.32539201,2.87979317,0.00000000,0.00000000,-0.21590623,2.14612603,0.66374105,0.15063280,0.68961650,0.00000000,0.00000000
-0.65893137,-2.17000008,-0.57169533,-0.33327648,2.87979317,0.00000000,0.00000000,-0.20828529,2.14702058,0.66251254,0.15498289,0.67580587,0.00000000,0.00000000
-0.64476264,-2.17000008,-0.56771636,-0.34092408,2.87979317,0.00000000,0.00000000,-0.19378743,2.14990807,0.66162825,0.16430852,0.66242009,0.00000000,0.00000000
-0.62071514,-2.17000008,-0.56162989,-0.34798935,2.87979317,0.00000000,0.00000000,-0.17264459,2.15469265,0.66121775,0.17875887,0.65730321,0.00000000,0.00000000
-0.58779180,-2.17000008,-0.55370533,-0.35427877,2.87979317,0.00000000,0.00000000,-0.14565897,2.16046953,0.66137230,0.19775411,0.65554231,0.00000000,0.00000000
-0.54724658,-2.17000008,-0.54433823,-0.35946476,2.87979317,0.00000000,0.00000000,-0.11431113,2.16582823,0.66210449,0.22012110,0.65306926,0.00000000,0.00000000
-0.50063545,-2.17000008,-0.53407586,-0.36297122,2.87979317,0.00000000,0.00000000,-0.08056671,2.16908979,0.66340107,0.24396306,0.64870507,0.00000000,0.00000000
-0.44965979,-2.17000008,-0.52359420,-0.36380351,2.87979317,0.00000000,0.00000000,-0.04647813,2.16994715,0.66532564,0.26652119,0.64431727,0.00000000,0.00000000
-0.39600265,-2.17000008,-0.51364404,-0.36047578,2.87979317,0.00000000,0.00000000,-0.01396120,2.17000008,0.66791207,0.28512105,0.64451450,0.00000000,0.00000000
-0.34233251,-2.17000008,-0.50499147,-0.35234705,2.87979317,0.00000000,0.00000000,0.01677096,2.16996312,0.67118347,0.29885766,0.65051305,0.00000000,0.00000000
-0.29295295,-2.16999269,-0.49840981,-0.34032422,2.87979317,0.00000000,0.00000000,0.04721479,2.16923404,0.67539465,0.30761576,0.66215247,0.00000000,0.00000000
-0.24842198,-2.16981244,-0.49388415,-0.32447043,2.87979317,0.00000000,0.00000000,0.07721775,2.16483188,0.68048364,0.31092429,0.67814046,0.00000000,0.00000000
-0.20480239,-2.16844082,-0.49041119,-0.30447754,2.87979317,0.00000000,0.00000000,0.10498997,2.15344882,0.68577474,0.30918571,0.69508970,0.00000000,0.00000000
-0.15664922,-2.16541433,-0.48644873,-0.28122124,2.87979317,0.00000000,0.00000000,0.12933801,2.13805437,0.69047999,0.30382577,0.71247721,0.00000000,0.00000000
-0.10141578,-2.16300774,-0.48108900,-0.25551620,2.87979317,0.00000000,0.00000000,0.15000074,2.12305021,0.69406259,0.29641283,0.72872150,0.00000000,0.00000000
-0.04199198,-2.15982080,-0.47464067,-0.22849709,2.87979317,0.00000000,0.00000000,0.16802746,2.11049891,0.69650918,0.28802443,0.73421252,0.00000000,0.00000000
0.01722348,-2.15600848,-0.46764210,-0.20239666,2.87979317,0.00000000,0.00000000,0.18546194,2.10083079,0.69817179,0.27944624,0.74644774,0.00000000,0.00000000
0.07274044,-2.15286326,-0.46051323,-0.17905189,2.87979317,0.00000000,0.00000000,0.20429090,2.09364843,0.69948500,0.27124935,0.75961673,0.00000000,0.00000000
0.12242948,-2.15139532,-0.45351571,-0.15972090,2.87979317,0.00000000,0.00000000,0.22545318,2.08865786,0.70069796,0.26384634,0.77148837,0.00000000,0.00000000
0.16518942,-2.15224624,-0.44679335,-0.14520708,2.87979317,0.00000000,0.00000000,0.24859357,2.08588862,0.70181584,0.25743073,0.77930194,0.00000000,0.00000000
0.20078902,-2.15524936,-0.44042453,-0.13557827,2.87979317,0.00000000,0.00000000,0.27281260,2.08492351,0.70278531,0.25181794,0.79189968,0.00000000,0.00000000
0.22958265,-2.15965176,-0.43444571,-0.13037631,2.87979317,0.00000000,0.00000000,0.29668209,2.08520198,0.70348477,0.24668689,0.81085223,0.00000000,0.00000000
0.25229686,-2.16410589,-0.42887339,-0.12871884,2.87979317,0.00000000,0.00000000,0.31817234,2.08696222,0.70364863,0.24212787,0.82741779,0.00000000,0.00000000
0.26972923,-2.16754484,-0.42370015,-0.12993355,2.87979317,0.00000000,0.00000000,0.33496553,2.09159493,0.70289481,0.23871188,0.84734911,0.00000000,0.00000000
0.28195274,-2.16947126,-0.41897035,-0.13359918,2.87979317,0.00000000,0.00000000,0.34492284,2.09930134,0.70100647,0.23624881,0.86681867,0.00000000,0.00000000
0.28812817,-2.16996932,-0.41485387,-0.13866448,2.87979317,0.00000000,0.00000000,0.34687665,2.10864496,0.69804603,0.23392008,0.88176489,0.00000000,0.00000000
0.28720957,-2.17000008,-0.41156396,-0.14386514,2.87979317,0.00000000,0.00000000,0.34112746,2.11878681,0.69418716,0.23168820,0.89919376,0.00000000,0.00000000
0.27813655,-2.17000008,-0.40928182,-0.14857894,2.87979317,0.00000000,0.00000000,0.32884502,2.12958264,0.68962049,0.23016971,0.91224879,0.00000000,0.00000000
0.25988618,-2.17000008,-0.40814605,-0.15269648,2.87979317,0.00000000,0.00000000,0.31172824,2.14079118,0.68457341,0.23014005,0.92577094,0.00000000,0.00000000
0.23199169,-2.17000008,-0.40822646,-0.15616547,2.87979317,0.00000000,0.00000000,0.29147699,2.15170050,0.67928749,0.23222359,0.93650860,0.00000000,0.00000000
0.19500604,-2.17000008,-0.40947777,-0.15906496,2.87979317,0.00000000,0.00000000,0.26869747,2.16117954,0.67390466,0.23660222,0.94902492,0.00000000,0.00000000
0.15052758,-2.17000008,-0.41174525,-0.16135468,2.87979317,0.00000000,0.00000000,0.24309719,2.16757393,0.66849661,0.24299194,0.96294576,0.00000000,0.00000000
0.10106010,-2.16994071,-0.41479233,-0.16250524,2.87979317,0.00000000,0.00000000,0.21483494,2.16971874,0.66334206,0.25029853,0.97985256,0.00000000,0.00000000
0.04868541,-2.16904664,-0.41840810,-0.16192029,2.87979317,0.00000000,0.00000000,0.18527685,2.16998911,0.65917027,0.25565651,0.99640155,0.00000000,0.00000000
-0.00711709,-2.16636395,-0.42256707,-0.16017349,2.87979317,0.00000000,0.00000000,0.15802674,2.17000008,0.65701133,0.25600573,1.01569855,0.00000000,0.00000000
-0.06660674,-2.16410089,-0.42714971,-0.15921536,2.87979317,0.00000000,0.00000000,0.13636221,2.17000008,0.65735614,0.25116584,1.03466976,0.00000000,0.00000000
-0.12863383,-2.16364431,-0.43195283,-0.16067325,2.87979317,0.00000000,0.00000000,0.11850205,2.17000008,0.65986037,0.24086542,1.05414593,0.00000000,0.00000000
-0.19013439,-2.16402674,-0.43667495,-0.16412263,2.87979317,0.00000000,0.00000000,0.10058736,2.16994524,0.66369885,0.22543734,1.07309556,0.00000000,0.00000000
-0.24838024,-2.16552734,-0.44102395,-0.16907763,2.87979317,0.00000000,0.00000000,0.08043100,2.16905117,0.66817230,0.20633990,1.08619380,0.00000000,0.00000000
-0.30279115,-2.16772318,-0.44495454,-0.17490414,2.87979317,0.00000000,0.00000000,0.05829554,2.16547585,0.67291552,0.18573025,1.09496820,0.00000000,0.00000000
-0.35442677,-2.16940355,-0.44860810,-0.18099134,2.87979317,0.00000000,0.00000000,0.03629626,2.15891051,0.67788392,0.16578658,1.10619605,0.00000000,0.00000000
-0.40458748,-2.16994238,-0.45213538,-0.18701515,2.87979317,0.00000000,0.00000000,0.01632567,2.15040159,0.68314582,0.14787002,1.11656737,0.00000000,0.00000000
-0.45375007,-2.16999841,-0.45557404,-0.19299367,2.87979317,0.00000000,0.00000000,-0.00105128,2.14106679,0.68871802,0.13252543,1.12644184,0.00000000,0.00000000
-0.50152469,-2.17000008,-0.45887023,-0.19899774,2.87979317,0.00000000,0.00000000,-0.01629705,2.13199449,0.69456297,0.11979341,1.13251007,0.00000000,0.00000000
-0.54691964,-2.17000008,-0.46192321,-0.20481023,2.87979317,0.00000000,0.00000000,-0.03024347,2.12416983,0.70064199,0.10946066,1.14456868,0.00000000,0.00000000
-0.58863449,-2.17000008,-0.46460140,-0.21003707,2.87979317,0.00000000,0.00000000,-0.04339285,2.11828566,0.70695949,0.10136292,1.16574025,0.00000000,0.00000000
-0.62531847,-2.17000008,-0.46675369,-0.21428955,2.87979317,0.00000000,0.00000000,-0.05578749,2.11452770,0.71356481,0.09541708,1.18114424,0.00000000,0.00000000
-0.65575385,-2.17000008,-0.46821636,-0.21733473,2.87979317,0.00000000,0.00000000,-0.06723846,2.11263156,0.72052556,0.09150029,1.19339550,0.00000000,0.00000000
-0.67901289,-2.17000008,-0.46884239,-0.21910848,2.87979317,0.00000000,0.00000000,-0.07746640,2.11211085,0.72790617,0.08945286,1.20522475,0.00000000,0.00000000
-0.69440645,-2.17000008,-0.46851262,-0.21960683,2.87979317,0.00000000,0.00000000,-0.08613173,2.11242366,0.73576194,0.08916102,1.22005558,0.00000000,0.00000000
-0.70148373,-2.17000008,-0.46714759,-0.21878929,2.87979317,0.00000000,0.00000000,-0.09291139,2.11306739,0.74413592,0.09059417,1.23512602,0.00000000,0.00000000
-0.70014596,-2.17000008,-0.46472341,-0.21661556,2.87979317,0.00000000,0.00000000,-0.09745429,2.11378407,0.75305516,0.09391323,1.24549806,0.00000000,0.00000000
-0.69072264,-2.17000008,-0.46128035,-0.21317106,2.87979317,0.00000000,0.00000000,-0.09941325,2.11484480,0.76251924,0.09942498,1.25843179,0.00000000,0.00000000
-0.67384195,-2.17000008,-0.45690316,-0.20874627,2.87979317,0.00000000,0.00000000,-0.09849508,2.11715126,0.77249479,0.10743328,1.26734483,0.00000000,0.00000000
-0.65045547,-2.17000008,-0.45174354,-0.20374925,2.87979317,0.00000000,0.00000000,-0.09478588,2.12170625,0.78292859,0.11800604,1.27690721,0.00000000,0.00000000
-0.62192559,-2.17000008,-0.44604617,-0.19856377,2.87979317,0.00000000,0.00000000,-0.08907928,2.12848020,0.79375863,0.13057685,1.28581941,0.00000000,0.00000000
-0.59000415,-2.17000008,-0.44011793,-0.19359498,2.87979317,0.00000000,0.00000000,-0.08251396,2.13574266,0.80493772,0.14381054,1.29289317,0.00000000,0.00000000
-0.55643964,-2.17000008,-0.43425336,-0.18918580,2.87979317,0.00000000,0.00000000,-0.07602904,2.14103389,0.81644815,0.15620603,1.30119550,0.00000000,0.00000000
-0.52268451,-2.17000008,-0.42867908,-0.18550889,2.87979317,0.00000000,0.00000000,-0.07002438,2.14243031,0.82828945,0.16676244,1.31245720,0.00000000,0.00000000
-0.48946890,-2.17000008,-0.42349067,-0.18255642,2.87979317,0.00000000,0.00000000,-0.06424351,2.13938022,0.84043592,0.17547643,1.32420731,0.00000000,0.00000000
-0.45681161,-2.17000008,-0.41865933,-0.18017484,2.87979317,0.00000000,0.00000000,-0.05805512,2.13234377,0.85283297,0.18310991,1.33269751,0.00000000,0.00000000
-0.42442289,-2.17000008,-0.41409481,-0.17817912,2.87979317,0.00000000,0.00000000,-0.05074259,2.12201834,0.86543280,0.19064352,1.33404315,0.00000000,0.00000000
-0.39166531,-2.17000008,-0.40965578,-0.17652299,2.87979317,0.00000000,0.00000000,-0.04160744,2.10912299,0.87819880,0.19897957,1.33303952,0.00000000,0.00000000
-0.35736239,-2.17000008,-0.40514177,-0.17528643,2.87979317,0.00000000,0.00000000,-0.03010594,2.09463787,0.89105594,0.20885573,1.32783866,0.00000000,0.00000000
-0.32022771,-2.17000008,-0.40034539,-0.17468370,2.87979317,0.00000000,0.00000000,-0.01587403,2.07984209,0.90385371,0.22084992,1.32060826,0.00000000,0.00000000
-0.27931005,-2.17000008,-0.39511839,-0.17504041,2.87979317,0.00000000,0.00000000,0.00114446,2.06604409,0.91637117,0.23540291,1.31135643,0.00000000,0.00000000
-0.23438764,-2.17000008,-0.38941345,-0.17684543,2.87979317,0.00000000,0.00000000,0.02069409,2.05447412,0.92834526,0.25276524,1.30240083,0.00000000,0.00000000
-0.18645382,-2.17000008,-0.38334796,-0.18052723,2.87979317,0.00000000,0.00000000,0.04210081,2.04622579,0.93949682,0.27287975,1.29558933,0.00000000,0.00000000
-0.13787383,-2.17000008,-0.37724319,-0.18593079,2.87979317,0.00000000,0.00000000,0.06411585,2.04206491,0.94952983,0.29520309,1.29323101,0.00000000,0.00000000
-0.09186152,-2.17000008,-0.37156180,-0.19215079,2.87979317,0.00000000,0.00000000,0.08520788,2.04233074,0.95813251,0.31867030,1.29420900,0.00000000,0.00000000
-0.05098547,-2.17000008,-0.36671078,-0.19784389,2.87979317,0.00000000,0.00000000,0.10384052,2.04696012,0.96499580,0.34188065,1.29034150,0.00000000,0.00000000
-0.01530516,-2.17000008,-0.36276081,-0.20180206,2.87979317,0.00000000,0.00000000,0.11851725,2.05536127,0.96986318,0.36335021,1.28494036,0.00000000,0.00000000
0.01659225,-2.17000008,-0.35953084,-0.20339327,2.87979317,0.00000000,0.00000000,0.12834238,2.06626558,0.97265667,0.38181713,1.28371203,0.00000000,0.00000000
0.04346310,-2.17000008,-0.35711914,-0.20263572,2.87979317,0.00000000,0.00000000,0.13349774,2.07841420,0.97347057,0.39663142,1.28469014,0.00000000,0.00000000
0.06218385,-2.17000008,-0.35588807,-0.19876944,2.87979317,0.00000000,0.00000000,0.13502946,2.09117174,0.97247618,0.40781209,1.27633321,0.00000000,0.00000000
