isaac-sim2real/sage/motion_files/wr75s/amass/0-Eyes_Japan_Dataset_hamada_walk-16-push by hand-hamada_poses_idx24.txt
l_joint1,l_joint2,l_joint3,l_joint4,l_joint5,l_joint6,l_joint7,r_joint1,r_joint2,r_joint3,r_joint4,r_joint5,r_joint6,r_joint7
-1.05257392,-1.05935621,0.28218761,0.39043635,0.00524712,0.00000000,0.00000000,-0.79495358,1.04057717,0.11918161,-0.52475601,-0.03949352,0.00000000,0.00000000
-1.05178082,-1.06016135,0.28159046,0.38963667,0.00427108,0.00000000,0.00000000,-0.79437643,1.04251575,0.11944280,-0.52523863,-0.04979379,0.00000000,0.00000000
-1.05024302,-1.06177831,0.28055680,0.38822097,0.00377980,0.00000000,0.00000000,-0.79333097,1.04609013,0.11985220,-0.52612299,-0.06274591,0.00000000,0.00000000
-1.04795623,-1.06431794,0.27922541,0.38631117,0.00137253,0.00000000,0.00000000,-0.79183418,1.05119121,0.12035228,-0.52719265,-0.07446039,0.00000000,0.00000000
-1.04497778,-1.06753719,0.27780038,0.38421297,-0.00326159,0.00000000,0.00000000,-0.78999591,1.05733228,0.12092293,-0.52820814,-0.08535253,0.00000000,0.00000000
-1.04140568,-1.07088995,0.27650854,0.38238564,-0.00189986,0.00000000,0.00000000,-0.78803366,1.06378782,0.12155241,-0.52897739,-0.09830572,0.00000000,0.00000000
-1.03733253,-1.07394087,0.27556673,0.38119689,-0.00395908,0.00000000,0.00000000,-0.78611153,1.06989586,0.12225555,-0.52931821,-0.11119626,0.00000000,0.00000000
-1.03284812,-1.07637262,0.27516747,0.38090703,-0.00771009,0.00000000,0.00000000,-0.78433549,1.07507420,0.12305964,-0.52911532,-0.12613320,0.00000000,0.00000000
-1.02802539,-1.07820177,0.27548417,0.38157365,-0.01063751,0.00000000,0.00000000,-0.78277302,1.07864463,0.12394334,-0.52841961,-0.13773739,0.00000000,0.00000000
-1.02290738,-1.07953250,0.27660134,0.38315618,-0.00974359,0.00000000,0.00000000,-0.78151166,1.08016217,0.12480926,-0.52736795,-0.15217254,0.00000000,0.00000000
-1.01749468,-1.08046639,0.27846834,0.38553718,-0.00830562,0.00000000,0.00000000,-0.78059810,1.07974219,0.12553798,-0.52610821,-0.16062728,0.00000000,0.00000000
-1.01177025,-1.08122134,0.28099367,0.38851351,-0.00678695,0.00000000,0.00000000,-0.77996397,1.07773995,0.12606043,-0.52477288,-0.16682206,0.00000000,0.00000000
-1.00573456,-1.08187127,0.28409079,0.39195839,-0.00475119,0.00000000,0.00000000,-0.77947301,1.07462990,0.12638293,-0.52340466,-0.17100646,0.00000000,0.00000000
-0.99938369,-1.08263993,0.28766689,0.39566863,-0.00322778,0.00000000,0.00000000,-0.77894956,1.07099259,0.12649873,-0.52199697,-0.17639355,0.00000000,0.00000000
-0.99272734,-1.08367193,0.29165417,0.39949709,-0.00465427,0.00000000,0.00000000,-0.77829438,1.06725967,0.12637229,-0.52058887,-0.18007040,0.00000000,0.00000000
-0.98578191,-1.08470404,0.29596069,0.40349653,-0.01125883,0.00000000,0.00000000,-0.77756047,1.06390369,0.12595576,-0.51918441,-0.18206096,0.00000000,0.00000000
-0.97855043,-1.08535159,0.30043089,0.40772372,-0.01895050,0.00000000,0.00000000,-0.77685887,1.06132376,0.12525634,-0.51775056,-0.18598974,0.00000000,0.00000000
-0.97101921,-1.08561063,0.30491793,0.41201138,-0.02236774,0.00000000,0.00000000,-0.77613860,1.05959201,0.12440221,-0.51633716,-0.19617584,0.00000000,0.00000000
-0.96317762,-1.08577728,0.30934733,0.41611466,-0.02795721,0.00000000,0.00000000,-0.77526402,1.05850780,0.12354177,-0.51497751,-0.20872027,0.00000000,0.00000000
-0.95503360,-1.08600497,0.31368169,0.41995731,-0.02757587,0.00000000,0.00000000,-0.77424955,1.05796099,0.12275099,-0.51362276,-0.21751426,0.00000000,0.00000000
-0.94658470,-1.08622062,0.31782269,0.42362010,-0.03110389,0.00000000,0.00000000,-0.77319616,1.05780172,0.12205552,-0.51224947,-0.22168618,0.00000000,0.00000000
-0.93781698,-1.08620036,0.32160431,0.42720038,-0.03315965,0.00000000,0.00000000,-0.77224427,1.05750978,0.12144956,-0.51089567,-0.22789429,0.00000000,0.00000000
-0.92871350,-1.08578467,0.32485345,0.43070066,-0.03586019,0.00000000,0.00000000,-0.77152592,1.05680799,0.12094101,-0.50966728,-0.23527946,0.00000000,0.00000000
-0.91923398,-1.08507299,0.32740942,0.43398803,-0.03745063,0.00000000,0.00000000,-0.77104706,1.05560589,0.12054768,-0.50868428,-0.23623900,0.00000000,0.00000000
-0.90931952,-1.08440959,0.32914260,0.43686694,-0.03609720,0.00000000,0.00000000,-0.77076435,1.05397367,0.12023487,-0.50798333,-0.23929882,0.00000000,0.00000000
-0.89894456,-1.08383489,0.32992956,0.43933383,-0.03317665,0.00000000,0.00000000,-0.77075028,1.05220592,0.11991051,-0.50748312,-0.24700528,0.00000000,0.00000000
-0.88814151,-1.08306694,0.32970202,0.44155666,-0.03526400,0.00000000,0.00000000,-0.77113420,1.05039299,0.11949313,-0.50705290,-0.25524616,0.00000000,0.00000000
-0.87696975,-1.08186841,0.32849202,0.44372287,-0.03657140,0.00000000,0.00000000,-0.77196920,1.04824173,0.11896003,-0.50663769,-0.25838059,0.00000000,0.00000000
-0.86545861,-1.08043778,0.32638735,0.44582880,-0.03759430,0.00000000,0.00000000,-0.77303773,1.04590631,0.11839371,-0.50624698,-0.25506774,0.00000000,0.00000000
-0.85363644,-1.07920742,0.32353103,0.44775543,-0.03226829,0.00000000,0.00000000,-0.77403629,1.04376245,0.11788660,-0.50585520,-0.25447798,0.00000000,0.00000000
-0.84155047,-1.07845020,0.32009175,0.44943285,-0.02670476,0.00000000,0.00000000,-0.77481872,1.04203176,0.11740924,-0.50537223,-0.25674382,0.00000000,0.00000000
-0.82924628,-1.07839537,0.31625906,0.45082408,-0.02052872,0.00000000,0.00000000,-0.77531290,1.04082513,0.11688504,-0.50472909,-0.25941104,0.00000000,0.00000000
-0.81678116,-1.07919204,0.31221011,0.45193002,-0.01709136,0.00000000,0.00000000,-0.77543557,1.04023516,0.11624993,-0.50395477,-0.26078621,0.00000000,0.00000000
-0.80421346,-1.08073664,0.30806097,0.45278552,-0.01198266,0.00000000,0.00000000,-0.77518457,1.04017580,0.11542642,-0.50313634,-0.26918465,0.00000000,0.00000000
-0.79162067,-1.08268487,0.30391032,0.45352447,-0.00246180,0.00000000,0.00000000,-0.77461487,1.04041517,0.11433822,-0.50235659,-0.27523568,0.00000000,0.00000000
-0.77911991,-1.08447778,0.29986194,0.45444366,-0.00158121,0.00000000,0.00000000,-0.77381194,1.04062319,0.11294638,-0.50168443,-0.28024498,0.00000000,0.00000000
-0.76681155,-1.08577669,0.29603779,0.45575866,-0.00193761,0.00000000,0.00000000,-0.77274454,1.04050493,0.11128870,-0.50114942,-0.28581622,0.00000000,0.00000000
-0.75474429,-1.08651280,0.29251376,0.45749965,-0.00265814,0.00000000,0.00000000,-0.77131939,1.03998196,0.10940462,-0.50074708,-0.29013136,0.00000000,0.00000000
-0.74293220,-1.08670688,0.28926688,0.45960581,-0.00660145,0.00000000,0.00000000,-0.76951301,1.03917372,0.10726569,-0.50043863,-0.30168116,0.00000000,0.00000000
-0.73137593,-1.08638430,0.28622904,0.46200827,-0.01523506,0.00000000,0.00000000,-0.76735151,1.03815961,0.10482772,-0.50016898,-0.30999410,0.00000000,0.00000000
-0.72006172,-1.08581126,0.28337321,0.46456820,-0.03012576,0.00000000,0.00000000,-0.76475161,1.03686762,0.10211369,-0.49989322,-0.32091525,0.00000000,0.00000000
-0.70896590,-1.08534980,0.28066763,0.46714768,-0.04334129,0.00000000,0.00000000,-0.76159108,1.03534770,0.09916288,-0.49956214,-0.33446825,0.00000000,0.00000000
-0.69806802,-1.08510327,0.27801898,0.46972841,-0.05697739,0.00000000,0.00000000,-0.75780863,1.03368890,0.09596864,-0.49915281,-0.35409024,0.00000000,0.00000000
-0.68735182,-1.08501112,0.27529523,0.47234508,-0.06537307,0.00000000,0.00000000,-0.75346208,1.03204715,0.09249293,-0.49865720,-0.37494984,0.00000000,0.00000000
-0.67679924,-1.08505714,0.27240166,0.47503245,-0.07436053,0.00000000,0.00000000,-0.74858397,1.03054023,0.08870925,-0.49807292,-0.39715740,0.00000000,0.00000000
-0.66639251,-1.08524358,0.26935378,0.47786629,-0.07711165,0.00000000,0.00000000,-0.74311328,1.02892292,0.08461545,-0.49741355,-0.41798609,0.00000000,0.00000000
-0.65611792,-1.08562446,0.26624537,0.48091042,-0.07906462,0.00000000,0.00000000,-0.73699391,1.02699137,0.08022269,-0.49666202,-0.44203570,0.00000000,0.00000000
-0.64596552,-1.08616674,0.26306760,0.48419413,-0.08082822,0.00000000,0.00000000,-0.73026860,1.02453053,0.07549820,-0.49583822,-0.46205580,0.00000000,0.00000000
-0.63591689,-1.08728421,0.25975519,0.48743960,-0.08249762,0.00000000,0.00000000,-0.72286505,1.02176774,0.07042792,-0.49495801,-0.48224187,0.00000000,0.00000000
-0.62594199,-1.08961606,0.25622070,0.49019724,-0.08508764,0.00000000,0.00000000,-0.71469247,1.01920712,0.06502330,-0.49401596,-0.50317496,0.00000000,0.00000000
-0.61599642,-1.09323943,0.25235438,0.49223569,-0.09037312,0.00000000,0.00000000,-0.70587367,1.01711178,0.05923684,-0.49309963,-0.52393883,0.00000000,0.00000000
-0.60607463,-1.09763443,0.24804847,0.49361902,-0.10282959,0.00000000,0.00000000,-0.69665003,1.01541197,0.05299797,-0.49242967,-0.53734827,0.00000000,0.00000000
-0.59622687,-1.10212064,0.24324611,0.49457732,-0.11129876,0.00000000,0.00000000,-0.68717861,1.01373911,0.04629891,-0.49213904,-0.55215973,0.00000000,0.00000000
-0.58650434,-1.10628653,0.23801175,0.49527845,-0.11617009,0.00000000,0.00000000,-0.67754507,1.01169109,0.03923164,-0.49218023,-0.56680000,0.00000000,0.00000000
-0.57694554,-1.10976315,0.23240864,0.49590281,-0.12220566,0.00000000,0.00000000,-0.66790575,1.01057494,0.03194612,-0.49232841,-0.57789832,0.00000000,0.00000000
-0.56759334,-1.11192465,0.22642522,0.49680033,-0.12323733,0.00000000,0.00000000,-0.65814555,1.01076138,0.02451001,-0.49242792,-0.58514184,0.00000000,0.00000000
-0.55838180,-1.11292708,0.21985437,0.49785098,-0.12162537,0.00000000,0.00000000,-0.64789790,1.00749576,0.01693434,-0.49289259,-0.59109759,0.00000000,0.00000000
-0.54942524,-1.11291635,0.21294977,0.49912304,-0.12430753,0.00000000,0.00000000,-0.63751251,1.00531769,0.00930987,-0.49343008,-0.59832078,0.00000000,0.00000000
-0.54081243,-1.11190057,0.20581205,0.50067699,-0.12508099,0.00000000,0.00000000,-0.62685442,1.00460577,0.00165064,-0.49389371,-0.60852301,0.00000000,0.00000000
-0.53255385,-1.10989022,0.19835605,0.50247949,-0.12753065,0.00000000,0.00000000,-0.61572289,1.00461483,-0.00611037,-0.49457657,-0.61894131,0.00000000,0.00000000
-0.52460176,-1.10741580,0.19038677,0.50418007,-0.13431026,0.00000000,0.00000000,-0.60430533,1.00483072,-0.01403629,-0.49602914,-0.63150048,0.00000000,0.00000000
-0.51701969,-1.10478163,0.18192329,0.50566953,-0.14495811,0.00000000,0.00000000,-0.59212214,1.00594211,-0.02216086,-0.49841779,-0.63968509,0.00000000,0.00000000
-0.50988024,-1.10270870,0.17314668,0.50664788,-0.15028629,0.00000000,0.00000000,-0.57896787,1.00732017,-0.03039136,-0.50187397,-0.64582086,0.00000000,0.00000000
-0.50326377,-1.10123003,0.16418231,0.50713909,-0.15477958,0.00000000,0.00000000,-0.56466228,1.00973427,-0.03868669,-0.50646317,-0.64356279,0.00000000,0.00000000
-0.49720126,-1.10035110,0.15498658,0.50714415,-0.16154446,0.00000000,0.00000000,-0.54908347,1.01345193,-0.04703696,-0.51235837,-0.64890838,0.00000000,0.00000000
-0.49175060,-1.10007811,0.14552328,0.50664353,-0.16581881,0.00000000,0.00000000,-0.53215337,1.01889002,-0.05542703,-0.51969558,-0.65154797,0.00000000,0.00000000
-0.48702574,-1.10072768,0.13577785,0.50544196,-0.16332032,0.00000000,0.00000000,-0.51372474,1.02665019,-0.06387072,-0.52852595,-0.65716994,0.00000000,0.00000000
-0.48313174,-1.10290253,0.12558731,0.50314379,-0.15434526,0.00000000,0.00000000,-0.49374822,1.03770971,-0.07242516,-0.53858274,-0.66405863,0.00000000,0.00000000
-0.48012239,-1.10772872,0.11462805,0.49898949,-0.14378802,0.00000000,0.00000000,-0.47220650,1.05349314,-0.08107565,-0.54910928,-0.66714811,0.00000000,0.00000000
-0.47801387,-1.11711049,0.10243159,0.49163896,-0.13223514,0.00000000,0.00000000,-0.44898209,1.07569492,-0.08962875,-0.55897456,-0.67050928,0.00000000,0.00000000
-0.47683015,-1.13347781,0.08829014,0.47924244,-0.11705197,0.00000000,0.00000000,-0.42389849,1.10625839,-0.09768601,-0.56679648,-0.67482167,0.00000000,0.00000000
-0.47661155,-1.15908742,0.07130581,0.45987886,-0.10567529,0.00000000,0.00000000,-0.39679816,1.14712441,-0.10463866,-0.57114917,-0.68397605,0.00000000,0.00000000
-0.47735575,-1.19518197,0.05068543,0.43223643,-0.10010095,0.00000000,0.00000000,-0.36757281,1.19967079,-0.10966271,-0.57086205,-0.68725234,0.00000000,0.00000000
-0.47891027,-1.24142933,0.02599621,0.39612514,-0.10292170,0.00000000,0.00000000,-0.33626738,1.26439881,-0.11172855,-0.56513852,-0.68992341,0.00000000,0.00000000
-0.48091134,-1.29630971,-0.00275663,0.35225904,-0.10094807,0.00000000,0.00000000,-0.30322182,1.34082246,-0.10973229,-0.55348247,-0.69298029,0.00000000,0.00000000
-0.48294625,-1.35765481,-0.03514602,0.30184904,-0.09790565,0.00000000,0.00000000,-0.26912981,1.42705452,-0.10278054,-0.53572237,-0.69885021,0.00000000,0.00000000
-0.48480073,-1.42296469,-0.07044814,0.24639487,-0.09558561,0.00000000,0.00000000,-0.23500380,1.51976490,-0.09046423,-0.51203161,-0.70175940,0.00000000,0.00000000
-0.48665264,-1.48943901,-0.10781789,0.18764062,-0.09524253,0.00000000,0.00000000,-0.20195967,1.61481273,-0.07292552,-0.48300716,-0.70637494,0.00000000,0.00000000
-0.48922434,-1.55427444,-0.14644174,0.12736253,-0.09656867,0.00000000,0.00000000,-0.17099743,1.70835829,-0.05071289,-0.44963554,-0.70868492,0.00000000,0.00000000
-0.49392670,-1.61537957,-0.18563986,0.06690785,-0.10170453,0.00000000,0.00000000,-0.14275442,1.79718602,-0.02458921,-0.41317445,-0.71335709,0.00000000,0.00000000
-0.50240564,-1.67193341,-0.22495510,0.00688868,-0.10670920,0.00000000,0.00000000,-0.11740599,1.87858295,0.00463281,-0.37504101,-0.71375096,0.00000000,0.00000000
-0.51549095,-1.72462833,-0.26412383,-0.05281424,-0.10377419,0.00000000,0.00000000,-0.09496199,1.95010281,0.03627217,-0.33687752,-0.71544784,0.00000000,0.00000000
-0.53256083,-1.77514327,-0.30289522,-0.11258709,-0.10856899,0.00000000,0.00000000,-0.07548645,2.00950241,0.06981484,-0.30051216,-0.71945101,0.00000000,0.00000000
-0.55178779,-1.82501149,-0.34086758,-0.17240214,-0.11783002,0.00000000,0.00000000,-0.05922574,2.05534744,0.10486003,-0.26737592,-0.72524369,0.00000000,0.00000000
-0.57076132,-1.87489212,-0.37746251,-0.23153774,-0.12794675,0.00000000,0.00000000,-0.04665096,2.08730221,0.14110586,-0.23823947,-0.73748869,0.00000000,0.00000000
-0.58721244,-1.92461658,-0.41201913,-0.28883529,-0.13744457,0.00000000,0.00000000,-0.03828535,2.10568047,0.17832215,-0.21352054,-0.74360651,0.00000000,0.00000000
-0.59951788,-1.97361600,-0.44392282,-0.34311974,-0.14744654,0.00000000,0.00000000,-0.03446194,2.11142993,0.21632166,-0.19328684,-0.75041926,0.00000000,0.00000000
-0.60732889,-2.02119017,-0.47280264,-0.39351389,-0.15725036,0.00000000,0.00000000,-0.03491021,2.10633874,0.25492141,-0.17703415,-0.75102103,0.00000000,0.00000000
-0.61162281,-2.06595635,-0.49869770,-0.43915454,-0.16786565,0.00000000,0.00000000,-0.03830094,2.09298539,0.29390049,-0.16355027,-0.75191325,0.00000000,0.00000000
-0.61264598,-2.10491705,-0.52181542,-0.47822726,-0.18155156,0.00000000,0.00000000,-0.04257006,2.07404947,0.33302519,-0.15128082,-0.75070530,0.00000000,0.00000000
-0.61124080,-2.13400006,-0.54288626,-0.50867707,-0.19494782,0.00000000,0.00000000,-0.04535345,2.05155611,0.37206736,-0.13882984,-0.74739844,0.00000000,0.00000000
-0.61216617,-2.15118051,-0.56357110,-0.53148007,-0.20254862,0.00000000,0.00000000,-0.04495653,2.02750349,0.41089609,-0.12489545,-0.74787760,0.00000000,0.00000000
-0.61785436,-2.16086221,-0.58407086,-0.55161500,-0.21375450,0.00000000,0.00000000,-0.04140030,2.00370169,0.44952247,-0.10864583,-0.74672151,0.00000000,0.00000000
-0.62376082,-2.16569233,-0.60325575,-0.56957936,-0.22577636,0.00000000,0.00000000,-0.03612978,1.98151994,0.48802087,-0.08981881,-0.74426198,0.00000000,0.00000000
-0.62716943,-2.16690898,-0.62119406,-0.58329910,-0.24026434,0.00000000,0.00000000,-0.03062247,1.96206808,0.52640885,-0.06831698,-0.73755860,0.00000000,0.00000000
-0.62746638,-2.16750932,-0.63824487,-0.59069330,-0.25436991,0.00000000,0.00000000,-0.02561432,1.94671762,0.56461614,-0.04380887,-0.73377103,0.00000000,0.00000000
-0.62079644,-2.16861820,-0.65384865,-0.58725542,-0.26829457,0.00000000,0.00000000,-0.02128273,1.93651688,0.60249394,-0.01609177,-0.72763652,0.00000000,0.00000000
-0.60462052,-2.16902399,-0.66787755,-0.56998605,-0.28770670,0.00000000,0.00000000,-0.01735143,1.93194783,0.63983828,0.01488690,-0.72370684,0.00000000,0.00000000
-0.58048075,-2.16822100,-0.68079954,-0.53977394,-0.30944020,0.00000000,0.00000000,-0.01337516,1.93263662,0.67642403,0.04887077,-0.72048485,0.00000000,0.00000000
-0.54291201,-2.16659808,-0.69066429,-0.49756038,-0.33317655,0.00000000,0.00000000,-0.00925165,1.93700731,0.71203893,0.08494538,-0.71556526,0.00000000,0.00000000
-0.48752847,-2.15970922,-0.69685960,-0.44383717,-0.35797262,0.00000000,0.00000000,-0.00434904,1.94310594,0.74653596,0.12219067,-0.71675551,0.00000000,0.00000000
-0.42262337,-2.15168214,-0.69968724,-0.38844627,-0.37820950,0.00000000,0.00000000,0.00233091,1.94922554,0.77983189,0.15984669,-0.71625644,0.00000000,0.00000000
-0.36113909,-2.14283371,-0.70169395,-0.33817092,-0.39237851,0.00000000,0.00000000,0.01131224,1.95505834,0.81179798,0.19746897,-0.71542054,0.00000000,0.00000000
-0.30378193,-2.13582182,-0.70311797,-0.29465187,-0.40275455,0.00000000,0.00000000,0.02235875,1.96018565,0.84228456,0.23423639,-0.71216506,0.00000000,0.00000000
-0.24803743,-2.13286018,-0.70363247,-0.25761721,-0.41499999,0.00000000,0.00000000,0.03527336,1.96472383,0.87109888,0.26958200,-0.70874333,0.00000000,0.00000000
-0.19267102,-2.13403010,-0.70337486,-0.22611760,-0.43403602,0.00000000,0.00000000,0.04926768,1.96913481,0.89794856,0.30283529,-0.70782214,0.00000000,0.00000000
-0.13720211,-2.13855720,-0.70261878,-0.19944483,-0.44829234,0.00000000,0.00000000,0.06235285,1.97336209,0.92246729,0.33261701,-0.70480448,0.00000000,0.00000000
-0.08402604,-2.14576840,-0.70184058,-0.17825665,-0.46262050,0.00000000,0.00000000,0.07274517,1.97709310,0.94435954,0.35761219,-0.69932717,0.00000000,0.00000000
-0.03730591,-2.15426683,-0.70161462,-0.16342188,-0.47695014,0.00000000,0.00000000,0.07987104,1.98006916,0.96350384,0.37720904,-0.69709074,0.00000000,0.00000000
-0.00002842,-2.16218948,-0.70235837,-0.15502487,-0.48832715,0.00000000,0.00000000,0.08386032,1.98207426,0.97989523,0.39133826,-0.69193739,0.00000000,0.00000000
0.02645365,-2.16762018,-0.70432943,-0.15248339,-0.49544525,0.00000000,0.00000000,0.08525196,1.98319602,0.99355531,0.40040112,-0.69756001,0.00000000,0.00000000
0.04127688,-2.16965127,-0.70776439,-0.15496352,-0.50570601,0.00000000,0.00000000,0.08515738,1.98377824,1.00455797,0.40516189,-0.70741969,0.00000000,0.00000000
0.04376701,-2.16998339,-0.71293336,-0.16142395,-0.51248986,0.00000000,0.00000000,0.08493081,1.98434365,1.01299810,0.40644103,-0.71489877,0.00000000,0.00000000
0.03427539,-2.16991663,-0.72008246,-0.17031798,-0.52205420,0.00000000,0.00000000,0.08529539,1.98573315,1.01883745,0.40486330,-0.71996003,0.00000000,0.00000000
0.01456319,-2.16846943,-0.72934240,-0.17985590,-0.53118926,0.00000000,0.00000000,0.08601626,1.98916245,1.02184963,0.40087909,-0.72493595,0.00000000,0.00000000
-0.01249720,-2.16161060,-0.74062175,-0.18877377,-0.54527563,0.00000000,0.00000000,0.08645506,1.99593771,1.02174890,0.39507246,-0.73999017,0.00000000,0.00000000
-0.04340345,-2.14614367,-0.75362945,-0.19635113,-0.55750763,0.00000000,0.00000000,0.08644554,2.00668406,1.01844752,0.38837194,-0.75427306,0.00000000,0.00000000
-0.07422215,-2.12388253,-0.76792753,-0.20212866,-0.56611520,0.00000000,0.00000000,0.08661278,2.02100849,1.01216555,0.38192901,-0.77508849,0.00000000,0.00000000
-0.10116245,-2.09893608,-0.78298509,-0.20599206,-0.57137036,0.00000000,0.00000000,0.08825256,2.03800702,1.00332022,0.37693578,-0.79108202,0.00000000,0.00000000
-0.12119272,-2.07489848,-0.79833037,-0.20796877,-0.57615042,0.00000000,0.00000000,0.09262861,2.05648637,0.99238104,0.37413266,-0.80707091,0.00000000,0.00000000
-0.13231526,-2.05413222,-0.81363624,-0.20812143,-0.57797843,0.00000000,0.00000000,0.10030545,2.07500434,0.97975421,0.37341848,-0.81999695,0.00000000,0.00000000
-0.13347602,-2.03849387,-0.82865566,-0.20685256,-0.58089477,0.00000000,0.00000000,0.11044747,2.09223843,0.96563131,0.37368992,-0.83029854,0.00000000,0.00000000
-0.12525740,-2.02976894,-0.84326452,-0.20533386,-0.58772838,0.00000000,0.00000000,0.12123845,2.10752463,0.94996023,0.37353656,-0.84399790,0.00000000,0.00000000
-0.11088336,-2.02893615,-0.85761410,-0.20547460,-0.59397358,0.00000000,0.00000000,0.13245784,2.12050867,0.93284088,0.37256682,-0.85834396,0.00000000,0.00000000
-0.09439801,-2.03565192,-0.87201709,-0.20888533,-0.59838378,0.00000000,0.00000000,0.14502494,2.13150835,0.91439998,0.37135094,-0.87221926,0.00000000,0.00000000
-0.07893042,-2.04897022,-0.88674766,-0.21655691,-0.60303456,0.00000000,0.00000000,0.15923874,2.14117312,0.89463407,0.37039509,-0.88260162,0.00000000,0.00000000
-0.06645822,-2.06746626,-0.90202224,-0.22884023,-0.61118144,0.00000000,0.00000000,0.17465790,2.14937997,0.87358677,0.36968020,-0.89088053,0.00000000,0.00000000
-0.05863695,-2.08906770,-0.91810262,-0.24570480,-0.62047368,0.00000000,0.00000000,0.19120532,2.15617681,0.85133791,0.36971951,-0.88949215,0.00000000,0.00000000
-0.05652876,-2.11147571,-0.93524694,-0.26675883,-0.61995858,0.00000000,0.00000000,0.20889631,2.16148925,0.82798898,0.37136430,-0.88892329,0.00000000,0.00000000
-0.06053144,-2.13280463,-0.95361942,-0.29142722,-0.61439651,0.00000000,0.00000000,0.22646432,2.16496944,0.80350363,0.37475300,-0.88620359,0.00000000,0.00000000
-0.07026089,-2.15183043,-0.97324455,-0.31903136,-0.60682380,0.00000000,0.00000000,0.24228868,2.16754103,0.77777302,0.37997180,-0.87995720,0.00000000,0.00000000
-0.08306720,-2.16468716,-0.99430770,-0.34713605,-0.60486001,0.00000000,0.00000000,0.25525898,2.16940284,0.75120926,0.38609087,-0.87309533,0.00000000,0.00000000
-0.09382923,-2.16927338,-1.01658940,-0.37307900,-0.60454780,0.00000000,0.00000000,0.26406306,2.16996384,0.72448665,0.39065406,-0.87132972,0.00000000,0.00000000
-0.09911990,-2.16996717,-1.03943574,-0.39637634,-0.60962397,0.00000000,0.00000000,0.26816991,2.16996670,0.69811594,0.39155930,-0.87277108,0.00000000,0.00000000
-0.09818034,-2.17000008,-1.06257701,-0.41723225,-0.61467475,0.00000000,0.00000000,0.26796365,2.16934133,0.67236012,0.38777933,-0.87128228,0.00000000,0.00000000
-0.09100037,-2.17000008,-1.08580875,-0.43581209,-0.61296397,0.00000000,0.00000000,0.26408833,2.16584468,0.64697945,0.38005060,-0.87099975,0.00000000,0.00000000
-0.07793646,-2.16999507,-1.10881281,-0.45268288,-0.61736357,0.00000000,0.00000000,0.25644192,2.15654469,0.62124532,0.37033534,-0.87262797,0.00000000,0.00000000
-0.06037330,-2.16992855,-1.13150346,-0.46944168,-0.61963981,0.00000000,0.00000000,0.24443763,2.14100027,0.59458321,0.35997334,-0.87732422,0.00000000,0.00000000
-0.04182238,-2.16982055,-1.15378857,-0.49012715,-0.61935127,0.00000000,0.00000000,0.22673415,2.12034273,0.56642383,0.34960604,-0.87726748,0.00000000,0.00000000
-0.02744800,-2.16991138,-1.17552006,-0.51976621,-0.61732411,0.00000000,0.00000000,0.19959322,2.09779882,0.53554249,0.33931267,-0.87452424,0.00000000,0.00000000
-0.01971896,-2.16998816,-1.19740689,-0.56015766,-0.61642790,0.00000000,0.00000000,0.15518183,2.07214022,0.50045210,0.32482770,-0.86481380,0.00000000,0.00000000
-0.01912235,-2.16999960,-1.22122586,-0.61080146,-0.61921567,0.00000000,0.00000000,0.08774753,2.03263402,0.46105564,0.29841903,-0.85416698,0.00000000,0.00000000
-0.02632918,-2.17000008,-1.24818420,-0.67187059,-0.62276590,0.00000000,0.00000000,-0.00345508,1.97276807,0.41787010,0.25749168,-0.84640187,0.00000000,0.00000000
-0.04131655,-2.17000008,-1.27811050,-0.74414152,-0.62403417,0.00000000,0.00000000,-0.11814423,1.88867676,0.37154120,0.20164013,-0.84181279,0.00000000,0.00000000
-0.06332869,-2.17000008,-1.30984437,-0.82825965,-0.62591362,0.00000000,0.00000000,-0.25609195,1.77778208,0.32279032,0.13095555,-0.83237493,0.00000000,0.00000000
-0.09222964,-2.16998506,-1.34342217,-0.92203307,-0.63061547,0.00000000,0.00000000,-0.41637820,1.63968861,0.27240455,0.04641604,-0.81574744,0.00000000,0.00000000
-0.12513798,-2.16967082,-1.37954497,-1.01713800,-0.63613182,0.00000000,0.00000000,-0.59653491,1.47578609,0.22129709,-0.05018125,-0.80262613,0.00000000,0.00000000
-0.15833786,-2.16753888,-1.41647649,-1.10860002,-0.64079815,0.00000000,0.00000000,-0.79281032,1.28928173,0.17052560,-0.15616912,-0.79169220,0.00000000,0.00000000
-0.19082043,-2.16129446,-1.45231748,-1.19574773,-0.64140397,0.00000000,0.00000000,-1.00025678,1.08527577,0.12129108,-0.26801234,-0.78516340,0.00000000,0.00000000
-0.22241248,-2.15100741,-1.48599470,-1.27849770,-0.64435631,0.00000000,0.00000000,-1.21272099,0.87042719,0.07489062,-0.38153991,-0.78118104,0.00000000,0.00000000
-0.25292099,-2.13740778,-1.51697254,-1.35659146,-0.64762282,0.00000000,0.00000000,-1.42324865,0.65229261,0.03261029,-0.49235812,-0.77836335,0.00000000,0.00000000
-0.28212306,-2.12102365,-1.54496956,-1.42966461,-0.65239418,0.00000000,0.00000000,-1.62484980,0.43848673,-0.00440034,-0.59632939,-0.78121507,0.00000000,0.00000000
-0.30962002,-2.10240126,-1.56983495,-1.49723983,-0.65207273,0.00000000,0.00000000,-1.81130612,0.23596115,-0.03522902,-0.68994427,-0.78164887,0.00000000,0.00000000
-0.33484682,-2.08206987,-1.59157860,-1.55875957,-0.65381747,0.00000000,0.00000000,-1.97774863,0.05050939,-0.05925589,-0.77051014,-0.78613424,0.00000000,0.00000000
-0.35725775,-2.06050277,-1.61037982,-1.61370444,-0.65593362,0.00000000,0.00000000,-2.12089372,-0.11351071,-0.07615736,-0.83615166,-0.78905576,0.00000000,0.00000000
-0.37648019,-2.03824663,-1.62652695,-1.66170871,-0.65847564,0.00000000,0.00000000,-2.23896265,-0.25326779,-0.08586669,-0.88567001,-0.79637867,0.00000000,0.00000000
-0.39227259,-2.01601124,-1.64032900,-1.70258749,-0.66064471,0.00000000,0.00000000,-2.33145833,-0.36743480,-0.08849882,-0.91834414,-0.80507332,0.00000000,0.00000000
-0.40448195,-1.99452960,-1.65201819,-1.73637068,-0.65817362,0.00000000,0.00000000,-2.39905548,-0.45619893,-0.08428834,-0.93378788,-0.82308775,0.00000000,0.00000000
-0.41316381,-1.97445738,-1.66166604,-1.76339674,-0.66006136,0.00000000,0.00000000,-2.44409776,-0.52120686,-0.07386697,-0.93193716,-0.84390187,0.00000000,0.00000000
-0.41875264,-1.95643508,-1.66917491,-1.78429437,-0.66582680,0.00000000,0.00000000,-2.47163105,-0.56513041,-0.05901698,-0.91309720,-0.86797810,0.00000000,0.00000000
-0.42190748,-1.94091678,-1.67448938,-1.79981780,-0.66932040,0.00000000,0.00000000,-2.48862052,-0.59444082,-0.04248789,-0.88195854,-0.89308518,0.00000000,0.00000000
-0.42323008,-1.92778015,-1.67798889,-1.81069720,-0.67311150,0.00000000,0.00000000,-2.50076485,-0.62066782,-0.02645586,-0.85058963,-0.91573405,0.00000000,0.00000000
-0.42328486,-1.91645479,-1.68045425,-1.81764305,-0.67241043,0.00000000,0.00000000,-2.50993061,-0.64577550,-0.01143624,-0.82302582,-0.93726367,0.00000000,0.00000000
-0.42262712,-1.90649772,-1.68253565,-1.82135618,-0.67192394,0.00000000,0.00000000,-2.51728702,-0.66858250,0.00232165,-0.79936802,-0.96330225,0.00000000,0.00000000
-0.42165956,-1.89771402,-1.68457174,-1.82243979,-0.66695309,0.00000000,0.00000000,-2.52372384,-0.68870503,0.01469799,-0.77934945,-0.99260712,0.00000000,0.00000000
-0.42059094,-1.89008212,-1.68656099,-1.82141745,-0.66445541,0.00000000,0.00000000,-2.52933574,-0.70587301,0.02594198,-0.76243722,-1.01939201,0.00000000,0.00000000
-0.41946852,-1.88370430,-1.68819976,-1.81877697,-0.65716875,0.00000000,0.00000000,-2.53341103,-0.72012699,0.03667685,-0.74827749,-1.04430163,0.00000000,0.00000000
-0.41828772,-1.87871444,-1.68908525,-1.81500101,-0.65386701,0.00000000,0.00000000,-2.53509569,-0.73178375,0.04758567,-0.73668885,-1.06692266,0.00000000,0.00000000
-0.41709915,-1.87519515,-1.68889189,-1.81059682,-0.65062922,0.00000000,0.00000000,-2.53421712,-0.74122465,0.05902060,-0.72753805,-1.09342313,0.00000000,0.00000000
-0.41600525,-1.87314224,-1.68741250,-1.80606067,-0.64892882,0.00000000,0.00000000,-2.53130960,-0.74894452,0.07096808,-0.72091430,-1.12235534,0.00000000,0.00000000
-0.41513756,-1.87242126,-1.68460500,-1.80182028,-0.64930177,0.00000000,0.00000000,-2.52709794,-0.75499535,0.08330251,-0.71698332,-1.15762055,0.00000000,0.00000000
-0.41451752,-1.87286353,-1.68050158,-1.79809189,-0.64737898,0.00000000,0.00000000,-2.52214670,-0.75924540,0.09594896,-0.71590465,-1.18868840,0.00000000,0.00000000
-0.41413951,-1.87431133,-1.67519641,-1.79495311,-0.64781451,0.00000000,0.00000000,-2.51715732,-0.76151472,0.10872858,-0.71764982,-1.21600771,0.00000000,0.00000000
-0.41397852,-1.87663245,-1.66881204,-1.79236817,-0.64913595,0.00000000,0.00000000,-2.51288819,-0.76145905,0.12139399,-0.72192878,-1.24633682,0.00000000,0.00000000
-0.41400206,-1.87971807,-1.66142499,-1.79027176,-0.65089238,0.00000000,0.00000000,-2.51005387,-0.75886410,0.13368152,-0.72840840,-1.28211904,0.00000000,0.00000000
-0.41431069,-1.88342679,-1.65311980,-1.78872001,-0.64411443,0.00000000,0.00000000,-2.50938153,-0.75349045,0.14530721,-0.73669118,-1.31865084,0.00000000,0.00000000
-0.41507342,-1.88759482,-1.64396942,-1.78781986,-0.63643897,0.00000000,0.00000000,-2.51151800,-0.74502808,0.15600653,-0.74639660,-1.35123742,0.00000000,0.00000000
-0.41660342,-1.89201355,-1.63410175,-1.78780782,-0.62503588,0.00000000,0.00000000,-2.51692677,-0.73350871,0.16555849,-0.75741673,-1.37812114,0.00000000,0.00000000
-0.41942364,-1.89642990,-1.62374604,-1.78913820,-0.62336987,0.00000000,0.00000000,-2.52533770,-0.71950454,0.17404446,-0.77006531,-1.40105271,0.00000000,0.00000000
-0.42402825,-1.90060282,-1.61313725,-1.79223883,-0.61691123,0.00000000,0.00000000,-2.53549218,-0.70421785,0.18196051,-0.78497636,-1.42177212,0.00000000,0.00000000
-0.43065718,-1.90431392,-1.60246933,-1.79725397,-0.61072880,0.00000000,0.00000000,-2.54615355,-0.68903989,0.18975979,-0.80225247,-1.44807398,0.00000000,0.00000000
-0.43900281,-1.90753782,-1.59163499,-1.80384398,-0.60771304,0.00000000,0.00000000,-2.55630875,-0.67478448,0.19782200,-0.82074243,-1.47061956,0.00000000,0.00000000
-0.44797677,-1.91064095,-1.57993925,-1.81107378,-0.60756052,0.00000000,0.00000000,-2.56516743,-0.66126877,0.20651479,-0.83867645,-1.49339962,0.00000000,0.00000000
-0.45621523,-1.91405344,-1.56672025,-1.81775093,-0.60227084,0.00000000,0.00000000,-2.57296777,-0.64790004,0.21568668,-0.85458112,-1.51901138,0.00000000,0.00000000
-0.46264279,-1.91804314,-1.55170524,-1.82290339,-0.60277164,0.00000000,0.00000000,-2.58112550,-0.63433266,0.22444955,-0.86766356,-1.54473853,0.00000000,0.00000000
-0.46663389,-1.92271364,-1.53489745,-1.82597160,-0.60276014,0.00000000,0.00000000,-2.59123421,-0.62051153,0.23169991,-0.87751794,-1.56701171,0.00000000,0.00000000
-0.46812972,-1.92800486,-1.51651216,-1.82692587,-0.60370851,0.00000000,0.00000000,-2.60397315,-0.60652602,0.23675440,-0.88389963,-1.58417392,0.00000000,0.00000000
-0.46749675,-1.93372214,-1.49699318,-1.82608449,-0.60806972,0.00000000,0.00000000,-2.61911893,-0.59281033,0.23937924,-0.88691264,-1.60083437,0.00000000,0.00000000
-0.46540773,-1.93958330,-1.47705519,-1.82396734,-0.61727208,0.00000000,0.00000000,-2.63620162,-0.57977885,0.23954879,-0.88672000,-1.61648166,0.00000000,0.00000000
-0.46293813,-1.94515944,-1.45786774,-1.82133973,-0.61943871,0.00000000,0.00000000,-2.65352130,-0.56887722,0.23784800,-0.88512599,-1.63319838,0.00000000,0.00000000
-0.46122682,-1.94990170,-1.44092655,-1.81891334,-0.62647527,0.00000000,0.00000000,-2.66836596,-0.56139684,0.23549502,-0.88480031,-1.64845049,0.00000000,0.00000000
-0.46093631,-1.95332015,-1.42748475,-1.81697321,-0.63012081,0.00000000,0.00000000,-2.67830968,-0.55740201,0.23375973,-0.88686621,-1.66491663,0.00000000,0.00000000
-0.46151435,-1.95527494,-1.41761863,-1.81481969,-0.63279897,0.00000000,0.00000000,-2.68274164,-0.55800378,0.23285948,-0.89117754,-1.67919993,0.00000000,0.00000000
-0.46149749,-1.95604980,-1.41011775,-1.81120741,-0.62568718,0.00000000,0.00000000,-2.68082643,-0.56339097,0.23327011,-0.89605325,-1.68326437,0.00000000,0.00000000
-0.45903125,-1.95590878,-1.40367961,-1.80452800,-0.62319446,0.00000000,0.00000000,-2.67084122,-0.57205629,0.23617448,-0.89886618,-1.68552446,0.00000000,0.00000000
-0.45227125,-1.95470726,-1.39796925,-1.79287636,-0.61772913,0.00000000,0.00000000,-2.65512323,-0.58114702,0.24077196,-0.89629364,-1.68604422,0.00000000,0.00000000
-0.43947184,-1.95238769,-1.39262271,-1.77460766,-0.61852145,0.00000000,0.00000000,-2.63955116,-0.58844781,0.24434577,-0.88593680,-1.68182874,0.00000000,0.00000000
-0.42037538,-1.94934976,-1.38677597,-1.74980068,-0.61799562,0.00000000,0.00000000,-2.62905097,-0.59396452,0.24449827,-0.86754322,-1.67901862,0.00000000,0.00000000
-0.39822710,-1.94596875,-1.38052773,-1.72159207,-0.61779803,0.00000000,0.00000000,-2.62387204,-0.59967405,0.24102858,-0.84381384,-1.67619169,0.00000000,0.00000000
-0.37878841,-1.94204593,-1.37570655,-1.69542360,-0.62438077,0.00000000,0.00000000,-2.62049222,-0.60861081,0.23543045,-0.82095140,-1.67341673,0.00000000,0.00000000
-0.36665648,-1.93711412,-1.37425017,-1.67622924,-0.62926179,0.00000000,0.00000000,-2.61739588,-0.61905015,0.22864518,-0.80115217,-1.66557133,0.00000000,0.00000000
-0.36223930,-1.93102062,-1.37625933,-1.66487432,-0.63375127,0.00000000,0.00000000,-2.61336064,-0.62936884,0.22143839,-0.78368074,-1.66504133,0.00000000,0.00000000
-0.36292711,-1.92399132,-1.38035631,-1.65851152,-0.63509941,0.00000000,0.00000000,-2.60660243,-0.64002258,0.21469770,-0.76719350,-1.66155815,0.00000000,0.00000000
-0.36728728,-1.91601443,-1.38608706,-1.65561903,-0.63438106,0.00000000,0.00000000,-2.59653997,-0.65205890,0.20876525,-0.75209856,-1.65394592,0.00000000,0.00000000
-0.37613666,-1.90650237,-1.39473677,-1.65718901,-0.63147163,0.00000000,0.00000000,-2.58325529,-0.66636544,0.20368400,-0.74090308,-1.64094079,0.00000000,0.00000000
-0.38995257,-1.89493799,-1.40744233,-1.66299057,-0.64010930,0.00000000,0.00000000,-2.56704664,-0.68243247,0.19945996,-0.73504674,-1.63390744,0.00000000,0.00000000
-0.40803263,-1.88129473,-1.42426920,-1.67161143,-0.65067834,0.00000000,0.00000000,-2.54845953,-0.69974309,0.19591729,-0.73477250,-1.62753952,0.00000000,0.00000000
-0.42923209,-1.86583066,-1.44471765,-1.68215525,-0.66596675,0.00000000,0.00000000,-2.52874637,-0.71763182,0.19256462,-0.73961681,-1.62414610,0.00000000,0.00000000
-0.45171845,-1.84904897,-1.46766055,-1.69321311,-0.68004555,0.00000000,0.00000000,-2.50926495,-0.73513055,0.18891609,-0.74846619,-1.62394714,0.00000000,0.00000000
-0.47352460,-1.83154035,-1.49176681,-1.70341861,-0.69964349,0.00000000,0.00000000,-2.49059892,-0.75136679,0.18482152,-0.75979561,-1.62670457,0.00000000,0.00000000
-0.49312288,-1.81387568,-1.51594639,-1.71197701,-0.72294289,0.00000000,0.00000000,-2.47309613,-0.76488304,0.18024257,-0.77192670,-1.62491393,0.00000000,0.00000000
-0.50958526,-1.79646802,-1.53960490,-1.71847987,-0.74266696,0.00000000,0.00000000,-2.45734620,-0.77447271,0.17494549,-0.78398222,-1.62177801,0.00000000,0.00000000
-0.52249748,-1.77963912,-1.56241941,-1.72287786,-0.75967956,0.00000000,0.00000000,-2.44412184,-0.77988070,0.16849193,-0.79607546,-1.62086725,0.00000000,0.00000000
-0.53176099,-1.76370931,-1.58403826,-1.72544301,-0.77732253,0.00000000,0.00000000,-2.43396163,-0.78165549,0.16052029,-0.80897450,-1.61568606,0.00000000,0.00000000
-0.53764355,-1.74892211,-1.60415530,-1.72673285,-0.78694904,0.00000000,0.00000000,-2.42730713,-0.78048486,0.15075622,-0.82350379,-1.61216807,0.00000000,0.00000000
-0.54059803,-1.73542523,-1.62251449,-1.72731173,-0.79743707,0.00000000,0.00000000,-2.42405963,-0.77699041,0.13926031,-0.83999443,-1.61452997,0.00000000,0.00000000
-0.54110080,-1.72336006,-1.63880014,-1.72758865,-0.81107569,0.00000000,0.00000000,-2.42320108,-0.77188200,0.12662672,-0.85794502,-1.62154031,0.00000000,0.00000000
-0.53979611,-1.71280873,-1.65274477,-1.72790265,-0.82327765,0.00000000,0.00000000,-2.42306924,-0.76571441,0.11385904,-0.87603509,-1.62564385,0.00000000,0.00000000
-0.53740752,-1.70371902,-1.66424119,-1.72844946,-0.83496213,0.00000000,0.00000000,-2.42208695,-0.75894886,0.10196567,-0.89276308,-1.62471640,0.00000000,0.00000000
-0.53448564,-1.69599056,-1.67324185,-1.72920883,-0.84892273,0.00000000,0.00000000,-2.41967702,-0.75208962,0.09139268,-0.90696317,-1.62673187,0.00000000,0.00000000
-0.53132743,-1.68945408,-1.67972267,-1.72993314,-0.86572367,0.00000000,0.00000000,-2.41651177,-0.74542868,0.08185208,-0.91780287,-1.62578881,0.00000000,0.00000000
-0.52803713,-1.68379831,-1.68373966,-1.73019528,-0.88398188,0.00000000,0.00000000,-2.41317701,-0.73955059,0.07311235,-0.92534107,-1.62363958,0.00000000,0.00000000
-0.52468389,-1.67857921,-1.68556380,-1.72952151,-0.90168452,0.00000000,0.00000000,-2.41012597,-0.73506683,0.06495157,-0.93018728,-1.62060118,0.00000000,0.00000000
-0.52153361,-1.67334068,-1.68564975,-1.72760022,-0.92596114,0.00000000,0.00000000,-2.40911555,-0.73231512,0.05626661,-0.93298423,-1.61792362,0.00000000,0.00000000
-0.51911020,-1.66780078,-1.68444335,-1.72445095,-0.95141399,0.00000000,0.00000000,-2.41145301,-0.73116249,0.04631348,-0.93384010,-1.61301482,0.00000000,0.00000000
-0.51802862,-1.66189396,-1.68226719,-1.72042084,-0.98147255,0.00000000,0.00000000,-2.41506290,-0.73153859,0.03651654,-0.93264717,-1.60774374,0.00000000,0.00000000
-0.51869446,-1.65571177,-1.67928576,-1.71597838,-1.00619256,0.00000000,0.00000000,-2.41713834,-0.73406655,0.02868832,-0.93004686,-1.60890257,0.00000000,0.00000000
-0.52106345,-1.64951360,-1.67554533,-1.71145618,-1.03370941,0.00000000,0.00000000,-2.41692734,-0.73930931,0.02323335,-0.92690432,-1.60869241,0.00000000,0.00000000
-0.52475291,-1.64366567,-1.67104685,-1.70698822,-1.05547559,0.00000000,0.00000000,-2.41499829,-0.74700654,0.01965472,-0.92333055,-1.60889935,0.00000000,0.00000000
-0.52929068,-1.63849556,-1.66583121,-1.70250571,-1.07249761,0.00000000,0.00000000,-2.41182876,-0.75617677,0.01750219,-0.91851985,-1.61131525,0.00000000,0.00000000
-0.53418016,-1.63426101,-1.65994918,-1.69781673,-1.08318329,0.00000000,0.00000000,-2.40742993,-0.76552963,0.01664297,-0.91135705,-1.61569130,0.00000000,0.00000000
-0.53886420,-1.63113511,-1.65341544,-1.69274330,-1.09650826,0.00000000,0.00000000,-2.40152860,-0.77412367,0.01711507,-0.90137047,-1.61734021,0.00000000,0.00000000
-0.54286832,-1.62916255,-1.64626133,-1.68726778,-1.11362076,0.00000000,0.00000000,-2.39427137,-0.78151798,0.01866976,-0.88894153,-1.62420833,0.00000000,0.00000000
-0.54596180,-1.62824738,-1.63860679,-1.68161726,-1.13142073,0.00000000,0.00000000,-2.38651013,-0.78739196,0.02060324,-0.87483865,-1.62935364,0.00000000,0.00000000
-0.54812622,-1.62812603,-1.63072908,-1.67621493,-1.14660013,0.00000000,0.00000000,-2.37922597,-0.79145092,0.02217373,-0.86009693,-1.63625920,0.00000000,0.00000000
-0.54945952,-1.62840140,-1.62307024,-1.67155969,-1.15495217,0.00000000,0.00000000,-2.37310767,-0.79381722,0.02289494,-0.84644765,-1.63666487,0.00000000,0.00000000
-0.55014503,-1.62876678,-1.61605537,-1.66812778,-1.16521466,0.00000000,0.00000000,-2.36894560,-0.79501933,0.02231498,-0.83598214,-1.63651276,0.00000000,0.00000000
-0.55038548,-1.62900162,-1.61005688,-1.66621900,-1.17593884,0.00000000,0.00000000,-2.36728859,-0.79526812,0.02020046,-0.82989621,-1.63824570,0.00000000,0.00000000
-0.55026674,-1.62888706,-1.60538447,-1.66585839,-1.18352473,0.00000000,0.00000000,-2.36782527,-0.79434294,0.01684722,-0.82801419,-1.63563704,0.00000000,0.00000000
-0.54984426,-1.62840521,-1.60207760,-1.66703773,-1.18509293,0.00000000,0.00000000,-2.37011051,-0.79200196,0.01262211,-0.82948357,-1.63084364,0.00000000,0.00000000
-0.54923660,-1.62774587,-1.59993505,-1.66987383,-1.18678033,0.00000000,0.00000000,-2.37363887,-0.78831553,0.00792228,-0.83336085,-1.62717438,0.00000000,0.00000000
-0.54866540,-1.62713599,-1.59872246,-1.67457974,-1.19125116,0.00000000,0.00000000,-2.37771606,-0.78357387,0.00327413,-0.83875984,-1.62587714,0.00000000,0.00000000
-0.54830539,-1.62678313,-1.59822333,-1.68128419,-1.19373727,0.00000000,0.00000000,-2.38168526,-0.77814502,-0.00074938,-0.84505963,-1.62498426,0.00000000,0.00000000
-0.54823339,-1.62675977,-1.59831452,-1.68994856,-1.19691193,0.00000000,0.00000000,-2.38437486,-0.77236891,-0.00325268,-0.85177028,-1.62828052,0.00000000,0.00000000
-0.54842174,-1.62697434,-1.59902370,-1.70036876,-1.20214033,0.00000000,0.00000000,-2.38552475,-0.76651520,-0.00396342,-0.85904521,-1.62905872,0.00000000,0.00000000
-0.54856968,-1.62719893,-1.60050738,-1.71211088,-1.20201647,0.00000000,0.00000000,-2.38641667,-0.76060802,-0.00364211,-0.86749113,-1.62365687,0.00000000,0.00000000
-0.54844803,-1.62709415,-1.60303962,-1.72465396,-1.20117342,0.00000000,0.00000000,-2.38813329,-0.75426459,-0.00305866,-0.87746173,-1.61796892,0.00000000,0.00000000
-0.54824537,-1.62638092,-1.60683119,-1.73766255,-1.20239592,0.00000000,0.00000000,-2.39294982,-0.74744898,-0.00376021,-0.88902390,-1.61061049,0.00000000,0.00000000
-0.54835743,-1.62497997,-1.61184931,-1.75102353,-1.19966245,0.00000000,0.00000000,-2.40051556,-0.74022430,-0.00571058,-0.90129530,-1.60308897,0.00000000,0.00000000
-0.54914182,-1.62299883,-1.61784470,-1.76479483,-1.19676840,0.00000000,0.00000000,-2.40897703,-0.73324931,-0.00789114,-0.91346192,-1.59426141,0.00000000,0.00000000
-0.55071670,-1.62071884,-1.62444782,-1.77905893,-1.18512070,0.00000000,0.00000000,-2.41672707,-0.72777373,-0.00936134,-0.92544705,-1.58676374,0.00000000,0.00000000
-0.55283576,-1.61860514,-1.63120520,-1.79374099,-1.17390776,0.00000000,0.00000000,-2.42278719,-0.72459990,-0.00951807,-0.93670344,-1.57994139,0.00000000,0.00000000
-0.55501008,-1.61716640,-1.63771069,-1.80852807,-1.16910958,0.00000000,0.00000000,-2.42692351,-0.72310793,-0.00823059,-0.94557160,-1.57518697,0.00000000,0.00000000
-0.55666292,-1.61687648,-1.64370286,-1.82289624,-1.16528237,0.00000000,0.00000000,-2.42935371,-0.72270578,-0.00567765,-0.95104116,-1.57537889,0.00000000,0.00000000
-0.55736679,-1.61811519,-1.64910185,-1.83628714,-1.15814936,0.00000000,0.00000000,-2.43062687,-0.72311080,-0.00227346,-0.95279241,-1.57985497,0.00000000,0.00000000
-0.55697060,-1.62096000,-1.65400743,-1.84826362,-1.14883423,0.00000000,0.00000000,-2.43153214,-0.72436380,0.00141150,-0.95116705,-1.58033335,0.00000000,0.00000000
-0.55544186,-1.62511170,-1.65864289,-1.85848248,-1.14323604,0.00000000,0.00000000,-2.43271017,-0.72744840,0.00489038,-0.94803113,-1.57715225,0.00000000,0.00000000
-0.55256104,-1.63004577,-1.66325724,-1.86658716,-1.13587785,0.00000000,0.00000000,-2.43411541,-0.73205328,0.00808603,-0.94469768,-1.57272911,0.00000000,0.00000000
-0.54794407,-1.63529873,-1.66801250,-1.87230885,-1.13320923,0.00000000,0.00000000,-2.43533230,-0.73690784,0.01117656,-0.94114387,-1.56275153,0.00000000,0.00000000
-0.54139113,-1.64067817,-1.67297459,-1.87569249,-1.12848794,0.00000000,0.00000000,-2.43636799,-0.74101448,0.01406933,-0.93696946,-1.55453312,0.00000000,0.00000000
-0.53305614,-1.64622879,-1.67819095,-1.87717116,-1.12775111,0.00000000,0.00000000,-2.43749118,-0.74373162,0.01647486,-0.93213654,-1.54559791,0.00000000,0.00000000
-0.52334619,-1.65202868,-1.68371975,-1.87737310,-1.12883508,0.00000000,0.00000000,-2.43876863,-0.74498492,0.01822609,-0.92720544,-1.54053390,0.00000000,0.00000000
-0.51263231,-1.65812325,-1.68954241,-1.87684035,-1.12604356,0.00000000,0.00000000,-2.44070911,-0.74546164,0.01894954,-0.92309052,-1.53257000,0.00000000,0.00000000
-0.50120729,-1.66456485,-1.69556904,-1.87593162,-1.12624550,0.00000000,0.00000000,-2.44269776,-0.74533349,0.01907748,-0.91983336,-1.52120245,0.00000000,0.00000000
-0.48931140,-1.67136204,-1.70168698,-1.87481380,-1.13211942,0.00000000,0.00000000,-2.44448447,-0.74443179,0.01887575,-0.91632891,-1.50981092,0.00000000,0.00000000
-0.47713175,-1.67854595,-1.70772302,-1.87356806,-1.14052391,0.00000000,0.00000000,-2.44617653,-0.74251121,0.01843585,-0.91165525,-1.50433445,0.00000000,0.00000000
-0.46490103,-1.68606365,-1.71353924,-1.87234831,-1.15006888,0.00000000,0.00000000,-2.44760847,-0.73979902,0.01800891,-0.90572244,-1.49741876,0.00000000,0.00000000
-0.45291904,-1.69378746,-1.71908212,-1.87140024,-1.16076910,0.00000000,0.00000000,-2.44861913,-0.73688293,0.01778546,-0.89896381,-1.48902369,0.00000000,0.00000000
-0.44145337,-1.70161521,-1.72435021,-1.87100291,-1.17068422,0.00000000,0.00000000,-2.44919562,-0.73425967,0.01780002,-0.89187664,-1.48633397,0.00000000,0.00000000
-0.43072835,-1.70943809,-1.72939754,-1.87142158,-1.18300951,0.00000000,0.00000000,-2.44902349,-0.73230261,0.01820675,-0.88464749,-1.48770249,0.00000000,0.00000000
-0.42083859,-1.71716356,-1.73428881,-1.87282372,-1.18866003,0.00000000,0.00000000,-2.44765878,-0.73121560,0.01921298,-0.87721145,-1.48496008,0.00000000,0.00000000
-0.41171756,-1.72469008,-1.73914075,-1.87522960,-1.19406116,0.00000000,0.00000000,-2.44511533,-0.73059756,0.02072466,-0.86970741,-1.48361754,0.00000000,0.00000000
-0.40324569,-1.73175228,-1.74427295,-1.87853611,-1.19966912,0.00000000,0.00000000,-2.44187379,-0.73001772,0.02232610,-0.86277407,-1.48317909,0.00000000,0.00000000
-0.39521280,-1.73807180,-1.75013483,-1.88246393,-1.21267498,0.00000000,0.00000000,-2.43903804,-0.72953975,0.02323802,-0.85758597,-1.48248661,0.00000000,0.00000000
-0.38742831,-1.74343026,-1.75714755,-1.88661611,-1.22093534,0.00000000,0.00000000,-2.43794274,-0.72895342,0.02263496,-0.85522097,-1.48651886,0.00000000,0.00000000
-0.37973127,-1.74760783,-1.76563370,-1.89054692,-1.23057294,0.00000000,0.00000000,-2.43914938,-0.72778028,0.02019960,-0.85592055,-1.48915732,0.00000000,0.00000000
-0.37204966,-1.75040865,-1.77569008,-1.89392865,-1.23552012,0.00000000,0.00000000,-2.44198585,-0.72607082,0.01634466,-0.85942715,-1.49328673,0.00000000,0.00000000
-0.36447421,-1.75177324,-1.78715777,-1.89672625,-1.23561406,0.00000000,0.00000000,-2.44541478,-0.72415841,0.01170855,-0.86533123,-1.49561524,0.00000000,0.00000000
-0.35721338,-1.75181615,-1.79967880,-1.89916623,-1.23817611,0.00000000,0.00000000,-2.44889498,-0.72228056,0.00668293,-0.87303269,-1.50117052,0.00000000,0.00000000
-0.35047638,-1.75076079,-1.81272125,-1.90157115,-1.25044537,0.00000000,0.00000000,-2.45200229,-0.72064441,0.00168041,-0.88175410,-1.50290716,0.00000000,0.00000000
-0.34431881,-1.74899983,-1.82563424,-1.90414155,-1.26409459,0.00000000,0.00000000,-2.45450258,-0.72032148,-0.00293233,-0.89110190,-1.50507450,0.00000000,0.00000000
-0.33869466,-1.74704206,-1.83774340,-1.90684807,-1.27915835,0.00000000,0.00000000,-2.45569229,-0.72273380,-0.00648013,-0.90022224,-1.50716400,0.00000000,0.00000000
-0.33339044,-1.74558234,-1.84847093,-1.90933061,-1.28942275,0.00000000,0.00000000,-2.45492578,-0.72665304,-0.00841571,-0.90625679,-1.50396752,0.00000000,0.00000000
-0.32811132,-1.74535322,-1.85744596,-1.91103113,-1.29083347,0.00000000,0.00000000,-2.45320606,-0.73069793,-0.00932679,-0.90731514,-1.49812078,0.00000000,0.00000000
-0.32249054,-1.74701798,-1.86439729,-1.91141629,-1.29315245,0.00000000,0.00000000,-2.45181322,-0.73529589,-0.00997853,-0.90343678,-1.48640490,0.00000000,0.00000000
-0.31619781,-1.75100636,-1.86909723,-1.91017962,-1.30316925,0.00000000,0.00000000,-2.45147061,-0.74046028,-0.01075731,-0.89460701,-1.48234582,0.00000000,0.00000000
-0.30910170,-1.75733554,-1.87145102,-1.90730989,-1.31025374,0.00000000,0.00000000,-2.45225477,-0.74548352,-0.01167851,-0.88070464,-1.47719884,0.00000000,0.00000000
-0.30131486,-1.76552975,-1.87179792,-1.90298259,-1.30875266,0.00000000,0.00000000,-2.45350146,-0.75082058,-0.01241759,-0.86338454,-1.47358978,0.00000000,0.00000000
-0.29304257,-1.77473259,-1.87102950,-1.89742994,-1.30326283,0.00000000,0.00000000,-2.45424080,-0.75683790,-0.01247975,-0.84525007,-1.47468209,0.00000000,0.00000000
-0.28438291,-1.78404272,-1.87000775,-1.89087260,-1.30013657,0.00000000,0.00000000,-2.45386696,-0.76253849,-0.01146914,-0.82748300,-1.47500491,0.00000000,0.00000000
-0.27541885,-1.79286957,-1.86912727,-1.88362491,-1.30244219,0.00000000,0.00000000,-2.45218968,-0.76752013,-0.00916120,-0.81105077,-1.47322035,0.00000000,0.00000000
-0.26632401,-1.80117452,-1.86833155,-1.87615335,-1.30134618,0.00000000,0.00000000,-2.44963360,-0.77173269,-0.00570068,-0.79622102,-1.46841931,0.00000000,0.00000000
-0.25732538,-1.80918384,-1.86732602,-1.86900246,-1.30386662,0.00000000,0.00000000,-2.44707203,-0.77500349,-0.00157686,-0.78261232,-1.46199584,0.00000000,0.00000000
-0.24866347,-1.81700504,-1.86590111,-1.86266601,-1.30502856,0.00000000,0.00000000,-2.44546199,-0.77730316,0.00265294,-0.77024066,-1.46217680,0.00000000,0.00000000
-0.24059796,-1.82449889,-1.86417961,-1.85745394,-1.30352151,0.00000000,0.00000000,-2.44547272,-0.77873945,0.00662633,-0.75972933,-1.45749378,0.00000000,0.00000000
-0.23338960,-1.83135748,-1.86264062,-1.85339999,-1.30014241,0.00000000,0.00000000,-2.44732666,-0.77926159,0.01031860,-0.75176495,-1.44932175,0.00000000,0.00000000
-0.22718967,-1.83727384,-1.86186576,-1.85029972,-1.29498851,0.00000000,0.00000000,-2.45055723,-0.77854377,0.01416080,-0.74676317,-1.44440246,0.00000000,0.00000000
-0.22200839,-1.84217870,-1.86205781,-1.84793603,-1.28840017,0.00000000,0.00000000,-2.45422721,-0.77656269,0.01878993,-0.74500901,-1.44236112,0.00000000,0.00000000
-0.21789420,-1.84622252,-1.86295080,-1.84632564,-1.28231490,0.00000000,0.00000000,-2.45814586,-0.77364695,0.02435891,-0.74655175,-1.43414521,0.00000000,0.00000000
-0.21490237,-1.84968603,-1.86398458,-1.84560776,-1.27865052,0.00000000,0.00000000,-2.46357703,-0.76993853,0.03023273,-0.75078988,-1.42559659,0.00000000,0.00000000
-0.21281971,-1.85301256,-1.86441660,-1.84568119,-1.27727222,0.00000000,0.00000000,-2.47248530,-0.76546657,0.03541877,-0.75664365,-1.42327845,0.00000000,0.00000000
-0.21110135,-1.85675669,-1.86349857,-1.84605885,-1.27345598,0.00000000,0.00000000,-2.48498702,-0.76009083,0.03985136,-0.76309866,-1.42093861,0.00000000,0.00000000
-0.20923138,-1.86133909,-1.86075401,-1.84614480,-1.26857495,0.00000000,0.00000000,-2.49823356,-0.75242817,0.04502925,-0.76862431,-1.41559458,0.00000000,0.00000000
-0.20686500,-1.86700153,-1.85598314,-1.84543240,-1.25968969,0.00000000,0.00000000,-2.51082420,-0.74161595,0.05174930,-0.77224535,-1.40485561,0.00000000,0.00000000
-0.20396274,-1.87374949,-1.84923780,-1.84369397,-1.25774765,0.00000000,0.00000000,-2.52450609,-0.72949940,0.05911393,-0.77538198,-1.38968170,0.00000000,0.00000000
-0.20072800,-1.88146555,-1.84065509,-1.84099221,-1.26238656,0.00000000,0.00000000,-2.53924441,-0.71628898,0.06711654,-0.77832508,-1.38396585,0.00000000,0.00000000
-0.19763947,-1.88988650,-1.83046567,-1.83773017,-1.26624513,0.00000000,0.00000000,-2.55482411,-0.70183718,0.07580951,-0.78106624,-1.37844229,0.00000000,0.00000000
-0.19541705,-1.89866602,-1.81885421,-1.83463085,-1.27335548,0.00000000,0.00000000,-2.57084370,-0.68671900,0.08525687,-0.78368390,-1.37699997,0.00000000,0.00000000
-0.19477376,-1.90771115,-1.80554616,-1.83248138,-1.28063190,0.00000000,0.00000000,-2.58704543,-0.67067891,0.09546788,-0.78385633,-1.37732995,0.00000000,0.00000000
-0.19648704,-1.91684890,-1.79046679,-1.83194768,-1.28441572,0.00000000,0.00000000,-2.60515594,-0.65069431,0.10548571,-0.77678990,-1.38642073,0.00000000,0.00000000
-0.20139849,-1.92562866,-1.77411830,-1.83351338,-1.28687167,0.00000000,0.00000000,-2.62302446,-0.62844437,0.11587874,-0.76240110,-1.39918256,0.00000000,0.00000000
-0.21013819,-1.93353415,-1.75719178,-1.83737087,-1.28793240,0.00000000,0.00000000,-2.63713598,-0.60723042,0.12765369,-0.74233168,-1.41025674,0.00000000,0.00000000
-0.22235672,-1.94057024,-1.73974609,-1.84287047,-1.29857314,0.00000000,0.00000000,-2.64554954,-0.58779269,0.14114700,-0.71639085,-1.41901994,0.00000000,0.00000000
-0.23660582,-1.94732499,-1.72112632,-1.84845066,-1.31173992,0.00000000,0.00000000,-2.64655066,-0.56846589,0.15670609,-0.68293548,-1.43010306,0.00000000,0.00000000
-0.25121754,-1.95438910,-1.70062208,-1.85247827,-1.32002079,0.00000000,0.00000000,-2.63771749,-0.54594642,0.17495735,-0.63992846,-1.44714272,0.00000000,0.00000000
-0.26485544,-1.96207190,-1.67781150,-1.85371959,-1.32235968,0.00000000,0.00000000,-2.61485410,-0.51547456,0.19707865,-0.58542937,-1.46287572,0.00000000,0.00000000
-0.27655855,-1.97053587,-1.65253282,-1.85132492,-1.32493222,0.00000000,0.00000000,-2.57252145,-0.47140774,0.22443509,-0.51798612,-1.48283398,0.00000000,0.00000000
-0.28575239,-1.97990513,-1.62467277,-1.84477901,-1.33725500,0.00000000,0.00000000,-2.50604916,-0.40862536,0.25779468,-0.43705708,-1.50401175,0.00000000,0.00000000
-0.29219094,-1.99025977,-1.59401596,-1.83387041,-1.35225344,0.00000000,0.00000000,-2.41289139,-0.32345179,0.29703581,-0.34290683,-1.52725542,0.00000000,0.00000000
-0.29571819,-2.00168395,-1.56016791,-1.81853414,-1.36680973,0.00000000,0.00000000,-2.29259229,-0.21393681,0.34135553,-0.23638144,-1.54704249,0.00000000,0.00000000
-0.29607195,-2.01432705,-1.52257693,-1.79865944,-1.37751579,0.00000000,0.00000000,-2.14632010,-0.07994079,0.38950849,-0.11892089,-1.56983340,0.00000000,0.00000000
-0.29307988,-2.02841353,-1.48074067,-1.77424526,-1.38259172,0.00000000,0.00000000,-1.97667682,0.07682583,0.43993613,0.00730222,-1.59085977,0.00000000,0.00000000
-0.28669834,-2.04411840,-1.43444419,-1.74541664,-1.38152552,0.00000000,0.00000000,-1.78774977,0.25288370,0.49087745,0.13931414,-1.61793041,0.00000000,0.00000000
-0.27706474,-2.06145549,-1.38407159,-1.71231246,-1.38018978,0.00000000,0.00000000,-1.58507359,0.44314831,0.54052973,0.27342117,-1.64035571,0.00000000,0.00000000
-0.26472557,-2.08018517,-1.33087289,-1.67511094,-1.38074517,0.00000000,0.00000000,-1.37532389,0.64128238,0.58725131,0.40546438,-1.66670167,0.00000000,0.00000000
-0.25064963,-2.09970212,-1.27698040,-1.63402915,-1.38042998,0.00000000,0.00000000,-1.16574800,0.84032440,0.62975216,0.53122687,-1.69602609,0.00000000,0.00000000
-0.23575357,-2.11901283,-1.22502589,-1.58909535,-1.37777829,0.00000000,0.00000000,-0.96345997,1.03337514,0.66720492,0.64686483,-1.72230732,0.00000000,0.00000000
-0.22018130,-2.13671207,-1.17762375,-1.53975022,-1.37447453,0.00000000,0.00000000,-0.77482671,1.21425152,0.69923717,0.74926203,-1.74489236,0.00000000,0.00000000
-0.20338774,-2.15101528,-1.13713253,-1.48513544,-1.37164509,0.00000000,0.00000000,-0.60508972,1.37795532,0.72582138,0.83621162,-1.76676214,0.00000000,0.00000000
-0.18585981,-2.15962338,-1.10638011,-1.42547965,-1.36557209,0.00000000,0.00000000,-0.45821822,1.52081299,0.74712616,0.90641719,-1.78453612,0.00000000,0.00000000
-0.17052093,-2.16241741,-1.08682823,-1.36534059,-1.36194408,0.00000000,0.00000000,-0.33690003,1.64032543,0.76341158,0.95939821,-1.79811120,0.00000000,0.00000000
-0.15885401,-2.16442943,-1.07419860,-1.31308079,-1.35903299,0.00000000,0.00000000,-0.24259469,1.73498213,0.77498102,0.99551004,-1.80803192,0.00000000,0.00000000
-0.15007870,-2.16608024,-1.06742811,-1.27176952,-1.35902870,0.00000000,0.00000000,-0.17538203,1.80447054,0.78216267,1.01646316,-1.81739342,0.00000000,0.00000000
-0.14270280,-2.16644478,-1.06598544,-1.24040473,-1.35759521,0.00000000,0.00000000,-0.13283569,1.85017800,0.78566509,1.02637267,-1.82865107,0.00000000,0.00000000
-0.13388643,-2.16601491,-1.06718445,-1.21664655,-1.35378802,0.00000000,0.00000000,-0.10970284,1.87510765,0.78681630,1.03134179,-1.83959591,0.00000000,0.00000000
-0.12260012,-2.16654944,-1.06820142,-1.19938469,-1.34307885,0.00000000,0.00000000,-0.10155928,1.88210416,0.78664351,1.03604722,-1.84367883,0.00000000,0.00000000
-0.11358780,-2.16857529,-1.07025528,-1.18719292,-1.33280075,0.00000000,0.00000000,-0.10758182,1.87166476,0.78542578,1.04144907,-1.84837079,0.00000000,0.00000000
-0.10538916,-2.16976357,-1.07572889,-1.17417312,-1.32460225,0.00000000,0.00000000,-0.13089257,1.84097564,0.78291386,1.04421139,-1.85122418,0.00000000,0.00000000
-0.09705210,-2.16998816,-1.08705389,-1.15701473,-1.31590378,0.00000000,0.00000000,-0.17647283,1.78580689,0.77855664,1.03843641,-1.84969842,0.00000000,0.00000000
-0.08856882,-2.17000008,-1.10486782,-1.13564825,-1.31017947,0.00000000,0.00000000,-0.24831460,1.70381379,0.77147573,1.01911974,-1.84019291,0.00000000,0.00000000
-0.07963339,-2.16998196,-1.12881148,-1.11122739,-1.30477178,0.00000000,0.00000000,-0.34825301,1.59504390,0.76075113,0.98353380,-1.82865870,0.00000000,0.00000000
-0.07012145,-2.16968727,-1.15895379,-1.08468843,-1.29877591,0.00000000,0.00000000,-0.47626233,1.46089804,0.74560148,0.93047214,-1.82158351,0.00000000,0.00000000
-0.06112892,-2.16856360,-1.19526601,-1.05808067,-1.28123343,0.00000000,0.00000000,-0.63086450,1.30382526,0.72529167,0.85965508,-1.82452536,0.00000000,0.00000000
-0.05384575,-2.16706872,-1.23588943,-1.03568625,-1.26493323,0.00000000,0.00000000,-0.80920637,1.12749708,0.69911379,0.77167362,-1.82339215,0.00000000,0.00000000
-0.04751998,-2.16609144,-1.27772343,-1.02194428,-1.25631821,0.00000000,0.00000000,-1.00700390,0.93693668,0.66654098,0.66809982,-1.82803571,0.00000000,0.00000000
-0.04098381,-2.16443563,-1.31890941,-1.01905584,-1.24704647,0.00000000,0.00000000,-1.21861160,0.73836803,0.62741435,0.55153203,-1.83279479,0.00000000,0.00000000
-0.03397148,-2.16154814,-1.35854042,-1.02692485,-1.23510993,0.00000000,0.00000000,-1.43731201,0.53868026,0.58209312,0.42543542,-1.83400893,0.00000000,0.00000000
-0.02761236,-2.15740514,-1.39631152,-1.04444826,-1.22310781,0.00000000,0.00000000,-1.65582621,0.34481892,0.53149545,0.29381046,-1.83535063,0.00000000,0.00000000
-0.02401311,-2.15160632,-1.43223405,-1.06959271,-1.21163583,0.00000000,0.00000000,-1.86687970,0.16318013,0.47703406,0.16075002,-1.83330107,0.00000000,0.00000000
-0.02657954,-2.14237261,-1.46733212,-1.09998226,-1.20271730,0.00000000,0.00000000,-2.06369257,-0.00098323,0.42047989,0.02998455,-1.83084750,0.00000000,0.00000000
-0.03691115,-2.12923026,-1.50137866,-1.13458812,-1.19092488,0.00000000,0.00000000,-2.24038601,-0.14384849,0.36378938,-0.09540340,-1.83175576,0.00000000,0.00000000
-0.05609984,-2.11393738,-1.53225613,-1.17433739,-1.18160391,0.00000000,0.00000000,-2.39227986,-0.26305518,0.30894050,-0.21307869,-1.83443749,0.00000000,0.00000000
-0.08497142,-2.09741616,-1.55837953,-1.21991694,-1.17580819,0.00000000,0.00000000,-2.51598668,-0.35780913,0.25781626,-0.32149768,-1.83446920,0.00000000,0.00000000
-0.12313572,-2.07964826,-1.57884872,-1.27044904,-1.17208958,0.00000000,0.00000000,-2.60940123,-0.42900339,0.21215083,-0.41987684,-1.83423698,0.00000000,0.00000000
-0.16898799,-2.06023264,-1.59324265,-1.32362044,-1.16574812,0.00000000,0.00000000,-2.67182493,-0.47900653,0.17350687,-0.50800037,-1.83494520,0.00000000,0.00000000
-0.22017241,-2.03873467,-1.60150242,-1.37643135,-1.16089380,0.00000000,0.00000000,-2.70415330,-0.51144147,0.14320080,-0.58608985,-1.83273268,0.00000000,0.00000000
-0.27421492,-2.01513290,-1.60360467,-1.42597735,-1.15432894,0.00000000,0.00000000,-2.70997858,-0.53124613,0.12166759,-0.65476006,-1.83600366,0.00000000,0.00000000
-0.32927811,-1.98992002,-1.59958553,-1.46995914,-1.14894772,0.00000000,0.00000000,-2.69755340,-0.54416484,0.10719167,-0.71474892,-1.83907568,0.00000000,0.00000000
-0.38406608,-1.96395385,-1.58967543,-1.50668216,-1.14320302,0.00000000,0.00000000,-2.67646933,-0.55488402,0.09675913,-0.76685417,-1.85045087,0.00000000,0.00000000
-0.43725637,-1.93827498,-1.57420778,-1.53484190,-1.13897133,0.00000000,0.00000000,-2.65229654,-0.56537044,0.08842980,-0.81141013,-1.86219335,0.00000000,0.00000000
-0.48760659,-1.91389990,-1.55348408,-1.55349231,-1.13315547,0.00000000,0.00000000,-2.62776208,-0.57606685,0.08114164,-0.84846026,-1.87514925,0.00000000,0.00000000
-0.53419906,-1.89157915,-1.52779019,-1.56199551,-1.12871659,0.00000000,0.00000000,-2.60460949,-0.58717209,0.07409209,-0.87820894,-1.88841045,0.00000000,0.00000000
-0.57648623,-1.87157965,-1.49746728,-1.55991817,-1.12734246,0.00000000,0.00000000,-2.58367014,-0.59874129,0.06684507,-0.90105736,-1.90155828,0.00000000,0.00000000
-0.61439669,-1.85367310,-1.46290433,-1.54698336,-1.12840414,0.00000000,0.00000000,-2.56510210,-0.61062926,0.05921013,-0.91782242,-1.91132760,0.00000000,0.00000000
-0.64809060,-1.83710754,-1.42451143,-1.52298295,-1.12801301,0.00000000,0.00000000,-2.54905581,-0.62221301,0.05092275,-0.92989260,-1.92546618,0.00000000,0.00000000
-0.67774898,-1.82084119,-1.38263297,-1.48773122,-1.13003147,0.00000000,0.00000000,-2.53635192,-0.63353693,0.04133422,-0.93911225,-1.93965793,0.00000000,0.00000000
-0.70354509,-1.80396569,-1.33739471,-1.44110060,-1.13213301,0.00000000,0.00000000,-2.52632046,-0.64472818,0.03075489,-0.94657987,-1.95303476,0.00000000,0.00000000
-0.72557986,-1.78580463,-1.28869414,-1.38304675,-1.13218331,0.00000000,0.00000000,-2.51775980,-0.65590483,0.01990752,-0.95275950,-1.97141981,0.00000000,0.00000000
-0.74368954,-1.76581311,-1.23627567,-1.31356812,-1.13451099,0.00000000,0.00000000,-2.50827861,-0.66779822,0.01032954,-0.95861948,-1.99043727,0.00000000,0.00000000
-0.75730675,-1.74352992,-1.17978120,-1.23267853,-1.13445330,0.00000000,0.00000000,-2.49613857,-0.68113238,0.00323013,-0.96537256,-2.01266932,0.00000000,0.00000000
-0.76544845,-1.71859729,-1.11878562,-1.14040661,-1.13611889,0.00000000,0.00000000,-2.48143125,-0.69534582,-0.00128699,-0.97340071,-2.03501177,0.00000000,0.00000000
-0.76694667,-1.69081044,-1.05289459,-1.03683984,-1.13460815,0.00000000,0.00000000,-2.46542144,-0.70955086,-0.00390587,-0.98304856,-2.05379701,0.00000000,0.00000000
-0.76082063,-1.66027224,-0.98183548,-0.92224294,-1.13671219,0.00000000,0.00000000,-2.44963336,-0.72446817,-0.00556991,-0.99612713,-2.07451820,0.00000000,0.00000000
-0.74663234,-1.62753224,-0.90553927,-0.79718578,-1.14273918,0.00000000,0.00000000,-2.43477273,-0.74100393,-0.00680811,-1.01378632,-2.09571815,0.00000000,0.00000000
-0.72464573,-1.59351838,-0.82422197,-0.66258323,-1.14504051,0.00000000,0.00000000,-2.42259693,-0.75580955,-0.00900912,-1.03195786,-2.10883737,0.00000000,0.00000000
-0.69568956,-1.55943978,-0.73838943,-0.51965559,-1.14385402,0.00000000,0.00000000,-2.41513753,-0.76774877,-0.01388822,-1.04615450,-2.11615539,0.00000000,0.00000000
-0.66085625,-1.52660286,-0.64879394,-0.36983785,-1.14419258,0.00000000,0.00000000,-2.41387844,-0.77876467,-0.02277432,-1.05465209,-2.12496996,0.00000000,0.00000000
-0.62124437,-1.49606323,-0.55639130,-0.21466246,-1.14679813,0.00000000,0.00000000,-2.41783047,-0.79022074,-0.03509192,-1.05718756,-2.13549662,0.00000000,0.00000000
-0.57800454,-1.46855271,-0.46228561,-0.05573919,-1.15347850,0.00000000,0.00000000,-2.42509389,-0.80336726,-0.04943652,-1.05433524,-2.14654374,0.00000000,0.00000000
-0.53234839,-1.44448912,-0.36765298,0.10526209,-1.16237819,0.00000000,0.00000000,-2.43407726,-0.81964135,-0.06445965,-1.04711056,-2.16101336,0.00000000,0.00000000
-0.48544404,-1.42391026,-0.27367279,0.26666498,-1.17076516,0.00000000,0.00000000,-2.44302988,-0.83978468,-0.07862268,-1.03651273,-2.16937852,0.00000000,0.00000000
-0.43832359,-1.40652990,-0.18147624,0.42682144,-1.18029749,0.00000000,0.00000000,-2.45020294,-0.86328936,-0.09048139,-1.02335095,-2.17525458,0.00000000,0.00000000
-0.39193213,-1.39210558,-0.09210258,0.58410305,-1.18916047,0.00000000,0.00000000,-2.45527148,-0.88901997,-0.09981174,-1.00797546,-2.18270779,0.00000000,0.00000000
-0.34713927,-1.38071311,-0.00646490,0.73692203,-1.19929183,0.00000000,0.00000000,-2.45891213,-0.91559899,-0.10723022,-0.98993707,-2.19300199,0.00000000,0.00000000
-0.30465087,-1.37264574,0.07465586,0.88381112,-1.21292186,0.00000000,0.00000000,-2.46169496,-0.94192338,-0.11328423,-0.96909714,-2.19875646,0.00000000,0.00000000
-0.26493973,-1.36815262,0.15059555,1.02350187,-1.22938943,0.00000000,0.00000000,-2.46366906,-0.96732652,-0.11811012,-0.94658041,-2.19954705,0.00000000,0.00000000
-0.22820975,-1.36724424,0.22079042,1.15494466,-1.25107813,0.00000000,0.00000000,-2.46433139,-0.99156135,-0.12140280,-0.92411804,-2.19648695,0.00000000,0.00000000
-0.19442070,-1.36966443,0.28476894,1.27730596,-1.27619195,0.00000000,0.00000000,-2.46325970,-1.01343024,-0.12301852,-0.90296459,-2.19304585,0.00000000,0.00000000
-0.16344546,-1.37525654,0.34220192,1.38994908,-1.29840636,0.00000000,0.00000000,-2.46071196,-1.03098202,-0.12339281,-0.88361764,-2.18289638,0.00000000,0.00000000
-0.13506465,-1.38402414,0.39293402,1.49243176,-1.32251656,0.00000000,0.00000000,-2.45727849,-1.04331458,-0.12310356,-0.86671585,-2.17375994,0.00000000,0.00000000
-0.10909678,-1.39592111,0.43699738,1.58453608,-1.34809017,0.00000000,0.00000000,-2.45340681,-1.04964221,-0.12259118,-0.85209525,-2.16991925,0.00000000,0.00000000
-0.08548810,-1.41069293,0.47457853,1.66631174,-1.37012970,0.00000000,0.00000000,-2.44945693,-1.04989552,-0.12215212,-0.83967650,-2.16596222,0.00000000,0.00000000
-0.06427334,-1.42780495,0.50596291,1.73810410,-1.38618004,0.00000000,0.00000000,-2.44589972,-1.04510450,-0.12206365,-0.83007652,-2.16603327,0.00000000,0.00000000
-0.04546839,-1.44646370,0.53149283,1.80055702,-1.40188694,0.00000000,0.00000000,-2.44310141,-1.03657031,-0.12249894,-0.82404929,-2.16418123,0.00000000,0.00000000
-0.02901627,-1.46580970,0.55161327,1.85454154,-1.41833723,0.00000000,0.00000000,-2.44127226,-1.02595282,-0.12343852,-0.82251096,-2.15979171,0.00000000,0.00000000
-0.01480272,-1.48511326,0.56692547,1.90105951,-1.43652463,0.00000000,0.00000000,-2.44022417,-1.01487708,-0.12454497,-0.82602018,-2.15643644,0.00000000,0.00000000
-0.00267682,-1.50381505,0.57821882,1.94116902,-1.45742047,0.00000000,0.00000000,-2.43951058,-1.00359082,-0.12541164,-0.83347100,-2.15372944,0.00000000,0.00000000
0.00754790,-1.52147198,0.58638549,1.97591257,-1.47843683,0.00000000,0.00000000,-2.43912292,-0.99253523,-0.12593247,-0.84357262,-2.14503145,0.00000000,0.00000000
0.01608918,-1.53774559,0.59223956,2.00621462,-1.49719191,0.00000000,0.00000000,-2.43862534,-0.98234987,-0.12574816,-0.85534203,-2.13575768,0.00000000,0.00000000
0.02314864,-1.55241632,0.59643346,2.03283620,-1.51461256,0.00000000,0.00000000,-2.43773556,-0.97298765,-0.12469289,-0.86760247,-2.12323189,0.00000000,0.00000000
0.02887105,-1.56533909,0.59944230,2.05640721,-1.52924013,0.00000000,0.00000000,-2.43751144,-0.96416730,-0.12353545,-0.87991184,-2.11374855,0.00000000,0.00000000
0.03333498,-1.57645392,0.60160929,2.07746243,-1.54297948,0.00000000,0.00000000,-2.43704486,-0.95624405,-0.12173116,-0.89188468,-2.10419583,0.00000000,0.00000000
0.03661179,-1.58582914,0.60308355,2.09640098,-1.55854690,0.00000000,0.00000000,-2.43590975,-0.94900203,-0.11913011,-0.90337986,-2.08872652,0.00000000,0.00000000
0.03884152,-1.59371316,0.60385942,2.11342263,-1.57197452,0.00000000,0.00000000,-2.43471146,-0.94156730,-0.11636407,-0.91485190,-2.07825780,0.00000000,0.00000000
0.04023538,-1.60046732,0.60397875,2.12855363,-1.58500862,0.00000000,0.00000000,-2.43342853,-0.93380100,-0.11358040,-0.92718458,-2.07349873,0.00000000,0.00000000
0.04098925,-1.60644960,0.60364550,2.14174700,-1.59956312,0.00000000,0.00000000,-2.43193030,-0.92532969,-0.11082189,-0.93988168,-2.06641960,0.00000000,0.00000000
0.04124200,-1.61193597,0.60310429,2.15297890,-1.61757445,0.00000000,0.00000000,-2.43048072,-0.91575843,-0.10836991,-0.95198292,-2.06345558,0.00000000,0.00000000
0.04107536,-1.61699355,0.60248345,2.16234112,-1.63133347,0.00000000,0.00000000,-2.42973900,-0.90494001,-0.10675185,-0.96289200,-2.05795312,0.00000000,0.00000000
0.04053668,-1.62157333,0.60185915,2.17003441,-1.64696097,0.00000000,0.00000000,-2.42982912,-0.89347351,-0.10600410,-0.97244495,-2.05745912,0.00000000,0.00000000
0.03965031,-1.62554801,0.60119891,2.17635989,-1.65996039,0.00000000,0.00000000,-2.43012333,-0.88222653,-0.10558007,-0.98112249,-2.05369830,0.00000000,0.00000000
0.03839844,-1.62876809,0.60044479,2.18168139,-1.67256105,0.00000000,0.00000000,-2.43035579,-0.87199944,-0.10520328,-0.98978901,-2.05212760,0.00000000,0.00000000
0.03673920,-1.63115180,0.59965777,2.18632603,-1.68741739,0.00000000,0.00000000,-2.43005872,-0.86304146,-0.10448951,-0.99919778,-2.05490780,0.00000000,0.00000000
0.03471170,-1.63251328,0.59881890,2.19053817,-1.70092106,0.00000000,0.00000000,-2.42897558,-0.85548913,-0.10319748,-1.00836754,-2.05295062,0.00000000,0.00000000
0.03243342,-1.63284004,0.59807348,2.19431448,-1.71002018,0.00000000,0.00000000,-2.42754245,-0.84931076,-0.10160338,-1.01583242,-2.05250835,0.00000000,0.00000000
0.03006184,-1.63242602,0.59772056,2.19738197,-1.71531689,0.00000000,0.00000000,-2.42579532,-0.84487623,-0.09966460,-1.02043951,-2.05943274,0.00000000,0.00000000
0.02773987,-1.63177490,0.59803843,2.19937634,-1.71707523,0.00000000,0.00000000,-2.42346501,-0.84304148,-0.09709758,-1.02155614,-2.07604647,0.00000000,0.00000000
0.02563638,-1.63146627,0.59928733,2.19994330,-1.71520936,0.00000000,0.00000000,-2.42065644,-0.84424847,-0.09397072,-1.01889396,-2.09236240,0.00000000,0.00000000
0.02392001,-1.63205254,0.60171163,2.19881082,-1.70795608,0.00000000,0.00000000,-2.41767478,-0.84871423,-0.09056350,-1.01248240,-2.10959506,0.00000000,0.00000000
0.02270934,-1.63393927,0.60548306,2.19591188,-1.70369780,0.00000000,0.00000000,-2.41461301,-0.85657853,-0.08702428,-1.00268722,-2.12626433,0.00000000,0.00000000
0.02202730,-1.63723969,0.61058867,2.19146538,-1.70005798,0.00000000,0.00000000,-2.41131258,-0.86737180,-0.08336055,-0.99015486,-2.14175487,0.00000000,0.00000000
0.02183807,-1.64184093,0.61676061,2.18580770,-1.69138384,0.00000000,0.00000000,-2.40781665,-0.88020670,-0.07973814,-0.97584981,-2.15079737,0.00000000,0.00000000
0.02212334,-1.64763427,0.62361974,2.17915678,-1.68904006,0.00000000,0.00000000,-2.40459466,-0.89382374,-0.07659721,-0.96062338,-2.15967155,0.00000000,0.00000000
0.02289476,-1.65457332,0.63085479,2.17162657,-1.69040942,0.00000000,0.00000000,-2.40167809,-0.90692765,-0.07398573,-0.94517303,-2.16599321,0.00000000,0.00000000
0.02412065,-1.66254342,0.63822830,2.16340017,-1.68792713,0.00000000,0.00000000,-2.39898014,-0.91915703,-0.07180618,-0.93002427,-2.17650175,0.00000000,0.00000000
0.02571435,-1.67130959,0.64557433,2.15479255,-1.68676698,0.00000000,0.00000000,-2.39556360,-0.93040532,-0.06937055,-0.91583163,-2.18287873,0.00000000,0.00000000
0.02752254,-1.68055081,0.65270972,2.14619994,-1.69028211,0.00000000,0.00000000,-2.39165068,-0.94032383,-0.06681464,-0.90311337,-2.18906641,0.00000000,0.00000000
0.02929959,-1.68982804,0.65933388,2.13811398,-1.69530427,0.00000000,0.00000000,-2.38789511,-0.94843358,-0.06457358,-0.89238131,-2.20313883,0.00000000,0.00000000
0.03079323,-1.69866776,0.66512918,2.13102317,-1.70369184,0.00000000,0.00000000,-2.38463974,-0.95458853,-0.06285094,-0.88442212,-2.21586895,0.00000000,0.00000000
0.03180305,-1.70662522,0.66984963,2.12535024,-1.70981836,0.00000000,0.00000000,-2.38207412,-0.95886815,-0.06172269,-0.87994027,-2.22884607,0.00000000,0.00000000
0.03221488,-1.71334374,0.67338014,2.12140226,-1.71220660,0.00000000,0.00000000,-2.38015461,-0.96113735,-0.06110729,-0.87902701,-2.23922205,0.00000000,0.00000000
0.03202498,-1.71864951,0.67579573,2.11927271,-1.71669436,0.00000000,0.00000000,-2.37883854,-0.96146518,-0.06091448,-0.88154900,-2.24119115,0.00000000,0.00000000
0.03136459,-1.72258556,0.67743367,2.11882758,-1.72158241,0.00000000,0.00000000,-2.37791014,-0.95988339,-0.06093114,-0.88670141,-2.24088812,0.00000000,0.00000000
0.03047104,-1.72532916,0.67891568,2.11984444,-1.72705054,0.00000000,0.00000000,-2.37732649,-0.95637029,-0.06106688,-0.89297646,-2.24574828,0.00000000,0.00000000
0.02948644,-1.72696221,0.68076187,2.12226152,-1.73484790,0.00000000,0.00000000,-2.37721348,-0.95139682,-0.06134828,-0.89950734,-2.24609995,0.00000000,0.00000000
0.02836075,-1.72737134,0.68306571,2.12621689,-1.74291921,0.00000000,0.00000000,-2.37704968,-0.94554353,-0.06139639,-0.90607119,-2.24502206,0.00000000,0.00000000
0.02696005,-1.72633398,0.68561697,2.13190413,-1.74638665,0.00000000,0.00000000,-2.37622023,-0.93911445,-0.06084199,-0.91283643,-2.25150752,0.00000000,0.00000000
0.02516174,-1.72372210,0.68807191,2.13939190,-1.74563944,0.00000000,0.00000000,-2.37450171,-0.93234223,-0.05961601,-0.92059994,-2.25320172,0.00000000,0.00000000
0.02291881,-1.71970141,0.69015002,2.14850068,-1.74567461,0.00000000,0.00000000,-2.37222552,-0.92527568,-0.05804371,-0.93002981,-2.25518513,0.00000000,0.00000000
0.02033105,-1.71474147,0.69169706,2.15866566,-1.74066722,0.00000000,0.00000000,-2.37064075,-0.91708845,-0.05713133,-0.94078988,-2.24832773,0.00000000,0.00000000
0.01761609,-1.70950818,0.69258720,2.16895127,-1.73640513,0.00000000,0.00000000,-2.37082386,-0.90707624,-0.05774563,-0.95257002,-2.24290800,0.00000000,0.00000000
0.01499950,-1.70470679,0.69272405,2.17835665,-1.73855734,0.00000000,0.00000000,-2.37345719,-0.89472836,-0.06040990,-0.96486324,-2.23740244,0.00000000,0.00000000
0.01258490,-1.70078146,0.69197536,2.18624854,-1.73953271,0.00000000,0.00000000,-2.37795520,-0.88056946,-0.06458075,-0.97786891,-2.22550297,0.00000000,0.00000000
0.01028011,-1.69764209,0.69019854,2.19263220,-1.74443412,0.00000000,0.00000000,-2.38252473,-0.86641997,-0.06872351,-0.99298102,-2.21836853,0.00000000,0.00000000
0.00788307,-1.69492531,0.68744302,2.19790030,-1.74465597,0.00000000,0.00000000,-2.38517928,-0.85390675,-0.07118867,-1.01095605,-2.21067739,0.00000000,0.00000000
0.00522834,-1.69230318,0.68394715,2.20247388,-1.74169421,0.00000000,0.00000000,-2.38574696,-0.84254223,-0.07183405,-1.03024340,-2.20043349,0.00000000,0.00000000
0.00225972,-1.68962169,0.68018407,2.20660329,-1.74143767,0.00000000,0.00000000,-2.38502622,-0.83215845,-0.07132724,-1.04876256,-2.18603015,0.00000000,0.00000000
-0.00097268,-1.68698883,0.67678863,2.21027875,-1.74235582,0.00000000,0.00000000,-2.38438272,-0.82271659,-0.07084076,-1.06459665,-2.16989183,0.00000000,0.00000000
-0.00425818,-1.68482077,0.67436880,2.21315813,-1.74446225,0.00000000,0.00000000,-2.38419747,-0.81500858,-0.07072738,-1.07669568,-2.15423155,0.00000000,0.00000000
-0.00721324,-1.68372309,0.67340797,2.21466112,-1.74764168,0.00000000,0.00000000,-2.38388157,-0.80963415,-0.07052871,-1.08468854,-2.13837576,0.00000000,0.00000000
-0.00943007,-1.68431473,0.67432547,2.21418858,-1.74948990,0.00000000,0.00000000,-2.38305378,-0.80657113,-0.06994664,-1.08838022,-2.12308455,0.00000000,0.00000000
-0.01066522,-1.68701410,0.67743212,2.21138835,-1.75641632,0.00000000,0.00000000,-2.38217878,-0.80587196,-0.06930301,-1.08785033,-2.10772514,0.00000000,0.00000000
-0.01093732,-1.69183111,0.68281662,2.20632601,-1.75803494,0.00000000,0.00000000,-2.38235164,-0.80794638,-0.06932396,-1.08360636,-2.09361053,0.00000000,0.00000000
-0.01045160,-1.69834125,0.69023114,2.19933105,-1.75771153,0.00000000,0.00000000,-2.38417339,-0.81299984,-0.07031538,-1.07644475,-2.07661533,0.00000000,0.00000000
-0.00947735,-1.70581329,0.69902432,2.19072676,-1.75535643,0.00000000,0.00000000,-2.38641787,-0.81997740,-0.07127967,-1.06711018,-2.06049204,0.00000000,0.00000000
-0.00825597,-1.71344161,0.70832705,2.18076563,-1.74885249,0.00000000,0.00000000,-2.38711882,-0.82775706,-0.07077961,-1.05678844,-2.05010557,0.00000000,0.00000000
-0.00704457,-1.72058249,0.71740729,2.16979837,-1.73207843,0.00000000,0.00000000,-2.38559318,-0.83488834,-0.06847598,-1.04616368,-2.04121780,0.00000000,0.00000000
-0.00609092,-1.72680426,0.72584838,2.15835357,-1.71090269,0.00000000,0.00000000,-2.38312030,-0.84042418,-0.06551636,-1.03613400,-2.02435756,0.00000000,0.00000000
-0.00556131,-1.73184907,0.73354268,2.14702916,-1.68489182,0.00000000,0.00000000,-2.38107777,-0.84452993,-0.06303159,-1.02795744,-2.01007676,0.00000000,0.00000000
-0.00552325,-1.73562324,0.74051392,2.13631725,-1.65780079,0.00000000,0.00000000,-2.37795138,-0.84654129,-0.05995566,-1.01996708,-1.99826694,0.00000000,0.00000000
-0.00603737,-1.73805273,0.74671078,2.12655544,-1.63278520,0.00000000,0.00000000,-2.37330770,-0.84383708,-0.05611415,-1.01048076,-1.99104130,0.00000000,0.00000000
-0.00722599,-1.73894405,0.75184315,2.11795831,-1.60918248,0.00000000,0.00000000,-2.36948347,-0.83836406,-0.05318415,-1.00233507,-1.99492395,0.00000000,0.00000000
-0.00917181,-1.73812234,0.75558949,2.11057806,-1.59127569,0.00000000,0.00000000,-2.36949158,-0.83968228,-0.05294483,-1.00055254,-1.99645913,0.00000000,0.00000000
-0.01190025,-1.73557496,0.75785559,2.10436153,-1.57093191,0.00000000,0.00000000,-2.36732411,-0.83607352,-0.05133860,-0.99825013,-1.99378467,0.00000000,0.00000000
-0.01540054,-1.73132479,0.75862688,2.09925818,-1.55159175,0.00000000,0.00000000,-2.36254358,-0.82805377,-0.04795627,-0.99613756,-1.99153757,0.00000000,0.00000000
-0.01963022,-1.72541475,0.75784057,2.09519315,-1.53296506,0.00000000,0.00000000,-2.35860634,-0.82830489,-0.04480743,-1.00062239,-1.98945701,0.00000000,0.00000000
-0.02444984,-1.71827078,0.75583780,2.09188819,-1.51832771,0.00000000,0.00000000,-2.35661960,-0.82581013,-0.04303635,-1.00340700,-1.98552084,0.00000000,0.00000000
-0.02965072,-1.71038723,0.75295663,2.08890295,-1.50999928,0.00000000,0.00000000,-2.35652232,-0.81842375,-0.04266196,-1.00284266,-1.98425627,0.00000000,0.00000000
-0.03509609,-1.70205939,0.74930292,2.08582091,-1.49992883,0.00000000,0.00000000,-2.35731030,-0.80884987,-0.04292477,-1.00143862,-1.98260987,0.00000000,0.00000000
-0.04077722,-1.69343281,0.74486536,2.08233523,-1.48873699,0.00000000,0.00000000,-2.35901046,-0.80325115,-0.04380089,-1.00420511,-1.98560202,0.00000000,0.00000000
-0.04663802,-1.68480587,0.73983091,2.07807422,-1.47841001,0.00000000,0.00000000,-2.36120653,-0.80156147,-0.04512687,-1.01091588,-1.99075866,0.00000000,0.00000000
-0.05249528,-1.67671192,0.73469865,2.07251835,-1.46420181,0.00000000,0.00000000,-2.36322117,-0.79812592,-0.04665975,-1.01578951,-1.99657011,0.00000000,0.00000000
-0.05813702,-1.66960680,0.73005503,2.06522083,-1.44814289,0.00000000,0.00000000,-2.36614442,-0.79391903,-0.04918094,-1.01669919,-2.00723171,0.00000000,0.00000000
-0.06340837,-1.66368651,0.72643459,2.05598688,-1.42847276,0.00000000,0.00000000,-2.36958289,-0.79157394,-0.05225902,-1.01406741,-2.01658344,0.00000000,0.00000000
-0.06825709,-1.65893507,0.72424072,2.04484415,-1.41463423,0.00000000,0.00000000,-2.37254691,-0.79266798,-0.05500371,-1.00860953,-2.02994537,0.00000000,0.00000000
-0.07268132,-1.65532017,0.72373414,2.03190637,-1.40718937,0.00000000,0.00000000,-2.37452722,-0.79828644,-0.05690129,-1.00091159,-2.03913450,0.00000000,0.00000000
-0.07667641,-1.65292311,0.72509927,2.01727009,-1.39839029,0.00000000,0.00000000,-2.37531161,-0.80883700,-0.05773893,-0.99113446,-2.04961109,0.00000000,0.00000000
-0.08025923,-1.65192437,0.72846508,2.00101233,-1.39361084,0.00000000,0.00000000,-2.37540317,-0.82413989,-0.05787719,-0.97910136,-2.06217718,0.00000000,0.00000000
-0.08352360,-1.65246975,0.73377079,1.98323262,-1.38353336,0.00000000,0.00000000,-2.37607360,-0.84386736,-0.05822048,-0.96465266,-2.07476974,0.00000000,0.00000000
-0.08669009,-1.65435851,0.74049646,1.96410191,-1.37354207,0.00000000,0.00000000,-2.37851596,-0.86680597,-0.05963848,-0.94743115,-2.08951974,0.00000000,0.00000000
-0.09001867,-1.65686476,0.74746424,1.94380319,-1.35530508,0.00000000,0.00000000,-2.38209581,-0.88906699,-0.06184177,-0.92685461,-2.10273147,0.00000000,0.00000000
-0.09365174,-1.65903568,0.75319242,1.92247450,-1.32990110,0.00000000,0.00000000,-2.38525367,-0.90820289,-0.06384498,-0.90559101,-2.11623263,0.00000000,0.00000000
-0.09764483,-1.66022921,0.75673419,1.90025330,-1.30539894,0.00000000,0.00000000,-2.38791013,-0.92570424,-0.06547416,-0.88830924,-2.13236070,0.00000000,0.00000000
-0.10200975,-1.66015160,0.75769615,1.87730336,-1.28034401,0.00000000,0.00000000,-2.38997817,-0.94195503,-0.06657535,-0.87677419,-2.14410520,0.00000000,0.00000000
-0.10673557,-1.65877783,0.75605452,1.85374713,-1.25767040,0.00000000,0.00000000,-2.39130640,-0.95639473,-0.06699707,-0.87092096,-2.15638328,0.00000000,0.00000000
-0.11176441,-1.65626168,0.75195122,1.82956648,-1.23240209,0.00000000,0.00000000,-2.39189005,-0.96802741,-0.06672724,-0.86978072,-2.16749573,0.00000000,0.00000000
-0.11707064,-1.65283549,0.74556190,1.80459785,-1.21106124,0.00000000,0.00000000,-2.39235497,-0.97571987,-0.06618994,-0.87193471,-2.17873359,0.00000000,0.00000000
-0.12269428,-1.64871955,0.73698151,1.77860677,-1.18700171,0.00000000,0.00000000,-2.39320612,-0.97873265,-0.06567548,-0.87613928,-2.18979526,0.00000000,0.00000000
-0.12867029,-1.64400828,0.72612977,1.75134552,-1.16148520,0.00000000,0.00000000,-2.39404750,-0.97723174,-0.06477507,-0.88225782,-2.19820404,0.00000000,0.00000000
-0.13497537,-1.63865769,0.71279979,1.72252965,-1.13620389,0.00000000,0.00000000,-2.39428544,-0.97253901,-0.06289364,-0.89174944,-2.20599294,0.00000000,0.00000000
-0.14155418,-1.63260615,0.69691390,1.69182932,-1.11705697,0.00000000,0.00000000,-2.39373589,-0.96621698,-0.05977685,-0.90616810,-2.21035361,0.00000000,0.00000000
-0.14839636,-1.62582564,0.67857903,1.65889466,-1.09978271,0.00000000,0.00000000,-2.39254904,-0.95836908,-0.05557542,-0.92527664,-2.21143007,0.00000000,0.00000000
-0.15557913,-1.61847663,0.65803987,1.62334025,-1.07866383,0.00000000,0.00000000,-2.39107490,-0.94848317,-0.05069309,-0.94769025,-2.21869278,0.00000000,0.00000000
-0.16324772,-1.61105478,0.63558495,1.58471823,-1.06036210,0.00000000,0.00000000,-2.38957071,-0.93634433,-0.04548340,-0.97189587,-2.22596097,0.00000000,0.00000000
-0.17166144,-1.60415459,0.61142927,1.54259443,-1.03697026,0.00000000,0.00000000,-2.38842297,-0.92191505,-0.04036647,-0.99649948,-2.23249555,0.00000000,0.00000000
-0.18119834,-1.59814870,0.58573127,1.49665511,-1.01171350,0.00000000,0.00000000,-2.38809824,-0.90518695,-0.03576467,-1.01951814,-2.23592687,0.00000000,0.00000000
-0.19226108,-1.59320056,0.55859351,1.44673276,-0.98693907,0.00000000,0.00000000,-2.38904452,-0.88714015,-0.03200945,-1.03951442,-2.24583626,0.00000000,0.00000000
-0.20517717,-1.58929992,0.52997714,1.39277482,-0.95856297,0.00000000,0.00000000,-2.39145589,-0.86944294,-0.02921759,-1.05646825,-2.25103521,0.00000000,0.00000000
-0.22013398,-1.58627284,0.49972060,1.33479762,-0.93081862,0.00000000,0.00000000,-2.39521313,-0.85339451,-0.02728252,-1.07139313,-2.25734258,0.00000000,0.00000000
-0.23716845,-1.58387637,0.46760070,1.27285004,-0.90781897,0.00000000,0.00000000,-2.39968061,-0.83886182,-0.02571300,-1.08528924,-2.26822829,0.00000000,0.00000000
-0.25631124,-1.58189571,0.43341511,1.20698929,-0.87986213,0.00000000,0.00000000,-2.40420842,-0.82511234,-0.02401002,-1.09854269,-2.27700067,0.00000000,0.00000000
-0.27774712,-1.58029795,0.39709070,1.13725328,-0.84882677,0.00000000,0.00000000,-2.40786719,-0.81274712,-0.02136334,-1.11069536,-2.28631949,0.00000000,0.00000000
-0.30174071,-1.57924092,0.35866857,1.06365931,-0.82246214,0.00000000,0.00000000,-2.41161132,-0.80266827,-0.01843167,-1.12014961,-2.29300237,0.00000000,0.00000000
-0.32848236,-1.57901978,0.31819934,0.98622441,-0.79884446,0.00000000,0.00000000,-2.41571760,-0.79472315,-0.01532220,-1.12559867,-2.29665828,0.00000000,0.00000000
-0.35802972,-1.57999289,0.27569628,0.90499443,-0.77159864,0.00000000,0.00000000,-2.42022848,-0.78834122,-0.01199629,-1.12638712,-2.29890656,0.00000000,0.00000000
-0.39030603,-1.58246267,0.23112725,0.82008493,-0.74572343,0.00000000,0.00000000,-2.42517757,-0.78336263,-0.00842865,-1.12247586,-2.30399609,0.00000000,0.00000000
-0.42507356,-1.58642268,0.18441124,0.73173499,-0.71907121,0.00000000,0.00000000,-2.42991281,-0.77964336,-0.00403345,-1.11450183,-2.30742168,0.00000000,0.00000000
-0.46193391,-1.59136033,0.13546747,0.64033628,-0.68673825,0.00000000,0.00000000,-2.43309093,-0.77632213,0.00224083,-1.10385931,-2.30702615,0.00000000,0.00000000
-0.50037009,-1.59643090,0.08427613,0.54640174,-0.66028321,0.00000000,0.00000000,-2.43342447,-0.77384782,0.01129362,-1.09342289,-2.30868125,0.00000000,0.00000000
-0.53976667,-1.60086048,0.03090473,0.45050770,-0.63185292,0.00000000,0.00000000,-2.43045044,-0.77234423,0.02336890,-1.08533823,-2.30824995,0.00000000,0.00000000
-0.57945430,-1.60422063,-0.02447941,0.35323215,-0.61124134,0.00000000,0.00000000,-2.42589664,-0.76892292,0.03708762,-1.07791924,-2.30279326,0.00000000,0.00000000
-0.61872077,-1.60633385,-0.08161844,0.25512800,-0.59170765,0.00000000,0.00000000,-2.42195201,-0.76142907,0.05073345,-1.06999159,-2.29873943,0.00000000,0.00000000
-0.65678430,-1.60702085,-0.14018832,0.15674916,-0.57320845,0.00000000,0.00000000,-2.41952801,-0.75001210,0.06348785,-1.06342781,-2.29019237,0.00000000,0.00000000
-0.69292831,-1.60615563,-0.19980632,0.05862955,-0.56102097,0.00000000,0.00000000,-2.41871262,-0.73704684,0.07507639,-1.06188583,-2.28356385,0.00000000,0.00000000
-0.72659975,-1.60370827,-0.26005045,-0.03873297,-0.54782194,0.00000000,0.00000000,-2.41938400,-0.72388184,0.08548369,-1.06670570,-2.27476168,0.00000000,0.00000000
-0.75744927,-1.59982574,-0.32049057,-0.13492255,-0.53914112,0.00000000,0.00000000,-2.42275357,-0.70984513,0.09393726,-1.07678676,-2.26930022,0.00000000,0.00000000
-0.78532952,-1.59485269,-0.38071606,-0.22963348,-0.53465718,0.00000000,0.00000000,-2.42875481,-0.69267982,0.10082317,-1.08938205,-2.26301861,0.00000000,0.00000000
-0.81024128,-1.58918834,-0.44035426,-0.32262897,-0.53375584,0.00000000,0.00000000,-2.43374705,-0.67302823,0.10899965,-1.10240006,-2.25561690,0.00000000,0.00000000
-0.83223391,-1.58314872,-0.49907804,-0.41368061,-0.53302634,0.00000000,0.00000000,-2.43795681,-0.65442497,0.11819676,-1.11579370,-2.25085568,0.00000000,0.00000000
-0.85133761,-1.57697797,-0.55659896,-0.50254393,-0.53967869,0.00000000,0.00000000,-2.44124389,-0.63705754,0.12855014,-1.12920177,-2.24311399,0.00000000,0.00000000
-0.86749059,-1.57078302,-0.61265421,-0.58893210,-0.54005659,0.00000000,0.00000000,-2.44408774,-0.62026948,0.13971539,-1.14210272,-2.23257971,0.00000000,0.00000000
-0.88061798,-1.56456101,-0.66701895,-0.67253959,-0.54075336,0.00000000,0.00000000,-2.44824839,-0.60409683,0.15028967,-1.15437067,-2.21829820,0.00000000,0.00000000
-0.89078075,-1.55833566,-0.71953166,-0.75309426,-0.53777152,0.00000000,0.00000000,-2.45580149,-0.58909923,0.15856461,-1.16608477,-2.20404506,0.00000000,0.00000000
-0.89823323,-1.55224848,-0.77010262,-0.83039594,-0.53310800,0.00000000,0.00000000,-2.46669340,-0.57546043,0.16449541,-1.17688966,-2.19140220,0.00000000,0.00000000
-0.90334231,-1.54656255,-0.81868929,-0.90432119,-0.52770191,0.00000000,0.00000000,-2.47856522,-0.56334585,0.16981044,-1.18660772,-2.18203449,0.00000000,0.00000000
-0.90646499,-1.54164040,-0.86525351,-0.97480065,-0.52962953,0.00000000,0.00000000,-2.48920488,-0.55367440,0.17602979,-1.19582558,-2.17428637,0.00000000,0.00000000
-0.90788883,-1.53785098,-0.90974313,-1.04177701,-0.53397602,0.00000000,0.00000000,-2.49847722,-0.54676604,0.18310905,-1.20427763,-2.16351533,0.00000000,0.00000000
-0.90780938,-1.53539014,-0.95210499,-1.10515475,-0.53682172,0.00000000,0.00000000,-2.50719357,-0.54230928,0.19030279,-1.21120429,-2.15864015,0.00000000,0.00000000
-0.90634602,-1.53428924,-0.99229163,-1.16478050,-0.53948444,0.00000000,0.00000000,-2.51556373,-0.53991455,0.19737905,-1.21611679,-2.14557719,0.00000000,0.00000000
-0.90358335,-1.53454220,-1.03026307,-1.22044992,-0.53843522,0.00000000,0.00000000,-2.52314568,-0.53960186,0.20464353,-1.21897662,-2.12727427,0.00000000,0.00000000
-0.89953375,-1.53619635,-1.06597233,-1.27191103,-0.53845841,0.00000000,0.00000000,-2.52951336,-0.54150420,0.21243191,-1.21985877,-2.10744977,0.00000000,0.00000000
-0.89405215,-1.53939140,-1.09933293,-1.31889009,-0.54471761,0.00000000,0.00000000,-2.53464746,-0.54543072,0.22083019,-1.21861053,-2.08651590,0.00000000,0.00000000
-0.88680840,-1.54438722,-1.13018537,-1.36117792,-0.54655850,0.00000000,0.00000000,-2.53905630,-0.55077171,0.22959946,-1.21478152,-2.06705546,0.00000000,0.00000000
-0.87737584,-1.55152833,-1.15830147,-1.39873314,-0.54648966,0.00000000,0.00000000,-2.54350591,-0.55676991,0.23836772,-1.20787776,-2.04584718,0.00000000,0.00000000
-0.86545968,-1.56100845,-1.18349409,-1.43172145,-0.54672366,0.00000000,0.00000000,-2.54882836,-0.56254840,0.24675623,-1.19746101,-2.02302933,0.00000000,0.00000000
-0.85106927,-1.57253981,-1.20579970,-1.46044528,-0.54365122,0.00000000,0.00000000,-2.55526018,-0.56687218,0.25489533,-1.18359876,-2.00420070,0.00000000,0.00000000
-0.83451849,-1.58533096,-1.22559071,-1.48522496,-0.54069662,0.00000000,0.00000000,-2.56145191,-0.56895232,0.26404577,-1.16810560,-1.97869945,0.00000000,0.00000000
-0.81632853,-1.59849429,-1.24345982,-1.50634396,-0.53461707,0.00000000,0.00000000,-2.56683087,-0.56844550,0.27487028,-1.15289950,-1.95427549,0.00000000,0.00000000
-0.79715002,-1.61133003,-1.26004243,-1.52409804,-0.52213776,0.00000000,0.00000000,-2.57178164,-0.56540453,0.28734025,-1.13938487,-1.93076074,0.00000000,0.00000000
-0.77763182,-1.62346232,-1.27581024,-1.53891706,-0.51290345,0.00000000,0.00000000,-2.57700109,-0.56096250,0.30101356,-1.12969804,-1.90784121,0.00000000,0.00000000
-0.75834370,-1.63488245,-1.29097033,-1.55140090,-0.50574636,0.00000000,0.00000000,-2.58347344,-0.55632073,0.31516552,-1.12570739,-1.88673258,0.00000000,0.00000000
-0.73968220,-1.64585423,-1.30551279,-1.56215179,-0.50297356,0.00000000,0.00000000,-2.59200454,-0.55212635,0.32926962,-1.12802827,-1.86860335,0.00000000,0.00000000
-0.72173595,-1.65673244,-1.31927812,-1.57154727,-0.50220549,0.00000000,0.00000000,-2.60257912,-0.54791540,0.34360048,-1.13544679,-1.85227144,0.00000000,0.00000000
-0.70433706,-1.66780818,-1.33203077,-1.57971120,-0.49354702,0.00000000,0.00000000,-2.61492896,-0.54265010,0.35869157,-1.14617634,-1.84253299,0.00000000,0.00000000
-0.68722218,-1.67931044,-1.34347653,-1.58665252,-0.48783118,0.00000000,0.00000000,-2.62893939,-0.53559542,0.37483034,-1.15900254,-1.83438218,0.00000000,0.00000000
-0.67018801,-1.69144976,-1.35330474,-1.59241533,-0.48306143,0.00000000,0.00000000,-2.64463592,-0.52622765,0.39209029,-1.17281711,-1.82058871,0.00000000,0.00000000
-0.65317243,-1.70445037,-1.36120737,-1.59719849,-0.47505051,0.00000000,0.00000000,-2.66195798,-0.51411706,0.41049901,-1.18661749,-1.80809855,0.00000000,0.00000000
-0.63621914,-1.71854830,-1.36685777,-1.60130835,-0.46231520,0.00000000,0.00000000,-2.68050957,-0.49932754,0.43010500,-1.19995797,-1.79462016,0.00000000,0.00000000
-0.61954588,-1.73391247,-1.36999738,-1.60509634,-0.44588080,0.00000000,0.00000000,-2.70010400,-0.48225406,0.45064870,-1.21238232,-1.78583300,0.00000000,0.00000000
-0.60351753,-1.75057697,-1.37050259,-1.60891652,-0.42730606,0.00000000,0.00000000,-2.72107148,-0.46309227,0.47157070,-1.22264957,-1.78042710,0.00000000,0.00000000
-0.58873379,-1.76823008,-1.36860669,-1.61305368,-0.41048852,0.00000000,0.00000000,-2.74274206,-0.44264281,0.49275002,-1.23047209,-1.78332269,0.00000000,0.00000000
-0.57633352,-1.78616583,-1.36505842,-1.61786413,-0.39032808,0.00000000,0.00000000,-2.76381969,-0.42252177,0.51402354,-1.23708773,-1.78655910,0.00000000,0.00000000
-0.56762445,-1.80353880,-1.36081100,-1.62369561,-0.37680614,0.00000000,0.00000000,-2.78309393,-0.40400907,0.53509527,-1.24393296,-1.79334724,0.00000000,0.00000000
-0.56345403,-1.81954479,-1.35661376,-1.63058281,-0.35987741,0.00000000,0.00000000,-2.80028534,-0.38716999,0.55542558,-1.25126052,-1.79667103,0.00000000,0.00000000
-0.56392193,-1.83361936,-1.35274410,-1.63808155,-0.34979329,0.00000000,0.00000000,-2.81567454,-0.37174603,0.57435465,-1.25878894,-1.80082166,0.00000000,0.00000000
-0.56860483,-1.84539390,-1.34909046,-1.64538074,-0.33986238,0.00000000,0.00000000,-2.82991099,-0.35769519,0.59106350,-1.26617372,-1.80257547,0.00000000,0.00000000
-0.57708740,-1.85457802,-1.34546936,-1.65163589,-0.33140755,0.00000000,0.00000000,-2.84346485,-0.34517229,0.60493827,-1.27318621,-1.80549061,0.00000000,0.00000000
-0.58904481,-1.86100805,-1.34163582,-1.65610909,-0.32180047,0.00000000,0.00000000,-2.85607123,-0.33441019,0.61594766,-1.27991486,-1.80699718,0.00000000,0.00000000
-0.60395342,-1.86479533,-1.33707213,-1.65813088,-0.31084728,0.00000000,0.00000000,-2.86692977,-0.32564321,0.62447274,-1.28671658,-1.81629038,0.00000000,0.00000000
-0.62110519,-1.86628258,-1.33112085,-1.65701807,-0.30207336,0.00000000,0.00000000,-2.87570071,-0.31894672,0.63067979,-1.29371583,-1.82245457,0.00000000,0.00000000
-0.63971847,-1.86594450,-1.32312405,-1.65206826,-0.29679441,0.00000000,0.00000000,-2.88260269,-0.31414628,0.63447988,-1.30064511,-1.83265638,0.00000000,0.00000000
-0.65903401,-1.86428487,-1.31246531,-1.64258897,-0.28928787,0.00000000,0.00000000,-2.88790607,-0.31105635,0.63581222,-1.30721641,-1.84302187,0.00000000,0.00000000
-0.67837733,-1.86170208,-1.29861665,-1.62789059,-0.28254360,0.00000000,0.00000000,-2.89204788,-0.30954579,0.63455379,-1.31315422,-1.85335481,0.00000000,0.00000000
-0.69728243,-1.85838747,-1.28118277,-1.60733664,-0.27663860,0.00000000,0.00000000,-2.89553952,-0.30942976,0.63060349,-1.31815362,-1.86642730,0.00000000,0.00000000
-0.71562630,-1.85443020,-1.25987768,-1.58044064,-0.26996449,0.00000000,0.00000000,-2.89848208,-0.31042850,0.62417585,-1.32195210,-1.87471604,0.00000000,0.00000000
-0.73365408,-1.84994912,-1.23450959,-1.54685032,-0.26359680,0.00000000,0.00000000,-2.90028524,-0.31223348,0.61595058,-1.32446468,-1.87960255,0.00000000,0.00000000
-0.75171161,-1.84509587,-1.20493484,-1.50623345,-0.26367077,0.00000000,0.00000000,-2.90027761,-0.31438795,0.60673577,-1.32551718,-1.89204192,0.00000000,0.00000000
-0.76995802,-1.84013641,-1.17098057,-1.45821834,-0.26859501,0.00000000,0.00000000,-2.89825010,-0.31650236,0.59697890,-1.32480943,-1.90232694,0.00000000,0.00000000
-0.78822148,-1.83534110,-1.13244760,-1.40237308,-0.27992058,0.00000000,0.00000000,-2.89431787,-0.31859487,0.58670038,-1.32221341,-1.91169918,0.00000000,0.00000000
-0.80598760,-1.83086324,-1.08914065,-1.33821464,-0.29125860,0.00000000,0.00000000,-2.88875508,-0.32094133,0.57563335,-1.31774485,-1.92292988,0.00000000,0.00000000
-0.82247472,-1.82679939,-1.04084277,-1.26524973,-0.29288644,0.00000000,0.00000000,-2.88142347,-0.32369339,0.56375277,-1.31148231,-1.93562973,0.00000000,0.00000000
-0.83676481,-1.82323289,-0.98734850,-1.18303335,-0.29236409,0.00000000,0.00000000,-2.87152529,-0.32680118,0.55150014,-1.30355918,-1.94615388,0.00000000,0.00000000
-0.84793395,-1.82013071,-0.92852575,-1.09119582,-0.28883007,0.00000000,0.00000000,-2.85873675,-0.33050781,0.53889829,-1.29408765,-1.96140480,0.00000000,0.00000000
-0.85508436,-1.81726277,-0.86433142,-0.98947674,-0.28729948,0.00000000,0.00000000,-2.84366369,-0.33558586,0.52523071,-1.28322554,-1.98036742,0.00000000,0.00000000
-0.85731649,-1.81429863,-0.79478723,-0.87779433,-0.28196940,0.00000000,0.00000000,-2.82693148,-0.34331614,0.50974000,-1.27154565,-2.00149632,0.00000000,0.00000000
-0.85369444,-1.81096661,-0.71998733,-0.75627017,-0.27986062,0.00000000,0.00000000,-2.80851626,-0.35510221,0.49220052,-1.26000202,-2.02677584,0.00000000,0.00000000
-0.84326285,-1.80715299,-0.64013249,-0.62524348,-0.27933684,0.00000000,0.00000000,-2.78805304,-0.37184000,0.47279224,-1.24940348,-2.04846668,0.00000000,0.00000000
-0.82520378,-1.80264294,-0.55562437,-0.48525959,-0.27990317,0.00000000,0.00000000,-2.76520801,-0.39347091,0.45196709,-1.24014652,-2.06726837,0.00000000,0.00000000
-0.79911375,-1.79696143,-0.46715105,-0.33706772,-0.28518063,0.00000000,0.00000000,-2.73987770,-0.41916671,0.43026957,-1.23271847,-2.07929230,0.00000000,0.00000000
-0.76518768,-1.78974390,-0.37566277,-0.18172392,-0.29133508,0.00000000,0.00000000,-2.71327925,-0.44770619,0.40759972,-1.22724605,-2.08989692,0.00000000,0.00000000
-0.72426021,-1.78106213,-0.28229895,-0.02067147,-0.30123267,0.00000000,0.00000000,-2.68701863,-0.47766134,0.38390762,-1.22309399,-2.09741020,0.00000000,0.00000000
-0.67775190,-1.77136517,-0.18831687,0.14431387,-0.31525260,0.00000000,0.00000000,-2.66197610,-0.50733083,0.35982710,-1.21908522,-2.10290074,0.00000000,0.00000000
-0.62736183,-1.76127148,-0.09500361,0.31124967,-0.32399401,0.00000000,0.00000000,-2.63826394,-0.53520888,0.33636123,-1.21416819,-2.10394669,0.00000000,0.00000000
-0.57475019,-1.75142193,-0.00359135,0.47806531,-0.33796605,0.00000000,0.00000000,-2.61534262,-0.56039405,0.31466874,-1.20787632,-2.10803294,0.00000000,0.00000000
-0.52141333,-1.74242163,0.08481741,0.64273179,-0.34123185,0.00000000,0.00000000,-2.59274912,-0.58248794,0.29558116,-1.20007396,-2.10922432,0.00000000,0.00000000
-0.46863997,-1.73476040,0.16931716,0.80339557,-0.34153149,0.00000000,0.00000000,-2.57084823,-0.60104644,0.27916202,-1.19049132,-2.11733866,0.00000000,0.00000000
-0.41745836,-1.72870743,0.24921900,0.95846736,-0.33709863,0.00000000,0.00000000,-2.55066681,-0.61555523,0.26482049,-1.17921615,-2.12075162,0.00000000,0.00000000
-0.36864394,-1.72418714,0.32401416,1.10664666,-0.33204305,0.00000000,0.00000000,-2.53413606,-0.62595874,0.25100127,-1.16703558,-2.12151814,0.00000000,0.00000000
-0.32278046,-1.72052968,0.39332247,1.24691975,-0.33012709,0.00000000,0.00000000,-2.52227044,-0.63247859,0.23665130,-1.15487897,-2.12260914,0.00000000,0.00000000
-0.28033438,-1.71639431,0.45686415,1.37853956,-0.32640550,0.00000000,0.00000000,-2.51462317,-0.63577628,0.22166878,-1.14394033,-2.12512827,0.00000000,0.00000000
-0.24162243,-1.71023870,0.51441795,1.50099075,-0.31959379,0.00000000,0.00000000,-2.51049590,-0.63710296,0.20603147,-1.13622320,-2.12340331,0.00000000,0.00000000
-0.20684826,-1.70084798,0.56579256,1.61395776,-0.31209657,0.00000000,0.00000000,-2.50934625,-0.63761592,0.18963674,-1.13388979,-2.12062311,0.00000000,0.00000000
-0.17620270,-1.68745232,0.61084640,1.71730661,-0.30355918,0.00000000,0.00000000,-2.50981998,-0.63772839,0.17314872,-1.13816774,-2.11523366,0.00000000,0.00000000
-0.14984636,-1.66983950,0.64957982,1.81100833,-0.29492214,0.00000000,0.00000000,-2.51061249,-0.63737839,0.15736094,-1.14886761,-2.11009312,0.00000000,0.00000000
-0.12791060,-1.64845765,0.68220168,1.89510202,-0.29230410,0.00000000,0.00000000,-2.51144743,-0.63647473,0.14245066,-1.16413665,-2.10470748,0.00000000,0.00000000
-0.11059635,-1.62447083,0.70907903,1.96973848,-0.29391891,0.00000000,0.00000000,-2.51191568,-0.63503540,0.12879898,-1.18131208,-2.10726118,0.00000000,0.00000000
-0.09782235,-1.59976125,0.73064196,2.03518867,-0.29577261,0.00000000,0.00000000,-2.51197028,-0.63336694,0.11653943,-1.19850469,-2.11084485,0.00000000,0.00000000
-0.08901445,-1.57652569,0.74742532,2.09182501,-0.29512027,0.00000000,0.00000000,-2.51151085,-0.63193947,0.10585804,-1.21487904,-2.11822057,0.00000000,0.00000000
-0.08330992,-1.55650055,0.76008785,2.14005041,-0.29537711,0.00000000,0.00000000,-2.51065922,-0.63087785,0.09671238,-1.22973168,-2.12382841,0.00000000,0.00000000
-0.07962804,-1.54065120,0.76932716,2.18015671,-0.29201818,0.00000000,0.00000000,-2.50970268,-0.63015997,0.08882609,-1.24269760,-2.13041925,0.00000000,0.00000000
-0.07698586,-1.52975726,0.77587104,2.21219611,-0.29261985,0.00000000,0.00000000,-2.50880718,-0.62993282,0.08193773,-1.25336230,-2.13583231,0.00000000,0.00000000
-0.07461606,-1.52458978,0.78043973,2.23598409,-0.29521823,0.00000000,0.00000000,-2.50780678,-0.63069808,0.07601795,-1.26129639,-2.13768125,0.00000000,0.00000000
-0.07191930,-1.52544212,0.78361791,2.25123239,-0.29851875,0.00000000,0.00000000,-2.50634146,-0.63295811,0.07121012,-1.26624465,-2.13258529,0.00000000,0.00000000
-0.06850861,-1.53113389,0.78574991,2.25829577,-0.29892135,0.00000000,0.00000000,-2.50454664,-0.63667172,0.06723667,-1.26782227,-2.12107134,0.00000000,0.00000000
-0.06401642,-1.53829134,0.78705204,2.25990415,-0.30360988,0.00000000,0.00000000,-2.50308800,-0.64130938,0.06335624,-1.26557493,-2.10974026,0.00000000,0.00000000
-0.05861133,-1.54490840,0.78768522,2.25999975,-0.30276427,0.00000000,0.00000000,-2.50228667,-0.64693964,0.05912617,-1.25983596,-2.09660482,0.00000000,0.00000000
-0.05237674,-1.55066860,0.78778982,2.25999975,-0.30100259,0.00000000,0.00000000,-2.50219321,-0.65363389,0.05442169,-1.25070763,-2.08530474,0.00000000,0.00000000
-0.04532741,-1.55624592,0.78754020,2.25999975,-0.29909956,0.00000000,0.00000000,-2.50279093,-0.66081852,0.04927826,-1.23744416,-2.07738614,0.00000000,0.00000000
-0.03759576,-1.56267846,0.78706086,2.25998664,-0.29963180,0.00000000,0.00000000,-2.50366402,-0.66827178,0.04407268,-1.22000051,-2.07210755,0.00000000,0.00000000
-0.02957192,-1.57036924,0.78621763,2.25975013,-0.29618436,0.00000000,0.00000000,-2.50434613,-0.67681831,0.03915264,-1.20017326,-2.06972814,0.00000000,0.00000000
-0.02168246,-1.57897294,0.78460264,2.25855136,-0.28948843,0.00000000,0.00000000,-2.50481653,-0.68638361,0.03451680,-1.18088615,-2.06497574,0.00000000,0.00000000
-0.01430253,-1.58793318,0.78169686,2.25584006,-0.27785695,0.00000000,0.00000000,-2.50528264,-0.69514441,0.03002663,-1.16471601,-2.06162739,0.00000000,0.00000000
-0.00775830,-1.59652150,0.77695215,2.25241351,-0.26570120,0.00000000,0.00000000,-2.50515127,-0.70267117,0.02613323,-1.15352345,-2.05913949,0.00000000,0.00000000
-0.00227178,-1.60426688,0.77012300,2.24929786,-0.24940518,0.00000000,0.00000000,-2.50386906,-0.70859551,0.02319828,-1.14810634,-2.05135441,0.00000000,0.00000000
0.00211656,-1.61082590,0.76135278,2.24712682,-0.24397685,0.00000000,0.00000000,-2.50131226,-0.71205580,0.02123200,-1.14784598,-2.04258084,0.00000000,0.00000000
0.00554870,-1.61610544,0.75110245,2.24605799,-0.23429638,0.00000000,0.00000000,-2.49761939,-0.71244645,0.02004360,-1.15085149,-2.02965498,0.00000000,0.00000000
0.00823767,-1.62024653,0.74001920,2.24597120,-0.22660437,0.00000000,0.00000000,-2.49306703,-0.70951390,0.01936952,-1.15515304,-2.01087189,0.00000000,0.00000000
