isaac-sim2real/sage/motion_files/wr75s/amass/0-Eyes_Japan_Dataset_hamada_jump-04-horizontal-hamada_poses_idx53.txt
l_joint1,l_joint2,l_joint3,l_joint4,l_joint5,l_joint6,l_joint7,r_joint1,r_joint2,r_joint3,r_joint4,r_joint5,r_joint6,r_joint7
-3.00999999,-0.37160289,0.21888500,-0.59901243,0.01916672,0.00000000,0.00000000,-0.87094724,1.02387953,-0.01148752,-0.59771156,-0.04262440,0.00000000,0.00000000
-3.00999999,-0.37298650,0.21883103,-0.59979951,0.00888713,0.00000000,0.00000000,-0.87101203,1.02309823,-0.01214801,-0.59793562,-0.05619590,0.00000000,0.00000000
-3.00999999,-0.37521890,0.21862315,-0.60100156,-0.00102304,0.00000000,0.00000000,-0.87105697,1.02204108,-0.01327125,-0.59815764,-0.07286042,0.00000000,0.00000000
-3.00999999,-0.37768781,0.21819392,-0.60219783,-0.01429558,0.00000000,0.00000000,-0.87097967,1.02120221,-0.01466971,-0.59816146,-0.08773682,0.00000000,0.00000000
-3.00999999,-0.37981352,0.21753912,-0.60300857,-0.03023366,0.00000000,0.00000000,-0.87071002,1.02079141,-0.01620332,-0.59784967,-0.09961792,0.00000000,0.00000000
-3.00999999,-0.38134477,0.21666868,-0.60325378,-0.05063961,0.00000000,0.00000000,-0.87021756,1.02077651,-0.01776017,-0.59716642,-0.11096499,0.00000000,0.00000000
-3.00999999,-0.38240734,0.21564384,-0.60302275,-0.06941620,0.00000000,0.00000000,-0.86951327,1.02086413,-0.01927952,-0.59615523,-0.11800665,0.00000000,0.00000000
-3.00999999,-0.38313949,0.21452859,-0.60243201,-0.08600464,0.00000000,0.00000000,-0.86861938,1.02080131,-0.02072851,-0.59487236,-0.12477181,0.00000000,0.00000000
-3.00999999,-0.38338423,0.21333764,-0.60140789,-0.10595869,0.00000000,0.00000000,-0.86753392,1.02055645,-0.02207031,-0.59335190,-0.13360675,0.00000000,0.00000000
-3.00999999,-0.38295016,0.21204853,-0.59983927,-0.12702601,0.00000000,0.00000000,-0.86624926,1.02019930,-0.02326705,-0.59158152,-0.14721377,0.00000000,0.00000000
-3.00999999,-0.38186067,0.21062785,-0.59774226,-0.15000810,0.00000000,0.00000000,-0.86477292,1.01977718,-0.02429404,-0.58951914,-0.15858635,0.00000000,0.00000000
-3.00999999,-0.38038561,0.20906736,-0.59532142,-0.17302212,0.00000000,0.00000000,-0.86313206,1.01923096,-0.02516574,-0.58717620,-0.17299697,0.00000000,0.00000000
-3.00999999,-0.37904266,0.20737672,-0.59295082,-0.19872932,0.00000000,0.00000000,-0.86136180,1.01841533,-0.02589925,-0.58460146,-0.18848772,0.00000000,0.00000000
-3.00998139,-0.37825954,0.20566577,-0.59095824,-0.22634791,0.00000000,0.00000000,-0.85949290,1.01710773,-0.02652275,-0.58194286,-0.20109612,0.00000000,0.00000000
-3.00967169,-0.37806278,0.20411609,-0.58941579,-0.25018385,0.00000000,0.00000000,-0.85752892,1.01517618,-0.02706582,-0.57939559,-0.21131632,0.00000000,0.00000000
-3.00834250,-0.37832236,0.20285709,-0.58826756,-0.27612415,0.00000000,0.00000000,-0.85545874,1.01260626,-0.02755034,-0.57710677,-0.22218190,0.00000000,0.00000000
-3.00561166,-0.37901607,0.20191009,-0.58750737,-0.30027506,0.00000000,0.00000000,-0.85326332,1.00949454,-0.02800210,-0.57516009,-0.23517333,0.00000000,0.00000000
-3.00163507,-0.37998176,0.20131309,-0.58706301,-0.32779899,0.00000000,0.00000000,-0.85095114,1.00604177,-0.02852795,-0.57356513,-0.24129991,0.00000000,0.00000000
-2.99660921,-0.38087565,0.20115587,-0.58674014,-0.35941654,0.00000000,0.00000000,-0.84855282,1.00254130,-0.02928261,-0.57224828,-0.24991538,0.00000000,0.00000000
-2.99063253,-0.38148889,0.20147558,-0.58636993,-0.39282122,0.00000000,0.00000000,-0.84608519,0.99919748,-0.03033285,-0.57111758,-0.25768903,0.00000000,0.00000000
-2.98374796,-0.38186887,0.20224181,-0.58590078,-0.41715145,0.00000000,0.00000000,-0.84355819,0.99596554,-0.03163691,-0.57009798,-0.26133955,0.00000000,0.00000000
-2.97595763,-0.38212141,0.20338495,-0.58531940,-0.43846112,0.00000000,0.00000000,-0.84095371,0.99275267,-0.03307516,-0.56912166,-0.26555949,0.00000000,0.00000000
-2.96722651,-0.38236016,0.20481561,-0.58462799,-0.45812476,0.00000000,0.00000000,-0.83822423,0.98945343,-0.03447239,-0.56815702,-0.26682955,0.00000000,0.00000000
-2.95750260,-0.38287473,0.20641065,-0.58393383,-0.47993711,0.00000000,0.00000000,-0.83533001,0.98591989,-0.03564938,-0.56714976,-0.26558706,0.00000000,0.00000000
-2.94671226,-0.38394499,0.20803110,-0.58332109,-0.50212473,0.00000000,0.00000000,-0.83224982,0.98217946,-0.03647856,-0.56594074,-0.26833001,0.00000000,0.00000000
-2.93475938,-0.38561556,0.20954797,-0.58270866,-0.52510506,0.00000000,0.00000000,-0.82896078,0.97845787,-0.03686251,-0.56430697,-0.26657826,0.00000000,0.00000000
-2.92154312,-0.38774052,0.21085042,-0.58190155,-0.54367185,0.00000000,0.00000000,-0.82543224,0.97509104,-0.03672447,-0.56204998,-0.26310658,0.00000000,0.00000000
-2.90697289,-0.39008701,0.21187212,-0.58068144,-0.56715167,0.00000000,0.00000000,-0.82164669,0.97233754,-0.03601745,-0.55906171,-0.26551068,0.00000000,0.00000000
-2.89097571,-0.39257023,0.21255255,-0.57892948,-0.58730459,0.00000000,0.00000000,-0.81761783,0.97015011,-0.03469012,-0.55530113,-0.26955733,0.00000000,0.00000000
-2.87349081,-0.39522153,0.21279141,-0.57658517,-0.60989177,0.00000000,0.00000000,-0.81337053,0.96822703,-0.03265443,-0.55077726,-0.27097929,0.00000000,0.00000000
-2.85446191,-0.39805073,0.21242429,-0.57355714,-0.63113737,0.00000000,0.00000000,-0.80892181,0.96619034,-0.02978678,-0.54551959,-0.27490932,0.00000000,0.00000000
-2.83385229,-0.40115055,0.21125555,-0.56980824,-0.65644664,0.00000000,0.00000000,-0.80430412,0.96353590,-0.02598020,-0.53955644,-0.27818909,0.00000000,0.00000000
-2.81166482,-0.40496635,0.20903800,-0.56554586,-0.68142724,0.00000000,0.00000000,-0.79956710,0.95955884,-0.02115194,-0.53292787,-0.28295255,0.00000000,0.00000000
-2.78794241,-0.41022211,0.20544609,-0.56120402,-0.70079428,0.00000000,0.00000000,-0.79474318,0.95379210,-0.01529602,-0.52584720,-0.29012001,0.00000000,0.00000000
-2.76278234,-0.41785192,0.20022067,-0.55742902,-0.71934068,0.00000000,0.00000000,-0.78989089,0.94599742,-0.00860018,-0.51881766,-0.29869938,0.00000000,0.00000000
-2.73630404,-0.42812523,0.19347332,-0.55456394,-0.73187083,0.00000000,0.00000000,-0.78514540,0.93649858,-0.00159783,-0.51252913,-0.30849463,0.00000000,0.00000000
-2.70859790,-0.43980768,0.18592815,-0.55214167,-0.74768370,0.00000000,0.00000000,-0.78060019,0.92677772,0.00488368,-0.50761288,-0.32135609,0.00000000,0.00000000
-2.67971992,-0.45076737,0.17899463,-0.54930764,-0.77096164,0.00000000,0.00000000,-0.77610534,0.91889542,0.01006303,-0.50439101,-0.33205619,0.00000000,0.00000000
-2.64968967,-0.45938078,0.17428146,-0.54556471,-0.79087764,0.00000000,0.00000000,-0.77138174,0.91429263,0.01345408,-0.50269955,-0.33685899,0.00000000,0.00000000
-2.61846495,-0.46499497,0.17288820,-0.54078847,-0.81531453,0.00000000,0.00000000,-0.76627856,0.91350758,0.01478539,-0.50222576,-0.33935857,0.00000000,0.00000000
-2.58597279,-0.46759322,0.17538804,-0.53503639,-0.83895707,0.00000000,0.00000000,-0.76070172,0.91648722,0.01399118,-0.50276601,-0.34302822,0.00000000,0.00000000
-2.55212498,-0.46754402,0.18182543,-0.52838337,-0.86431307,0.00000000,0.00000000,-0.75454247,0.92275023,0.01126918,-0.50411755,-0.34638134,0.00000000,0.00000000
-2.51681638,-0.46558142,0.19147286,-0.52078795,-0.88667774,0.00000000,0.00000000,-0.74782836,0.93134803,0.00702473,-0.50597852,-0.34834316,0.00000000,0.00000000
-2.47991872,-0.46287847,0.20291397,-0.51221973,-0.90574032,0.00000000,0.00000000,-0.74074733,0.94094223,0.00182222,-0.50801319,-0.36060229,0.00000000,0.00000000
-2.44127774,-0.46085939,0.21457945,-0.50282711,-0.92753440,0.00000000,0.00000000,-0.73347247,0.95031059,-0.00368145,-0.51000774,-0.37603557,0.00000000,0.00000000
-2.40072036,-0.46082225,0.22520021,-0.49285191,-0.94883281,0.00000000,0.00000000,-0.72612548,0.95851445,-0.00892100,-0.51198947,-0.39019492,0.00000000,0.00000000
-2.35809946,-0.46396869,0.23387782,-0.48261189,-0.97477001,0.00000000,0.00000000,-0.71886665,0.96467143,-0.01356438,-0.51404816,-0.40134320,0.00000000,0.00000000
-2.31327534,-0.47042710,0.24010183,-0.47189248,-1.00040662,0.00000000,0.00000000,-0.71184725,0.96867210,-0.01748570,-0.51621121,-0.41585797,0.00000000,0.00000000
-2.26616645,-0.47950023,0.24376301,-0.46014768,-1.02588415,0.00000000,0.00000000,-0.70507765,0.97118843,-0.02066867,-0.51842076,-0.42978910,0.00000000,0.00000000
-2.21679091,-0.49067879,0.24499287,-0.44708174,-1.05422521,0.00000000,0.00000000,-0.69845510,0.97283816,-0.02315907,-0.52064615,-0.44155425,0.00000000,0.00000000
-2.16523409,-0.50359553,0.24405980,-0.43259075,-1.08854914,0.00000000,0.00000000,-0.69183224,0.97410119,-0.02504650,-0.52290845,-0.46377659,0.00000000,0.00000000
-2.11160731,-0.51796770,0.24119824,-0.41664839,-1.12305188,0.00000000,0.00000000,-0.68505776,0.97543317,-0.02641665,-0.52519870,-0.48608294,0.00000000,0.00000000
-2.05603075,-0.53365088,0.23649003,-0.39927918,-1.15717864,0.00000000,0.00000000,-0.67800456,0.97725695,-0.02732467,-0.52748287,-0.51051313,0.00000000,0.00000000
-1.99864483,-0.55060554,0.22993852,-0.38058656,-1.18864679,0.00000000,0.00000000,-0.67052132,0.97990656,-0.02775711,-0.52969575,-0.53375852,0.00000000,0.00000000
-1.93960655,-0.56866610,0.22152042,-0.36063680,-1.22641516,0.00000000,0.00000000,-0.66243738,0.98372263,-0.02763349,-0.53176373,-0.54873365,0.00000000,0.00000000
-1.87909818,-0.58781219,0.21112214,-0.33956337,-1.26080191,0.00000000,0.00000000,-0.65359151,0.98869789,-0.02681907,-0.53372610,-0.55676621,0.00000000,0.00000000
-1.81733286,-0.60812002,0.19857478,-0.31754577,-1.29063654,0.00000000,0.00000000,-0.64381874,0.99454957,-0.02513973,-0.53568572,-0.56369656,0.00000000,0.00000000
-1.75455856,-0.62962139,0.18375276,-0.29479510,-1.31527376,0.00000000,0.00000000,-0.63290012,1.00102890,-0.02238648,-0.53767294,-0.56867462,0.00000000,0.00000000
-1.69106305,-0.65241539,0.16662647,-0.27165207,-1.33899045,0.00000000,0.00000000,-0.62054205,1.00798607,-0.01834267,-0.53962737,-0.56953490,0.00000000,0.00000000
-1.62716436,-0.67664653,0.14725719,-0.24854250,-1.35537755,0.00000000,0.00000000,-0.60636240,1.01550567,-0.01277291,-0.54140931,-0.57104588,0.00000000,0.00000000
-1.56320477,-0.70258343,0.12579621,-0.22599845,-1.36794341,0.00000000,0.00000000,-0.58981425,1.02404106,-0.00536108,-0.54279429,-0.56938344,0.00000000,0.00000000
-1.49955750,-0.73073059,0.10243812,-0.20471895,-1.37650478,0.00000000,0.00000000,-0.57030749,1.03416228,0.00418886,-0.54340345,-0.56470513,0.00000000,0.00000000
-1.43664598,-0.76210046,0.07737861,-0.18574570,-1.38835371,0.00000000,0.00000000,-0.54735363,1.04625428,0.01600994,-0.54260397,-0.55221641,0.00000000,0.00000000
-1.37494910,-0.79829472,0.05081642,-0.17051174,-1.40146995,0.00000000,0.00000000,-0.52063155,1.06069207,0.02998579,-0.53943157,-0.53969795,0.00000000,0.00000000
-1.31500065,-0.84121972,0.02295509,-0.16065334,-1.41421103,0.00000000,0.00000000,-0.48996073,1.07819235,0.04585572,-0.53261602,-0.52608973,0.00000000,0.00000000
-1.25735331,-0.89279538,-0.00599108,-0.15778552,-1.42533910,0.00000000,0.00000000,-0.45519137,1.09983063,0.06350409,-0.52069020,-0.51405251,0.00000000,0.00000000
-1.20242870,-0.95436835,-0.03575546,-0.16301456,-1.43376529,0.00000000,0.00000000,-0.41619053,1.12682486,0.08321292,-0.50221360,-0.50090110,0.00000000,0.00000000
-1.15025699,-1.02620268,-0.06596833,-0.17651841,-1.43930995,0.00000000,0.00000000,-0.37297970,1.16045678,0.10566975,-0.47606090,-0.49041080,0.00000000,0.00000000
-1.10030735,-1.10766327,-0.09615330,-0.19765627,-1.44920945,0.00000000,0.00000000,-0.32591292,1.20177829,0.13169536,-0.44167036,-0.48816523,0.00000000,0.00000000
-1.05164194,-1.19754326,-0.12579252,-0.22525606,-1.45618045,0.00000000,0.00000000,-0.27579704,1.25100672,0.16188598,-0.39916688,-0.48272353,0.00000000,0.00000000
-1.00324714,-1.29415381,-0.15440132,-0.25778991,-1.46208417,0.00000000,0.00000000,-0.22391313,1.30718613,0.19643125,-0.34934768,-0.47633353,0.00000000,0.00000000
-0.95432013,-1.39525318,-0.18158279,-0.29338756,-1.46682882,0.00000000,0.00000000,-0.17191403,1.36856687,0.23512107,-0.29351440,-0.46773124,0.00000000,0.00000000
-0.90463108,-1.49801147,-0.20711762,-0.32987493,-1.47066152,0.00000000,0.00000000,-0.12161939,1.43322682,0.27743891,-0.23325123,-0.45730340,0.00000000,0.00000000
-0.85478777,-1.59932339,-0.23103894,-0.36502203,-1.48001134,0.00000000,0.00000000,-0.07478105,1.49949193,0.32267523,-0.17025308,-0.43917909,0.00000000,0.00000000
-0.80599481,-1.69641173,-0.25357580,-0.39694598,-1.49397182,0.00000000,0.00000000,-0.03293146,1.56595600,0.37002075,-0.10622513,-0.41707554,0.00000000,0.00000000
-0.75946301,-1.78713500,-0.27500427,-0.42425135,-1.50422001,0.00000000,0.00000000,0.00267033,1.63136733,0.41864139,-0.04279318,-0.39593354,0.00000000,0.00000000
-0.71604943,-1.86991882,-0.29554752,-0.44591507,-1.51349747,0.00000000,0.00000000,0.03109188,1.69445801,0.46773806,0.01850139,-0.37543127,0.00000000,0.00000000
-0.67605919,-1.94381022,-0.31529438,-0.46130487,-1.52063680,0.00000000,0.00000000,0.05179529,1.75401700,0.51660204,0.07626136,-0.35615730,0.00000000,0.00000000
-0.63920772,-2.00832677,-0.33417675,-0.47010502,-1.53055322,0.00000000,0.00000000,0.06467027,1.80914712,0.56465435,0.12942876,-0.33511132,0.00000000,0.00000000
-0.60498703,-2.06321001,-0.35207152,-0.47223425,-1.53557765,0.00000000,0.00000000,0.07010935,1.85931611,0.61146569,0.17735866,-0.32418984,0.00000000,0.00000000
-0.57225341,-2.10805202,-0.36873308,-0.46746832,-1.53490078,0.00000000,0.00000000,0.06885185,1.90424955,0.65674716,0.21971604,-0.31433421,0.00000000,0.00000000
-0.53928411,-2.14113736,-0.38394451,-0.45461392,-1.54214287,0.00000000,0.00000000,0.06175447,1.94396544,0.70031559,0.25646567,-0.30271697,0.00000000,0.00000000
-0.50436199,-2.16079283,-0.39760914,-0.43222466,-1.55443501,0.00000000,0.00000000,0.04983160,1.97841060,0.74210978,0.28774559,-0.28998959,0.00000000,0.00000000
-0.46620351,-2.16769123,-0.40981844,-0.39907029,-1.56567657,0.00000000,0.00000000,0.03405752,2.00714731,0.78219491,0.31366315,-0.28376883,0.00000000,0.00000000
-0.42365614,-2.16663790,-0.42058137,-0.35575894,-1.56849492,0.00000000,0.00000000,0.01531024,2.02930450,0.82076150,0.33424640,-0.28234789,0.00000000,0.00000000
-0.37604475,-2.16281414,-0.42965633,-0.30687493,-1.57449365,0.00000000,0.00000000,-0.00489369,2.04460907,0.85807842,0.35015950,-0.28462645,0.00000000,0.00000000
-0.32565662,-2.15712070,-0.43742061,-0.25782084,-1.58231068,0.00000000,0.00000000,-0.02384168,2.05375218,0.89447707,0.36305860,-0.28930241,0.00000000,0.00000000
-0.27477926,-2.14979243,-0.44438031,-0.21172594,-1.58972847,0.00000000,0.00000000,-0.03828917,2.05759382,0.93033534,0.37488076,-0.29299906,0.00000000,0.00000000
-0.22564846,-2.14255834,-0.45097333,-0.17061886,-1.59840333,0.00000000,0.00000000,-0.04587441,2.05646992,0.96598059,0.38681075,-0.29812509,0.00000000,0.00000000
-0.17966439,-2.13625741,-0.45753458,-0.13530578,-1.61457551,0.00000000,0.00000000,-0.04561361,2.05091953,1.00150323,0.39932287,-0.30167347,0.00000000,0.00000000
-0.13636003,-2.13148117,-0.46418232,-0.10573868,-1.62774599,0.00000000,0.00000000,-0.03774818,2.04243183,1.03663599,0.41259068,-0.30839038,0.00000000,0.00000000
-0.09522747,-2.12869024,-0.47099611,-0.08149279,-1.64153993,0.00000000,0.00000000,-0.02384195,2.03311467,1.07078874,0.42645022,-0.31860149,0.00000000,0.00000000
-0.05551405,-2.12618971,-0.47809628,-0.06073024,-1.65494096,0.00000000,0.00000000,-0.00669098,2.02501774,1.10320377,0.44033542,-0.33581245,0.00000000,0.00000000
-0.01560088,-2.12249637,-0.48555833,-0.04171885,-1.67019761,0.00000000,0.00000000,0.01135833,2.02002454,1.13322508,0.45405102,-0.35506794,0.00000000,0.00000000
0.02148432,-2.11893153,-0.49354723,-0.02584230,-1.68176162,0.00000000,0.00000000,0.03003592,2.01859856,1.16082168,0.46819726,-0.37658247,0.00000000,0.00000000
0.05275774,-2.11577868,-0.50220746,-0.01408967,-1.69311321,0.00000000,0.00000000,0.04846893,2.02035713,1.18618679,0.48291466,-0.39976579,0.00000000,0.00000000
0.07937705,-2.11193728,-0.51160026,-0.00565550,-1.70012152,0.00000000,0.00000000,0.06306086,2.02580667,1.20904231,0.49723122,-0.42901352,0.00000000,0.00000000
0.10230561,-2.10739803,-0.52176845,-0.00037674,-1.70995736,0.00000000,0.00000000,0.07277777,2.03408909,1.22969985,0.51116008,-0.45504832,0.00000000,0.00000000
0.12158073,-2.10159087,-0.53275210,0.00203748,-1.71508050,0.00000000,0.00000000,0.07810780,2.04406214,1.24858904,0.52567375,-0.47800222,0.00000000,0.00000000
0.13754964,-2.09481287,-0.54457915,0.00147176,-1.71656811,0.00000000,0.00000000,0.07918627,2.05817962,1.26501966,0.54295403,-0.50673270,0.00000000,0.00000000
0.14988437,-2.08806801,-0.55726236,-0.00274792,-1.72040796,0.00000000,0.00000000,0.07626252,2.07704377,1.27880299,0.56368870,-0.53911275,0.00000000,0.00000000
0.15717527,-2.08204365,-0.57080573,-0.01142667,-1.72362399,0.00000000,0.00000000,0.06945448,2.09622502,1.29124057,0.58535230,-0.57269567,0.00000000,0.00000000
0.15630381,-2.07758784,-0.58523268,-0.02604569,-1.72973287,0.00000000,0.00000000,0.05925447,2.11340308,1.30288422,0.60605890,-0.60538530,0.00000000,0.00000000
0.14551330,-2.07583261,-0.60055292,-0.04791069,-1.73086154,0.00000000,0.00000000,0.04427326,2.12875247,1.31308424,0.62408972,-0.63777089,0.00000000,0.00000000
0.12847199,-2.07631540,-0.61668169,-0.07585731,-1.72995400,0.00000000,0.00000000,0.02390048,2.14185071,1.32136023,0.63835061,-0.67444956,0.00000000,0.00000000
0.10414301,-2.07801080,-0.63358617,-0.10990528,-1.73076165,0.00000000,0.00000000,-0.00050209,2.15342903,1.32712007,0.64923394,-0.71511734,0.00000000,0.00000000
0.06963322,-2.08120489,-0.65123880,-0.15078050,-1.73187566,0.00000000,0.00000000,-0.02685140,2.16307020,1.33057523,0.65730083,-0.75516135,0.00000000,0.00000000
0.02544747,-2.08588767,-0.66947061,-0.19740926,-1.73667729,0.00000000,0.00000000,-0.05437422,2.16854000,1.33316004,0.66184324,-0.79583573,0.00000000,0.00000000
-0.02423447,-2.09232068,-0.68774217,-0.24727722,-1.73520982,0.00000000,0.00000000,-0.08344559,2.16991591,1.33665347,0.66146189,-0.83574039,0.00000000,0.00000000
-0.07469582,-2.10142255,-0.70521349,-0.29791898,-1.73578572,0.00000000,0.00000000,-0.11533470,2.17000008,1.34198713,0.65480095,-0.86927766,0.00000000,0.00000000
-0.12176208,-2.11375499,-0.72093904,-0.34690931,-1.74294007,0.00000000,0.00000000,-0.15154426,2.16996789,1.34896708,0.64110261,-0.89747429,0.00000000,0.00000000
-0.16241330,-2.12857771,-0.73420113,-0.39173886,-1.74552369,0.00000000,0.00000000,-0.19162101,2.16952395,1.35623693,0.62158638,-0.92800921,0.00000000,0.00000000
-0.19552499,-2.14388514,-0.74478209,-0.43021342,-1.74468994,0.00000000,0.00000000,-0.23043537,2.16865778,1.36166608,0.60106963,-0.95419186,0.00000000,0.00000000
-0.22118872,-2.15698075,-0.75287539,-0.46052104,-1.74883938,0.00000000,0.00000000,-0.26136184,2.16900015,1.36400306,0.58510536,-0.97282273,0.00000000,0.00000000
-0.23946324,-2.16564989,-0.75869852,-0.48131454,-1.75125825,0.00000000,0.00000000,-0.28211999,2.16974640,1.36433375,0.57496637,-0.99200189,0.00000000,0.00000000
-0.25004348,-2.16924858,-0.76239842,-0.49158090,-1.75242949,0.00000000,0.00000000,-0.29389253,2.16998482,1.36556089,0.56862104,-1.01059830,0.00000000,0.00000000
-0.25234002,-2.16993451,-0.76407629,-0.49053630,-1.75735009,0.00000000,0.00000000,-0.29922578,2.17000008,1.37024474,0.56382203,-1.02365375,0.00000000,0.00000000
-0.24582449,-2.16946507,-0.76374453,-0.47792929,-1.76475942,0.00000000,0.00000000,-0.30006221,2.16988635,1.37973523,0.56002796,-1.03628111,0.00000000,0.00000000
-0.22992359,-2.16640902,-0.76122695,-0.45424113,-1.77324450,0.00000000,0.00000000,-0.29763830,2.16824460,1.39355278,0.55840594,-1.05002117,0.00000000,0.00000000
-0.20426479,-2.15837765,-0.75622118,-0.42087251,-1.77759182,0.00000000,0.00000000,-0.29507095,2.16422224,1.40792418,0.55989003,-1.06201315,0.00000000,0.00000000
-0.16995807,-2.14713049,-0.74861509,-0.38055474,-1.78463566,0.00000000,0.00000000,-0.29007998,2.16294861,1.41943383,0.56674379,-1.07564473,0.00000000,0.00000000
-0.13060398,-2.13608980,-0.73881203,-0.33727247,-1.78723407,0.00000000,0.00000000,-0.28267354,2.16474700,1.42771053,0.57732344,-1.08985710,0.00000000,0.00000000
-0.09029303,-2.12679982,-0.72760898,-0.29467332,-1.78902864,0.00000000,0.00000000,-0.27308428,2.16752338,1.43328810,0.58952135,-1.09771764,0.00000000,0.00000000
-0.05175200,-2.11939692,-0.71575028,-0.25556424,-1.78485060,0.00000000,0.00000000,-0.26228857,2.16935563,1.43680978,0.60132647,-1.10420930,0.00000000,0.00000000
-0.01851987,-2.11529064,-0.70383328,-0.22305734,-1.78027523,0.00000000,0.00000000,-0.25124413,2.16843343,1.43923426,0.61113447,-1.10835707,0.00000000,0.00000000
0.00787127,-2.11462665,-0.69221222,-0.19789790,-1.77562273,0.00000000,0.00000000,-0.23998302,2.16310048,1.44142973,0.61824930,-1.10686314,0.00000000,0.00000000
0.02723398,-2.11633587,-0.68109006,-0.17912142,-1.77377295,0.00000000,0.00000000,-0.22903758,2.15434551,1.44309235,0.62230986,-1.10198903,0.00000000,0.00000000
0.03877962,-2.11856866,-0.67069316,-0.16557516,-1.76936018,0.00000000,0.00000000,-0.21921548,2.14404535,1.44346702,0.62332571,-1.09931421,0.00000000,0.00000000
0.04237897,-2.12055016,-0.66109228,-0.15660314,-1.76697063,0.00000000,0.00000000,-0.21077144,2.13442421,1.44151640,0.62222266,-1.09890473,0.00000000,0.00000000
0.03829444,-2.12315369,-0.65223408,-0.15232098,-1.76784754,0.00000000,0.00000000,-0.20424069,2.12883091,1.43565881,0.62038404,-1.09190226,0.00000000,0.00000000
0.02737796,-2.12598181,-0.64409328,-0.15196864,-1.76525688,0.00000000,0.00000000,-0.20006067,2.12888646,1.42505145,0.61919665,-1.08392024,0.00000000,0.00000000
0.01112079,-2.12909460,-0.63655370,-0.15473796,-1.76355994,0.00000000,0.00000000,-0.19743094,2.13481998,1.40957212,0.62028986,-1.07362366,0.00000000,0.00000000
-0.00859619,-2.13382006,-0.62937295,-0.16034891,-1.76420569,0.00000000,0.00000000,-0.19551007,2.14551902,1.38971877,0.62449372,-1.07165182,0.00000000,0.00000000
-0.03033542,-2.14053559,-0.62236547,-0.16828595,-1.76296854,0.00000000,0.00000000,-0.19381253,2.15766239,1.36688316,0.63138193,-1.06762922,0.00000000,0.00000000
-0.05267343,-2.14804387,-0.61541498,-0.17726749,-1.75941515,0.00000000,0.00000000,-0.19119723,2.16643286,1.34308648,0.64019239,-1.06583869,0.00000000,0.00000000
-0.07399084,-2.15487671,-0.60839611,-0.18583106,-1.75666571,0.00000000,0.00000000,-0.18663840,2.16953421,1.32010400,0.65006697,-1.05488014,0.00000000,0.00000000
-0.09265575,-2.15962267,-0.60118341,-0.19254905,-1.75358069,0.00000000,0.00000000,-0.18012780,2.16997957,1.29937184,0.65963209,-1.04301059,0.00000000,0.00000000
-0.10776406,-2.16202092,-0.59369630,-0.19670188,-1.74475229,0.00000000,0.00000000,-0.17228036,2.17000008,1.28174198,0.66750312,-1.03288817,0.00000000,0.00000000
-0.11952551,-2.16360021,-0.58592856,-0.19876640,-1.73985231,0.00000000,0.00000000,-0.16421977,2.17000008,1.26759756,0.67255968,-1.02456987,0.00000000,0.00000000
-0.12814875,-2.16576314,-0.57788110,-0.19957736,-1.73440111,0.00000000,0.00000000,-0.15702917,2.17000008,1.25684714,0.67422760,-1.01247263,0.00000000,0.00000000
-0.13353546,-2.16830778,-0.56955743,-0.19970238,-1.72154331,0.00000000,0.00000000,-0.15117630,2.17000008,1.24894452,0.67273861,-0.99940926,0.00000000,0.00000000
-0.13634434,-2.16968584,-0.56111991,-0.19918588,-1.70969474,0.00000000,0.00000000,-0.14689571,2.17000008,1.24327946,0.66883105,-0.98610300,0.00000000,0.00000000
-0.13787432,-2.16998315,-0.55277824,-0.19804673,-1.69600868,0.00000000,0.00000000,-0.14399070,2.17000008,1.23937750,0.66340840,-0.97589689,0.00000000,0.00000000
-0.13922355,-2.16994476,-0.54469389,-0.19611755,-1.67634630,0.00000000,0.00000000,-0.14140393,2.17000008,1.23714888,0.65715462,-0.96697104,0.00000000,0.00000000
-0.14149791,-2.16901398,-0.53699625,-0.19335349,-1.65943432,0.00000000,0.00000000,-0.13692680,2.17000008,1.23679233,0.65092176,-0.95366353,0.00000000,0.00000000
-0.14556049,-2.16488218,-0.52976269,-0.18986559,-1.64130807,0.00000000,0.00000000,-0.12855284,2.17000008,1.23833477,0.64563560,-0.94279617,0.00000000,0.00000000
-0.15166752,-2.15576625,-0.52302599,-0.18542860,-1.62650466,0.00000000,0.00000000,-0.11636987,2.17000008,1.24155998,0.64106429,-0.93561953,0.00000000,0.00000000
-0.15956679,-2.14144993,-0.51675403,-0.17981835,-1.61188924,0.00000000,0.00000000,-0.10184709,2.17000008,1.24606490,0.63615292,-0.93483293,0.00000000,0.00000000
-0.16861573,-2.12337518,-0.51080859,-0.17340054,-1.59632158,0.00000000,0.00000000,-0.08717843,2.17000008,1.25097275,0.62972176,-0.93460280,0.00000000,0.00000000
-0.17817999,-2.10431433,-0.50498098,-0.16735002,-1.57763422,0.00000000,0.00000000,-0.07442573,2.17000008,1.25517511,0.62061250,-0.93279433,0.00000000,0.00000000
-0.18776332,-2.08785772,-0.49902940,-0.16338086,-1.55849409,0.00000000,0.00000000,-0.06532791,2.17000008,1.25727391,0.60773087,-0.92864376,0.00000000,0.00000000
-0.19736136,-2.07751942,-0.49275067,-0.16286825,-1.53707361,0.00000000,0.00000000,-0.06036060,2.17000008,1.25625491,0.59026510,-0.92465866,0.00000000,0.00000000
-0.20834927,-2.07311296,-0.48623523,-0.16478519,-1.51434886,0.00000000,0.00000000,-0.05806953,2.17000008,1.25206923,0.56794208,-0.92166907,0.00000000,0.00000000
-0.22078066,-2.06888342,-0.47973293,-0.16500494,-1.49423790,0.00000000,0.00000000,-0.05610919,2.17000008,1.24541831,0.54103088,-0.92207015,0.00000000,0.00000000
-0.23579419,-2.06155634,-0.47350150,-0.16156018,-1.47553670,0.00000000,0.00000000,-0.05239247,2.16998553,1.23724306,0.51030874,-0.92738485,0.00000000,0.00000000
-0.25277793,-2.04991150,-0.46756575,-0.15342551,-1.45989609,0.00000000,0.00000000,-0.04554339,2.16965413,1.22838616,0.47696745,-0.93623495,0.00000000,0.00000000
-0.26850042,-2.03544021,-0.46162602,-0.14069322,-1.44543862,0.00000000,0.00000000,-0.03501140,2.16713977,1.21941888,0.44247591,-0.94909346,0.00000000,0.00000000
-0.27904686,-2.02395606,-0.45522046,-0.12609237,-1.42962623,0.00000000,0.00000000,-0.02110517,2.15926051,1.21060956,0.40836000,-0.96349788,0.00000000,0.00000000
-0.28075805,-2.02212405,-0.44797027,-0.11329307,-1.41448748,0.00000000,0.00000000,-0.00465604,2.14616561,1.20198143,0.37615937,-0.96904677,0.00000000,0.00000000
-0.27072316,-2.03103304,-0.43979162,-0.10308302,-1.39782596,0.00000000,0.00000000,0.01360274,2.13051915,1.19334769,0.34743953,-0.97628754,0.00000000,0.00000000
-0.25032744,-2.04984331,-0.43092954,-0.09616198,-1.38247573,0.00000000,0.00000000,0.03302191,2.11566305,1.18438673,0.32341382,-0.98188388,0.00000000,0.00000000
-0.22276148,-2.07608771,-0.42172503,-0.09256494,-1.36867869,0.00000000,0.00000000,0.05325222,2.10410190,1.17490613,0.30481306,-0.98994440,0.00000000,0.00000000
-0.19108321,-2.10521507,-0.41250801,-0.09092006,-1.34880424,0.00000000,0.00000000,0.07303090,2.09672666,1.16488814,0.29139364,-0.99197996,0.00000000,0.00000000
-0.15781915,-2.13123941,-0.40358526,-0.08893812,-1.33397496,0.00000000,0.00000000,0.08943747,2.09391928,1.15422857,0.28229561,-0.99949753,0.00000000,0.00000000
-0.12480749,-2.14974117,-0.39518344,-0.08509143,-1.32108331,0.00000000,0.00000000,0.10356764,2.09486032,1.14321232,0.27858692,-1.00051117,0.00000000,0.00000000
-0.09344722,-2.15963149,-0.38742605,-0.07945305,-1.30508077,0.00000000,0.00000000,0.11750276,2.09825540,1.13217783,0.28098899,-1.00334764,0.00000000,0.00000000
-0.06551611,-2.16234756,-0.38037911,-0.07323944,-1.29341364,0.00000000,0.00000000,0.13062185,2.10334849,1.12111342,0.28800672,-1.00677526,0.00000000,0.00000000
-0.04277257,-2.16243839,-0.37402949,-0.06896915,-1.28466642,0.00000000,0.00000000,0.14003356,2.10870576,1.10987711,0.29584947,-1.00661004,0.00000000,0.00000000
-0.02534480,-2.16644835,-0.36823902,-0.06944977,-1.27819729,0.00000000,0.00000000,0.14598127,2.11591983,1.09808266,0.30346799,-1.00967002,0.00000000,0.00000000
-0.01649204,-2.16920996,-0.36315441,-0.07140137,-1.26933575,0.00000000,0.00000000,0.15000406,2.12634015,1.08553827,0.31128192,-1.01437438,0.00000000,0.00000000
-0.01646878,-2.16837978,-0.35875311,-0.07291935,-1.26540244,0.00000000,0.00000000,0.15394901,2.13781142,1.07271576,0.31941071,-1.02160418,0.00000000,0.00000000
-0.02378607,-2.16373158,-0.35490805,-0.07380557,-1.25710022,0.00000000,0.00000000,0.15807521,2.14801550,1.06003189,0.32742447,-1.03145969,0.00000000,0.00000000
-0.03644797,-2.15585661,-0.35149282,-0.07382799,-1.24886239,0.00000000,0.00000000,0.16237521,2.15472984,1.04787922,0.33436766,-1.03810596,0.00000000,0.00000000
-0.05250106,-2.14509511,-0.34841883,-0.07236225,-1.24728084,0.00000000,0.00000000,0.16721243,2.15720153,1.03641295,0.33919084,-1.04322064,0.00000000,0.00000000
-0.07062569,-2.13085794,-0.34565583,-0.06865131,-1.24690485,0.00000000,0.00000000,0.17136234,2.15596962,1.02535546,0.34049296,-1.04593372,0.00000000,0.00000000
-0.08975917,-2.11469030,-0.34316945,-0.06344323,-1.24688125,0.00000000,0.00000000,0.17392120,2.14951396,1.01476383,0.33654904,-1.04650283,0.00000000,0.00000000
-0.10824841,-2.10171843,-0.34086716,-0.05964283,-1.24041343,0.00000000,0.00000000,0.17457066,2.13610721,1.00479829,0.32600522,-1.04697073,0.00000000,0.00000000
-0.12416832,-2.09798408,-0.33862966,-0.06102718,-1.23420584,0.00000000,0.00000000,0.17204478,2.11625862,0.99523431,0.30809522,-1.04398859,0.00000000,0.00000000
-0.13624886,-2.10679507,-0.33635619,-0.07044496,-1.23008096,0.00000000,0.00000000,0.16372256,2.09325433,0.98541451,0.28297487,-1.03936410,0.00000000,0.00000000
-0.14452903,-2.12627888,-0.33400029,-0.08820853,-1.23180020,0.00000000,0.00000000,0.14805235,2.07312489,0.97457486,0.25367954,-1.03551924,0.00000000,0.00000000
-0.15018053,-2.14887094,-0.33161527,-0.11122280,-1.23469901,0.00000000,0.00000000,0.12885389,2.06060171,0.96275967,0.22689998,-1.02981246,0.00000000,0.00000000
-0.15485917,-2.16450167,-0.32936251,-0.13435516,-1.24731064,0.00000000,0.00000000,0.11372474,2.05014968,0.95158881,0.20607367,-1.01630998,0.00000000,0.00000000
-0.15974177,-2.16942739,-0.32739165,-0.15369847,-1.25809550,0.00000000,0.00000000,0.10612969,2.03591442,0.94218439,0.19085476,-1.00875235,0.00000000,0.00000000
-0.16497906,-2.16998029,-0.32575980,-0.16719350,-1.27449787,0.00000000,0.00000000,0.10523747,2.01711941,0.93463486,0.17982793,-0.99760342,0.00000000,0.00000000
-0.17098433,-2.17000008,-0.32452127,-0.17407389,-1.29827619,0.00000000,0.00000000,0.10842005,1.99856234,0.92832273,0.17236197,-0.98364586,0.00000000,0.00000000
-0.17907347,-2.17000008,-0.32373166,-0.17490755,-1.32375538,0.00000000,0.00000000,0.11209783,1.98597288,0.92245305,0.16738874,-0.96558005,0.00000000,0.00000000
-0.18971851,-2.17000008,-0.32327464,-0.17146698,-1.35310805,0.00000000,0.00000000,0.11189244,1.97827566,0.91675693,0.16096807,-0.94126707,0.00000000,0.00000000
-0.20184554,-2.17000008,-0.32293418,-0.16517457,-1.37954640,0.00000000,0.00000000,0.10649432,1.97799611,0.91095906,0.15348879,-0.91553402,0.00000000,0.00000000
-0.21357197,-2.17000008,-0.32251704,-0.15706937,-1.40017331,0.00000000,0.00000000,0.09849947,1.98802412,0.90507197,0.14830160,-0.89462268,0.00000000,0.00000000
-0.22327262,-2.16991186,-0.32191846,-0.14850239,-1.42167056,0.00000000,0.00000000,0.08975016,2.00564623,0.89950734,0.14625308,-0.87398160,0.00000000,0.00000000
-0.22975230,-2.16865158,-0.32114223,-0.13971235,-1.43988740,0.00000000,0.00000000,0.08227462,2.02693605,0.89474058,0.14781010,-0.85596776,0.00000000,0.00000000
-0.23242280,-2.16568232,-0.32024938,-0.13036770,-1.45643079,0.00000000,0.00000000,0.07749045,2.04777288,0.89117259,0.15297997,-0.83974773,0.00000000,0.00000000
-0.23182003,-2.16483760,-0.31929591,-0.12166359,-1.47454524,0.00000000,0.00000000,0.07537296,2.06296587,0.88916677,0.16030118,-0.82740462,0.00000000,0.00000000
-0.22597852,-2.16529369,-0.31821889,-0.11213621,-1.49126172,0.00000000,0.00000000,0.07567328,2.06907058,0.88896376,0.16845366,-0.80693811,0.00000000,0.00000000
-0.21394077,-2.16555929,-0.31701538,-0.10124871,-1.50504804,0.00000000,0.00000000,0.07853632,2.06678176,0.89051479,0.17753015,-0.79131377,0.00000000,0.00000000
-0.19776909,-2.16615772,-0.31581244,-0.09184048,-1.51889300,0.00000000,0.00000000,0.08301146,2.05747819,0.89357346,0.18631165,-0.78378105,0.00000000,0.00000000
-0.18034613,-2.16789436,-0.31475785,-0.08704090,-1.52651596,0.00000000,0.00000000,0.08905002,2.04292583,0.89790547,0.19284430,-0.78419012,0.00000000,0.00000000
-0.16374406,-2.16949415,-0.31400463,-0.08660380,-1.53451991,0.00000000,0.00000000,0.09596023,2.02580070,0.90327156,0.19632544,-0.79145318,0.00000000,0.00000000
-0.14892428,-2.16996956,-0.31369051,-0.08780987,-1.53811443,0.00000000,0.00000000,0.10349227,2.00874472,0.90957475,0.19784942,-0.79331589,0.00000000,0.00000000
-0.13547669,-2.16992974,-0.31386426,-0.08794869,-1.54125583,0.00000000,0.00000000,0.11277870,1.99320841,0.91689849,0.20036565,-0.79708833,0.00000000,0.00000000
-0.12198629,-2.16874528,-0.31445205,-0.08596655,-1.54367244,0.00000000,0.00000000,0.12412004,1.97895861,0.92530674,0.20630847,-0.79806316,0.00000000,0.00000000
-0.10738409,-2.16352224,-0.31535494,-0.08183038,-1.54504180,0.00000000,0.00000000,0.13519493,1.96744573,0.93437582,0.21678042,-0.80062228,0.00000000,0.00000000
-0.09098836,-2.15230012,-0.31649229,-0.07593932,-1.54677951,0.00000000,0.00000000,0.14645757,1.96199286,0.94359112,0.23406763,-0.80581486,0.00000000,0.00000000
-0.07307098,-2.13676000,-0.31784868,-0.06935393,-1.55150378,0.00000000,0.00000000,0.15768880,1.96592748,0.95222986,0.25918776,-0.81334609,0.00000000,0.00000000
-0.05669267,-2.12216830,-0.31953591,-0.06518144,-1.55582452,0.00000000,0.00000000,0.16721977,1.98302865,0.95922410,0.29175103,-0.82376093,0.00000000,0.00000000
-0.04370219,-2.11048698,-0.32167554,-0.06463455,-1.56070173,0.00000000,0.00000000,0.17318770,2.01268244,0.96387446,0.32939816,-0.84049028,0.00000000,0.00000000
-0.03468766,-2.10041595,-0.32436541,-0.06717393,-1.56711721,0.00000000,0.00000000,0.17314036,2.04981303,0.96598053,0.36794919,-0.85534513,0.00000000,0.00000000
-0.03000132,-2.09011149,-0.32767490,-0.07200855,-1.57429063,0.00000000,0.00000000,0.16684192,2.08813429,0.96594143,0.40416321,-0.87108433,0.00000000,0.00000000
-0.02980061,-2.07688594,-0.33166298,-0.07770050,-1.57930851,0.00000000,0.00000000,0.15538332,2.12228107,0.96444750,0.43616706,-0.88511151,0.00000000,0.00000000
-0.03413608,-2.05723333,-0.33639246,-0.08216381,-1.58018780,0.00000000,0.00000000,0.13920978,2.14879465,0.96198851,0.46270770,-0.89698792,0.00000000,0.00000000
-0.04253872,-2.02956247,-0.34186694,-0.08406617,-1.58112371,0.00000000,0.00000000,0.11819798,2.16470337,0.95905471,0.48243463,-0.91189939,0.00000000,0.00000000
-0.05353970,-1.99690545,-0.34795466,-0.08420882,-1.57866204,0.00000000,0.00000000,0.09300919,2.16948032,0.95664781,0.49387982,-0.93027872,0.00000000,0.00000000
-0.06533887,-1.96581960,-0.35442874,-0.08513759,-1.57664537,0.00000000,0.00000000,0.06539178,2.16998339,0.95592815,0.49611369,-0.93914723,0.00000000,0.00000000
-0.07683535,-1.94261384,-0.36107334,-0.08944646,-1.57273996,0.00000000,0.00000000,0.03705069,2.17000008,0.95747453,0.48899144,-0.95369709,0.00000000,0.00000000
-0.08749855,-1.92963660,-0.36774930,-0.09795228,-1.56322551,0.00000000,0.00000000,0.00847564,2.16998053,0.96106374,0.47283506,-0.96960807,0.00000000,0.00000000
-0.09707087,-1.92519021,-0.37440819,-0.10972497,-1.55141425,0.00000000,0.00000000,-0.02109921,2.16958833,0.96589190,0.44836167,-0.98868597,0.00000000,0.00000000
-0.10563976,-1.92673612,-0.38105950,-0.12380680,-1.53713882,0.00000000,0.00000000,-0.05259320,2.16719055,0.97087532,0.41730520,-1.00962877,0.00000000,0.00000000
-0.11348733,-1.93294311,-0.38771361,-0.14003074,-1.52367914,0.00000000,0.00000000,-0.08597483,2.16157508,0.97495961,0.38295981,-1.03169847,0.00000000,0.00000000
-0.12011296,-1.94344592,-0.39427054,-0.15829360,-1.51268899,0.00000000,0.00000000,-0.11978921,2.15624285,0.97753900,0.34949982,-1.05222237,0.00000000,0.00000000
-0.12349521,-1.96009183,-0.40028000,-0.17882770,-1.50086677,0.00000000,0.00000000,-0.15158308,2.15458393,0.97864121,0.32040897,-1.07338023,0.00000000,0.00000000
-0.12176364,-1.98645616,-0.40506536,-0.20203800,-1.49282551,0.00000000,0.00000000,-0.17810676,2.15763545,0.97872108,0.29811698,-1.09163141,0.00000000,0.00000000
-0.11547248,-2.01556730,-0.40861765,-0.22255693,-1.48511004,0.00000000,0.00000000,-0.19438078,2.16361928,0.97874528,0.28458446,-1.10588872,0.00000000,0.00000000
-0.10849933,-2.04530048,-0.41118023,-0.23950183,-1.47870398,0.00000000,0.00000000,-0.19573645,2.16848302,0.98007762,0.28054664,-1.11382318,0.00000000,0.00000000
-0.10473288,-2.07507181,-0.41308957,-0.25343084,-1.46930826,0.00000000,0.00000000,-0.18077967,2.16979384,0.98418009,0.28419507,-1.12813687,0.00000000,0.00000000
-0.10583699,-2.10286546,-0.41459480,-0.26368353,-1.46218741,0.00000000,0.00000000,-0.15297480,2.16810632,0.99175513,0.29168242,-1.14329922,0.00000000,0.00000000
-0.11089624,-2.12635469,-0.41571012,-0.26902872,-1.45966733,0.00000000,0.00000000,-0.11766500,2.16224957,1.00179565,0.30117762,-1.15097141,0.00000000,0.00000000
-0.11851773,-2.14238501,-0.41654539,-0.26799008,-1.46298993,0.00000000,0.00000000,-0.07960724,2.15550947,1.01221859,0.31317312,-1.15450168,0.00000000,0.00000000
-0.12813511,-2.14616346,-0.41750360,-0.25855416,-1.46585715,0.00000000,0.00000000,-0.04376027,2.15082026,1.02163982,0.32609329,-1.14995170,0.00000000,0.00000000
-0.13915370,-2.13845253,-0.41863957,-0.24206722,-1.47333932,0.00000000,0.00000000,-0.01299463,2.14468431,1.03013384,0.33652243,-1.14770067,0.00000000,0.00000000
-0.15150072,-2.13217878,-0.41932133,-0.22785859,-1.48056483,0.00000000,0.00000000,0.01152636,2.13194561,1.03832448,0.34136564,-1.14795268,0.00000000,0.00000000
-0.16201910,-2.13356042,-0.41890585,-0.22101158,-1.48599267,0.00000000,0.00000000,0.02835418,2.11152959,1.04627526,0.33904335,-1.14882863,0.00000000,0.00000000
-0.16765441,-2.14295340,-0.41707647,-0.22175641,-1.49307156,0.00000000,0.00000000,0.03539924,2.09057283,1.05268896,0.33145031,-1.15155792,0.00000000,0.00000000
-0.16908015,-2.15687585,-0.41410640,-0.22764306,-1.50158966,0.00000000,0.00000000,0.03229321,2.07972670,1.05591857,0.32436004,-1.15726364,0.00000000,0.00000000
-0.16883868,-2.16699886,-0.41068822,-0.23386273,-1.50213313,0.00000000,0.00000000,0.02421044,2.07552433,1.05734122,0.32161292,-1.16518295,0.00000000,0.00000000
-0.16695318,-2.16981792,-0.40701249,-0.23688850,-1.50047219,0.00000000,0.00000000,0.01607643,2.07125425,1.05882668,0.32452255,-1.18104482,0.00000000,0.00000000
-0.16230115,-2.16999984,-0.40287414,-0.23586422,-1.49923527,0.00000000,0.00000000,0.01100070,2.06244946,1.06162393,0.33337766,-1.19491863,0.00000000,0.00000000
-0.15448241,-2.17000008,-0.39814270,-0.23106053,-1.49906337,0.00000000,0.00000000,0.01006230,2.04719710,1.06628597,0.34769553,-1.20986485,0.00000000,0.00000000
-0.14442731,-2.17000008,-0.39294878,-0.22266518,-1.49531126,0.00000000,0.00000000,0.01171688,2.02478313,1.07285678,0.36442617,-1.22767675,0.00000000,0.00000000
-0.13465580,-2.17000008,-0.38762316,-0.21113230,-1.50216568,0.00000000,0.00000000,0.01329787,1.99481678,1.08113539,0.37759858,-1.24694324,0.00000000,0.00000000
-0.12810996,-2.17000008,-0.38255143,-0.19673477,-1.51149416,0.00000000,0.00000000,0.01338961,1.96280551,1.08990538,0.38548055,-1.26976919,0.00000000,0.00000000
-0.12600635,-2.17000008,-0.37788284,-0.17995113,-1.52133143,0.00000000,0.00000000,0.01107979,1.93282795,1.09824026,0.38794380,-1.29097092,0.00000000,0.00000000
-0.12758952,-2.17000008,-0.37351573,-0.16206019,-1.52848828,0.00000000,0.00000000,0.00490490,1.90907276,1.10505044,0.38655713,-1.31108582,0.00000000,0.00000000
-0.13146426,-2.17000008,-0.36933163,-0.14465164,-1.54044056,0.00000000,0.00000000,-0.00751664,1.89853418,1.10864520,0.38587034,-1.33534575,0.00000000,0.00000000
-0.13711037,-2.17000008,-0.36539102,-0.12848450,-1.55443287,0.00000000,0.00000000,-0.02163204,1.89992011,1.10993314,0.39116198,-1.35447574,0.00000000,0.00000000
-0.14470062,-2.17000008,-0.36177444,-0.11482470,-1.56503880,0.00000000,0.00000000,-0.03416006,1.90901792,1.11024475,0.40485588,-1.37278700,0.00000000,0.00000000
-0.15362307,-2.17000008,-0.35849801,-0.10394713,-1.57365453,0.00000000,0.00000000,-0.04363186,1.92313552,1.11033475,0.42835081,-1.39261413,0.00000000,0.00000000
-0.16242723,-2.17000008,-0.35553628,-0.09447176,-1.58597708,0.00000000,0.00000000,-0.04911177,1.94073951,1.11056542,0.46265256,-1.41535294,0.00000000,0.00000000
-0.16913782,-2.16987371,-0.35281691,-0.08449120,-1.59866619,0.00000000,0.00000000,-0.05176764,1.96152508,1.11049891,0.50716722,-1.43235672,0.00000000,0.00000000
-0.17268744,-2.16803551,-0.35028341,-0.07324630,-1.60791516,0.00000000,0.00000000,-0.05628509,1.98368883,1.10932994,0.55605662,-1.45109332,0.00000000,0.00000000
-0.17427324,-2.16328430,-0.34797034,-0.06218788,-1.61815321,0.00000000,0.00000000,-0.06342716,1.99988079,1.10835886,0.59985358,-1.47367024,0.00000000,0.00000000
-0.17780343,-2.16064215,-0.34596288,-0.05641491,-1.62664199,0.00000000,0.00000000,-0.07188780,2.00801325,1.10850024,0.63356310,-1.50221133,0.00000000,0.00000000
-0.18695286,-2.16002584,-0.34440544,-0.05674491,-1.63109660,0.00000000,0.00000000,-0.07930662,2.01253700,1.11036658,0.65628159,-1.53367376,0.00000000,0.00000000
-0.20022471,-2.15917253,-0.34327742,-0.06106287,-1.63613129,0.00000000,0.00000000,-0.08484361,2.01847339,1.11456263,0.66898859,-1.56709683,0.00000000,0.00000000
-0.21479689,-2.15742612,-0.34246403,-0.06779911,-1.64307809,0.00000000,0.00000000,-0.08833470,2.02850986,1.12162757,0.67379844,-1.59537077,0.00000000,0.00000000
-0.22779907,-2.15568972,-0.34177867,-0.07617682,-1.64714348,0.00000000,0.00000000,-0.08892660,2.04118252,1.13203740,0.67446089,-1.62305939,0.00000000,0.00000000
-0.23604545,-2.15547848,-0.34094897,-0.08557542,-1.65150714,0.00000000,0.00000000,-0.08537128,2.05230999,1.14543474,0.67571205,-1.65297675,0.00000000,0.00000000
-0.23737098,-2.15764403,-0.33972061,-0.09499802,-1.64489663,0.00000000,0.00000000,-0.07705325,2.06206298,1.16014600,0.68089646,-1.67847288,0.00000000,0.00000000
-0.23064972,-2.15225434,-0.33811033,-0.09764589,-1.63850212,0.00000000,0.00000000,-0.06568369,2.07353711,1.17373061,0.69081759,-1.70971835,0.00000000,0.00000000
-0.21725549,-2.13832378,-0.33617699,-0.09306525,-1.63026309,0.00000000,0.00000000,-0.05407046,2.08903980,1.18402076,0.70456737,-1.74029505,0.00000000,0.00000000
-0.19981584,-2.12468648,-0.33394337,-0.08743840,-1.62521124,0.00000000,0.00000000,-0.04411896,2.10894227,1.18968213,0.72074872,-1.76687503,0.00000000,0.00000000
-0.18290646,-2.11232448,-0.33172721,-0.08279020,-1.62497449,0.00000000,0.00000000,-0.03646051,2.13152599,1.19048727,0.73787189,-1.79459429,0.00000000,0.00000000
-0.16850509,-2.10103297,-0.32971841,-0.07980893,-1.62447429,0.00000000,0.00000000,-0.03153276,2.15249968,1.18761957,0.75364333,-1.81642175,0.00000000,0.00000000
-0.15668452,-2.09089184,-0.32797462,-0.07884353,-1.62426722,0.00000000,0.00000000,-0.02930192,2.16595411,1.18334520,0.76539749,-1.83557642,0.00000000,0.00000000
-0.14717510,-2.08148694,-0.32652125,-0.07965188,-1.62833071,0.00000000,0.00000000,-0.02941034,2.16972256,1.17989659,0.77095765,-1.84907115,0.00000000,0.00000000
-0.13999450,-2.07140994,-0.32539552,-0.08133303,-1.63489854,0.00000000,0.00000000,-0.03236074,2.16999722,1.17818868,0.76916283,-1.86133015,0.00000000,0.00000000
-0.13582872,-2.05854011,-0.32466513,-0.08266188,-1.63710701,0.00000000,0.00000000,-0.03950356,2.17000008,1.17771912,0.75976497,-1.87182951,0.00000000,0.00000000
-0.13571581,-2.04172540,-0.32438716,-0.08295062,-1.64308119,0.00000000,0.00000000,-0.05134220,2.17000008,1.17785585,0.74300486,-1.88330972,0.00000000,0.00000000
-0.14030327,-2.02225709,-0.32454887,-0.08266223,-1.65070140,0.00000000,0.00000000,-0.06635262,2.17000008,1.17883539,0.71937573,-1.88820159,0.00000000,0.00000000
-0.14927451,-2.00373816,-0.32504028,-0.08325459,-1.64845884,0.00000000,0.00000000,-0.08179051,2.16999650,1.18117380,0.68975693,-1.89372313,0.00000000,0.00000000
-0.16083154,-1.99012637,-0.32565841,-0.08616899,-1.64346337,0.00000000,0.00000000,-0.09570124,2.16982937,1.18480086,0.65506786,-1.89537644,0.00000000,0.00000000
-0.17212991,-1.98294783,-0.32617322,-0.09152845,-1.63493598,0.00000000,0.00000000,-0.10828638,2.16783142,1.18892527,0.61576140,-1.89119065,0.00000000,0.00000000
-0.18058753,-1.98135316,-0.32640159,-0.09842633,-1.63259625,0.00000000,0.00000000,-0.12091412,2.16096354,1.19243109,0.57236463,-1.88743746,0.00000000,0.00000000
-0.18493910,-1.98362732,-0.32625285,-0.10590794,-1.62753296,0.00000000,0.00000000,-0.13435653,2.15069890,1.19423521,0.52644598,-1.88256788,0.00000000,0.00000000
-0.18472382,-1.98847997,-0.32567918,-0.11345856,-1.62607050,0.00000000,0.00000000,-0.14814037,2.14095426,1.19351649,0.48087135,-1.87428606,0.00000000,0.00000000
-0.17909402,-1.99521589,-0.32457879,-0.12073586,-1.62940705,0.00000000,0.00000000,-0.16074547,2.13511777,1.19000518,0.43892977,-1.86385036,0.00000000,0.00000000
-0.16632652,-2.00539827,-0.32268241,-0.12817994,-1.64209569,0.00000000,0.00000000,-0.17039344,2.13493252,1.18395579,0.40308332,-1.84841347,0.00000000,0.00000000
-0.14554280,-2.02253246,-0.31969708,-0.13675888,-1.64880931,0.00000000,0.00000000,-0.17550594,2.14060616,1.17586017,0.37467211,-1.83175409,0.00000000,0.00000000
-0.11825832,-2.04055476,-0.31577760,-0.14192264,-1.65352666,0.00000000,0.00000000,-0.17388666,2.15045452,1.16652596,0.35443550,-1.81931973,0.00000000,0.00000000
-0.08867854,-2.05904627,-0.31118822,-0.14341846,-1.66138911,0.00000000,0.00000000,-0.16328268,2.16098833,1.15703642,0.34254959,-1.80536795,0.00000000,0.00000000
-0.06079805,-2.07961798,-0.30615914,-0.14269391,-1.67226183,0.00000000,0.00000000,-0.14222255,2.16795874,1.14865708,0.33843291,-1.79081178,0.00000000,0.00000000
-0.03717493,-2.10214686,-0.30088413,-0.14048205,-1.68053985,0.00000000,0.00000000,-0.11145500,2.16961765,1.14262152,0.33998474,-1.77304363,0.00000000,0.00000000
-0.01887709,-2.12518120,-0.29552642,-0.13711034,-1.69513071,0.00000000,0.00000000,-0.07429209,2.16751599,1.13916898,0.34453905,-1.74829376,0.00000000,0.00000000
-0.00617241,-2.14567637,-0.29030690,-0.13230285,-1.71002841,0.00000000,0.00000000,-0.03480045,2.16146517,1.13680887,0.35096213,-1.72479475,0.00000000,0.00000000
0.00000798,-2.15601349,-0.28561899,-0.12332810,-1.72431982,0.00000000,0.00000000,0.00221535,2.15459108,1.13380766,0.35738093,-1.70449567,0.00000000,0.00000000
-0.00274531,-2.15213299,-0.28181577,-0.10967271,-1.73805261,0.00000000,0.00000000,0.03385053,2.14680910,1.12972951,0.36086160,-1.67990100,0.00000000,0.00000000
-0.01255099,-2.14723754,-0.27853575,-0.09997287,-1.74931633,0.00000000,0.00000000,0.05982760,2.13501287,1.12506664,0.35899130,-1.65751040,0.00000000,0.00000000
-0.02840633,-2.14903808,-0.27558446,-0.09897779,-1.76267552,0.00000000,0.00000000,0.08082169,2.11741543,1.12026751,0.35068846,-1.63522267,0.00000000,0.00000000
-0.05051682,-2.15640378,-0.27295387,-0.10610687,-1.78168380,0.00000000,0.00000000,0.09572053,2.09550238,1.11509800,0.33563536,-1.61021185,0.00000000,0.00000000
-0.07526846,-2.16461992,-0.27042529,-0.11799514,-1.79717195,0.00000000,0.00000000,0.10158532,2.07483411,1.10854638,0.31516027,-1.58546197,0.00000000,0.00000000
-0.09815786,-2.16897464,-0.26777023,-0.12896314,-1.81475711,0.00000000,0.00000000,0.09766497,2.06193495,1.09974682,0.29383460,-1.56335151,0.00000000,0.00000000
-0.11696939,-2.16994381,-0.26493156,-0.13286762,-1.83026230,0.00000000,0.00000000,0.09023622,2.05194879,1.09037399,0.27578127,-1.53612351,0.00000000,0.00000000
-0.13069677,-2.17000008,-0.26179454,-0.12878035,-1.85017085,0.00000000,0.00000000,0.08417916,2.03887391,1.08201945,0.26248378,-1.50526547,0.00000000,0.00000000
-0.13806012,-2.17000008,-0.25813866,-0.11964101,-1.87189066,0.00000000,0.00000000,0.08231237,2.01877999,1.07559574,0.25402391,-1.47179651,0.00000000,0.00000000
-0.13956684,-2.17000008,-0.25394374,-0.10781676,-1.89269745,0.00000000,0.00000000,0.08679839,1.99103558,1.07139218,0.25057343,-1.44272888,0.00000000,0.00000000
-0.13786831,-2.17000008,-0.24940844,-0.09386639,-1.91283047,0.00000000,0.00000000,0.09652892,1.95949781,1.06876481,0.25133851,-1.40992737,0.00000000,0.00000000
-0.13655894,-2.17000008,-0.24475795,-0.07866953,-1.93537450,0.00000000,0.00000000,0.10526863,1.92822146,1.06658578,0.25175852,-1.37585938,0.00000000,0.00000000
-0.13816792,-2.17000008,-0.24012432,-0.06410217,-1.95418096,0.00000000,0.00000000,0.11391953,1.90036225,1.06441343,0.25104922,-1.34407318,0.00000000,0.00000000
-0.14237563,-2.16999865,-0.23552927,-0.05209190,-1.96964931,0.00000000,0.00000000,0.11977243,1.88092542,1.06137240,0.24940032,-1.31611383,0.00000000,0.00000000
-0.14717706,-2.16998267,-0.23097558,-0.04384732,-1.98569059,0.00000000,0.00000000,0.12102209,1.87608838,1.05660903,0.25008386,-1.28873575,0.00000000,0.00000000
-0.15086555,-2.16995764,-0.22649442,-0.04016146,-2.00818992,0.00000000,0.00000000,0.11901335,1.88424277,1.05055726,0.25519064,-1.26829100,0.00000000,0.00000000
-0.15276547,-2.16998291,-0.22212504,-0.04160070,-2.03200579,0.00000000,0.00000000,0.11568230,1.90184498,1.04390860,0.26605654,-1.25349391,0.00000000,0.00000000
-0.15282303,-2.16999912,-0.21789332,-0.04776000,-2.04995108,0.00000000,0.00000000,0.11250131,1.92691588,1.03704894,0.28400379,-1.23715687,0.00000000,0.00000000
-0.15071024,-2.17000008,-0.21379730,-0.05675127,-2.07154417,0.00000000,0.00000000,0.11000226,1.95813298,1.03011107,0.30953729,-1.22268987,0.00000000,0.00000000
-0.14606130,-2.17000008,-0.20983718,-0.06540116,-2.08758330,0.00000000,0.00000000,0.10849515,1.99445450,1.02311599,0.34247273,-1.20643377,0.00000000,0.00000000
-0.13794748,-2.17000008,-0.20597996,-0.07130083,-2.09388208,0.00000000,0.00000000,0.10739080,2.03296638,1.01638830,0.38016960,-1.19417393,0.00000000,0.00000000
-0.12410962,-2.17000008,-0.20210922,-0.07515584,-2.09633398,0.00000000,0.00000000,0.10336722,2.06530714,1.01110792,0.41427559,-1.18800747,0.00000000,0.00000000
-0.11071748,-2.17000008,-0.19848832,-0.07953583,-2.09940314,0.00000000,0.00000000,0.09978903,2.08887100,1.00848687,0.44147208,-1.18409646,0.00000000,0.00000000
-0.10134359,-2.17000008,-0.19531558,-0.08411122,-2.10327792,0.00000000,0.00000000,0.09674980,2.10640621,1.00849879,0.46026206,-1.18060553,0.00000000,0.00000000
-0.09630252,-2.17000008,-0.19264953,-0.08689153,-2.10554767,0.00000000,0.00000000,0.09364197,2.12131357,1.01088107,0.47056076,-1.17320907,0.00000000,0.00000000
-0.09480977,-2.16996002,-0.19045715,-0.08663541,-2.10188532,0.00000000,0.00000000,0.09064636,2.13528585,1.01539493,0.47351173,-1.16190076,0.00000000,0.00000000
-0.09515096,-2.16929221,-0.18859756,-0.08397249,-2.10194349,0.00000000,0.00000000,0.08820367,2.14675689,1.02178144,0.47074521,-1.15055239,0.00000000,0.00000000
-0.09487859,-2.16639638,-0.18685895,-0.08046224,-2.10126066,0.00000000,0.00000000,0.08650485,2.15313435,1.02949321,0.46412906,-1.14442921,0.00000000,0.00000000
-0.09237759,-2.16014433,-0.18509533,-0.07666650,-2.10207200,0.00000000,0.00000000,0.08520187,2.15550804,1.03734994,0.45568213,-1.13401818,0.00000000,0.00000000
-0.08735412,-2.15036631,-0.18326534,-0.07244440,-2.10755157,0.00000000,0.00000000,0.08345887,2.15711808,1.04404044,0.44696763,-1.12664723,0.00000000,0.00000000
-0.08028373,-2.13813376,-0.18139677,-0.06818390,-2.11562514,0.00000000,0.00000000,0.08020952,2.16022778,1.04866588,0.43878907,-1.12078524,0.00000000,0.00000000
-0.07215203,-2.12526989,-0.17956392,-0.06485337,-2.12342286,0.00000000,0.00000000,0.07495941,2.16474080,1.05103302,0.43124068,-1.10941350,0.00000000,0.00000000
-0.06407624,-2.11277175,-0.17785661,-0.06303184,-2.13535976,0.00000000,0.00000000,0.06788705,2.16852331,1.05160201,0.42374623,-1.09999895,0.00000000,0.00000000
-0.05702940,-2.09966207,-0.17635572,-0.06210921,-2.14510822,0.00000000,0.00000000,0.05902983,2.16983891,1.05106676,0.41520977,-1.09060836,0.00000000,0.00000000
-0.05177008,-2.08320332,-0.17512573,-0.06036880,-2.15638447,0.00000000,0.00000000,0.04740676,2.16999435,1.04980588,0.40438461,-1.08562970,0.00000000,0.00000000
-0.04918651,-2.06080103,-0.17421536,-0.05611513,-2.16872525,0.00000000,0.00000000,0.03186746,2.17000008,1.04780209,0.39057058,-1.07942927,0.00000000,0.00000000
-0.05042934,-2.03311348,-0.17364445,-0.04937554,-2.17839718,0.00000000,0.00000000,0.01280641,2.16998005,1.04517114,0.37369502,-1.07473230,0.00000000,0.00000000
-0.05620381,-2.00485873,-0.17338680,-0.04224959,-2.18207574,0.00000000,0.00000000,-0.00755892,2.16958928,1.04238391,0.35401645,-1.07241595,0.00000000,0.00000000
-0.06598606,-1.98158109,-0.17337941,-0.03717778,-2.18137074,0.00000000,0.00000000,-0.02681200,2.16723657,1.03986967,0.33193225,-1.07321954,0.00000000,0.00000000
-0.07793528,-1.96625674,-0.17354648,-0.03528191,-2.17863560,0.00000000,0.00000000,-0.04388457,2.16099310,1.03767550,0.30787820,-1.06873477,0.00000000,0.00000000
-0.08963556,-1.95939040,-0.17381504,-0.03661805,-2.18042684,0.00000000,0.00000000,-0.05878023,2.15199018,1.03557122,0.28254253,-1.06258535,0.00000000,0.00000000
-0.09935370,-1.96000600,-0.17413189,-0.04083190,-2.17945004,0.00000000,0.00000000,-0.07126972,2.14290023,1.03326190,0.25744498,-1.05542123,0.00000000,0.00000000
-0.10628158,-1.96622539,-0.17446026,-0.04728263,-2.17714524,0.00000000,0.00000000,-0.08059050,2.13635898,1.03052735,0.23490462,-1.04697025,0.00000000,0.00000000
-0.10971123,-1.97661090,-0.17474848,-0.05542291,-2.17841959,0.00000000,0.00000000,-0.08587229,2.13396549,1.02736127,0.21719323,-1.03641677,0.00000000,0.00000000
-0.10878327,-1.99055994,-0.17490831,-0.06484433,-2.18119907,0.00000000,0.00000000,-0.08630522,2.13601851,1.02393854,0.20587297,-1.02553105,0.00000000,0.00000000
-0.10243695,-2.00855589,-0.17479308,-0.07546958,-2.18410921,0.00000000,0.00000000,-0.08155510,2.14184427,1.02046776,0.20144761,-1.01015294,0.00000000,0.00000000
-0.08954003,-2.03014183,-0.17421943,-0.08633190,-2.18377519,0.00000000,0.00000000,-0.07209132,2.15004730,1.01710761,0.20331332,-0.99526769,0.00000000,0.00000000
-0.07072100,-2.05097175,-0.17312370,-0.09394780,-2.18402267,0.00000000,0.00000000,-0.05828698,2.15885997,1.01400661,0.21054494,-0.97969943,0.00000000,0.00000000
-0.04950714,-2.06978703,-0.17162129,-0.09732994,-2.17742944,0.00000000,0.00000000,-0.03948588,2.16591358,1.01143801,0.22248015,-0.96257615,0.00000000,0.00000000
-0.02894173,-2.08845758,-0.16981788,-0.09778986,-2.17100549,0.00000000,0.00000000,-0.01505015,2.16923356,1.00985289,0.23804684,-0.94592017,0.00000000,0.00000000
-0.01048571,-2.10892820,-0.16776428,-0.09716018,-2.17267132,0.00000000,0.00000000,0.01451121,2.16961288,1.00977552,0.25519979,-0.92626554,0.00000000,0.00000000
0.00554529,-2.13136768,-0.16550560,-0.09677665,-2.16688156,0.00000000,0.00000000,0.04652296,2.16693091,1.01119184,0.27160072,-0.90293306,0.00000000,0.00000000
0.01887207,-2.15146279,-0.16317286,-0.09557066,-2.16018820,0.00000000,0.00000000,0.07711310,2.15879631,1.01322973,0.28574651,-0.87268484,0.00000000,0.00000000
0.02850585,-2.16173220,-0.16098784,-0.09044676,-2.15441632,0.00000000,0.00000000,0.10365989,2.14664578,1.01498830,0.29655242,-0.84406507,0.00000000,0.00000000
0.03361661,-2.16112757,-0.15909457,-0.08175844,-2.14984441,0.00000000,0.00000000,0.12522459,2.13122940,1.01616359,0.30260357,-0.82301736,0.00000000,0.00000000
0.03350589,-2.15796208,-0.15751891,-0.07529036,-2.14348650,0.00000000,0.00000000,0.14145072,2.11210775,1.01676309,0.30259418,-0.79722142,0.00000000,0.00000000
0.02645584,-2.15927172,-0.15631793,-0.07622743,-2.13560605,0.00000000,0.00000000,0.15206347,2.09005666,1.01671374,0.29612255,-0.76996374,0.00000000,0.00000000
0.01166684,-2.16451597,-0.15553108,-0.08499431,-2.12660122,0.00000000,0.00000000,0.15634744,2.06712604,1.01579690,0.28352925,-0.73748386,0.00000000,0.00000000
-0.00890772,-2.16874409,-0.15508756,-0.09757414,-2.11118889,0.00000000,0.00000000,0.15228496,2.04783273,1.01342165,0.26601556,-0.70906091,0.00000000,0.00000000
-0.03126682,-2.16992569,-0.15479900,-0.10743730,-2.08954644,0.00000000,0.00000000,0.13894974,2.03748941,1.00907636,0.24675162,-0.67830396,0.00000000,0.00000000
-0.05000177,-2.17000008,-0.15434751,-0.10963631,-2.06908703,0.00000000,0.00000000,0.12184115,2.03213263,1.00404334,0.22993200,-0.64855975,0.00000000,0.00000000
-0.06161002,-2.17000008,-0.15346862,-0.10504166,-2.04878640,0.00000000,0.00000000,0.10675337,2.02362728,1.00002551,0.21697156,-0.62269104,0.00000000,0.00000000
-0.06492049,-2.17000008,-0.15204309,-0.09711509,-2.02489972,0.00000000,0.00000000,0.09659337,2.00677228,0.99798393,0.20745075,-0.59521896,0.00000000,0.00000000
-0.06085889,-2.17000008,-0.15011688,-0.08793590,-1.99722373,0.00000000,0.00000000,0.09251975,1.98000228,0.99824673,0.20058928,-0.56676930,0.00000000,0.00000000
-0.05208179,-2.17000008,-0.14785343,-0.07807423,-1.97600281,0.00000000,0.00000000,0.09419282,1.94652867,1.00051129,0.19611615,-0.53584081,0.00000000,0.00000000
-0.04199864,-2.17000008,-0.14544013,-0.06809081,-1.95261514,0.00000000,0.00000000,0.09913656,1.91068470,1.00418019,0.19280678,-0.50829977,0.00000000,0.00000000
-0.03354360,-2.17000008,-0.14302120,-0.05933619,-1.93187094,0.00000000,0.00000000,0.10391822,1.87486577,1.00875628,0.18830644,-0.48610580,0.00000000,0.00000000
-0.02823485,-2.17000008,-0.14068528,-0.05325155,-1.90749061,0.00000000,0.00000000,0.10597675,1.84627402,1.01338696,0.18367307,-0.46630785,0.00000000,0.00000000
-0.02684090,-2.17000008,-0.13850197,-0.05112686,-1.88718009,0.00000000,0.00000000,0.10614075,1.83100092,1.01760614,0.18219924,-0.44500330,0.00000000,0.00000000
-0.02959937,-2.17000008,-0.13653205,-0.05412739,-1.86652911,0.00000000,0.00000000,0.10358411,1.82877588,1.02145350,0.18410611,-0.42578191,0.00000000,0.00000000
-0.03618740,-2.17000008,-0.13482000,-0.06305092,-1.84054661,0.00000000,0.00000000,0.09800383,1.83787990,1.02513123,0.18956813,-0.40615612,0.00000000,0.00000000
-0.04566747,-2.17000008,-0.13338327,-0.07729939,-1.81842971,0.00000000,0.00000000,0.09030696,1.85650766,1.02892458,0.19958170,-0.38864800,0.00000000,0.00000000
-0.05667252,-2.17000008,-0.13220400,-0.09478584,-1.79914999,0.00000000,0.00000000,0.08165520,1.88231421,1.03316247,0.21508339,-0.36973834,0.00000000,0.00000000
-0.06723793,-2.17000008,-0.13120674,-0.11271165,-1.77891338,0.00000000,0.00000000,0.07272716,1.91259050,1.03813624,0.23630941,-0.35265300,0.00000000,0.00000000
-0.07534450,-2.17000008,-0.13028437,-0.12839729,-1.75788343,0.00000000,0.00000000,0.06359275,1.94470274,1.04407990,0.26266575,-0.33386958,0.00000000,0.00000000
-0.08021592,-2.17000008,-0.12940280,-0.13971686,-1.73134530,0.00000000,0.00000000,0.05473062,1.97727823,1.05116093,0.29364613,-0.31539923,0.00000000,0.00000000
-0.08276262,-2.17000008,-0.12865558,-0.14515175,-1.70650697,0.00000000,0.00000000,0.04604575,2.01051760,1.05931628,0.32835415,-0.29511791,0.00000000,0.00000000
-0.08482175,-2.17000008,-0.12819675,-0.14416623,-1.68283463,0.00000000,0.00000000,0.03446823,2.04433203,1.06822896,0.36263600,-0.28141868,0.00000000,0.00000000
-0.09018117,-2.17000008,-0.12831888,-0.13745621,-1.66260266,0.00000000,0.00000000,0.02100128,2.07800794,1.07807481,0.39268005,-0.26414081,0.00000000,0.00000000
-0.10495675,-2.16986132,-0.12946463,-0.12675618,-1.64261186,0.00000000,0.00000000,0.00585091,2.10902905,1.08925962,0.41593271,-0.24671040,0.00000000,0.00000000
-0.12504539,-2.16784048,-0.13120143,-0.11166124,-1.61849463,0.00000000,0.00000000,-0.01038454,2.13460159,1.10224140,0.43196571,-0.23502554,0.00000000,0.00000000
-0.14630267,-2.16259551,-0.13308507,-0.09563427,-1.59989583,0.00000000,0.00000000,-0.02589396,2.15254688,1.11740792,0.44216841,-0.22592686,0.00000000,0.00000000
-0.16584156,-2.15916204,-0.13480526,-0.08402906,-1.58124113,0.00000000,0.00000000,-0.03810517,2.16285467,1.13467371,0.44937640,-0.22118860,0.00000000,0.00000000
-0.18335767,-2.15615463,-0.13628961,-0.07567870,-1.55986691,0.00000000,0.00000000,-0.04488233,2.16736412,1.15339518,0.45621738,-0.21464118,0.00000000,0.00000000
-0.19670430,-2.15119457,-0.13742502,-0.06812078,-1.53881407,0.00000000,0.00000000,-0.04700208,2.16841888,1.17256260,0.46359444,-0.20428681,0.00000000,0.00000000
-0.20432618,-2.14431167,-0.13817497,-0.06069852,-1.52153742,0.00000000,0.00000000,-0.04696209,2.16780996,1.19125450,0.47137690,-0.19815254,0.00000000,0.00000000
-0.20684622,-2.13466215,-0.13865085,-0.05252333,-1.50469041,0.00000000,0.00000000,-0.04678815,2.16735578,1.20866871,0.47980663,-0.18995351,0.00000000,0.00000000
-0.20568244,-2.12443590,-0.13897902,-0.04476068,-1.48797631,0.00000000,0.00000000,-0.04733976,2.16820335,1.22432232,0.48964426,-0.18633893,0.00000000,0.00000000
-0.20310213,-2.11623454,-0.13928682,-0.03914096,-1.47370946,0.00000000,0.00000000,-0.04844743,2.16951370,1.23846030,0.50129026,-0.18532479,0.00000000,0.00000000
-0.20123610,-2.11117291,-0.13967413,-0.03661744,-1.46241581,0.00000000,0.00000000,-0.05049584,2.16996980,1.25189364,0.51342195,-0.18314715,0.00000000,0.00000000
-0.20138358,-2.10808659,-0.14020348,-0.03668410,-1.45550692,0.00000000,0.00000000,-0.05499107,2.17000008,1.26525056,0.52351707,-0.18265896,0.00000000,0.00000000
-0.20429623,-2.10383677,-0.14091916,-0.03753535,-1.44679797,0.00000000,0.00000000,-0.06448182,2.17000008,1.27814233,0.52968413,-0.18228722,0.00000000,0.00000000
-0.21039216,-2.09487557,-0.14185478,-0.03703704,-1.44278300,0.00000000,0.00000000,-0.08131071,2.17000008,1.28966212,0.53136122,-0.18603289,0.00000000,0.00000000
-0.21935792,-2.08003521,-0.14301522,-0.03419618,-1.43928385,0.00000000,0.00000000,-0.10582800,2.17000008,1.29964149,0.52890152,-0.18997206,0.00000000,0.00000000
-0.23001868,-2.06314182,-0.14436503,-0.03049231,-1.43135202,0.00000000,0.00000000,-0.13501242,2.17000008,1.30926073,0.52345484,-0.19369078,0.00000000,0.00000000
-0.24022159,-2.05028701,-0.14584069,-0.02843884,-1.42500997,0.00000000,0.00000000,-0.16349302,2.16992474,1.32019222,0.51701128,-0.20021144,0.00000000,0.00000000
-0.24751861,-2.04455924,-0.14737977,-0.02891799,-1.42232978,0.00000000,0.00000000,-0.18717091,2.16869140,1.33314371,0.51137096,-0.20658281,0.00000000,0.00000000
-0.25058872,-2.04489803,-0.14894454,-0.03092428,-1.42352915,0.00000000,0.00000000,-0.20513222,2.16370440,1.34747660,0.50730681,-0.21393926,0.00000000,0.00000000
-0.24895564,-2.04928041,-0.15050900,-0.03343034,-1.42323124,0.00000000,0.00000000,-0.21804447,2.15459633,1.36208296,0.50510639,-0.22707988,0.00000000,0.00000000
-0.24211793,-2.05665660,-0.15204200,-0.03629307,-1.42821741,0.00000000,0.00000000,-0.22629137,2.14344931,1.37609351,0.50526685,-0.24230048,0.00000000,0.00000000
-0.22968364,-2.06676078,-0.15350965,-0.03998675,-1.43380976,0.00000000,0.00000000,-0.22991015,2.13219953,1.38897586,0.50835145,-0.25870246,0.00000000,0.00000000
-0.21191226,-2.07924628,-0.15488480,-0.04500781,-1.43720412,0.00000000,0.00000000,-0.22890064,2.12185597,1.40041614,0.51466280,-0.27491501,0.00000000,0.00000000
-0.18951572,-2.09331799,-0.15613864,-0.05151790,-1.43581963,0.00000000,0.00000000,-0.22356279,2.11286473,1.41014445,0.52404386,-0.29204932,0.00000000,0.00000000
-0.16304295,-2.10775781,-0.15722515,-0.05926114,-1.42803741,0.00000000,0.00000000,-0.21479143,2.10547113,1.41786361,0.53589970,-0.31076482,0.00000000,0.00000000
-0.13266194,-2.12148952,-0.15807828,-0.06794555,-1.42158031,0.00000000,0.00000000,-0.20381133,2.09991622,1.42328978,0.54944056,-0.33122122,0.00000000,0.00000000
-0.09884317,-2.13445902,-0.15863797,-0.07788365,-1.41587114,0.00000000,0.00000000,-0.19159791,2.09671450,1.42612875,0.56401253,-0.35202628,0.00000000,0.00000000
-0.06382977,-2.14679360,-0.15893093,-0.08952281,-1.41496432,0.00000000,0.00000000,-0.17863640,2.09663868,1.42606354,0.57924581,-0.37358943,0.00000000,0.00000000
-0.03084214,-2.15628767,-0.15907794,-0.10177664,-1.41265810,0.00000000,0.00000000,-0.16511717,2.10032415,1.42283154,0.59489071,-0.39226127,0.00000000,0.00000000
-0.00202688,-2.16198993,-0.15917276,-0.11362195,-1.40994716,0.00000000,0.00000000,-0.15117177,2.10733509,1.41653025,0.61046737,-0.41469994,0.00000000,0.00000000
0.02178698,-2.16591239,-0.15924326,-0.12482955,-1.40883279,0.00000000,0.00000000,-0.13684016,2.11615825,1.40765190,0.62520349,-0.44228992,0.00000000,0.00000000
0.04056154,-2.16896582,-0.15929653,-0.13461456,-1.40867233,0.00000000,0.00000000,-0.12228400,2.12547517,1.39665294,0.63809294,-0.46426657,0.00000000,0.00000000
0.05414923,-2.16993618,-0.15938906,-0.14110099,-1.40614426,0.00000000,0.00000000,-0.10780391,2.13441181,1.38390160,0.64802074,-0.48632631,0.00000000,0.00000000
0.06220387,-2.17000008,-0.15959398,-0.14274774,-1.40454638,0.00000000,0.00000000,-0.09375640,2.14238858,1.36974204,0.65407544,-0.50633591,0.00000000,0.00000000
0.06436328,-2.17000008,-0.15997164,-0.13836034,-1.40656853,0.00000000,0.00000000,-0.08052230,2.14927793,1.35437000,0.65588140,-0.52452660,0.00000000,0.00000000
0.06131480,-2.17000008,-0.16046169,-0.12754159,-1.41230547,0.00000000,0.00000000,-0.06796946,2.15518427,1.33786404,0.65394026,-0.54752243,0.00000000,0.00000000
0.05473483,-2.16997242,-0.16090682,-0.11138042,-1.41942132,0.00000000,0.00000000,-0.05537511,2.16080189,1.32003164,0.64962065,-0.57434928,0.00000000,0.00000000
0.04691753,-2.16949749,-0.16114858,-0.09162071,-1.42462063,0.00000000,0.00000000,-0.04205729,2.16614866,1.30090499,0.64436346,-0.60797173,0.00000000,0.00000000
0.04077086,-2.16734481,-0.16107720,-0.06973243,-1.42976654,0.00000000,0.00000000,-0.02788921,2.16921473,1.28148162,0.63867790,-0.64588529,0.00000000,0.00000000
0.03849605,-2.16312265,-0.16070630,-0.04734445,-1.43580484,0.00000000,0.00000000,-0.01224064,2.16995573,1.26288640,0.63285804,-0.68050516,0.00000000,0.00000000
0.04060546,-2.15843654,-0.16017202,-0.02595616,-1.43687236,0.00000000,0.00000000,0.00496222,2.17000008,1.24569798,0.62675959,-0.71594912,0.00000000,0.00000000
0.04613058,-2.15427065,-0.15965183,-0.00631997,-1.43597448,0.00000000,0.00000000,0.02267889,2.16998744,1.23004305,0.61973721,-0.74855757,0.00000000,0.00000000
0.05326719,-2.15104175,-0.15929385,0.01102466,-1.43617988,0.00000000,0.00000000,0.03992591,2.16976666,1.21568263,0.61143792,-0.77971566,0.00000000,0.00000000
0.06007138,-2.14917922,-0.15919290,0.02548646,-1.43598616,0.00000000,0.00000000,0.05600373,2.16871977,1.20218384,0.60175335,-0.80816954,0.00000000,0.00000000
0.06488246,-2.14850068,-0.15939696,0.03686908,-1.44061935,0.00000000,0.00000000,0.07055291,2.16666603,1.18916833,0.59075880,-0.83681822,0.00000000,0.00000000
0.06650149,-2.14792180,-0.15992419,0.04564110,-1.44654012,0.00000000,0.00000000,0.08303355,2.16483355,1.17618454,0.57851744,-0.86477518,0.00000000,0.00000000
0.06443553,-2.14647818,-0.16078714,0.05240235,-1.45190477,0.00000000,0.00000000,0.09228615,2.16424274,1.16266561,0.56473255,-0.89000899,0.00000000,0.00000000
0.05867610,-2.14441228,-0.16200285,0.05714854,-1.45232546,0.00000000,0.00000000,0.09730449,2.16498780,1.14819193,0.54906231,-0.90822262,0.00000000,0.00000000
0.04918787,-2.14289761,-0.16358115,0.05928876,-1.45840776,0.00000000,0.00000000,0.09758850,2.16665435,1.13252318,0.53133214,-0.92667556,0.00000000,0.00000000
0.03573705,-2.14302063,-0.16551176,0.05814961,-1.45907724,0.00000000,0.00000000,0.09301956,2.16855145,1.11561406,0.51142746,-0.93746328,0.00000000,0.00000000
0.01843279,-2.14520311,-0.16777743,0.05329865,-1.45040143,0.00000000,0.00000000,0.08408927,2.16969752,1.09789681,0.48912919,-0.94809693,0.00000000,0.00000000
-0.00191858,-2.14910340,-0.17036730,0.04457638,-1.43972600,0.00000000,0.00000000,0.07263706,2.16998291,1.08052278,0.46438357,-0.95605808,0.00000000,0.00000000
-0.02402388,-2.15371728,-0.17327286,0.03212442,-1.43110430,0.00000000,0.00000000,0.06078483,2.16996765,1.06478536,0.43727711,-0.96465874,0.00000000,0.00000000
-0.04689715,-2.15788460,-0.17646928,0.01624129,-1.43007731,0.00000000,0.00000000,0.04953569,2.16940379,1.05124390,0.40809703,-0.97073036,0.00000000,0.00000000
-0.07048143,-2.16103339,-0.17990816,-0.00292205,-1.43590009,0.00000000,0.00000000,0.03922726,2.16675043,1.03965092,0.37782681,-0.97434115,0.00000000,0.00000000
-0.09520856,-2.16359115,-0.18353578,-0.02519529,-1.43921793,0.00000000,0.00000000,0.03001868,2.16105723,1.02940691,0.34793350,-0.97718942,0.00000000,0.00000000
-0.12061419,-2.16572404,-0.18728210,-0.04908376,-1.44117093,0.00000000,0.00000000,0.02207270,2.15377188,1.02008879,0.31961721,-0.97370285,0.00000000,0.00000000
-0.14491613,-2.16716552,-0.19101608,-0.07224643,-1.44219840,0.00000000,0.00000000,0.01543899,2.14687729,1.01140928,0.29375297,-0.97282177,0.00000000,0.00000000
-0.16633143,-2.16734910,-0.19455606,-0.09287029,-1.44339406,0.00000000,0.00000000,0.01030317,2.14186335,1.00316966,0.27106711,-0.96894896,0.00000000,0.00000000
-0.18377134,-2.16686487,-0.19770791,-0.11035152,-1.44493270,0.00000000,0.00000000,0.00706538,2.13934565,0.99528652,0.25204232,-0.96653599,0.00000000,0.00000000
-0.19710192,-2.16765094,-0.20032004,-0.12519701,-1.44425535,0.00000000,0.00000000,0.00542622,2.13918376,0.98767370,0.23664105,-0.95937997,0.00000000,0.00000000
-0.20725378,-2.16932487,-0.20235550,-0.13789472,-1.44924676,0.00000000,0.00000000,0.00431694,2.14071107,0.98024428,0.22438367,-0.95597464,0.00000000,0.00000000
-0.21466686,-2.16987586,-0.20378375,-0.14838517,-1.45373344,0.00000000,0.00000000,0.00352194,2.14328432,0.97300911,0.21514645,-0.95311767,0.00000000,0.00000000
-0.21892291,-2.16928816,-0.20448114,-0.15807086,-1.46142077,0.00000000,0.00000000,0.00350842,2.14613771,0.96610296,0.20898572,-0.94862521,0.00000000,0.00000000
-0.21983874,-2.16746855,-0.20434158,-0.16861664,-1.46689570,0.00000000,0.00000000,0.00486530,2.14801359,0.95978779,0.20563829,-0.94842809,0.00000000,0.00000000
-0.21767840,-2.16539168,-0.20330635,-0.18147010,-1.46910655,0.00000000,0.00000000,0.00828018,2.14733291,0.95443803,0.20439789,-0.94479042,0.00000000,0.00000000
-0.21311402,-2.16552353,-0.20137087,-0.19778912,-1.47275412,0.00000000,0.00000000,0.01421515,2.14277840,0.95044565,0.20421155,-0.93653500,0.00000000,0.00000000
-0.20713373,-2.16855574,-0.19872025,-0.21533374,-1.47705448,0.00000000,0.00000000,0.02276141,2.13339853,0.94811410,0.20451346,-0.92408121,0.00000000,0.00000000
-0.20083362,-2.16990519,-0.19582164,-0.22566298,-1.48249936,0.00000000,0.00000000,0.03314024,2.12106562,0.94729447,0.20656979,-0.90861738,0.00000000,0.00000000
-0.19331411,-2.17000008,-0.19265570,-0.22606725,-1.48735750,0.00000000,0.00000000,0.04338138,2.10790086,0.94760865,0.21036875,-0.89388847,0.00000000,0.00000000
-0.18505277,-2.17000008,-0.18922620,-0.21812630,-1.50308263,0.00000000,0.00000000,0.05331858,2.09455657,0.94888175,0.21579549,-0.88156676,0.00000000,0.00000000
-0.17757513,-2.17000008,-0.18567123,-0.20410983,-1.51597333,0.00000000,0.00000000,0.06349146,2.08137536,0.95099336,0.22299549,-0.86974382,0.00000000,0.00000000
-0.17218199,-2.17000008,-0.18211231,-0.18589976,-1.52957821,0.00000000,0.00000000,0.07414743,2.06831932,0.95385170,0.23181824,-0.86335671,0.00000000,0.00000000
-0.16976263,-2.17000008,-0.17863593,-0.16429102,-1.54160690,0.00000000,0.00000000,0.08526582,2.05462718,0.95745200,0.24169900,-0.86206323,0.00000000,0.00000000
-0.17050683,-2.17000008,-0.17525388,-0.13955434,-1.55400276,0.00000000,0.00000000,0.09633802,2.04030228,0.96169388,0.25214064,-0.85736126,0.00000000,0.00000000
-0.17397127,-2.17000008,-0.17192087,-0.11190243,-1.56658435,0.00000000,0.00000000,0.10624582,2.02708888,0.96624082,0.26309499,-0.85094327,0.00000000,0.00000000
-0.17940296,-2.17000008,-0.16858919,-0.08151939,-1.58030701,0.00000000,0.00000000,0.11368568,2.01741505,0.97065598,0.27485201,-0.84595090,0.00000000,0.00000000
-0.18604113,-2.17000008,-0.16524455,-0.04877967,-1.59984052,0.00000000,0.00000000,0.11785500,2.01285529,0.97461855,0.28790662,-0.84946275,0.00000000,0.00000000
-0.19331346,-2.16996598,-0.16191681,-0.01458175,-1.61569345,0.00000000,0.00000000,0.11905359,2.01306105,0.97810632,0.30289462,-0.85432845,0.00000000,0.00000000
-0.20066957,-2.16944909,-0.15866928,0.01917157,-1.63523579,0.00000000,0.00000000,0.11838766,2.01653957,0.98128867,0.32060325,-0.86199337,0.00000000,0.00000000
-0.20744902,-2.16787696,-0.15557900,0.04953964,-1.66071057,0.00000000,0.00000000,0.11708748,2.02214026,0.98430049,0.34203303,-0.86822861,0.00000000,0.00000000
-0.21304764,-2.16654396,-0.15271938,0.07387791,-1.68701565,0.00000000,0.00000000,0.11596789,2.02941799,0.98714507,0.36808026,-0.87787491,0.00000000,0.00000000
-0.21662486,-2.16666985,-0.15016697,0.09105373,-1.71173811,0.00000000,0.00000000,0.11465318,2.03823328,0.98964703,0.39883804,-0.88654691,0.00000000,0.00000000
-0.21700250,-2.16775751,-0.14802460,0.10141180,-1.73511243,0.00000000,0.00000000,0.11149263,2.04860377,0.99144965,0.43343383,-0.89700150,0.00000000,0.00000000
-0.21298218,-2.16815066,-0.14642163,0.10613376,-1.75641727,0.00000000,0.00000000,0.10393885,2.06102943,0.99197364,0.47043526,-0.90798271,0.00000000,0.00000000
-0.20391721,-2.16691613,-0.14547919,0.10611856,-1.78421092,0.00000000,0.00000000,0.09066854,2.07423449,0.99136710,0.50689936,-0.91757798,0.00000000,0.00000000
-0.19032109,-2.16480708,-0.14525400,0.10143436,-1.80984807,0.00000000,0.00000000,0.07452676,2.08203936,0.99187893,0.53746974,-0.93603373,0.00000000,0.00000000
-0.17332749,-2.16303253,-0.14572543,0.09204865,-1.83163321,0.00000000,0.00000000,0.05628960,2.08411312,0.99415511,0.55993479,-0.94853032,0.00000000,0.00000000
-0.15392700,-2.16287184,-0.14682168,0.07795279,-1.85389650,0.00000000,0.00000000,0.03801845,2.08317327,0.99830288,0.57511628,-0.95945990,0.00000000,0.00000000
-0.13323775,-2.16517496,-0.14841753,0.05931733,-1.87612975,0.00000000,0.00000000,0.02099929,2.08295655,1.00385106,0.58377761,-0.97185355,0.00000000,0.00000000
-0.11267176,-2.16854429,-0.15034227,0.03782239,-1.90205884,0.00000000,0.00000000,0.00546543,2.08745098,1.00976145,0.58631265,-0.99142605,0.00000000,0.00000000
-0.09529176,-2.16963911,-0.15241721,0.01852010,-1.92555106,0.00000000,0.00000000,-0.00881357,2.09867215,1.01492190,0.58280247,-1.00966334,0.00000000,0.00000000
-0.08628262,-2.16628385,-0.15454705,0.00738793,-1.95551062,0.00000000,0.00000000,-0.02252500,2.11499929,1.01840901,0.57334054,-1.02405393,0.00000000,0.00000000
-0.08499404,-2.15410566,-0.15676659,0.00449862,-1.98612905,0.00000000,0.00000000,-0.03602824,2.13247085,1.01977122,0.55868053,-1.03938556,0.00000000,0.00000000
-0.08824351,-2.13686180,-0.15909757,0.00508567,-2.01655173,0.00000000,0.00000000,-0.04862724,2.14770484,1.01930666,0.53993165,-1.05157077,0.00000000,0.00000000
-0.09639235,-2.12025595,-0.16154122,0.00546248,-2.04640126,0.00000000,0.00000000,-0.05819370,2.15855408,1.01782882,0.51816612,-1.05953038,0.00000000,0.00000000
-0.10866056,-2.10696125,-0.16410622,0.00444850,-2.07056761,0.00000000,0.00000000,-0.06163440,2.16407037,1.01615047,0.49451500,-1.07013190,0.00000000,0.00000000
-0.12196912,-2.09637070,-0.16679965,0.00287801,-2.09862709,0.00000000,0.00000000,-0.05846031,2.16403127,1.01449382,0.46911249,-1.07670140,0.00000000,0.00000000
-0.13244581,-2.08910036,-0.16961886,0.00084688,-2.12509227,0.00000000,0.00000000,-0.05094117,2.15842032,1.01262248,0.44121262,-1.08361876,0.00000000,0.00000000
-0.13821924,-2.09047794,-0.17254609,-0.00469721,-2.15341306,0.00000000,0.00000000,-0.04196142,2.14714885,1.01027238,0.41021803,-1.08845258,0.00000000,0.00000000
-0.13864373,-2.09757566,-0.17555234,-0.01231814,-2.17600727,0.00000000,0.00000000,-0.03327948,2.13085032,1.00728703,0.37674272,-1.09463680,0.00000000,0.00000000
-0.13546237,-2.10648727,-0.17861417,-0.02059048,-2.19839668,0.00000000,0.00000000,-0.02597882,2.11217046,1.00336921,0.34267443,-1.10243928,0.00000000,0.00000000
-0.12978566,-2.11413455,-0.18171446,-0.02845492,-2.22039342,0.00000000,0.00000000,-0.02050834,2.09455442,0.99829924,0.31038195,-1.10356319,0.00000000,0.00000000
-0.12142439,-2.11859775,-0.18482192,-0.03487534,-2.24505854,0.00000000,0.00000000,-0.01672324,2.08086395,0.99205661,0.28184107,-1.10034060,0.00000000,0.00000000
-0.10828522,-2.12084150,-0.18783773,-0.03967646,-2.25983810,0.00000000,0.00000000,-0.01501105,2.07306051,0.98464727,0.25789046,-1.09900737,0.00000000,0.00000000
-0.08650674,-2.12365961,-0.19059291,-0.04312116,-2.27226448,0.00000000,0.00000000,-0.01671724,2.07254243,0.97599524,0.23829573,-1.10166049,0.00000000,0.00000000
-0.05532352,-2.12680912,-0.19301498,-0.04389842,-2.28102684,0.00000000,0.00000000,-0.02164620,2.08062792,0.96611530,0.22336718,-1.10250533,0.00000000,0.00000000
-0.01831380,-2.13087153,-0.19516879,-0.04210270,-2.28497767,0.00000000,0.00000000,-0.02737395,2.09615922,0.95544082,0.21350405,-1.09798419,0.00000000,0.00000000
0.01956170,-2.13651085,-0.19717716,-0.03873657,-2.28921580,0.00000000,0.00000000,-0.03072108,2.11551189,0.94467998,0.20857917,-1.09133804,0.00000000,0.00000000
0.05391637,-2.14389944,-0.19915915,-0.03511529,-2.29442596,0.00000000,0.00000000,-0.02910744,2.13387203,0.93459004,0.20776282,-1.08000076,0.00000000,0.00000000
0.08211916,-2.15289426,-0.20119484,-0.03270807,-2.30143404,0.00000000,0.00000000,-0.02173250,2.14565301,0.92587024,0.20906213,-1.07252860,0.00000000,0.00000000
0.10365348,-2.16201735,-0.20332797,-0.03246999,-2.31604481,0.00000000,0.00000000,-0.01036010,2.14720988,0.91880834,0.20991568,-1.06470954,0.00000000,0.00000000
0.11910771,-2.16817713,-0.20560268,-0.03428610,-2.33143044,0.00000000,0.00000000,0.00151678,2.14203095,0.91278124,0.20954873,-1.05809164,0.00000000,0.00000000
0.12807488,-2.16989183,-0.20810081,-0.03728830,-2.34612226,0.00000000,0.00000000,0.01190416,2.13574362,0.90700424,0.20869149,-1.04596329,0.00000000,0.00000000
0.12921873,-2.16999507,-0.21091072,-0.04152814,-2.35785294,0.00000000,0.00000000,0.02087397,2.12884665,0.90134597,0.20699301,-1.02944088,0.00000000,0.00000000
0.12162686,-2.16992950,-0.21408422,-0.04902729,-2.36484790,0.00000000,0.00000000,0.02882053,2.11818695,0.89609724,0.20290543,-1.01057458,0.00000000,0.00000000
0.10552447,-2.16982841,-0.21763876,-0.06222802,-2.37370396,0.00000000,0.00000000,0.03514709,2.10197711,0.89141166,0.19526832,-0.98407137,0.00000000,0.00000000
0.08281553,-2.16992950,-0.22153684,-0.08213949,-2.38011980,0.00000000,0.00000000,0.03869293,2.08280969,0.88707131,0.18523869,-0.96089292,0.00000000,0.00000000
0.05686577,-2.16999531,-0.22565758,-0.10675425,-2.38456249,0.00000000,0.00000000,0.03863413,2.06837583,0.88249004,0.17728379,-0.94442761,0.00000000,0.00000000
0.03138429,-2.17000008,-0.22979678,-0.13203532,-2.38765097,0.00000000,0.00000000,0.03551381,2.05984044,0.87775719,0.17309085,-0.92286968,0.00000000,0.00000000
0.00940479,-2.17000008,-0.23370743,-0.15435289,-2.38746786,0.00000000,0.00000000,0.03049990,2.05515552,0.87322831,0.17282131,-0.89910501,0.00000000,0.00000000
-0.00645283,-2.17000008,-0.23710395,-0.17203374,-2.38418198,0.00000000,0.00000000,0.02469698,2.05135632,0.86928457,0.17601745,-0.87467998,0.00000000,0.00000000
-0.01425960,-2.17000008,-0.23972853,-0.18519494,-2.38283610,0.00000000,0.00000000,0.01878838,2.04440784,0.86637038,0.18116905,-0.84929788,0.00000000,0.00000000
-0.01344525,-2.17000008,-0.24146537,-0.19439854,-2.37987924,0.00000000,0.00000000,0.01296072,2.03104997,0.86485112,0.18640986,-0.82715291,0.00000000,0.00000000
-0.00545067,-2.17000008,-0.24245638,-0.19964136,-2.38237095,0.00000000,0.00000000,0.00724995,2.01162529,0.86478984,0.19100624,-0.80357742,0.00000000,0.00000000
0.00653390,-2.17000008,-0.24307355,-0.20051548,-2.38667917,0.00000000,0.00000000,0.00183616,1.99076152,0.86587012,0.19611490,-0.78565007,0.00000000,0.00000000
0.01928770,-2.17000008,-0.24367827,-0.19719684,-2.39456701,0.00000000,0.00000000,-0.00316180,1.97331524,0.86767405,0.20330463,-0.76972532,0.00000000,0.00000000
0.03080023,-2.17000008,-0.24447910,-0.19058681,-2.40007305,0.00000000,0.00000000,-0.00813640,1.96139646,0.86991346,0.21323170,-0.76089305,0.00000000,0.00000000
0.03973658,-2.17000008,-0.24561967,-0.18201435,-2.40171790,0.00000000,0.00000000,-0.01364429,1.95546031,0.87240946,0.22627592,-0.74927229,0.00000000,0.00000000
0.04444293,-2.17000008,-0.24729200,-0.17341556,-2.40224361,0.00000000,0.00000000,-0.01976325,1.95493376,0.87511313,0.24308048,-0.74030972,0.00000000,0.00000000
0.04306744,-2.17000008,-0.24972869,-0.16697645,-2.40016770,0.00000000,0.00000000,-0.02597688,1.95860732,0.87809193,0.26451260,-0.72906035,0.00000000,0.00000000
0.03510071,-2.17000008,-0.25304952,-0.16362505,-2.39436674,0.00000000,0.00000000,-0.03180421,1.96518016,0.88144475,0.29133293,-0.71798748,0.00000000,0.00000000
0.02195654,-2.17000008,-0.25717524,-0.16267827,-2.39083076,0.00000000,0.00000000,-0.03701845,1.97337604,0.88527787,0.32398769,-0.70811665,0.00000000,0.00000000
0.00639160,-2.17000008,-0.26186404,-0.16254972,-2.38629842,0.00000000,0.00000000,-0.04191781,1.98303270,0.88942093,0.36264008,-0.69724625,0.00000000,0.00000000
-0.00839346,-2.17000008,-0.26680496,-0.16167307,-2.39207077,0.00000000,0.00000000,-0.04810457,1.99324441,0.89361507,0.40536898,-0.68709552,0.00000000,0.00000000
-0.02038690,-2.17000008,-0.27177012,-0.15943369,-2.39429116,0.00000000,0.00000000,-0.05778109,1.99706769,0.89863813,0.44503537,-0.67390102,0.00000000,0.00000000
-0.03031660,-2.17000008,-0.27673522,-0.15671097,-2.39924312,0.00000000,0.00000000,-0.07005563,1.99495137,0.90459573,0.47718769,-0.66104293,0.00000000,0.00000000
-0.03982237,-2.17000008,-0.28175136,-0.15457372,-2.40500855,0.00000000,0.00000000,-0.08291548,1.98904228,0.91165739,0.49989831,-0.64963156,0.00000000,0.00000000
-0.04921702,-2.17000008,-0.28677884,-0.15329595,-2.41356015,0.00000000,0.00000000,-0.09495957,1.98289645,0.91979223,0.51284748,-0.63885367,0.00000000,0.00000000
-0.05764175,-2.17000008,-0.29176337,-0.15120962,-2.42467189,0.00000000,0.00000000,-0.10630058,1.98006332,0.92849749,0.51653636,-0.63269931,0.00000000,0.00000000
-0.06539992,-2.16999722,-0.29680911,-0.14599930,-2.43594098,0.00000000,0.00000000,-0.11744539,1.98254335,0.93704492,0.51163054,-0.62310010,0.00000000,0.00000000
-0.07405545,-2.16995907,-0.30203182,-0.13808464,-2.44587231,0.00000000,0.00000000,-0.12791547,1.98839378,0.94492972,0.49961329,-0.61436820,0.00000000,0.00000000
-0.08378455,-2.16986299,-0.30732203,-0.12960473,-2.46097803,0.00000000,0.00000000,-0.13585497,1.99072385,0.95240510,0.48353788,-0.60223711,0.00000000,0.00000000
-0.09337113,-2.16926336,-0.31246009,-0.12231866,-2.47291589,0.00000000,0.00000000,-0.13919647,1.98809862,0.95966107,0.46615842,-0.59599268,0.00000000,0.00000000
-0.10122171,-2.16591549,-0.31735435,-0.11493595,-2.49165678,0.00000000,0.00000000,-0.13915157,1.98469460,0.96567857,0.44901335,-0.59268278,0.00000000,0.00000000
-0.10561281,-2.15743804,-0.32198268,-0.10545164,-2.50657940,0.00000000,0.00000000,-0.13806465,1.98568904,0.96911657,0.43333670,-0.59162509,0.00000000,0.00000000
-0.10536820,-2.14649320,-0.32631314,-0.09512397,-2.52714562,0.00000000,0.00000000,-0.13710363,1.99357271,0.96936792,0.42027059,-0.59419787,0.00000000,0.00000000
-0.10232689,-2.14056754,-0.33043075,-0.08916594,-2.55233145,0.00000000,0.00000000,-0.13588606,2.00730228,0.96673310,0.40977859,-0.59580272,0.00000000,0.00000000
-0.10005917,-2.13870120,-0.33464837,-0.08786813,-2.58530998,0.00000000,0.00000000,-0.13309787,2.02479887,0.96199000,0.40027922,-0.59466505,0.00000000,0.00000000
-0.10171118,-2.13803792,-0.33924925,-0.08986644,-2.61809421,0.00000000,0.00000000,-0.12814105,2.04470158,0.95582747,0.38978949,-0.59607458,0.00000000,0.00000000
-0.10865251,-2.13542485,-0.34440720,-0.09328736,-2.64910531,0.00000000,0.00000000,-0.12190636,2.06629634,0.94850701,0.37689120,-0.59621745,0.00000000,0.00000000
-0.12100153,-2.12771964,-0.35021523,-0.09626880,-2.68457007,0.00000000,0.00000000,-0.11610851,2.08933973,0.93996698,0.36093068,-0.59432733,0.00000000,0.00000000
-0.13869314,-2.11419082,-0.35668933,-0.09835652,-2.71837068,0.00000000,0.00000000,-0.11261486,2.11306858,0.93016034,0.34164345,-0.59251297,0.00000000,0.00000000
-0.16191366,-2.09751582,-0.36376432,-0.10086901,-2.74452209,0.00000000,0.00000000,-0.11243109,2.13534808,0.91935050,0.31888703,-0.58573675,0.00000000,0.00000000
-0.19037940,-2.08107257,-0.37130189,-0.10523784,-2.77200794,0.00000000,0.00000000,-0.11398015,2.15342689,0.90818477,0.29310051,-0.57890385,0.00000000,0.00000000
-0.22171497,-2.06807828,-0.37900698,-0.11224087,-2.80464625,0.00000000,0.00000000,-0.11440965,2.16474342,0.89739770,0.26504767,-0.57323170,0.00000000,0.00000000
-0.25136241,-2.06063652,-0.38642308,-0.12139232,-2.83691216,0.00000000,0.00000000,-0.11193348,2.16905594,0.88737410,0.23571037,-0.56022519,0.00000000,0.00000000
-0.27419928,-2.05837750,-0.39306995,-0.13056897,-2.86665821,0.00000000,0.00000000,-0.10606094,2.16861582,0.87813348,0.20654872,-0.54173809,0.00000000,0.00000000
-0.28695333,-2.05967951,-0.39862651,-0.13815556,-2.87979317,0.00000000,0.00000000,-0.09649862,2.16409159,0.86959630,0.17959040,-0.52510267,0.00000000,0.00000000
-0.29042944,-2.06547666,-0.40303290,-0.14571847,-2.87979317,0.00000000,0.00000000,-0.08276146,2.15723729,0.86169881,0.15721138,-0.50843769,0.00000000,0.00000000
-0.28696224,-2.07334590,-0.40649572,-0.15323997,-2.87979317,0.00000000,0.00000000,-0.06487741,2.15045333,0.85440373,0.14115429,-0.49562767,0.00000000,0.00000000
-0.27888089,-2.08086681,-0.40924290,-0.16035576,-2.87979317,0.00000000,0.00000000,-0.04413681,2.14497137,0.84766841,0.13156877,-0.47971472,0.00000000,0.00000000
-0.26608282,-2.08775091,-0.41121811,-0.16690873,-2.87979317,0.00000000,0.00000000,-0.02308527,2.14149904,0.84135979,0.12736371,-0.45924231,0.00000000,0.00000000
-0.24601659,-2.09652042,-0.41202635,-0.17319858,-2.87979317,0.00000000,0.00000000,-0.00469743,2.14092493,0.83526409,0.12709880,-0.44399008,0.00000000,0.00000000
-0.21684150,-2.10885382,-0.41137663,-0.17869754,-2.87979317,0.00000000,0.00000000,0.00928166,2.14351535,0.82923955,0.12964788,-0.43346289,0.00000000,0.00000000
-0.17937224,-2.12088585,-0.40949529,-0.18034734,-2.87979317,0.00000000,0.00000000,0.01921803,2.14857054,0.82330000,0.13456133,-0.42697120,0.00000000,0.00000000
-0.13731743,-2.13069987,-0.40683824,-0.17751080,-2.87979317,0.00000000,0.00000000,0.02670299,2.15464783,0.81757218,0.14170952,-0.42057717,0.00000000,0.00000000
-0.09472489,-2.13897324,-0.40376195,-0.17152044,-2.87979317,0.00000000,0.00000000,0.03318488,2.16056228,0.81217396,0.15100873,-0.41682753,0.00000000,0.00000000
-0.05407195,-2.14711118,-0.40039182,-0.16408604,-2.87979317,0.00000000,0.00000000,0.03957549,2.16570258,0.80716652,0.16239762,-0.41589326,0.00000000,0.00000000
-0.01660749,-2.15602446,-0.39676067,-0.15687025,-2.87979317,0.00000000,0.00000000,0.04612299,2.16895151,0.80264515,0.17516565,-0.42031479,0.00000000,0.00000000
0.01695937,-2.16412950,-0.39300275,-0.15051807,-2.87979317,0.00000000,0.00000000,0.05240016,2.16867566,0.79885644,0.18721600,-0.42556065,0.00000000,0.00000000
0.04583278,-2.16876888,-0.38939452,-0.14454567,-2.87979317,0.00000000,0.00000000,0.05797026,2.16355467,0.79601085,0.19634718,-0.42786494,0.00000000,0.00000000
0.06828542,-2.16992927,-0.38635677,-0.13751124,-2.87979317,0.00000000,0.00000000,0.06324984,2.15402746,0.79385835,0.20280357,-0.43321699,0.00000000,0.00000000
0.08210122,-2.17000008,-0.38430241,-0.12788831,-2.87979317,0.00000000,0.00000000,0.06751792,2.14411163,0.79186398,0.20685790,-0.43884450,0.00000000,0.00000000
0.08563508,-2.17000008,-0.38337511,-0.11673298,-2.87979317,0.00000000,0.00000000,0.06980141,2.13435984,0.78988016,0.20695508,-0.44839898,0.00000000,0.00000000
0.07883086,-2.17000008,-0.38343397,-0.10753371,-2.87979317,0.00000000,0.00000000,0.06949534,2.12210679,0.78807515,0.20118916,-0.45605096,0.00000000,0.00000000
0.06220613,-2.17000008,-0.38432708,-0.10344680,-2.87979317,0.00000000,0.00000000,0.06587824,2.10554838,0.78655994,0.18885875,-0.46997064,0.00000000,0.00000000
0.03618181,-2.17000008,-0.38597944,-0.10613645,-2.87979317,0.00000000,0.00000000,0.06002811,2.08374262,0.78557205,0.17152193,-0.48555997,0.00000000,0.00000000
0.00144172,-2.17000008,-0.38834548,-0.11546614,-2.87979317,0.00000000,0.00000000,0.05405936,2.06425047,0.78483695,0.15587147,-0.50511700,0.00000000,0.00000000
-0.03984461,-2.17000008,-0.39126813,-0.13024296,-2.87979317,0.00000000,0.00000000,0.04936637,2.04855180,0.78450155,0.14465600,-0.52573574,0.00000000,0.00000000
-0.08485301,-2.17000008,-0.39449620,-0.14852013,-2.87979317,0.00000000,0.00000000,0.04613809,2.03599024,0.78473544,0.13834311,-0.54430056,0.00000000,0.00000000
-0.13093606,-2.17000008,-0.39774868,-0.16788177,-2.87979317,0.00000000,0.00000000,0.04458585,2.02602720,0.78563082,0.13708369,-0.56175417,0.00000000,0.00000000
-0.17551209,-2.17000008,-0.40072492,-0.18597555,-2.87979317,0.00000000,0.00000000,0.04513551,2.01693821,0.78732747,0.14029837,-0.57804936,0.00000000,0.00000000
-0.21617535,-2.17000008,-0.40311912,-0.20086917,-2.87979317,0.00000000,0.00000000,0.04788027,2.00579095,0.79000735,0.14644928,-0.59972793,0.00000000,0.00000000
-0.25128686,-2.17000008,-0.40469247,-0.21122482,-2.87979317,0.00000000,0.00000000,0.05261984,1.98954105,0.79386181,0.15357548,-0.62651688,0.00000000,0.00000000
-0.28049853,-2.17000008,-0.40538824,-0.21601705,-2.87979317,0.00000000,0.00000000,0.05906323,1.96715963,0.79898423,0.16040441,-0.64824092,0.00000000,0.00000000
-0.30477896,-2.17000008,-0.40538028,-0.21423700,-2.87979317,0.00000000,0.00000000,0.06637382,1.94140422,0.80519390,0.16705516,-0.67288673,0.00000000,0.00000000
-0.32537967,-2.17000008,-0.40489951,-0.20526949,-2.87979317,0.00000000,0.00000000,0.07324116,1.91680646,0.81211525,0.17438948,-0.69897968,0.00000000,0.00000000
-0.34230387,-2.16995120,-0.40398207,-0.18937261,-2.87979317,0.00000000,0.00000000,0.07862896,1.89610124,0.81945390,0.18296587,-0.72957051,0.00000000,0.00000000
-0.35384473,-2.16912699,-0.40245178,-0.16763845,-2.87979317,0.00000000,0.00000000,0.08175269,1.88006508,0.82702929,0.19296540,-0.76132238,0.00000000,0.00000000
-0.35779649,-2.16561389,-0.40013492,-0.14213467,-2.87979317,0.00000000,0.00000000,0.08206137,1.86918330,0.83468616,0.20480895,-0.78848565,0.00000000,0.00000000
-0.35252362,-2.15992880,-0.39697969,-0.11649545,-2.87979317,0.00000000,0.00000000,0.07981904,1.86405265,0.84232616,0.21952179,-0.81587172,0.00000000,0.00000000
-0.33755928,-2.15702987,-0.39308688,-0.09498242,-2.87979317,0.00000000,0.00000000,0.07605460,1.86527956,0.84992033,0.23851538,-0.85275632,0.00000000,0.00000000
-0.31433430,-2.15932751,-0.38873965,-0.07991635,-2.87979317,0.00000000,0.00000000,0.07185186,1.87269521,0.85752821,0.26285976,-0.88456583,0.00000000,0.00000000
-0.28513390,-2.16460371,-0.38424906,-0.07091254,-2.87979317,0.00000000,0.00000000,0.06777604,1.88524401,0.86523438,0.29286286,-0.91159499,0.00000000,0.00000000
-0.25147888,-2.16874409,-0.37982064,-0.06581710,-2.87979317,0.00000000,0.00000000,0.06290133,1.90188479,0.87286699,0.32773963,-0.93162727,0.00000000,0.00000000
-0.21444322,-2.16992521,-0.37557557,-0.06232773,-2.87979317,0.00000000,0.00000000,0.05582584,1.91941118,0.88042092,0.36390999,-0.94681412,0.00000000,0.00000000
-0.17614642,-2.17000008,-0.37161893,-0.05936866,-2.87979317,0.00000000,0.00000000,0.04722190,1.93066311,0.88872945,0.39442483,-0.96363562,0.00000000,0.00000000
-0.14058791,-2.17000008,-0.36808753,-0.05698038,-2.87979317,0.00000000,0.00000000,0.03511363,1.93616664,0.89711350,0.41543695,-0.97570658,0.00000000,0.00000000
-0.11140522,-2.17000008,-0.36510724,-0.05466349,-2.87979317,0.00000000,0.00000000,0.02033300,1.93910074,0.90511096,0.42669255,-0.98171586,0.00000000,0.00000000
-0.08999746,-2.16997123,-0.36274311,-0.05073509,-2.87979317,0.00000000,0.00000000,0.00391363,1.94217873,0.91260755,0.42864484,-0.98561293,0.00000000,0.00000000
-0.07564414,-2.16938615,-0.36097327,-0.04371429,-2.87979317,0.00000000,0.00000000,-0.01336773,1.94757104,0.91963631,0.42250317,-0.98703241,0.00000000,0.00000000
-0.06698110,-2.16573834,-0.35970673,-0.03369384,-2.87979317,0.00000000,0.00000000,-0.02928927,1.95465100,0.92665839,0.41051355,-0.98455447,0.00000000,0.00000000
-0.06314012,-2.15649319,-0.35885239,-0.02275963,-2.87979317,0.00000000,0.00000000,-0.03970164,1.95994115,0.93457127,0.39603409,-0.97756934,0.00000000,0.00000000
-0.06309323,-2.14444733,-0.35836297,-0.01322383,-2.87979317,0.00000000,0.00000000,-0.04102344,1.96129298,0.94393188,0.38262561,-0.96834677,0.00000000,0.00000000
-0.06511542,-2.13067365,-0.35824275,-0.00509292,-2.87979317,0.00000000,0.00000000,-0.03412221,1.96246111,0.95378757,0.37307918,-0.96350956,0.00000000,0.00000000
-0.06742906,-2.11370301,-0.35852689,0.00297493,-2.87979317,0.00000000,0.00000000,-0.02191931,1.96986032,0.96248907,0.36963275,-0.95124245,0.00000000,0.00000000
-0.06874656,-2.09542346,-0.35925895,0.01022852,-2.87979317,0.00000000,0.00000000,-0.00669759,1.98661244,0.96900195,0.37310743,-0.94229907,0.00000000,0.00000000
-0.06974794,-2.08231378,-0.36047539,0.01286375,-2.87979317,0.00000000,0.00000000,0.00984559,2.01149631,0.97304124,0.38205689,-0.92919135,0.00000000,0.00000000
-0.07100940,-2.07703972,-0.36218581,0.00944570,-2.87979317,0.00000000,0.00000000,0.02647652,2.03996515,0.97490007,0.39276463,-0.91630960,0.00000000,0.00000000
-0.07403368,-2.07714248,-0.36435968,0.00140078,-2.87979317,0.00000000,0.00000000,0.04206774,2.06716609,0.97507530,0.40061074,-0.90386355,0.00000000,0.00000000
-0.08046971,-2.07908416,-0.36696279,-0.00925400,-2.87979317,0.00000000,0.00000000,0.05548328,2.09083319,0.97387159,0.40244412,-0.89085841,0.00000000,0.00000000
-0.09145188,-2.07875657,-0.36998692,-0.02026661,-2.87979317,0.00000000,0.00000000,0.06533518,2.11086154,0.97122306,0.39702594,-0.88346648,0.00000000,0.00000000
-0.10763802,-2.07261372,-0.37344781,-0.02979563,-2.87979317,0.00000000,0.00000000,0.07026913,2.12765384,0.96691811,0.38428369,-0.87275440,0.00000000,0.00000000
-0.12943912,-2.05984998,-0.37735796,-0.03747365,-2.87979317,0.00000000,0.00000000,0.06938489,2.14078498,0.96095139,0.36459488,-0.86189574,0.00000000,0.00000000
-0.15694386,-2.04313397,-0.38168976,-0.04462849,-2.87979317,0.00000000,0.00000000,0.06341078,2.14889741,0.95374113,0.33872238,-0.85060793,0.00000000,0.00000000
-0.18858935,-2.02720761,-0.38632789,-0.05320346,-2.87979317,0.00000000,0.00000000,0.05480717,2.15055037,0.94596332,0.30790061,-0.83782595,0.00000000,0.00000000
-0.22055881,-2.01668692,-0.39103648,-0.06452382,-2.87979317,0.00000000,0.00000000,0.04553349,2.14522386,0.93809271,0.27342454,-0.82587790,0.00000000,0.00000000
-0.24821058,-2.01448488,-0.39548603,-0.07871861,-2.87979317,0.00000000,0.00000000,0.03617854,2.13395357,0.93023860,0.23671882,-0.80927199,0.00000000,0.00000000
-0.26741043,-2.01910520,-0.39935148,-0.09356219,-2.87979317,0.00000000,0.00000000,0.02687068,2.11902785,0.92233407,0.19976239,-0.79028976,0.00000000,0.00000000
-0.27613312,-2.02864099,-0.40237793,-0.10768519,-2.87979317,0.00000000,0.00000000,0.01829249,2.10357666,0.91433835,0.16535798,-0.76746809,0.00000000,0.00000000
-0.27512509,-2.04215550,-0.40445471,-0.12136730,-2.87979317,0.00000000,0.00000000,0.01148713,2.09114122,0.90629834,0.13650103,-0.75046080,0.00000000,0.00000000
-0.26636192,-2.05784154,-0.40560457,-0.13452458,-2.87979317,0.00000000,0.00000000,0.00744379,2.08402896,0.89836556,0.11519432,-0.73263848,0.00000000,0.00000000
-0.25179523,-2.07392001,-0.40588805,-0.14658068,-2.87979317,0.00000000,0.00000000,0.00679462,2.08277917,0.89071316,0.10204495,-0.71361327,0.00000000,0.00000000
-0.23230903,-2.08862519,-0.40532988,-0.15613590,-2.87979317,0.00000000,0.00000000,0.00945805,2.08675122,0.88344920,0.09639608,-0.69214481,0.00000000,0.00000000
-0.20801924,-2.09924912,-0.40397227,-0.16095175,-2.87979317,0.00000000,0.00000000,0.01475713,2.09454417,0.87662119,0.09671890,-0.67070913,0.00000000,0.00000000
-0.17961803,-2.10694933,-0.40179521,-0.16144270,-2.87979317,0.00000000,0.00000000,0.02216961,2.10438871,0.87026173,0.10142300,-0.65081847,0.00000000,0.00000000
-0.14916550,-2.11386085,-0.39886838,-0.15910356,-2.87979317,0.00000000,0.00000000,0.03161072,2.11446977,0.86440986,0.10930470,-0.63306618,0.00000000,0.00000000
-0.11893710,-2.12112498,-0.39531565,-0.15497836,-2.87979317,0.00000000,0.00000000,0.04314868,2.12327385,0.85909849,0.11951739,-0.61327857,0.00000000,0.00000000
-0.09050234,-2.12992334,-0.39120799,-0.15006402,-2.87979317,0.00000000,0.00000000,0.05669526,2.12998223,0.85432780,0.13147606,-0.59127551,0.00000000,0.00000000
-0.06505558,-2.14102459,-0.38661745,-0.14531700,-2.87979317,0.00000000,0.00000000,0.07180634,2.13450027,0.85004914,0.14467476,-0.57268333,0.00000000,0.00000000
-0.04325927,-2.15343666,-0.38165280,-0.14105706,-2.87979317,0.00000000,0.00000000,0.08693675,2.13675332,0.84615469,0.15796702,-0.56135279,0.00000000,0.00000000
-0.02573585,-2.16383171,-0.37652412,-0.13665479,-2.87979317,0.00000000,0.00000000,0.10037330,2.13668752,0.84250712,0.16981015,-0.55806625,0.00000000,0.00000000
-0.01427630,-2.16885519,-0.37160987,-0.13086331,-2.87979317,0.00000000,0.00000000,0.11170251,2.13502669,0.83897883,0.17915411,-0.56108594,0.00000000,0.00000000
-0.01080266,-2.16993761,-0.36725292,-0.12308210,-2.87979317,0.00000000,0.00000000,0.12083147,2.13116431,0.83558244,0.18443263,-0.56270552,0.00000000,0.00000000
-0.01489729,-2.17000008,-0.36346778,-0.11471600,-2.87979317,0.00000000,0.00000000,0.12678906,2.12231016,0.83246970,0.18327716,-0.56383860,0.00000000,0.00000000
-0.02440608,-2.17000008,-0.36006868,-0.10833711,-2.87979317,0.00000000,0.00000000,0.12753737,2.10653377,0.82967347,0.17399290,-0.56929964,0.00000000,0.00000000
-0.03734605,-2.17000008,-0.35689682,-0.10623539,-2.87979317,0.00000000,0.00000000,0.12136938,2.08700538,0.82692617,0.15825039,-0.56692231,0.00000000,0.00000000
-0.05251602,-2.17000008,-0.35387442,-0.10928013,-2.87979317,0.00000000,0.00000000,0.10954785,2.07050872,0.82399690,0.14176540,-0.56217879,0.00000000,0.00000000
-0.06898649,-2.17000008,-0.35093427,-0.11679257,-2.87979317,0.00000000,0.00000000,0.09495351,2.05774188,0.82121980,0.12768579,-0.55908024,0.00000000,0.00000000
-0.08556065,-2.17000008,-0.34793735,-0.12726064,-2.87979317,0.00000000,0.00000000,0.07955459,2.04731202,0.81895554,0.11709296,-0.55804610,0.00000000,0.00000000
-0.10085381,-2.17000008,-0.34468511,-0.13880238,-2.87979317,0.00000000,0.00000000,0.06465892,2.03803611,0.81743133,0.11044699,-0.56330866,0.00000000,0.00000000
-0.11346926,-2.17000008,-0.34099254,-0.14977309,-2.87979317,0.00000000,0.00000000,0.05120379,2.02876854,0.81680346,0.10768113,-0.56971866,0.00000000,0.00000000
-0.12198241,-2.17000008,-0.33670813,-0.15930273,-2.87979317,0.00000000,0.00000000,0.03950582,2.01840639,0.81717819,0.10814889,-0.57899022,0.00000000,0.00000000
-0.12526591,-2.17000008,-0.33171678,-0.16723281,-2.87979317,0.00000000,0.00000000,0.02970107,2.00533557,0.81867027,0.11074038,-0.58689362,0.00000000,0.00000000
-0.12317606,-2.17000008,-0.32600439,-0.17371345,-2.87979317,0.00000000,0.00000000,0.02223293,1.98731577,0.82143742,0.11418828,-0.59649956,0.00000000,0.00000000
-0.11720909,-2.17000008,-0.31975645,-0.17864296,-2.87979317,0.00000000,0.00000000,0.01789485,1.96314800,0.82560498,0.11777779,-0.60565943,0.00000000,0.00000000
-0.11002360,-2.17000008,-0.31333056,-0.18139431,-2.87979317,0.00000000,0.00000000,0.01700609,1.93520904,0.83109146,0.12200879,-0.60866308,0.00000000,0.00000000
-0.10371125,-2.17000008,-0.30702689,-0.18144049,-2.87979317,0.00000000,0.00000000,0.01867387,1.90867400,0.83757979,0.12799503,-0.61030442,0.00000000,0.00000000
-0.09862910,-2.17000008,-0.30090570,-0.17903428,-2.87979317,0.00000000,0.00000000,0.02116697,1.88765824,0.84470767,0.13616711,-0.61246920,0.00000000,0.00000000
-0.09392970,-2.17000008,-0.29485983,-0.17506780,-2.87979317,0.00000000,0.00000000,0.02268353,1.87401974,0.85217822,0.14632910,-0.61815065,0.00000000,0.00000000
-0.08880118,-2.17000008,-0.28878224,-0.17086346,-2.87979317,0.00000000,0.00000000,0.02203227,1.86880672,0.85976732,0.15868890,-0.62140799,0.00000000,0.00000000
-0.08317809,-2.17000008,-0.28264806,-0.16828242,-2.87979317,0.00000000,0.00000000,0.01909036,1.87204027,0.86741310,0.17391442,-0.61970168,0.00000000,0.00000000
-0.07778583,-2.17000008,-0.27654296,-0.16874014,-2.87979317,0.00000000,0.00000000,0.01476888,1.88224030,0.87526155,0.19275004,-0.61730152,0.00000000,0.00000000
-0.07321388,-2.17000008,-0.27061272,-0.17162085,-2.87979317,0.00000000,0.00000000,0.01030150,1.89708221,0.88358289,0.21575645,-0.61496329,0.00000000,0.00000000
-0.06962570,-2.17000008,-0.26497912,-0.17471178,-2.87979317,0.00000000,0.00000000,0.00676030,1.91451859,0.89261401,0.24328466,-0.61913627,0.00000000,0.00000000
-0.06651556,-2.17000008,-0.25964394,-0.17576709,-2.87979317,0.00000000,0.00000000,0.00443765,1.93385923,0.90231979,0.27525264,-0.62298822,0.00000000,0.00000000
-0.06340709,-2.17000008,-0.25454891,-0.17377131,-2.87979317,0.00000000,0.00000000,0.00213436,1.95349681,0.91249830,0.30875099,-0.62423474,0.00000000,0.00000000
-0.06110291,-2.17000008,-0.24973327,-0.16908123,-2.87979317,0.00000000,0.00000000,-0.00211286,1.96813738,0.92320424,0.33673042,-0.62165999,0.00000000,0.00000000
