isaac-sim2real/sage/motion_files/wr75s/amass/0-Eyes_Japan_Dataset_hamada_gesture_etc-49-taiko under-hamada_poses_idx54.txt
l_joint1,l_joint2,l_joint3,l_joint4,l_joint5,l_joint6,l_joint7,r_joint1,r_joint2,r_joint3,r_joint4,r_joint5,r_joint6,r_joint7
-2.08480978,-0.60049427,-0.63087606,-0.41382700,0.11140993,0.00000000,0.00000000,-1.72237003,0.54239714,-0.00167867,-0.11161962,0.08263403,0.00000000,0.00000000
-2.08518124,-0.60099369,-0.63033623,-0.41355747,0.12754661,0.00000000,0.00000000,-1.72274637,0.54128009,-0.00140723,-0.11230890,0.08594032,0.00000000,0.00000000
-2.08589554,-0.60165960,-0.62933105,-0.41293919,0.14464152,0.00000000,0.00000000,-1.72343302,0.53940630,-0.00087811,-0.11351098,0.08644553,0.00000000,0.00000000
-2.08694148,-0.60227585,-0.62794745,-0.41199312,0.16271399,0.00000000,0.00000000,-1.72432578,0.53708321,-0.00007908,-0.11510597,0.08770283,0.00000000,0.00000000
-2.08828425,-0.60268915,-0.62629050,-0.41084823,0.18509771,0.00000000,0.00000000,-1.72526920,0.53465915,0.00100804,-0.11696126,0.08384824,0.00000000,0.00000000
-2.08984399,-0.60300606,-0.62446123,-0.40970683,0.20984979,0.00000000,0.00000000,-1.72607613,0.53237903,0.00240595,-0.11896769,0.07915882,0.00000000,0.00000000
-2.09152317,-0.60345429,-0.62253314,-0.40874442,0.23538572,0.00000000,0.00000000,-1.72661042,0.53037852,0.00412419,-0.12106907,0.07296297,0.00000000,0.00000000
-2.09322500,-0.60418093,-0.62052476,-0.40804541,0.26476499,0.00000000,0.00000000,-1.72678363,0.52876788,0.00616068,-0.12321982,0.06868315,0.00000000,0.00000000
-2.09486318,-0.60520190,-0.61840183,-0.40758705,0.28947008,0.00000000,0.00000000,-1.72655010,0.52763200,0.00850270,-0.12538934,0.06861540,0.00000000,0.00000000
-2.09639287,-0.60641217,-0.61610752,-0.40725189,0.31454876,0.00000000,0.00000000,-1.72592854,0.52694571,0.01112219,-0.12762940,0.06678817,0.00000000,0.00000000
-2.09780359,-0.60765791,-0.61359763,-0.40691736,0.33481649,0.00000000,0.00000000,-1.72496355,0.52665204,0.01398347,-0.12999883,0.06422900,0.00000000,0.00000000
-2.09910393,-0.60870111,-0.61084968,-0.40649432,0.35696745,0.00000000,0.00000000,-1.72372901,0.52670681,0.01704216,-0.13253579,0.06279863,0.00000000,0.00000000
-2.10030961,-0.60933685,-0.60786366,-0.40598747,0.37853333,0.00000000,0.00000000,-1.72232723,0.52705979,0.02024427,-0.13527030,0.06051425,0.00000000,0.00000000
-2.10143161,-0.60949528,-0.60462570,-0.40538755,0.39949676,0.00000000,0.00000000,-1.72087550,0.52758086,0.02352887,-0.13828234,0.05633286,0.00000000,0.00000000
-2.10247374,-0.60911733,-0.60112119,-0.40461394,0.41764027,0.00000000,0.00000000,-1.71947694,0.52817339,0.02683461,-0.14164220,0.04991188,0.00000000,0.00000000
-2.10342622,-0.60825700,-0.59737569,-0.40363434,0.43210492,0.00000000,0.00000000,-1.71813858,0.52878737,0.03011922,-0.14536752,0.04459277,0.00000000,0.00000000
-2.10424471,-0.60705292,-0.59344810,-0.40247315,0.44689584,0.00000000,0.00000000,-1.71678102,0.52944404,0.03335866,-0.14944227,0.04065788,0.00000000,0.00000000
-2.10487652,-0.60565096,-0.58942330,-0.40119281,0.46410978,0.00000000,0.00000000,-1.71528518,0.53023499,0.03653663,-0.15385781,0.02882041,0.00000000,0.00000000
-2.10528398,-0.60426557,-0.58540958,-0.39993346,0.47744069,0.00000000,0.00000000,-1.71348619,0.53123856,0.03964671,-0.15864256,0.01158424,0.00000000,0.00000000
-2.10541797,-0.60299003,-0.58145720,-0.39875519,0.49666080,0.00000000,0.00000000,-1.71126807,0.53251016,0.04266783,-0.16382621,-0.00210830,0.00000000,0.00000000
-2.10523129,-0.60179329,-0.57757527,-0.39763930,0.51714969,0.00000000,0.00000000,-1.70856547,0.53406912,0.04556222,-0.16942567,-0.01538266,0.00000000,0.00000000
-2.10467196,-0.60063887,-0.57376730,-0.39655283,0.53819156,0.00000000,0.00000000,-1.70536029,0.53595465,0.04827606,-0.17541850,-0.03142797,0.00000000,0.00000000
-2.10368299,-0.59952986,-0.57005030,-0.39546776,0.55106407,0.00000000,0.00000000,-1.70166504,0.53826058,0.05074359,-0.18175323,-0.05167500,0.00000000,0.00000000
-2.10220408,-0.59844601,-0.56642222,-0.39431572,0.56353754,0.00000000,0.00000000,-1.69752634,0.54106110,0.05288567,-0.18840532,-0.07509885,0.00000000,0.00000000
-2.10020161,-0.59735906,-0.56288791,-0.39299220,0.56873006,0.00000000,0.00000000,-1.69299138,0.54434401,0.05461911,-0.19540037,-0.09928463,0.00000000,0.00000000
-2.09768009,-0.59624612,-0.55949265,-0.39139119,0.57060295,0.00000000,0.00000000,-1.68811059,0.54806656,0.05585586,-0.20276752,-0.12646523,0.00000000,0.00000000
-2.09461617,-0.59519172,-0.55625391,-0.38941485,0.56850821,0.00000000,0.00000000,-1.68285692,0.55215102,0.05653027,-0.21053405,-0.15511280,0.00000000,0.00000000
-2.09093118,-0.59432822,-0.55315667,-0.38704085,0.55811799,0.00000000,0.00000000,-1.67710161,0.55664295,0.05661115,-0.21865919,-0.18289335,0.00000000,0.00000000
-2.08655024,-0.59367830,-0.55020213,-0.38424450,0.55065304,0.00000000,0.00000000,-1.67071378,0.56173921,0.05606982,-0.22703834,-0.20558323,0.00000000,0.00000000
-2.08141160,-0.59319460,-0.54742324,-0.38094053,0.53335744,0.00000000,0.00000000,-1.66364956,0.56755280,0.05484606,-0.23563002,-0.23308574,0.00000000,0.00000000
-2.07544827,-0.59291512,-0.54484320,-0.37702405,0.51954061,0.00000000,0.00000000,-1.65594435,0.57399535,0.05284892,-0.24454090,-0.25512186,0.00000000,0.00000000
-2.06857347,-0.59301376,-0.54247844,-0.37245181,0.50568664,0.00000000,0.00000000,-1.64762533,0.58089769,0.04998939,-0.25393319,-0.27253705,0.00000000,0.00000000
-2.06069303,-0.59360337,-0.54036099,-0.36722380,0.49418208,0.00000000,0.00000000,-1.63867915,0.58826751,0.04619533,-0.26386422,-0.29288492,0.00000000,0.00000000
-2.05171919,-0.59479344,-0.53852457,-0.36134496,0.48020679,0.00000000,0.00000000,-1.62903762,0.59613919,0.04141983,-0.27438062,-0.30300713,0.00000000,0.00000000
-2.04157448,-0.59666437,-0.53699970,-0.35477209,0.46808079,0.00000000,0.00000000,-1.61857069,0.60455137,0.03564823,-0.28552732,-0.31659412,0.00000000,0.00000000
-2.03016877,-0.59939545,-0.53582931,-0.34754300,0.45331198,0.00000000,0.00000000,-1.60706580,0.61353517,0.02891332,-0.29735070,-0.32339692,0.00000000,0.00000000
-2.01740932,-0.60323131,-0.53507775,-0.33974957,0.43606132,0.00000000,0.00000000,-1.59426653,0.62312496,0.02128207,-0.30988976,-0.33166513,0.00000000,0.00000000
-2.00320387,-0.60839421,-0.53482628,-0.33150825,0.42137480,0.00000000,0.00000000,-1.57991624,0.63343388,0.01283782,-0.32312039,-0.34105244,0.00000000,0.00000000
-1.98747098,-0.61491299,-0.53513467,-0.32284996,0.40321916,0.00000000,0.00000000,-1.56379163,0.64471543,0.00366341,-0.33690873,-0.35022154,0.00000000,0.00000000
-1.97015905,-0.62273234,-0.53604633,-0.31376046,0.39207354,0.00000000,0.00000000,-1.54573703,0.65725487,-0.00617733,-0.35107359,-0.35964936,0.00000000,0.00000000
-1.95124686,-0.63186753,-0.53760701,-0.30426696,0.38104674,0.00000000,0.00000000,-1.52562821,0.67123216,-0.01661626,-0.36548367,-0.37574047,0.00000000,0.00000000
-1.93074346,-0.64232606,-0.53986186,-0.29439548,0.37150353,0.00000000,0.00000000,-1.50335443,0.68676740,-0.02756927,-0.38001850,-0.39045194,0.00000000,0.00000000
-1.90868402,-0.65408540,-0.54285043,-0.28418374,0.36869696,0.00000000,0.00000000,-1.47885168,0.70393085,-0.03895392,-0.39455196,-0.39729622,0.00000000,0.00000000
-1.88513124,-0.66712642,-0.54662299,-0.27377635,0.37194228,0.00000000,0.00000000,-1.45206118,0.72276872,-0.05065868,-0.40892252,-0.40147322,0.00000000,0.00000000
-1.86018324,-0.68137062,-0.55123609,-0.26337785,0.38345274,0.00000000,0.00000000,-1.42292678,0.74333686,-0.06253345,-0.42292926,-0.40478703,0.00000000,0.00000000
-1.83397853,-0.69669998,-0.55673963,-0.25322393,0.39040285,0.00000000,0.00000000,-1.39138305,0.76560873,-0.07436825,-0.43638298,-0.41136843,0.00000000,0.00000000
-1.80669177,-0.71308064,-0.56317955,-0.24363145,0.39831328,0.00000000,0.00000000,-1.35737097,0.78930056,-0.08589533,-0.44921798,-0.41717148,0.00000000,0.00000000
-1.77853191,-0.73046523,-0.57058376,-0.23492254,0.40765303,0.00000000,0.00000000,-1.32085812,0.81390989,-0.09679771,-0.46146137,-0.41722071,0.00000000,0.00000000
-1.74974239,-0.74865860,-0.57896262,-0.22731826,0.41417295,0.00000000,0.00000000,-1.28188467,0.83892113,-0.10675782,-0.47313821,-0.41507515,0.00000000,0.00000000
-1.72057700,-0.76733428,-0.58829641,-0.22091615,0.41736326,0.00000000,0.00000000,-1.24061036,0.86387068,-0.11552352,-0.48425198,-0.41951340,0.00000000,0.00000000
-1.69128072,-0.78611183,-0.59854263,-0.21571873,0.42269006,0.00000000,0.00000000,-1.19728005,0.88829380,-0.12289395,-0.49479905,-0.41893697,0.00000000,0.00000000
-1.66207540,-0.80463588,-0.60964608,-0.21167871,0.43619701,0.00000000,0.00000000,-1.15222609,0.91176832,-0.12875988,-0.50475949,-0.42031068,0.00000000,0.00000000
-1.63314080,-0.82257313,-0.62153715,-0.20870788,0.45368177,0.00000000,0.00000000,-1.10585356,0.93397933,-0.13312086,-0.51408356,-0.41969621,0.00000000,0.00000000
-1.60461497,-0.83958274,-0.63414407,-0.20669961,0.46759748,0.00000000,0.00000000,-1.05857813,0.95470840,-0.13602434,-0.52271235,-0.41420081,0.00000000,0.00000000
-1.57657826,-0.85540360,-0.64738661,-0.20553818,0.48246515,0.00000000,0.00000000,-1.01081896,0.97377205,-0.13758138,-0.53062063,-0.40118706,0.00000000,0.00000000
-1.54906750,-0.86982685,-0.66118717,-0.20512077,0.50378853,0.00000000,0.00000000,-0.96298963,0.99108630,-0.13796212,-0.53776062,-0.38713872,0.00000000,0.00000000
-1.52211487,-0.88261682,-0.67549431,-0.20538239,0.52869594,0.00000000,0.00000000,-0.91548038,1.00666881,-0.13735856,-0.54402703,-0.37275004,0.00000000,0.00000000
-1.49574518,-0.89360523,-0.69027072,-0.20637184,0.55146754,0.00000000,0.00000000,-0.86863714,1.02049029,-0.13594697,-0.54936385,-0.36140665,0.00000000,0.00000000
-1.46995485,-0.90275836,-0.70547825,-0.20822057,0.58064985,0.00000000,0.00000000,-0.82276386,1.03248763,-0.13391444,-0.55381829,-0.34649673,0.00000000,0.00000000
-1.44467258,-0.91007930,-0.72105974,-0.21099854,0.61170912,0.00000000,0.00000000,-0.77812344,1.04269600,-0.13145821,-0.55746067,-0.33700010,0.00000000,0.00000000
-1.41976726,-0.91556329,-0.73694503,-0.21470605,0.63970357,0.00000000,0.00000000,-0.73492420,1.05127823,-0.12876011,-0.56036979,-0.32977793,0.00000000,0.00000000
-1.39502275,-0.91936511,-0.75302988,-0.21933477,0.66014397,0.00000000,0.00000000,-0.69330007,1.05849791,-0.12599944,-0.56270945,-0.32718900,0.00000000,0.00000000
-1.37013328,-0.92189860,-0.76916593,-0.22489737,0.67632961,0.00000000,0.00000000,-0.65327132,1.06474495,-0.12332756,-0.56475580,-0.32695407,0.00000000,0.00000000
-1.34471381,-0.92389446,-0.78515589,-0.23148394,0.68230212,0.00000000,0.00000000,-0.61468303,1.07051122,-0.12077493,-0.56686747,-0.32106629,0.00000000,0.00000000
-1.31828308,-0.92650408,-0.80073482,-0.23931527,0.68764704,0.00000000,0.00000000,-0.57711267,1.07669473,-0.11821660,-0.56931764,-0.31783640,0.00000000,0.00000000
-1.29024673,-0.93162596,-0.81553429,-0.24886477,0.69289422,0.00000000,0.00000000,-0.53982067,1.08472776,-0.11541891,-0.57212245,-0.31181929,0.00000000,0.00000000
-1.25996530,-0.94188315,-0.82910144,-0.26096728,0.70329410,0.00000000,0.00000000,-0.50185156,1.09625816,-0.11206058,-0.57486010,-0.31581935,0.00000000,0.00000000
-1.22684312,-0.96041483,-0.84092927,-0.27675340,0.71605861,0.00000000,0.00000000,-0.46216556,1.11277747,-0.10776548,-0.57660085,-0.31699795,0.00000000,0.00000000
-1.19032216,-0.99046528,-0.85046273,-0.29703477,0.72136134,0.00000000,0.00000000,-0.41973916,1.13540947,-0.10212824,-0.57593560,-0.31499839,0.00000000,0.00000000
-1.14981365,-1.03468406,-0.85713357,-0.32134077,0.72356200,0.00000000,0.00000000,-0.37375793,1.16566598,-0.09476292,-0.57079089,-0.30606732,0.00000000,0.00000000
-1.10466218,-1.09419465,-0.86047059,-0.34770519,0.72340912,0.00000000,0.00000000,-0.32389024,1.20652556,-0.08519904,-0.55844623,-0.29839829,0.00000000,0.00000000
-1.05452621,-1.16735137,-0.86034042,-0.37370673,0.71552366,0.00000000,0.00000000,-0.27034411,1.25950658,-0.07233096,-0.53707546,-0.30096903,0.00000000,0.00000000
-0.99978954,-1.25108504,-0.85698968,-0.39743876,0.70352638,0.00000000,0.00000000,-0.21399383,1.32434988,-0.05498098,-0.50615615,-0.30131954,0.00000000,0.00000000
-0.94171810,-1.34207737,-0.85095924,-0.41784653,0.68756127,0.00000000,0.00000000,-0.15638143,1.39909720,-0.03241200,-0.46635452,-0.30484262,0.00000000,0.00000000
-0.88232881,-1.43700588,-0.84299982,-0.43447536,0.67441905,0.00000000,0.00000000,-0.09956311,1.48048317,-0.00443096,-0.41916019,-0.30497167,0.00000000,0.00000000
-0.82386035,-1.53245270,-0.83394253,-0.44697642,0.65796536,0.00000000,0.00000000,-0.04586580,1.56522119,0.02870157,-0.36639485,-0.29711097,0.00000000,0.00000000
-0.76821709,-1.62521839,-0.82452196,-0.45499769,0.63804150,0.00000000,0.00000000,0.00233133,1.65061140,0.06641622,-0.30997318,-0.29451314,0.00000000,0.00000000
-0.71655440,-1.71273637,-0.81522548,-0.45826128,0.61964977,0.00000000,0.00000000,0.04272644,1.73423600,0.10794616,-0.25188527,-0.29094028,0.00000000,0.00000000
-0.66907728,-1.79348481,-0.80619949,-0.45666754,0.60366905,0.00000000,0.00000000,0.07332478,1.81380534,0.15239498,-0.19416140,-0.28581366,0.00000000,0.00000000
-0.62510931,-1.86675155,-0.79732084,-0.45019269,0.58245939,0.00000000,0.00000000,0.09271735,1.88719940,0.19881058,-0.13881244,-0.28348047,0.00000000,0.00000000
-0.58324009,-1.93180192,-0.78839296,-0.43850061,0.56329954,0.00000000,0.00000000,0.10045069,1.95250952,0.24625798,-0.08768919,-0.27449459,0.00000000,0.00000000
-0.54151505,-1.98755395,-0.77924484,-0.42081350,0.54272914,0.00000000,0.00000000,0.09726462,2.00815606,0.29391181,-0.04222682,-0.27067897,0.00000000,0.00000000
-0.49814671,-2.03332472,-0.76972812,-0.39649993,0.52363622,0.00000000,0.00000000,0.08520640,2.05295587,0.34114239,-0.00330410,-0.27345306,0.00000000,0.00000000
-0.45183426,-2.06914210,-0.75972348,-0.36537483,0.50829983,0.00000000,0.00000000,0.06754581,2.08597279,0.38757265,0.02868937,-0.27707773,0.00000000,0.00000000
-0.40205047,-2.09591007,-0.74917799,-0.32799324,0.48787910,0.00000000,0.00000000,0.04848295,2.10607076,0.43308175,0.05362285,-0.28010970,0.00000000,0.00000000
-0.34898829,-2.11569810,-0.73807156,-0.28586572,0.46633378,0.00000000,0.00000000,0.03231962,2.11357760,0.47773466,0.07245693,-0.28724810,0.00000000,0.00000000
-0.29356232,-2.13101625,-0.72651452,-0.24118137,0.45012087,0.00000000,0.00000000,0.02226474,2.11040497,0.52165461,0.08697553,-0.29248413,0.00000000,0.00000000
-0.23777777,-2.14362407,-0.71486968,-0.19635752,0.43758208,0.00000000,0.00000000,0.01998572,2.09926224,0.56492591,0.09912996,-0.29238755,0.00000000,0.00000000
-0.18418780,-2.15387654,-0.70365053,-0.15332504,0.42083967,0.00000000,0.00000000,0.02567123,2.08330131,0.60754406,0.11073447,-0.28419459,0.00000000,0.00000000
-0.13415441,-2.16164923,-0.69319540,-0.11309411,0.40670899,0.00000000,0.00000000,0.03816639,2.06568074,0.64939946,0.12314154,-0.26995099,0.00000000,0.00000000
-0.08859278,-2.16657114,-0.68372345,-0.07611749,0.39635962,0.00000000,0.00000000,0.05583408,2.04923820,0.69031805,0.13729452,-0.24380921,0.00000000,0.00000000
-0.04830880,-2.16836357,-0.67538857,-0.04259515,0.38400051,0.00000000,0.00000000,0.07710144,2.03564954,0.73013252,0.15350914,-0.22500288,0.00000000,0.00000000
-0.01448921,-2.16815615,-0.66829330,-0.01341224,0.37989688,0.00000000,0.00000000,0.10098982,2.02542067,0.76873904,0.17166743,-0.20778111,0.00000000,0.00000000
0.01186075,-2.16736317,-0.66252267,0.01046831,0.37310967,0.00000000,0.00000000,0.12638432,2.01829743,0.80605030,0.19117896,-0.19455452,0.00000000,0.00000000
0.03042449,-2.16624427,-0.65815604,0.02881278,0.36495170,0.00000000,0.00000000,0.15166301,2.01404667,0.84192079,0.21126679,-0.18511151,0.00000000,0.00000000
0.04146862,-2.16465664,-0.65526211,0.04171926,0.35173535,0.00000000,0.00000000,0.17437468,2.01308775,0.87606198,0.23125803,-0.17154278,0.00000000,0.00000000
0.04575179,-2.16232991,-0.65390152,0.04950397,0.33813921,0.00000000,0.00000000,0.19233482,2.01513982,0.90827495,0.25068197,-0.16001874,0.00000000,0.00000000
0.04461978,-2.15879583,-0.65413183,0.05282233,0.33066940,0.00000000,0.00000000,0.20551652,2.01921368,0.93863285,0.27001077,-0.15013538,0.00000000,0.00000000
0.03930495,-2.15415573,-0.65600544,0.05203992,0.32548434,0.00000000,0.00000000,0.21431231,2.02631426,0.96700329,0.29073578,-0.13775304,0.00000000,0.00000000
0.03062993,-2.14879775,-0.65955329,0.04730720,0.32259241,0.00000000,0.00000000,0.21890554,2.03709674,0.99323875,0.31372055,-0.12167452,0.00000000,0.00000000
0.01905010,-2.14327025,-0.66477925,0.03867357,0.32059759,0.00000000,0.00000000,0.21921101,2.05088520,1.01730824,0.33870828,-0.10444130,0.00000000,0.00000000
0.00481073,-2.13839769,-0.67165875,0.02606608,0.31973210,0.00000000,0.00000000,0.21505548,2.06755209,1.03905427,0.36536139,-0.08319180,0.00000000,0.00000000
-0.01173474,-2.13525605,-0.68013799,0.00936417,0.31856209,0.00000000,0.00000000,0.20559806,2.08702183,1.05821502,0.39290947,-0.06362198,0.00000000,0.00000000
-0.03042818,-2.13468766,-0.69012171,-0.01153324,0.31362537,0.00000000,0.00000000,0.18958634,2.10751224,1.07478452,0.41936037,-0.04208272,0.00000000,0.00000000
-0.05158639,-2.13680506,-0.70148546,-0.03653057,0.31215397,0.00000000,0.00000000,0.16765930,2.12821460,1.08881450,0.44391266,-0.02345141,0.00000000,0.00000000
-0.07565118,-2.14027071,-0.71409887,-0.06478486,0.31052059,0.00000000,0.00000000,0.14312890,2.14780807,1.10090983,0.46749803,-0.00706340,0.00000000,0.00000000
-0.10173188,-2.14316916,-0.72782242,-0.09466860,0.30975515,0.00000000,0.00000000,0.12167400,2.16222787,1.11279953,0.49158522,0.00693214,0.00000000,0.00000000
-0.12800074,-2.14378500,-0.74247730,-0.12458681,0.30363804,0.00000000,0.00000000,0.10591239,2.16861582,1.12620604,0.51582938,0.02323158,0.00000000,0.00000000
-0.15377754,-2.14431930,-0.75775850,-0.15546536,0.30216408,0.00000000,0.00000000,0.09522209,2.16992593,1.14232349,0.53862560,0.04265424,0.00000000,0.00000000
-0.17889068,-2.14550662,-0.77342296,-0.18777515,0.30187643,0.00000000,0.00000000,0.08741385,2.16992259,1.16154504,0.55828780,0.05578858,0.00000000,0.00000000
-0.20337905,-2.14781237,-0.78921098,-0.22183178,0.29610226,0.00000000,0.00000000,0.07883269,2.16869354,1.18270552,0.57355076,0.07108212,0.00000000,0.00000000
-0.22657378,-2.15217376,-0.80472946,-0.25746533,0.29580653,0.00000000,0.00000000,0.06554297,2.16421127,1.20348513,0.58390224,0.09002222,0.00000000,0.00000000
-0.24714179,-2.15815210,-0.81962544,-0.29295242,0.29281357,0.00000000,0.00000000,0.04629570,2.15760660,1.22178817,0.59028691,0.10283148,0.00000000,0.00000000
-0.26389638,-2.16434956,-0.83371216,-0.32577765,0.28725544,0.00000000,0.00000000,0.02414363,2.15162349,1.23672640,0.59526467,0.11108710,0.00000000,0.00000000
-0.27584743,-2.16868496,-0.84702373,-0.35330048,0.28337169,0.00000000,0.00000000,0.00332855,2.14729905,1.24843180,0.60121244,0.12655768,0.00000000,0.00000000
-0.28295740,-2.16981673,-0.85982352,-0.37376192,0.27788898,0.00000000,0.00000000,-0.01433246,2.14471102,1.25707424,0.60887688,0.13885397,0.00000000,0.00000000
-0.28508496,-2.16826105,-0.87229538,-0.38647634,0.27165577,0.00000000,0.00000000,-0.02908777,2.14384222,1.26258671,0.61789244,0.15022913,0.00000000,0.00000000
-0.28152150,-2.16262603,-0.88445753,-0.39206719,0.26749817,0.00000000,0.00000000,-0.04174109,2.14471817,1.26480687,0.62768763,0.15969551,0.00000000,0.00000000
-0.27357301,-2.15517497,-0.89581203,-0.39497867,0.26146895,0.00000000,0.00000000,-0.05296794,2.14648557,1.26393354,0.63751930,0.16558760,0.00000000,0.00000000
-0.26417190,-2.14936662,-0.90606207,-0.39981526,0.25327420,0.00000000,0.00000000,-0.06230366,2.14810276,1.26039040,0.64719445,0.16552876,0.00000000,0.00000000
-0.25562361,-2.14643955,-0.91520280,-0.40890515,0.24810556,0.00000000,0.00000000,-0.06879615,2.14848876,1.25469160,0.65669525,0.17243552,0.00000000,0.00000000
-0.24905942,-2.14657831,-0.92319757,-0.42314351,0.23592177,0.00000000,0.00000000,-0.07174609,2.14656234,1.24736488,0.66581678,0.18104427,0.00000000,0.00000000
-0.24407624,-2.15022516,-0.92965841,-0.44236949,0.23076159,0.00000000,0.00000000,-0.07054517,2.14173222,1.23878586,0.67445791,0.18899508,0.00000000,0.00000000
-0.23864460,-2.15627122,-0.93418300,-0.46417314,0.22661838,0.00000000,0.00000000,-0.06484251,2.13425493,1.22899079,0.68259472,0.19920909,0.00000000,0.00000000
-0.23312938,-2.16194725,-0.93709671,-0.48626822,0.22180994,0.00000000,0.00000000,-0.05503185,2.12476635,1.21784699,0.68985391,0.21329772,0.00000000,0.00000000
-0.22861087,-2.16628861,-0.93851167,-0.50825405,0.22151373,0.00000000,0.00000000,-0.04163101,2.11399961,1.20531857,0.69583094,0.23391780,0.00000000,0.00000000
-0.22529817,-2.16894293,-0.93831372,-0.53062564,0.22062658,0.00000000,0.00000000,-0.02505420,2.10271502,1.19148815,0.70039105,0.25515416,0.00000000,0.00000000
-0.22277220,-2.16985631,-0.93634653,-0.55447733,0.21891834,0.00000000,0.00000000,-0.00707018,2.09123492,1.17634273,0.70335227,0.26876137,0.00000000,0.00000000
-0.22134356,-2.16999364,-0.93305337,-0.58124888,0.21515499,0.00000000,0.00000000,0.00819285,2.07887554,1.15966904,0.70465368,0.27869722,0.00000000,0.00000000
-0.22227801,-2.17000008,-0.92993724,-0.61122531,0.21114829,0.00000000,0.00000000,0.01845792,2.06437421,1.14156985,0.70618337,0.29348406,0.00000000,0.00000000
-0.22638880,-2.17000008,-0.92810011,-0.64403534,0.20023228,0.00000000,0.00000000,0.02391897,2.04774785,1.12194562,0.71107161,0.29881841,0.00000000,0.00000000
-0.23267871,-2.17000008,-0.92750931,-0.67834878,0.18516903,0.00000000,0.00000000,0.02450598,2.02852011,1.10077453,0.72041112,0.30898979,0.00000000,0.00000000
-0.24009202,-2.17000008,-0.92755824,-0.71333754,0.17052878,0.00000000,0.00000000,0.01829899,2.00530910,1.07792568,0.73302919,0.31555954,0.00000000,0.00000000
-0.24813335,-2.17000008,-0.92821902,-0.74881595,0.15834172,0.00000000,0.00000000,0.00033216,1.97360957,1.05365264,0.74425751,0.32343459,0.00000000,0.00000000
-0.25709921,-2.17000008,-0.93056709,-0.78494084,0.15450174,0.00000000,0.00000000,-0.03745403,1.92440486,1.02903605,0.74481785,0.33403289,0.00000000,0.00000000
-0.26628354,-2.17000008,-0.93406224,-0.82246161,0.14717679,0.00000000,0.00000000,-0.09975049,1.85178733,1.00465345,0.72841018,0.34719336,0.00000000,0.00000000
-0.27389827,-2.17000008,-0.93798316,-0.86002737,0.14399582,0.00000000,0.00000000,-0.18804114,1.75418842,0.98028904,0.69341022,0.36716679,0.00000000,0.00000000
-0.27910861,-2.17000008,-0.94324082,-0.89403671,0.13629986,0.00000000,0.00000000,-0.30260593,1.63190508,0.95548940,0.63977259,0.38529244,0.00000000,0.00000000
-0.28066665,-2.17000008,-0.95040810,-0.92029697,0.12278716,0.00000000,0.00000000,-0.44265470,1.48650348,0.92976427,0.56789494,0.40353858,0.00000000,0.00000000
-0.27660486,-2.17000008,-0.96023971,-0.93467575,0.11240039,0.00000000,0.00000000,-0.60594773,1.32088339,0.90266985,0.47871834,0.42181474,0.00000000,0.00000000
-0.26542538,-2.17000008,-0.97315866,-0.93520445,0.10313858,0.00000000,0.00000000,-0.78860950,1.13933516,0.87395048,0.37394768,0.43574712,0.00000000,0.00000000
-0.24489519,-2.16991234,-0.98847109,-0.92316222,0.09391285,0.00000000,0.00000000,-0.98515624,0.94746244,0.84369749,0.25620192,0.45179108,0.00000000,0.00000000
-0.21326102,-2.16844893,-1.00401115,-0.90496784,0.08947925,0.00000000,0.00000000,-1.18890548,0.75198436,0.81247056,0.12900117,0.47399554,0.00000000,0.00000000
-0.17555630,-2.16220498,-1.02011621,-0.88899618,0.08401705,0.00000000,0.00000000,-1.39268875,0.56014735,0.78134376,-0.00348304,0.48868632,0.00000000,0.00000000
-0.13941012,-2.14986277,-1.03956771,-0.88137364,0.08266280,0.00000000,0.00000000,-1.58973217,0.37877023,0.75182897,-0.13692883,0.50271511,0.00000000,0.00000000
-0.11102330,-2.13390303,-1.06447351,-0.88617754,0.08034585,0.00000000,0.00000000,-1.77450502,0.21351336,0.72565919,-0.26733479,0.51192427,0.00000000,0.00000000
-0.09316688,-2.11789179,-1.09492564,-0.90577412,0.07837571,0.00000000,0.00000000,-1.94339859,0.06859268,0.70447487,-0.39125654,0.51708311,0.00000000,0.00000000
-0.08700893,-2.10435653,-1.13023305,-0.94153500,0.07942627,0.00000000,0.00000000,-2.09515619,-0.05330190,0.68946725,-0.50584531,0.52237028,0.00000000,0.00000000
-0.09343454,-2.09423947,-1.16964447,-0.99418950,0.08744105,0.00000000,0.00000000,-2.23093700,-0.15109862,0.68103623,-0.60883480,0.53566402,0.00000000,0.00000000
-0.10999482,-2.08696485,-1.21164739,-1.05937564,0.09357470,0.00000000,0.00000000,-2.35349369,-0.22575231,0.67864525,-0.69879735,0.54914629,0.00000000,0.00000000
-0.12740387,-2.07984233,-1.25354683,-1.12302566,0.10260657,0.00000000,0.00000000,-2.46563745,-0.27992344,0.68114251,-0.77530402,0.55954337,0.00000000,0.00000000
-0.13965036,-2.07321239,-1.29135728,-1.17856073,0.11404122,0.00000000,0.00000000,-2.56925201,-0.31611770,0.68748200,-0.83837509,0.56305397,0.00000000,0.00000000
-0.14470258,-2.06730294,-1.32233226,-1.22470379,0.12589565,0.00000000,0.00000000,-2.66412497,-0.33590496,0.69758189,-0.88849914,0.56775224,0.00000000,0.00000000
-0.14169542,-2.06157970,-1.34483802,-1.26106572,0.14184752,0.00000000,0.00000000,-2.74639726,-0.34148633,0.71283770,-0.92821699,0.57384855,0.00000000,0.00000000
-0.13013320,-2.05575752,-1.35759377,-1.28776205,0.15253647,0.00000000,0.00000000,-2.80995083,-0.33788258,0.73520190,-0.96340519,0.57264882,0.00000000,0.00000000
-0.10902042,-2.04968691,-1.35980737,-1.30472708,0.16492097,0.00000000,0.00000000,-2.85159588,-0.33222744,0.76529437,-1.00075555,0.56908226,0.00000000,0.00000000
-0.07653295,-2.04312515,-1.35144317,-1.31119347,0.17829148,0.00000000,0.00000000,-2.87261415,-0.33062583,0.80226922,-1.04407728,0.56295788,0.00000000,0.00000000
-0.03084831,-2.03566456,-1.33380628,-1.30575228,0.18902004,0.00000000,0.00000000,-2.87587118,-0.33583876,0.84517157,-1.09382772,0.55253816,0.00000000,0.00000000
0.02600309,-2.02596712,-1.31197667,-1.28813374,0.20165701,0.00000000,0.00000000,-2.86537099,-0.34642890,0.89321572,-1.14721823,0.54512149,0.00000000,0.00000000
0.08280894,-2.01267791,-1.29510355,-1.26432753,0.21781081,0.00000000,0.00000000,-2.84746909,-0.35850486,0.94441873,-1.19887471,0.54024994,0.00000000,0.00000000
0.12628751,-1.99843681,-1.28846383,-1.24564314,0.23601919,0.00000000,0.00000000,-2.82977271,-0.36984974,0.99432927,-1.24396718,0.53188825,0.00000000,0.00000000
0.15129328,-1.98747754,-1.29170680,-1.23865199,0.25582698,0.00000000,0.00000000,-2.81848025,-0.37912184,1.03837562,-1.27950811,0.52059609,0.00000000,0.00000000
0.15687548,-1.98271072,-1.30316448,-1.24570489,0.26882300,0.00000000,0.00000000,-2.81684566,-0.38512233,1.07368600,-1.30434275,0.50418162,0.00000000,0.00000000
0.14310361,-1.98480630,-1.32197273,-1.26693892,0.27992740,0.00000000,0.00000000,-2.82590747,-0.38733917,1.09891450,-1.31847894,0.49254996,0.00000000,0.00000000
0.11187159,-1.99280560,-1.34746635,-1.29969704,0.29818368,0.00000000,0.00000000,-2.84554362,-0.38572267,1.11372137,-1.32229626,0.47677261,0.00000000,0.00000000
0.06905775,-2.00470734,-1.37807286,-1.33723307,0.31443873,0.00000000,0.00000000,-2.87537813,-0.38022479,1.11854291,-1.31600308,0.45113161,0.00000000,0.00000000
0.02266433,-2.01849866,-1.41071057,-1.37242687,0.33339593,0.00000000,0.00000000,-2.91434908,-0.37087104,1.11485970,-1.29999518,0.42841163,0.00000000,0.00000000
-0.01981036,-2.03219652,-1.44164681,-1.40003312,0.35514766,0.00000000,0.00000000,-2.95598888,-0.35828149,1.10728967,-1.27835500,0.40470907,0.00000000,0.00000000
-0.05259668,-2.04451132,-1.46718013,-1.41690087,0.37527156,0.00000000,0.00000000,-2.98682833,-0.34524870,1.10300505,-1.26188970,0.38101715,0.00000000,0.00000000
-0.07239178,-2.05545068,-1.48420954,-1.42196071,0.39024398,0.00000000,0.00000000,-3.00100064,-0.33703110,1.10410500,-1.25845194,0.35716736,0.00000000,0.00000000
-0.07743167,-2.06626463,-1.49027622,-1.41538072,0.40680438,0.00000000,0.00000000,-2.99896288,-0.33828041,1.10937047,-1.27030802,0.33486411,0.00000000,0.00000000
-0.06577264,-2.07884407,-1.48397517,-1.39717638,0.42443669,0.00000000,0.00000000,-2.98186255,-0.35064900,1.11784863,-1.29743624,0.31237939,0.00000000,0.00000000
-0.03966674,-2.09192395,-1.46999896,-1.36994100,0.43813115,0.00000000,0.00000000,-2.95232606,-0.37012607,1.13083553,-1.33576918,0.29027387,0.00000000,0.00000000
-0.01282930,-2.09809375,-1.46322787,-1.34339643,0.44662422,0.00000000,0.00000000,-2.91912961,-0.38575032,1.15128934,-1.37281549,0.27147037,0.00000000,0.00000000
0.00140753,-2.09839153,-1.46861863,-1.32773781,0.45105368,0.00000000,0.00000000,-2.89438534,-0.39390105,1.17406511,-1.39877188,0.25541314,0.00000000,0.00000000
-0.00125070,-2.09652281,-1.48454189,-1.32641113,0.44937092,0.00000000,0.00000000,-2.88385606,-0.39574796,1.19290662,-1.41104960,0.23901612,0.00000000,0.00000000
-0.02190787,-2.09443712,-1.50822103,-1.34055161,0.44644165,0.00000000,0.00000000,-2.88790536,-0.39200246,1.20503080,-1.41006589,0.22039123,0.00000000,0.00000000
-0.05616006,-2.09357524,-1.53510523,-1.36613798,0.43864447,0.00000000,0.00000000,-2.90473008,-0.38363931,1.20954418,-1.39725840,0.19759169,0.00000000,0.00000000
-0.08862074,-2.09550905,-1.55857670,-1.38899612,0.43223098,0.00000000,0.00000000,-2.93106508,-0.37240672,1.20704246,-1.37496912,0.17273045,0.00000000,0.00000000
-0.11094402,-2.10088921,-1.57358265,-1.40265906,0.42785630,0.00000000,0.00000000,-2.95930004,-0.36094993,1.20079041,-1.34938765,0.15034068,0.00000000,0.00000000
-0.12134749,-2.10925961,-1.57799077,-1.40623760,0.41798648,0.00000000,0.00000000,-2.97691393,-0.35291931,1.19598162,-1.33229101,0.13612801,0.00000000,0.00000000
-0.12020136,-2.12004352,-1.57162225,-1.39981937,0.40544724,0.00000000,0.00000000,-2.97913527,-0.35171804,1.19424999,-1.32978356,0.12006351,0.00000000,0.00000000
-0.10770982,-2.13303232,-1.55565023,-1.38319695,0.39054859,0.00000000,0.00000000,-2.96587300,-0.35855803,1.19570291,-1.34237778,0.10563982,0.00000000,0.00000000
-0.08540583,-2.14596105,-1.53539979,-1.35709882,0.37551352,0.00000000,0.00000000,-2.94081402,-0.37011260,1.20138872,-1.36493742,0.09133211,0.00000000,0.00000000
-0.06216957,-2.15357137,-1.52103019,-1.32912135,0.35681850,0.00000000,0.00000000,-2.91675353,-0.37873602,1.21122563,-1.38309133,0.08141491,0.00000000,0.00000000
-0.05204346,-2.15595698,-1.51624393,-1.31356227,0.33278343,0.00000000,0.00000000,-2.90476704,-0.38215837,1.22042716,-1.38848603,0.07914957,0.00000000,0.00000000
-0.05943233,-2.15565658,-1.51951718,-1.31541300,0.31328151,0.00000000,0.00000000,-2.90718937,-0.38127437,1.22556925,-1.38041031,0.08570974,0.00000000,0.00000000
-0.08188019,-2.15346432,-1.52890837,-1.33145714,0.29547304,0.00000000,0.00000000,-2.92287803,-0.37703586,1.22589624,-1.36006844,0.08848745,0.00000000,0.00000000
-0.10737889,-2.14942718,-1.54122126,-1.34793258,0.28379875,0.00000000,0.00000000,-2.94452739,-0.37194008,1.22306621,-1.33470321,0.08514609,0.00000000,0.00000000
-0.12348750,-2.14577031,-1.55030882,-1.35438693,0.27135018,0.00000000,0.00000000,-2.95602322,-0.37042055,1.22111893,-1.32071435,0.08745442,0.00000000,0.00000000
-0.12612543,-2.14370179,-1.55286753,-1.34807289,0.26021475,0.00000000,0.00000000,-2.95151544,-0.37467310,1.22189653,-1.32317472,0.09515368,0.00000000,0.00000000
-0.11563928,-2.14360619,-1.54894018,-1.32914615,0.24962661,0.00000000,0.00000000,-2.93323946,-0.38441262,1.22540390,-1.33787489,0.10833806,0.00000000,0.00000000
-0.09628962,-2.14382887,-1.54282868,-1.30016768,0.23696138,0.00000000,0.00000000,-2.91123366,-0.39632294,1.23025990,-1.35326314,0.11896320,0.00000000,0.00000000
-0.08006630,-2.14112043,-1.54129362,-1.27161682,0.21620588,0.00000000,0.00000000,-2.89813709,-0.40655822,1.23393834,-1.35835445,0.12987831,0.00000000,0.00000000
-0.07790352,-2.13776922,-1.54398048,-1.25812924,0.19626850,0.00000000,0.00000000,-2.89824963,-0.41412711,1.23487556,-1.34994221,0.14629339,0.00000000,0.00000000
-0.09232206,-2.13660192,-1.54812777,-1.26476479,0.17384106,0.00000000,0.00000000,-2.91106820,-0.41915923,1.23319530,-1.32831907,0.16156881,0.00000000,0.00000000
-0.11833322,-2.13821507,-1.55196571,-1.28857768,0.14588124,0.00000000,0.00000000,-2.93429351,-0.42132825,1.23075223,-1.29495096,0.18175416,0.00000000,0.00000000
-0.14055742,-2.13988900,-1.55615425,-1.31462467,0.12273103,0.00000000,0.00000000,-2.96007848,-0.42199823,1.23006630,-1.25827277,0.20691739,0.00000000,0.00000000
-0.15171604,-2.14257574,-1.55769515,-1.33125305,0.09671368,0.00000000,0.00000000,-2.97598219,-0.42620289,1.23154438,-1.23551691,0.23855552,0.00000000,0.00000000
-0.14931393,-2.14619684,-1.55549204,-1.33434510,0.07050072,0.00000000,0.00000000,-2.97689509,-0.43576354,1.23523355,-1.23234141,0.27317464,0.00000000,0.00000000
-0.13291219,-2.15032077,-1.55003631,-1.32335293,0.03826426,0.00000000,0.00000000,-2.96134615,-0.45021746,1.24151862,-1.24897432,0.30743948,0.00000000,0.00000000
-0.10529315,-2.15348172,-1.54419911,-1.30003786,0.01061172,0.00000000,0.00000000,-2.93365788,-0.46741340,1.24998677,-1.28069377,0.34104526,0.00000000,0.00000000
-0.07670146,-2.15290642,-1.54300833,-1.27385640,-0.01328510,0.00000000,0.00000000,-2.91017365,-0.48180139,1.25892305,-1.30980575,0.37106794,0.00000000,0.00000000
-0.06050871,-2.15098047,-1.54584670,-1.26153338,-0.03069091,0.00000000,0.00000000,-2.89802647,-0.49141622,1.26649714,-1.32729483,0.40073419,0.00000000,0.00000000
-0.06057133,-2.15072608,-1.55024779,-1.26871252,-0.04315888,0.00000000,0.00000000,-2.89809513,-0.49717388,1.27092886,-1.33156586,0.43357044,0.00000000,0.00000000
-0.07662451,-2.15192437,-1.55613601,-1.29355383,-0.05892233,0.00000000,0.00000000,-2.90949392,-0.49942049,1.27202272,-1.32285154,0.47052586,0.00000000,0.00000000
-0.10309499,-2.15203786,-1.56492186,-1.32633233,-0.07241094,0.00000000,0.00000000,-2.93061137,-0.49820909,1.27066183,-1.30194426,0.50983924,0.00000000,0.00000000
-0.12592818,-2.15152788,-1.57449389,-1.35278964,-0.08535944,0.00000000,0.00000000,-2.95904064,-0.49367777,1.26862419,-1.27033997,0.54754388,0.00000000,0.00000000
-0.13820148,-2.15067244,-1.58347404,-1.36693871,-0.09953349,0.00000000,0.00000000,-2.98809361,-0.48710653,1.26823616,-1.23557377,0.57912445,0.00000000,0.00000000
-0.13850078,-2.14946318,-1.59140468,-1.36777389,-0.11226710,0.00000000,0.00000000,-3.00530291,-0.48236474,1.27091289,-1.21433794,0.61016876,0.00000000,0.00000000
-0.12694208,-2.14836383,-1.59809721,-1.35541129,-0.12394404,0.00000000,0.00000000,-3.00794721,-0.48122638,1.27704930,-1.21247280,0.63471377,0.00000000,0.00000000
-0.10420065,-2.14752221,-1.60445285,-1.33059907,-0.13421063,0.00000000,0.00000000,-3.00009584,-0.48438415,1.28621578,-1.23006558,0.65479779,0.00000000,0.00000000
-0.07462882,-2.14514017,-1.61343944,-1.29785514,-0.14262608,0.00000000,0.00000000,-2.98156142,-0.49210227,1.29733050,-1.26667464,0.67143643,0.00000000,0.00000000
-0.04890715,-2.13959265,-1.62695611,-1.26952052,-0.14783688,0.00000000,0.00000000,-2.95490193,-0.50354540,1.30930269,-1.31704950,0.67995727,0.00000000,0.00000000
-0.03415587,-2.13624358,-1.63898027,-1.25795484,-0.15511131,0.00000000,0.00000000,-2.92601824,-0.51606858,1.32194674,-1.36731100,0.69339126,0.00000000,0.00000000
-0.02902688,-2.13734889,-1.64681292,-1.26387513,-0.16568370,0.00000000,0.00000000,-2.90066648,-0.52778548,1.33435571,-1.40884387,0.70197350,0.00000000,0.00000000
-0.02452746,-2.14190841,-1.65137887,-1.27785099,-0.18187742,0.00000000,0.00000000,-2.88156343,-0.53786510,1.34535480,-1.43868423,0.71003711,0.00000000,0.00000000
-0.01859508,-2.14750814,-1.65441573,-1.29488933,-0.19885738,0.00000000,0.00000000,-2.86910939,-0.54562664,1.35411847,-1.45586812,0.72675127,0.00000000,0.00000000
-0.02083615,-2.15170240,-1.65682912,-1.32030654,-0.20964007,0.00000000,0.00000000,-2.86342072,-0.55027211,1.36012650,-1.45998085,0.74008960,0.00000000,0.00000000
-0.03075613,-2.15640593,-1.65592885,-1.35560465,-0.22123253,0.00000000,0.00000000,-2.86498976,-0.55111396,1.36308503,-1.45071006,0.75254858,0.00000000,0.00000000
-0.04031351,-2.16204405,-1.65140128,-1.39728916,-0.23271883,0.00000000,0.00000000,-2.87450480,-0.54800707,1.36272573,-1.42791200,0.76295912,0.00000000,0.00000000
-0.04963219,-2.16689587,-1.64473343,-1.44222975,-0.24918783,0.00000000,0.00000000,-2.89262009,-0.54162377,1.35859263,-1.39171565,0.77687502,0.00000000,0.00000000
-0.06375078,-2.16939068,-1.63747907,-1.48848295,-0.26169392,0.00000000,0.00000000,-2.92031908,-0.53298396,1.35038972,-1.34235096,0.79592985,0.00000000,0.00000000
-0.08057362,-2.16996622,-1.63077927,-1.53236556,-0.27739429,0.00000000,0.00000000,-2.95591140,-0.52245373,1.33967984,-1.28186226,0.81530660,0.00000000,0.00000000
-0.09651538,-2.17000008,-1.62487745,-1.57039297,-0.28883818,0.00000000,0.00000000,-2.98840857,-0.51017118,1.33071411,-1.21983600,0.83423722,0.00000000,0.00000000
-0.10936251,-2.16996026,-1.61939931,-1.60026813,-0.29825136,0.00000000,0.00000000,-3.00570369,-0.49864349,1.32563174,-1.17095017,0.85190701,0.00000000,0.00000000
-0.11716188,-2.16930485,-1.61396420,-1.62026179,-0.31116703,0.00000000,0.00000000,-3.00975800,-0.49042290,1.32353163,-1.14099038,0.86454231,0.00000000,0.00000000
-0.11810517,-2.16659784,-1.60806739,-1.62904322,-0.31875202,0.00000000,0.00000000,-3.00999999,-0.48707932,1.32287633,-1.13061488,0.87248880,0.00000000,0.00000000
-0.11078341,-2.16125560,-1.60123324,-1.62570918,-0.32669458,0.00000000,0.00000000,-3.00982428,-0.48902860,1.32301974,-1.13991928,0.87915534,0.00000000,0.00000000
-0.09424466,-2.15351820,-1.59368849,-1.60970604,-0.32999739,0.00000000,0.00000000,-3.00684476,-0.49625304,1.32373607,-1.16889966,0.88775319,0.00000000,0.00000000
-0.06807709,-2.14361072,-1.58669436,-1.58091652,-0.33295298,0.00000000,0.00000000,-2.99375796,-0.50832051,1.32524908,-1.21738422,0.90433383,0.00000000,0.00000000
-0.03402767,-2.13143253,-1.58250821,-1.54087281,-0.34217188,0.00000000,0.00000000,-2.96871281,-0.52262527,1.32912898,-1.27988911,0.92369246,0.00000000,0.00000000
0.00191069,-2.11716175,-1.58309793,-1.49475849,-0.35295781,0.00000000,0.00000000,-2.94100356,-0.53524786,1.33609819,-1.34053969,0.94266403,0.00000000,0.00000000
0.03176732,-2.10232449,-1.58794284,-1.45072496,-0.36291537,0.00000000,0.00000000,-2.91687536,-0.54609513,1.34386563,-1.39130545,0.95808989,0.00000000,0.00000000
0.05072701,-2.08938336,-1.59447622,-1.41639984,-0.37054980,0.00000000,0.00000000,-2.89771247,-0.55541968,1.35061312,-1.43031430,0.96727735,0.00000000,0.00000000
0.05885027,-2.08083630,-1.59956813,-1.39678395,-0.37721422,0.00000000,0.00000000,-2.88397670,-0.56221598,1.35580122,-1.45660913,0.97327000,0.00000000,0.00000000
0.05769397,-2.07868481,-1.60047519,-1.39421690,-0.38437426,0.00000000,0.00000000,-2.87629819,-0.56532282,1.35914111,-1.46959436,0.98005933,0.00000000,0.00000000
0.04721515,-2.08333325,-1.59624016,-1.40964782,-0.39337629,0.00000000,0.00000000,-2.87543583,-0.56416887,1.36021554,-1.46902037,0.99368608,0.00000000,0.00000000
0.02770911,-2.09301281,-1.58838558,-1.43991590,-0.39811212,0.00000000,0.00000000,-2.88243508,-0.55870515,1.35869730,-1.45475268,1.00661123,0.00000000,0.00000000
0.00238559,-2.10348153,-1.58143139,-1.47425616,-0.40250883,0.00000000,0.00000000,-2.89884543,-0.54898632,1.35486865,-1.42658556,1.02939534,0.00000000,0.00000000
-0.02491712,-2.11272407,-1.57694840,-1.50586283,-0.40898457,0.00000000,0.00000000,-2.92344761,-0.53496033,1.35071599,-1.38622820,1.05635834,0.00000000,0.00000000
-0.05139871,-2.12022543,-1.57423472,-1.53175008,-0.41310009,0.00000000,0.00000000,-2.94760442,-0.51763254,1.34956503,-1.34136951,1.09281003,0.00000000,0.00000000
-0.07522594,-2.12589574,-1.57191706,-1.55032563,-0.42168030,0.00000000,0.00000000,-2.96217585,-0.49961025,1.35288799,-1.30275702,1.13040686,0.00000000,0.00000000
-0.09511683,-2.12939715,-1.56939125,-1.56064188,-0.42161593,0.00000000,0.00000000,-2.96729732,-0.48386836,1.35882568,-1.27519047,1.15969026,0.00000000,0.00000000
-0.10979152,-2.13025022,-1.56658423,-1.56183064,-0.42129678,0.00000000,0.00000000,-2.96879387,-0.47507036,1.36219180,-1.25886691,1.19042087,0.00000000,0.00000000
-0.11766106,-2.12830830,-1.56309760,-1.55289161,-0.41555467,0.00000000,0.00000000,-2.96809769,-0.47403765,1.36221397,-1.25527990,1.22323668,0.00000000,0.00000000
-0.11695573,-2.12379956,-1.55840397,-1.53276241,-0.41042626,0.00000000,0.00000000,-2.96306014,-0.48043677,1.35991347,-1.26723850,1.25129640,0.00000000,0.00000000
-0.10626121,-2.11729860,-1.55245864,-1.50061107,-0.41079155,0.00000000,0.00000000,-2.95143771,-0.49480322,1.35538077,-1.29674697,1.27604008,0.00000000,0.00000000
-0.08529099,-2.10928845,-1.54659128,-1.45636356,-0.41439691,0.00000000,0.00000000,-2.93318248,-0.51579851,1.34978914,-1.34051454,1.29778075,0.00000000,0.00000000
-0.05760560,-2.09895825,-1.54440117,-1.40336347,-0.41658252,0.00000000,0.00000000,-2.91184855,-0.53743690,1.34773397,-1.38575268,1.32047045,0.00000000,0.00000000
-0.03187131,-2.08554649,-1.54914343,-1.35241878,-0.41643199,0.00000000,0.00000000,-2.89353180,-0.55652595,1.34989834,-1.42336130,1.33912122,0.00000000,0.00000000
-0.01422287,-2.07444644,-1.55573094,-1.31697500,-0.41450515,0.00000000,0.00000000,-2.88159132,-0.57325971,1.35346663,-1.45000422,1.35286558,0.00000000,0.00000000
-0.00548956,-2.06883597,-1.56092918,-1.30056167,-0.40995935,0.00000000,0.00000000,-2.87672877,-0.58728659,1.35630035,-1.46455860,1.36143887,0.00000000,0.00000000
-0.00529444,-2.06923008,-1.56411815,-1.30293941,-0.40657601,0.00000000,0.00000000,-2.87884951,-0.59742486,1.35748434,-1.46660388,1.36595750,0.00000000,0.00000000
-0.01349381,-2.07514262,-1.56531477,-1.32369184,-0.40047282,0.00000000,0.00000000,-2.88752818,-0.60270834,1.35661709,-1.45618391,1.37483716,0.00000000,0.00000000
-0.03004365,-2.08520770,-1.56510282,-1.35985494,-0.39346185,0.00000000,0.00000000,-2.90202689,-0.60305339,1.35332048,-1.43387103,1.38547802,0.00000000,0.00000000
-0.05242383,-2.09697771,-1.56478965,-1.40202558,-0.38723651,0.00000000,0.00000000,-2.92189670,-0.59907913,1.34739113,-1.40044224,1.39526534,0.00000000,0.00000000
-0.07267376,-2.10923433,-1.56408107,-1.43951738,-0.38168430,0.00000000,0.00000000,-2.94653130,-0.59102607,1.34008706,-1.35705614,1.40397012,0.00000000,0.00000000
-0.08757070,-2.12058401,-1.56285310,-1.46863067,-0.37729695,0.00000000,0.00000000,-2.96966958,-0.57910967,1.33482516,-1.31064618,1.41257930,0.00000000,0.00000000
-0.09668022,-2.12967563,-1.56112111,-1.48874521,-0.37505457,0.00000000,0.00000000,-2.97986746,-0.56633788,1.33353496,-1.27650201,1.41546059,0.00000000,0.00000000
-0.10026150,-2.13562202,-1.55900383,-1.49990475,-0.37400615,0.00000000,0.00000000,-2.97806096,-0.55612135,1.33426213,-1.26067865,1.41974771,0.00000000,0.00000000
-0.09859041,-2.13795400,-1.55666029,-1.50229549,-0.37346506,0.00000000,0.00000000,-2.97127485,-0.55065018,1.33438265,-1.26157379,1.42491615,0.00000000,0.00000000
-0.09137544,-2.13723254,-1.55323315,-1.49596536,-0.36790973,0.00000000,0.00000000,-2.96250486,-0.55150336,1.33247757,-1.27709961,1.42839968,0.00000000,0.00000000
-0.07745959,-2.13469529,-1.54743016,-1.48048449,-0.36149001,0.00000000,0.00000000,-2.94972801,-0.55886948,1.32936120,-1.30583966,1.43879330,0.00000000,0.00000000
-0.05525221,-2.13116598,-1.53931117,-1.45489967,-0.35548130,0.00000000,0.00000000,-2.93134737,-0.57022500,1.32812965,-1.34449422,1.44701219,0.00000000,0.00000000
-0.02420385,-2.12653279,-1.53103125,-1.41880286,-0.35197890,0.00000000,0.00000000,-2.90837502,-0.58267730,1.33132982,-1.38655066,1.45425665,0.00000000,0.00000000
0.01179523,-2.11958098,-1.52653885,-1.37591934,-0.34455505,0.00000000,0.00000000,-2.88629222,-0.59390694,1.33902049,-1.42378283,1.46305823,0.00000000,0.00000000
0.04342032,-2.10933208,-1.52921617,-1.33748949,-0.33858666,0.00000000,0.00000000,-2.86922097,-0.60287243,1.34938991,-1.45160985,1.47471809,0.00000000,0.00000000
0.06437961,-2.10032964,-1.53507483,-1.31582463,-0.32889357,0.00000000,0.00000000,-2.85867929,-0.60941410,1.35992348,-1.46825099,1.48267674,0.00000000,0.00000000
0.07454802,-2.09542084,-1.54125154,-1.31363189,-0.31671286,0.00000000,0.00000000,-2.85495043,-0.61290181,1.36897826,-1.47278488,1.48400927,0.00000000,0.00000000
0.07400460,-2.09522867,-1.54703701,-1.33064961,-0.31136876,0.00000000,0.00000000,-2.85801840,-0.61234677,1.37582052,-1.46458793,1.47922015,0.00000000,0.00000000
0.06141021,-2.09796405,-1.55401516,-1.36445284,-0.30402243,0.00000000,0.00000000,-2.86787724,-0.60704476,1.38016605,-1.44332469,1.48239648,0.00000000,0.00000000
0.03956202,-2.10082197,-1.56428397,-1.40537500,-0.29398918,0.00000000,0.00000000,-2.88470149,-0.59682024,1.38182938,-1.40893400,1.48782206,0.00000000,0.00000000
0.01498785,-2.10402751,-1.57591081,-1.44482982,-0.28144556,0.00000000,0.00000000,-2.90903473,-0.58203644,1.38060951,-1.36164773,1.49459887,0.00000000,0.00000000
-0.00796968,-2.10777926,-1.58639967,-1.47873175,-0.27248237,0.00000000,0.00000000,-2.94072199,-0.56331003,1.37685275,-1.30268133,1.50069487,0.00000000,0.00000000
-0.02736480,-2.11096358,-1.59440565,-1.50535333,-0.26714250,0.00000000,0.00000000,-2.97380495,-0.54230243,1.37173307,-1.23973429,1.51016784,0.00000000,0.00000000
-0.04180280,-2.11224008,-1.59914005,-1.52361333,-0.26186207,0.00000000,0.00000000,-2.99660635,-0.52337623,1.36543024,-1.18936861,1.52361119,0.00000000,0.00000000
-0.05027360,-2.11082339,-1.60023463,-1.53283417,-0.25951120,0.00000000,0.00000000,-3.00730610,-0.50856090,1.35826290,-1.15786576,1.53913236,0.00000000,0.00000000
-0.05164507,-2.10694551,-1.59708762,-1.53247035,-0.25853768,0.00000000,0.00000000,-3.00949430,-0.49948922,1.34992182,-1.14542615,1.55218053,0.00000000,0.00000000
-0.04425144,-2.10140920,-1.58918250,-1.52171600,-0.25224730,0.00000000,0.00000000,-3.00638294,-0.49716154,1.34044099,-1.15184212,1.56397665,0.00000000,0.00000000
-0.02607962,-2.09517360,-1.57677162,-1.49944544,-0.25015503,0.00000000,0.00000000,-2.99497986,-0.50222570,1.32996416,-1.17646444,1.57591653,0.00000000,0.00000000
0.00390285,-2.08891773,-1.56144822,-1.46506751,-0.25014135,0.00000000,0.00000000,-2.97440386,-0.51388586,1.31929731,-1.21505344,1.59064043,0.00000000,0.00000000
0.04151259,-2.08136725,-1.54817951,-1.42207289,-0.25435507,0.00000000,0.00000000,-2.94709802,-0.52508020,1.31350338,-1.25709736,1.60882843,0.00000000,0.00000000
0.07489885,-2.07097077,-1.54222453,-1.38232780,-0.25790483,0.00000000,0.00000000,-2.91803503,-0.53250289,1.31303930,-1.29519486,1.62202096,0.00000000,0.00000000
0.09606502,-2.06086802,-1.54178560,-1.35742152,-0.26344234,0.00000000,0.00000000,-2.89224029,-0.53632212,1.31450403,-1.32497334,1.63452268,0.00000000,0.00000000
0.10409644,-2.05356598,-1.54461646,-1.34993184,-0.26974326,0.00000000,0.00000000,-2.87281871,-0.53571635,1.31545556,-1.34365082,1.65497029,0.00000000,0.00000000
0.09894433,-2.04937696,-1.55036330,-1.35933566,-0.27123550,0.00000000,0.00000000,-2.86174107,-0.52982420,1.31393075,-1.34971356,1.67360640,0.00000000,0.00000000
0.08172850,-2.04709506,-1.55980444,-1.38162768,-0.27845711,0.00000000,0.00000000,-2.86024809,-0.51853925,1.30795002,-1.34265244,1.68856490,0.00000000,0.00000000
0.05766185,-2.04746890,-1.57090926,-1.40918183,-0.28077480,0.00000000,0.00000000,-2.86867857,-0.50251895,1.29584730,-1.32284129,1.71057582,0.00000000,0.00000000
0.02875242,-2.05151987,-1.58079088,-1.43824553,-0.27888945,0.00000000,0.00000000,-2.88743472,-0.48254168,1.27683282,-1.29075694,1.73095691,0.00000000,0.00000000
-0.00126928,-2.05786085,-1.58899319,-1.46450365,-0.27599636,0.00000000,0.00000000,-2.91728473,-0.45920274,1.25149822,-1.24669874,1.74927747,0.00000000,0.00000000
-0.02866702,-2.06478739,-1.59532893,-1.48455632,-0.27847880,0.00000000,0.00000000,-2.95449519,-0.43281579,1.22375298,-1.19367921,1.76912093,0.00000000,0.00000000
-0.05090914,-2.07087064,-1.59968364,-1.49637306,-0.27738956,0.00000000,0.00000000,-2.98670936,-0.40441489,1.20062423,-1.14222217,1.78113401,0.00000000,0.00000000
-0.06635343,-2.07566595,-1.60141253,-1.49886870,-0.27523169,0.00000000,0.00000000,-3.00454521,-0.37875319,1.18442690,-1.10526729,1.79722309,0.00000000,0.00000000
-0.07363719,-2.07952023,-1.59967637,-1.49133801,-0.27194253,0.00000000,0.00000000,-3.00947571,-0.35957009,1.17439485,-1.08686745,1.81078172,0.00000000,0.00000000
-0.07080610,-2.08296585,-1.59421587,-1.47267723,-0.26662457,0.00000000,0.00000000,-3.00980234,-0.34888542,1.16974151,-1.08730149,1.82160950,0.00000000,0.00000000
-0.05542645,-2.08667421,-1.58540070,-1.44146049,-0.26446483,0.00000000,0.00000000,-3.00680900,-0.34820595,1.16965449,-1.10681784,1.83324170,0.00000000,0.00000000
-0.02623680,-2.09103036,-1.57470465,-1.39716351,-0.26766449,0.00000000,0.00000000,-2.99408340,-0.35817444,1.17363143,-1.14558887,1.84419036,0.00000000,0.00000000
0.01275612,-2.09450674,-1.56639516,-1.34391391,-0.27117482,0.00000000,0.00000000,-2.96961737,-0.37649697,1.18239307,-1.19957304,1.86183143,0.00000000,0.00000000
0.05031633,-2.09386516,-1.56643832,-1.29330420,-0.27378872,0.00000000,0.00000000,-2.93982625,-0.39744568,1.19707143,-1.25560391,1.88232088,0.00000000,0.00000000
0.07656810,-2.09063721,-1.57439780,-1.25711477,-0.27565414,0.00000000,0.00000000,-2.91250372,-0.41965207,1.21480143,-1.30484521,1.90012491,0.00000000,0.00000000
0.09138965,-2.08894300,-1.58612096,-1.23944032,-0.28205478,0.00000000,0.00000000,-2.89217544,-0.44234714,1.23266137,-1.34316778,1.91918325,0.00000000,0.00000000
0.09679102,-2.09048796,-1.59936917,-1.24039400,-0.28249863,0.00000000,0.00000000,-2.88050246,-0.46344352,1.24911976,-1.36829162,1.93572807,0.00000000,0.00000000
0.09564273,-2.09586692,-1.61265957,-1.25746882,-0.28601000,0.00000000,0.00000000,-2.87746286,-0.48099196,1.26310372,-1.37927079,1.94664562,0.00000000,0.00000000
0.09038696,-2.10394335,-1.62597942,-1.28523457,-0.28425133,0.00000000,0.00000000,-2.88235307,-0.49366036,1.27378035,-1.37595987,1.95435584,0.00000000,0.00000000
0.08082130,-2.11326528,-1.63940334,-1.31905615,-0.27654535,0.00000000,0.00000000,-2.89409828,-0.50085133,1.28057265,-1.35871828,1.96118009,0.00000000,0.00000000
0.06684345,-2.12246537,-1.65269971,-1.35495055,-0.25818956,0.00000000,0.00000000,-2.91184568,-0.50269759,1.28300977,-1.32816958,1.96920824,0.00000000,0.00000000
0.04915468,-2.13105178,-1.66467857,-1.39056885,-0.24005821,0.00000000,0.00000000,-2.93544054,-0.49980950,1.28078783,-1.28507900,1.98185050,0.00000000,0.00000000
0.03047044,-2.13880038,-1.67409444,-1.42340028,-0.22886656,0.00000000,0.00000000,-2.96429873,-0.49338165,1.27390659,-1.23118305,1.99976623,0.00000000,0.00000000
0.01271360,-2.14557338,-1.67977822,-1.45192289,-0.21851370,0.00000000,0.00000000,-2.99193954,-0.48554036,1.26376700,-1.17351699,2.01853752,0.00000000,0.00000000
-0.00256264,-2.15103078,-1.68128514,-1.47489321,-0.21145013,0.00000000,0.00000000,-3.00652504,-0.47849804,1.25391412,-1.12590861,2.03755403,0.00000000,0.00000000
-0.01375938,-2.15425014,-1.67965877,-1.49085557,-0.19744603,0.00000000,0.00000000,-3.00980759,-0.47337830,1.24639678,-1.09587276,2.05816770,0.00000000,0.00000000
-0.01889513,-2.15525770,-1.67532790,-1.49826908,-0.18343598,0.00000000,0.00000000,-3.00999999,-0.47113180,1.24177766,-1.08486223,2.08351755,0.00000000,0.00000000
-0.01570360,-2.15506363,-1.66786039,-1.49559057,-0.17125480,0.00000000,0.00000000,-3.00999999,-0.47284168,1.24017799,-1.09292006,2.10853553,0.00000000,0.00000000
-0.00278116,-2.15478539,-1.65704894,-1.48191392,-0.16221216,0.00000000,0.00000000,-3.00976324,-0.47953129,1.24146950,-1.11969888,2.13098216,0.00000000,0.00000000
0.01947294,-2.15487790,-1.64404583,-1.45753932,-0.15784635,0.00000000,0.00000000,-3.00604701,-0.49110550,1.24586630,-1.16305566,2.15240717,0.00000000,0.00000000
0.04647259,-2.15387893,-1.63251090,-1.42606413,-0.14593202,0.00000000,0.00000000,-2.99300575,-0.50462490,1.25434625,-1.21567583,2.17341661,0.00000000,0.00000000
0.06990432,-2.14956760,-1.62657249,-1.39496791,-0.13896516,0.00000000,0.00000000,-2.97428012,-0.51706243,1.26602387,-1.26758754,2.18723440,0.00000000,0.00000000
0.08573348,-2.14242744,-1.62653434,-1.36957097,-0.13465638,0.00000000,0.00000000,-2.95559025,-0.52761590,1.27844751,-1.31289017,2.20298815,0.00000000,0.00000000
0.09789874,-2.13741398,-1.62721074,-1.35002208,-0.13020870,0.00000000,0.00000000,-2.93973255,-0.53596872,1.28972542,-1.34907091,2.21931028,0.00000000,0.00000000
0.10687755,-2.13813758,-1.62428045,-1.33828437,-0.13062990,0.00000000,0.00000000,-2.92823958,-0.54125559,1.29891193,-1.37456656,2.23549318,0.00000000,0.00000000
0.10785212,-2.14033890,-1.62153482,-1.33878255,-0.13475637,0.00000000,0.00000000,-2.92224312,-0.54282910,1.30526769,-1.38836038,2.25374961,0.00000000,0.00000000
0.10308895,-2.14481735,-1.61726141,-1.34944248,-0.14015603,0.00000000,0.00000000,-2.92209172,-0.54027379,1.30838227,-1.39008582,2.26507258,0.00000000,0.00000000
0.09395669,-2.15131855,-1.61064100,-1.36871684,-0.14404537,0.00000000,0.00000000,-2.92774415,-0.53377914,1.30774367,-1.37990129,2.28146172,0.00000000,0.00000000
0.07982874,-2.15897226,-1.60152113,-1.39503443,-0.15039413,0.00000000,0.00000000,-2.93945670,-0.52410591,1.30265653,-1.35817707,2.29742098,0.00000000,0.00000000
0.06202670,-2.16556883,-1.59149015,-1.42307496,-0.15279959,0.00000000,0.00000000,-2.95753884,-0.51214564,1.29287434,-1.32553387,2.31458640,0.00000000,0.00000000
0.04328294,-2.16909790,-1.58236396,-1.44802427,-0.15478483,0.00000000,0.00000000,-2.98013663,-0.49853796,1.27964616,-1.28406286,2.33433533,0.00000000,0.00000000
0.02578442,-2.16992712,-1.57426703,-1.46740007,-0.15550777,0.00000000,0.00000000,-2.99979925,-0.48558348,1.26493204,-1.24158251,2.35236001,0.00000000,0.00000000
0.01111406,-2.16957712,-1.56670856,-1.47986162,-0.14755672,0.00000000,0.00000000,-3.00835347,-0.47779864,1.24992061,-1.21141422,2.37029552,0.00000000,0.00000000
0.00047975,-2.16736555,-1.55983365,-1.48452187,-0.13951008,0.00000000,0.00000000,-3.00991678,-0.47558358,1.23724377,-1.19830394,2.39103055,0.00000000,0.00000000
-0.00468667,-2.16157126,-1.55337071,-1.48050749,-0.13122264,0.00000000,0.00000000,-3.00999999,-0.47801051,1.22893751,-1.20132279,2.41248441,0.00000000,0.00000000
-0.00239006,-2.15233541,-1.54635000,-1.46673656,-0.12934726,0.00000000,0.00000000,-3.00983095,-0.48485717,1.22575057,-1.21939039,2.43270087,0.00000000,0.00000000
0.00943350,-2.14121485,-1.53728521,-1.44226980,-0.12423336,0.00000000,0.00000000,-3.00708675,-0.49651945,1.22730684,-1.25114679,2.45869064,0.00000000,0.00000000
0.03101413,-2.12983584,-1.52563894,-1.40742838,-0.11916237,0.00000000,0.00000000,-2.99638367,-0.51263136,1.23257840,-1.29230917,2.49302506,0.00000000,0.00000000
0.05982433,-2.11820555,-1.51401782,-1.36419570,-0.11778718,0.00000000,0.00000000,-2.97812581,-0.53073239,1.24070895,-1.33508241,2.52446318,0.00000000,0.00000000
0.09028900,-2.10588741,-1.50602138,-1.31813693,-0.11676833,0.00000000,0.00000000,-2.95788527,-0.54813832,1.25054085,-1.37260294,2.55299830,0.00000000,0.00000000
0.11588245,-2.09518957,-1.50176775,-1.27837634,-0.11445039,0.00000000,0.00000000,-2.94031668,-0.56322169,1.26033068,-1.40088999,2.58190632,0.00000000,0.00000000
0.13464595,-2.08829641,-1.50036335,-1.24991179,-0.10583767,0.00000000,0.00000000,-2.92777920,-0.57433385,1.26888704,-1.41790068,2.60792994,0.00000000,0.00000000
0.14640003,-2.08536339,-1.50216222,-1.23590803,-0.09720909,0.00000000,0.00000000,-2.92171454,-0.58012044,1.27517664,-1.42249238,2.63002992,0.00000000,0.00000000
0.14813948,-2.08795285,-1.50582254,-1.23948336,-0.08844108,0.00000000,0.00000000,-2.92275715,-0.57997042,1.27831733,-1.41427255,2.65395403,0.00000000,0.00000000
0.14134294,-2.09668565,-1.51004362,-1.26012504,-0.08266344,0.00000000,0.00000000,-2.93121266,-0.57402050,1.27761900,-1.39329731,2.67746234,0.00000000,0.00000000
0.12693933,-2.10953116,-1.51565325,-1.29474318,-0.08187215,0.00000000,0.00000000,-2.94693446,-0.56266528,1.27302909,-1.35997009,2.69716048,0.00000000,0.00000000
0.10481811,-2.12272644,-1.52481830,-1.33909428,-0.07427834,0.00000000,0.00000000,-2.96887326,-0.54674125,1.26496351,-1.31544471,2.71767831,0.00000000,0.00000000
0.07700324,-2.13366389,-1.53754938,-1.38725495,-0.06554895,0.00000000,0.00000000,-2.99191499,-0.52785259,1.25497127,-1.26401222,2.73418427,0.00000000,0.00000000
0.04991605,-2.14162898,-1.55092955,-1.43156958,-0.05493665,0.00000000,0.00000000,-3.00612450,-0.50916040,1.24568319,-1.21618295,2.75164747,0.00000000,0.00000000
0.02734931,-2.14589477,-1.56259549,-1.46826482,-0.04708867,0.00000000,0.00000000,-3.00977516,-0.49432388,1.23856390,-1.18242598,2.77321124,0.00000000,0.00000000
0.01121667,-2.14584255,-1.57107198,-1.49568808,-0.03866391,0.00000000,0.00000000,-3.00999999,-0.48485419,1.23450601,-1.16571343,2.79615283,0.00000000,0.00000000
0.00346169,-2.14145541,-1.57493913,-1.51248479,-0.02528645,0.00000000,0.00000000,-3.00999999,-0.48071724,1.23440039,-1.16541457,2.81608200,0.00000000,0.00000000
0.00557909,-2.13319612,-1.57298279,-1.51786935,-0.01395511,0.00000000,0.00000000,-3.00999999,-0.48160779,1.23863518,-1.18026435,2.83545184,0.00000000,0.00000000
0.01903457,-2.12196875,-1.56424868,-1.51131260,0.00872552,0.00000000,0.00000000,-3.00983357,-0.48698267,1.24701858,-1.20852613,2.85793376,0.00000000,0.00000000
0.04531385,-2.10908484,-1.54829907,-1.49238515,0.02916835,0.00000000,0.00000000,-3.00717807,-0.49596521,1.25853992,-1.24700785,2.87979317,0.00000000,0.00000000
0.08504865,-2.09605098,-1.52614975,-1.46097136,0.04859279,0.00000000,0.00000000,-2.99736261,-0.50706863,1.27125514,-1.29018819,2.87979317,0.00000000,0.00000000
0.13557367,-2.08405232,-1.50143385,-1.41866004,0.07040381,0.00000000,0.00000000,-2.98196650,-0.51809883,1.28305840,-1.33178782,2.87979317,0.00000000,0.00000000
0.18811259,-2.07279444,-1.48055494,-1.37157536,0.09202783,0.00000000,0.00000000,-2.96600461,-0.52691126,1.29221094,-1.36706114,2.87979317,0.00000000,0.00000000
0.23118894,-2.06139469,-1.46920562,-1.32990170,0.10982897,0.00000000,0.00000000,-2.95318174,-0.53217679,1.29710138,-1.39339852,2.87979317,0.00000000,0.00000000
0.25876257,-2.05083561,-1.46848440,-1.30100238,0.12672877,0.00000000,0.00000000,-2.94477534,-0.53336203,1.29651439,-1.40997624,2.87979317,0.00000000,0.00000000
0.26941085,-2.04315519,-1.47668898,-1.28815973,0.14151728,0.00000000,0.00000000,-2.94089556,-0.53018886,1.28987527,-1.41662550,2.87979317,0.00000000,0.00000000
0.26350507,-2.04072309,-1.49106097,-1.29362369,0.14817248,0.00000000,0.00000000,-2.94192171,-0.52245027,1.27702630,-1.41302681,2.87979317,0.00000000,0.00000000
0.24267979,-2.04436851,-1.50987780,-1.31771243,0.15679598,0.00000000,0.00000000,-2.94844103,-0.50999719,1.25829649,-1.39874935,2.87979317,0.00000000,0.00000000
0.20985906,-2.05326581,-1.53243184,-1.35792959,0.16227715,0.00000000,0.00000000,-2.96096015,-0.49275166,1.23460841,-1.37342036,2.87979317,0.00000000,0.00000000
0.16911542,-2.06526899,-1.55843902,-1.40838182,0.16903754,0.00000000,0.00000000,-2.97865248,-0.47083813,1.20787632,-1.33744526,2.87979317,0.00000000,0.00000000
0.12751523,-2.07836628,-1.58623278,-1.45941186,0.17396851,0.00000000,0.00000000,-2.99660349,-0.44569913,1.18092823,-1.29443502,2.87979317,0.00000000,0.00000000
0.09229135,-2.09182978,-1.61200762,-1.50364625,0.17566314,0.00000000,0.00000000,-3.00719166,-0.42061195,1.15707171,-1.25261116,2.87979317,0.00000000,0.00000000
0.06535280,-2.10442972,-1.63321936,-1.53878009,0.17631619,0.00000000,0.00000000,-3.00983858,-0.39882746,1.13894129,-1.22008264,2.87979317,0.00000000,0.00000000
0.04716315,-2.11534071,-1.64822221,-1.56429446,0.17411058,0.00000000,0.00000000,-3.00999999,-0.38235167,1.12786150,-1.20004165,2.87979317,0.00000000,0.00000000
0.03753674,-2.12399673,-1.65646255,-1.58030021,0.17120552,0.00000000,0.00000000,-3.00999999,-0.37202442,1.12467897,-1.19264603,2.87979317,0.00000000,0.00000000
0.03613294,-2.13012767,-1.65815759,-1.58696425,0.16531122,0.00000000,0.00000000,-3.00999999,-0.36804697,1.13000739,-1.19728458,2.87979317,0.00000000,0.00000000
0.04283591,-2.13385153,-1.65391052,-1.58433604,0.16313307,0.00000000,0.00000000,-3.00984406,-0.37015149,1.14418912,-1.21289396,2.87979317,0.00000000,0.00000000
0.05803652,-2.13599753,-1.64418375,-1.57244539,0.16718790,0.00000000,0.00000000,-3.00725436,-0.37814450,1.16676247,-1.23813653,2.87979317,0.00000000,0.00000000
0.08185858,-2.13764739,-1.63031518,-1.55164087,0.16938873,0.00000000,0.00000000,-2.99642015,-0.39144969,1.19623351,-1.27077341,2.87979317,0.00000000,0.00000000
0.11221482,-2.13896489,-1.61619604,-1.52320290,0.17509903,0.00000000,0.00000000,-2.97604513,-0.40793443,1.23020732,-1.30644119,2.87979317,0.00000000,0.00000000
0.14375602,-2.13905907,-1.60716820,-1.49065769,0.17683268,0.00000000,0.00000000,-2.95226955,-0.42456919,1.26499450,-1.33927822,2.87979317,0.00000000,0.00000000
0.16944070,-2.13737369,-1.60666335,-1.46027827,0.18120277,0.00000000,0.00000000,-2.93220091,-0.43940032,1.29591787,-1.36482799,2.87979317,0.00000000,0.00000000
0.18216385,-2.13417625,-1.61519706,-1.43993604,0.18347315,0.00000000,0.00000000,-2.91938496,-0.45188659,1.31915247,-1.38155222,2.87979317,0.00000000,0.00000000
0.18171842,-2.13044286,-1.63134944,-1.43143666,0.18256445,0.00000000,0.00000000,-2.91444492,-0.46198225,1.33262599,-1.38955772,2.87979317,0.00000000,0.00000000
0.17480065,-2.12803411,-1.65198433,-1.43113852,0.18327376,0.00000000,0.00000000,-2.91688347,-0.46956199,1.33566606,-1.38920236,2.87979317,0.00000000,0.00000000
0.15475862,-2.12839580,-1.67261720,-1.44693458,0.18037947,0.00000000,0.00000000,-2.92581487,-0.47447729,1.32840097,-1.38076854,2.87979317,0.00000000,0.00000000
0.12994060,-2.13338017,-1.68939424,-1.47074461,0.17457853,0.00000000,0.00000000,-2.94117594,-0.47640181,1.31150842,-1.36379325,2.87979317,0.00000000,0.00000000
0.10641883,-2.13906145,-1.70544493,-1.49462414,0.15429938,0.00000000,0.00000000,-2.96301627,-0.47490412,1.28644860,-1.33757055,2.87979317,0.00000000,0.00000000
0.08272946,-2.14269567,-1.72111475,-1.51641369,0.13169664,0.00000000,0.00000000,-2.98742723,-0.46926647,1.25713003,-1.30345583,2.87979317,0.00000000,0.00000000
0.06192642,-2.14421272,-1.73431337,-1.53272784,0.10263082,0.00000000,0.00000000,-3.00476861,-0.45994860,1.22946966,-1.26755595,2.87979317,0.00000000,0.00000000
0.04738014,-2.14482427,-1.74180150,-1.54135215,0.07491864,0.00000000,0.00000000,-3.00968742,-0.45007628,1.20774961,-1.23807716,2.87979317,0.00000000,0.00000000
0.04052311,-2.14587665,-1.74060857,-1.54194808,0.05076951,0.00000000,0.00000000,-3.00999999,-0.44332919,1.19346023,-1.21933758,2.87979317,0.00000000,0.00000000
0.04227272,-2.14848876,-1.72907054,-1.53445864,0.03065352,0.00000000,0.00000000,-3.00999999,-0.44214606,1.18694818,-1.21246886,2.87979317,0.00000000,0.00000000
0.05387598,-2.15345216,-1.70745790,-1.51796091,0.01313248,0.00000000,0.00000000,-3.00999999,-0.44766313,1.18824053,-1.21770370,2.87979317,0.00000000,0.00000000
0.07626544,-2.16042352,-1.67908180,-1.49098873,-0.00510534,0.00000000,0.00000000,-3.00979090,-0.45954013,1.19750619,-1.23479021,2.87979317,0.00000000,0.00000000
0.10785063,-2.16675878,-1.65075815,-1.45416439,-0.01451880,0.00000000,0.00000000,-3.00643635,-0.47538432,1.21549988,-1.26242089,2.87979317,0.00000000,0.00000000
0.14150552,-2.16949129,-1.63070524,-1.41458619,-0.02496093,0.00000000,0.00000000,-2.99382591,-0.49113587,1.24279690,-1.29689407,2.87979317,0.00000000,0.00000000
0.16715138,-2.16996574,-1.62343431,-1.38416219,-0.03450477,0.00000000,0.00000000,-2.97394085,-0.50339288,1.27726293,-1.33127499,2.87979317,0.00000000,0.00000000
0.18024948,-2.16987062,-1.62771571,-1.36897182,-0.04667728,0.00000000,0.00000000,-2.95443034,-0.51193702,1.31311798,-1.35943460,2.87979317,0.00000000,0.00000000
0.18058208,-2.16967916,-1.63967133,-1.37114954,-0.05542550,0.00000000,0.00000000,-2.94044733,-0.51764381,1.34495270,-1.37869489,2.87979317,0.00000000,0.00000000
0.17023179,-2.16985416,-1.65502501,-1.38980520,-0.06178765,0.00000000,0.00000000,-2.93353868,-0.52091300,1.36971307,-1.38866889,2.87979317,0.00000000,0.00000000
0.15178813,-2.16998434,-1.67205894,-1.42047632,-0.06865602,0.00000000,0.00000000,-2.93341899,-0.52218455,1.38578081,-1.38993883,2.87979317,0.00000000,0.00000000
0.12838128,-2.16999960,-1.69057834,-1.45561159,-0.07726927,0.00000000,0.00000000,-2.93991017,-0.52174324,1.39264739,-1.38268876,2.87979317,0.00000000,0.00000000
0.10520144,-2.17000008,-1.70939255,-1.48768258,-0.08440489,0.00000000,0.00000000,-2.95267510,-0.51982850,1.39069629,-1.36689675,2.87979317,0.00000000,0.00000000
0.08455755,-2.16997504,-1.72662044,-1.51401746,-0.09157534,0.00000000,0.00000000,-2.97075200,-0.51648629,1.38146913,-1.34262621,2.87979317,0.00000000,0.00000000
0.06733731,-2.16956925,-1.74050164,-1.53414583,-0.10170412,0.00000000,0.00000000,-2.99074006,-0.51193178,1.36792862,-1.31157565,2.87979317,0.00000000,0.00000000
0.05461321,-2.16795325,-1.74973226,-1.54768515,-0.11556952,0.00000000,0.00000000,-3.00527525,-0.50684512,1.35441303,-1.27892697,2.87979317,0.00000000,0.00000000
0.04753055,-2.16517258,-1.75337279,-1.55421126,-0.13202186,0.00000000,0.00000000,-3.00964284,-0.50258332,1.34491587,-1.25184405,2.87979317,0.00000000,0.00000000
0.04734724,-2.16225624,-1.75059843,-1.55318308,-0.15032820,0.00000000,0.00000000,-3.00999403,-0.50095272,1.34125578,-1.23506582,2.87979317,0.00000000,0.00000000
0.05468049,-2.16006804,-1.74147570,-1.54418826,-0.16540803,0.00000000,0.00000000,-3.00999999,-0.50319135,1.34372163,-1.23060143,2.87979317,0.00000000,0.00000000
0.06971908,-2.15909362,-1.72712004,-1.52678120,-0.18174639,0.00000000,0.00000000,-3.00985622,-0.50960183,1.35189033,-1.23921835,2.87979317,0.00000000,0.00000000
0.09255455,-2.15961456,-1.70948362,-1.50039339,-0.19419730,0.00000000,0.00000000,-3.00754833,-0.51936460,1.36502111,-1.25997734,2.87979317,0.00000000,0.00000000
0.12257706,-2.16188860,-1.69081604,-1.46515560,-0.19915456,0.00000000,0.00000000,-2.99886775,-0.53077334,1.38163674,-1.28820705,2.87979317,0.00000000,0.00000000
0.15697280,-2.16492176,-1.67475641,-1.42404521,-0.20586812,0.00000000,0.00000000,-2.98543072,-0.54161251,1.39946449,-1.31625438,2.87979317,0.00000000,0.00000000
0.18789682,-2.16592073,-1.66617548,-1.38680387,-0.21106061,0.00000000,0.00000000,-2.97310615,-0.54955304,1.41648996,-1.33795965,2.87979317,0.00000000,0.00000000
0.20717181,-2.16616488,-1.66388166,-1.36545515,-0.21324901,0.00000000,0.00000000,-2.96503901,-0.55458194,1.42972255,-1.35131025,2.87979317,0.00000000,0.00000000
0.21314155,-2.16674876,-1.66692996,-1.36266744,-0.20853412,0.00000000,0.00000000,-2.96139526,-0.55684406,1.43735170,-1.35639894,2.87979317,0.00000000,0.00000000
0.20602967,-2.16776419,-1.67507923,-1.37658596,-0.20124102,0.00000000,0.00000000,-2.96143532,-0.55634290,1.43863583,-1.35383177,2.87979317,0.00000000,0.00000000
0.18689321,-2.16919136,-1.68730724,-1.40293050,-0.18913898,0.00000000,0.00000000,-2.96453881,-0.55353957,1.43298113,-1.34424341,2.87979317,0.00000000,0.00000000
0.15996154,-2.16981697,-1.70341349,-1.43428016,-0.17402756,0.00000000,0.00000000,-2.97081995,-0.54917485,1.41996872,-1.32777178,2.87979317,0.00000000,0.00000000
0.13044582,-2.16996288,-1.72100914,-1.46438706,-0.16175058,0.00000000,0.00000000,-2.98080325,-0.54388106,1.39985526,-1.30406320,2.87979317,0.00000000,0.00000000
0.10186791,-2.16999769,-1.73796213,-1.49004233,-0.15656464,0.00000000,0.00000000,-2.99395728,-0.53743166,1.37458706,-1.27295911,2.87979317,0.00000000,0.00000000
0.07661603,-2.16998887,-1.75313437,-1.50942993,-0.15003589,0.00000000,0.00000000,-3.00546360,-0.52877510,1.34843564,-1.23714197,2.87979317,0.00000000,0.00000000
0.05674686,-2.16979957,-1.76472139,-1.52116430,-0.14217965,0.00000000,0.00000000,-3.00952721,-0.51818568,1.32600796,-1.20403492,2.87979317,0.00000000,0.00000000
0.04332170,-2.16895413,-1.77025092,-1.52483785,-0.13733566,0.00000000,0.00000000,-3.00998402,-0.50848800,1.30923438,-1.18092954,2.87979317,0.00000000,0.00000000
0.03705733,-2.16739392,-1.76777291,-1.52042258,-0.12817006,0.00000000,0.00000000,-3.00999999,-0.50261062,1.29827130,-1.17093801,2.87979317,0.00000000,0.00000000
0.03912406,-2.16619611,-1.75604784,-1.50753176,-0.11898964,0.00000000,0.00000000,-3.00999999,-0.50275815,1.29257309,-1.17517042,2.87979317,0.00000000,0.00000000
0.05100206,-2.16652155,-1.73528743,-1.48520184,-0.11020353,0.00000000,0.00000000,-3.00989461,-0.51022267,1.29142606,-1.19412005,2.87979317,0.00000000,0.00000000
0.07401533,-2.16819239,-1.70882463,-1.45198441,-0.10188436,0.00000000,0.00000000,-3.00811672,-0.52477342,1.29473042,-1.22808015,2.87979317,0.00000000,0.00000000
0.10721128,-2.16958427,-1.68416095,-1.40849888,-0.09834304,0.00000000,0.00000000,-3.00044179,-0.54270262,1.30432701,-1.27445698,2.87979317,0.00000000,0.00000000
0.14313690,-2.16993427,-1.66922784,-1.36302233,-0.10061201,0.00000000,0.00000000,-2.98612332,-0.55804300,1.32179153,-1.32342517,2.87979317,0.00000000,0.00000000
0.17003559,-2.16934872,-1.66403401,-1.32997477,-0.10621872,0.00000000,0.00000000,-2.97072768,-0.57102293,1.34245670,-1.36724770,2.87979317,0.00000000,0.00000000
0.18504488,-2.16764855,-1.66448128,-1.31512809,-0.11287501,0.00000000,0.00000000,-2.95773768,-0.58219838,1.36234176,-1.40283227,2.87979317,0.00000000,0.00000000
0.19056328,-2.16671062,-1.66640377,-1.31867766,-0.11717068,0.00000000,0.00000000,-2.94810700,-0.59071302,1.37955499,-1.42881215,2.87979317,0.00000000,0.00000000
0.18904997,-2.16769791,-1.66742289,-1.33901381,-0.11835201,0.00000000,0.00000000,-2.94243550,-0.59539098,1.39314997,-1.44411778,2.87979317,0.00000000,0.00000000
0.18055463,-2.16936970,-1.66779268,-1.37291825,-0.11415769,0.00000000,0.00000000,-2.94121337,-0.59542233,1.40255725,-1.44798827,2.87979317,0.00000000,0.00000000
0.16566473,-2.16996050,-1.66998374,-1.41382957,-0.10809511,0.00000000,0.00000000,-2.94464827,-0.59072304,1.40726638,-1.44011486,2.87979317,0.00000000,0.00000000
0.14833006,-2.17000008,-1.67438030,-1.45394301,-0.09402027,0.00000000,0.00000000,-2.95287442,-0.58187747,1.40683401,-1.42050016,2.87979317,0.00000000,0.00000000
0.12999395,-2.17000008,-1.67915213,-1.49071586,-0.07888020,0.00000000,0.00000000,-2.96629000,-0.57000548,1.40093160,-1.38931787,2.87979317,0.00000000,0.00000000
0.11094239,-2.17000008,-1.68296254,-1.52383304,-0.06392264,0.00000000,0.00000000,-2.98446298,-0.55641919,1.38994110,-1.34760237,2.87979317,0.00000000,0.00000000
0.09183373,-2.17000008,-1.68511391,-1.55276692,-0.05318059,0.00000000,0.00000000,-3.00132608,-0.54258823,1.37603605,-1.30083096,2.87979317,0.00000000,0.00000000
0.07416724,-2.17000008,-1.68476951,-1.57627678,-0.04864465,0.00000000,0.00000000,-3.00864935,-0.53093827,1.36202800,-1.25965750,2.87979317,0.00000000,0.00000000
0.05969273,-2.17000008,-1.68161440,-1.59293187,-0.04811140,0.00000000,0.00000000,-3.00993347,-0.52379292,1.34942818,-1.23075032,2.87979317,0.00000000,0.00000000
0.04990400,-2.17000008,-1.67615676,-1.60144496,-0.04678151,0.00000000,0.00000000,-3.00999999,-0.52205914,1.33921301,-1.21597242,2.87979317,0.00000000,0.00000000
0.04610346,-2.17000008,-1.66916883,-1.60064137,-0.04303601,0.00000000,0.00000000,-3.00999999,-0.52578539,1.33197606,-1.21559918,2.87979317,0.00000000,0.00000000
0.04940021,-2.17000008,-1.66160941,-1.58950400,-0.04477322,0.00000000,0.00000000,-3.00992632,-0.53490633,1.32775080,-1.22943079,2.87979317,0.00000000,0.00000000
0.06042016,-2.16997218,-1.65540707,-1.56741476,-0.04278910,0.00000000,0.00000000,-3.00867391,-0.54852027,1.32669115,-1.25636256,2.87979317,0.00000000,0.00000000
0.07798239,-2.16943622,-1.65270877,-1.53537130,-0.04004649,0.00000000,0.00000000,-3.00310254,-0.56505615,1.32856750,-1.29242587,2.87979317,0.00000000,0.00000000
0.09752563,-2.16643310,-1.65553951,-1.49743319,-0.04679558,0.00000000,0.00000000,-2.99204683,-0.58224529,1.33242679,-1.32998931,2.87979317,0.00000000,0.00000000
0.11266033,-2.16022730,-1.66260886,-1.46237671,-0.05462530,0.00000000,0.00000000,-2.97887850,-0.59830314,1.33672774,-1.36299264,2.87979317,0.00000000,0.00000000
0.12067271,-2.15574145,-1.66697514,-1.44166112,-0.05952014,0.00000000,0.00000000,-2.96668410,-0.61139423,1.34071755,-1.38792276,2.87979317,0.00000000,0.00000000
0.12344716,-2.15532756,-1.66621697,-1.43783414,-0.06466802,0.00000000,0.00000000,-2.95764685,-0.61961859,1.34436238,-1.40235329,2.87979317,0.00000000,0.00000000
0.12260491,-2.15891242,-1.66056788,-1.44917047,-0.07098407,0.00000000,0.00000000,-2.95363283,-0.62189537,1.34727085,-1.40467381,2.87979317,0.00000000,0.00000000
0.11958380,-2.16523361,-1.65140116,-1.46990418,-0.08029509,0.00000000,0.00000000,-2.95568609,-0.61802727,1.34877336,-1.39425254,2.87979317,0.00000000,0.00000000
0.11234232,-2.16908073,-1.64483142,-1.49392188,-0.09993108,0.00000000,0.00000000,-2.96433377,-0.60833383,1.34838796,-1.37114561,2.87979317,0.00000000,0.00000000
0.10096179,-2.16994953,-1.64178300,-1.51834178,-0.11692727,0.00000000,0.00000000,-2.97919488,-0.59356123,1.34602642,-1.33627176,2.87979317,0.00000000,0.00000000
0.08673208,-2.17000008,-1.64055538,-1.54166102,-0.12898503,0.00000000,0.00000000,-2.99617887,-0.57602388,1.34179246,-1.29385674,2.87979317,0.00000000,0.00000000
0.07129334,-2.17000008,-1.63946760,-1.56220818,-0.14246647,0.00000000,0.00000000,-3.00700831,-0.56058270,1.33565462,-1.25434351,2.87979317,0.00000000,0.00000000
0.05669034,-2.17000008,-1.63873196,-1.57791281,-0.15533209,0.00000000,0.00000000,-3.00982594,-0.55135190,1.32797551,-1.22821450,2.87979317,0.00000000,0.00000000
0.04489223,-2.17000008,-1.63921857,-1.58688629,-0.15795606,0.00000000,0.00000000,-3.00999999,-0.54839945,1.32060480,-1.21737361,2.87979317,0.00000000,0.00000000
0.03735604,-2.17000008,-1.64109325,-1.58784831,-0.15541178,0.00000000,0.00000000,-3.00999999,-0.55000359,1.31530392,-1.21831298,2.87979317,0.00000000,0.00000000
0.03508542,-2.17000008,-1.64403296,-1.57997513,-0.15099016,0.00000000,0.00000000,-3.00999999,-0.55543047,1.31226432,-1.22789538,2.87979317,0.00000000,0.00000000
0.03898616,-2.16995597,-1.64795303,-1.56255126,-0.14722817,0.00000000,0.00000000,-3.00998068,-0.56440985,1.31109905,-1.24461961,2.87979317,0.00000000,0.00000000
0.04934050,-2.16922450,-1.65347755,-1.53537250,-0.14769100,0.00000000,0.00000000,-3.00960326,-0.57604092,1.31177080,-1.26723599,2.87979317,0.00000000,0.00000000
0.06423204,-2.16608953,-1.66154945,-1.50012517,-0.14744896,0.00000000,0.00000000,-3.00737071,-0.58905405,1.31395459,-1.29318428,2.87979317,0.00000000,0.00000000
0.07926700,-2.15962386,-1.67256200,-1.46100688,-0.14610606,0.00000000,0.00000000,-3.00192475,-0.60206157,1.31656766,-1.31786501,2.87979317,0.00000000,0.00000000
0.09063359,-2.15195942,-1.68377745,-1.42501926,-0.15215144,0.00000000,0.00000000,-2.99526095,-0.61409527,1.31846750,-1.33739805,2.87979317,0.00000000,0.00000000
0.09796243,-2.14863467,-1.68843055,-1.40146482,-0.15997332,0.00000000,0.00000000,-2.98929501,-0.62446243,1.31944788,-1.34973681,2.87979317,0.00000000,0.00000000
0.10148651,-2.15074968,-1.68529248,-1.39365029,-0.16776954,0.00000000,0.00000000,-2.98525071,-0.63217211,1.32018542,-1.35353959,2.87979317,0.00000000,0.00000000
0.10194711,-2.15665460,-1.67637408,-1.39998460,-0.17652626,0.00000000,0.00000000,-2.98408318,-0.63623148,1.32154620,-1.34783113,2.87979317,0.00000000,0.00000000
0.10091376,-2.16373062,-1.66476536,-1.41445863,-0.18503512,0.00000000,0.00000000,-2.98635626,-0.63597918,1.32415676,-1.33210611,2.87979317,0.00000000,0.00000000
0.09804096,-2.16850996,-1.65448022,-1.43275750,-0.18835410,0.00000000,0.00000000,-2.99229312,-0.63095486,1.32842791,-1.30629039,2.87979317,0.00000000,0.00000000
0.09183793,-2.16988134,-1.64796710,-1.45260024,-0.19364020,0.00000000,0.00000000,-3.00072479,-0.62058377,1.33516014,-1.27136075,2.87979317,0.00000000,0.00000000
0.08224971,-2.16999769,-1.64535987,-1.47233403,-0.20594440,0.00000000,0.00000000,-3.00773191,-0.60591346,1.34471214,-1.23128355,2.87979317,0.00000000,0.00000000
0.07133715,-2.17000008,-1.64421761,-1.48960507,-0.21111715,0.00000000,0.00000000,-3.00986195,-0.59252930,1.35452366,-1.19483304,2.87979317,0.00000000,0.00000000
0.06085090,-2.17000008,-1.64294028,-1.50254333,-0.21613580,0.00000000,0.00000000,-3.00999999,-0.58690929,1.36068153,-1.17136252,2.87979317,0.00000000,0.00000000
0.05223439,-2.17000008,-1.64239776,-1.50955153,-0.22437473,0.00000000,0.00000000,-3.00999999,-0.58909315,1.36350453,-1.16309547,2.87979317,0.00000000,0.00000000
0.04685871,-2.17000008,-1.64363337,-1.50924599,-0.22724542,0.00000000,0.00000000,-3.00999999,-0.59481823,1.36613607,-1.16583025,2.87979317,0.00000000,0.00000000
0.04592990,-2.17000008,-1.64686346,-1.50050592,-0.23494275,0.00000000,0.00000000,-3.00999999,-0.60243708,1.36937106,-1.17629623,2.87979317,0.00000000,0.00000000
0.05054487,-2.17000008,-1.65200639,-1.48238683,-0.24285579,0.00000000,0.00000000,-3.00993872,-0.61235970,1.37256837,-1.19417143,2.87979317,0.00000000,0.00000000
0.06115358,-2.16996169,-1.65922213,-1.45458639,-0.25003177,0.00000000,0.00000000,-3.00894022,-0.62432665,1.37535405,-1.21853065,2.87979317,0.00000000,0.00000000
0.07653755,-2.16934013,-1.66895056,-1.41842365,-0.25122774,0.00000000,0.00000000,-3.00499916,-0.63660425,1.37797046,-1.24509263,2.87979317,0.00000000,0.00000000
0.09283434,-2.16692972,-1.68053329,-1.37966144,-0.25052291,0.00000000,0.00000000,-2.99819708,-0.64754647,1.38067102,-1.26881742,2.87979317,0.00000000,0.00000000
0.10406385,-2.16338134,-1.69045043,-1.35034657,-0.24244538,0.00000000,0.00000000,-2.99079943,-0.65630251,1.38365281,-1.28626966,2.87979317,0.00000000,0.00000000
0.11131790,-2.16127920,-1.69528437,-1.33580148,-0.23650494,0.00000000,0.00000000,-2.98495722,-0.66226065,1.38729477,-1.29546416,2.87979317,0.00000000,0.00000000
0.11509173,-2.16167569,-1.69369495,-1.33731461,-0.23360582,0.00000000,0.00000000,-2.98179579,-0.66500044,1.39193285,-1.29548168,2.87979317,0.00000000,0.00000000
0.11544927,-2.16451335,-1.68564951,-1.35372412,-0.22567563,0.00000000,0.00000000,-2.98200703,-0.66438866,1.39765251,-1.28590596,2.87979317,0.00000000,0.00000000
0.11387777,-2.16817093,-1.67356372,-1.37958920,-0.21790907,0.00000000,0.00000000,-2.98650432,-0.66032678,1.40436745,-1.26637602,2.87979317,0.00000000,0.00000000
0.10904064,-2.16975546,-1.66307271,-1.40937185,-0.21485667,0.00000000,0.00000000,-2.99469805,-0.65207070,1.41283619,-1.23754776,2.87979317,0.00000000,0.00000000
0.09748386,-2.16998959,-1.65785372,-1.44149232,-0.21492940,0.00000000,0.00000000,-3.00282454,-0.63934320,1.42438531,-1.20269299,2.87979317,0.00000000,0.00000000
0.08300428,-2.17000008,-1.65666199,-1.47145033,-0.21740380,0.00000000,0.00000000,-3.00697207,-0.62673807,1.43673623,-1.16911626,2.87979317,0.00000000,0.00000000
0.06912862,-2.17000008,-1.65816689,-1.49591374,-0.21624520,0.00000000,0.00000000,-3.00900435,-0.62176520,1.44410133,-1.14484560,2.87979317,0.00000000,0.00000000
0.05755642,-2.17000008,-1.66205275,-1.51335418,-0.22007225,0.00000000,0.00000000,-3.00983953,-0.62432939,1.44675827,-1.13207340,2.87979317,0.00000000,0.00000000
0.04997142,-2.17000008,-1.66806352,-1.52252698,-0.22526142,0.00000000,0.00000000,-3.00999188,-0.63019317,1.44837737,-1.12984788,2.87979317,0.00000000,0.00000000
0.04807099,-2.17000008,-1.67566085,-1.52228284,-0.22829132,0.00000000,0.00000000,-3.00999999,-0.63694769,1.45078588,-1.13598907,2.87979317,0.00000000,0.00000000
0.05242852,-2.17000008,-1.68441379,-1.51233792,-0.23710655,0.00000000,0.00000000,-3.00999999,-0.64475709,1.45347929,-1.14909518,2.87979317,0.00000000,0.00000000
0.06074877,-2.16995454,-1.69391286,-1.49474275,-0.25055504,0.00000000,0.00000000,-3.00995159,-0.65403277,1.45557868,-1.16850591,2.87979317,0.00000000,0.00000000
0.06892924,-2.16931725,-1.70303369,-1.47348416,-0.26354602,0.00000000,0.00000000,-3.00916505,-0.66467506,1.45655119,-1.19280684,2.87979317,0.00000000,0.00000000
0.07588748,-2.16793394,-1.71018553,-1.45277357,-0.27423167,0.00000000,0.00000000,-3.00611734,-0.67563313,1.45667493,-1.21796596,2.87979317,0.00000000,0.00000000
0.08242822,-2.16747952,-1.71302688,-1.43939686,-0.28053710,0.00000000,0.00000000,-3.00109363,-0.68398452,1.45817590,-1.23980331,2.87979317,0.00000000,0.00000000
0.08770282,-2.16728067,-1.71255898,-1.43712127,-0.28499681,0.00000000,0.00000000,-2.99592805,-0.68807584,1.46240509,-1.25579441,2.87979317,0.00000000,0.00000000
0.08977953,-2.16843796,-1.70740545,-1.44448411,-0.29154193,0.00000000,0.00000000,-2.99186206,-0.68834448,1.46892798,-1.26498377,2.87979317,0.00000000,0.00000000
0.09098210,-2.16926718,-1.70073891,-1.45634794,-0.29649180,0.00000000,0.00000000,-2.98983765,-0.68611085,1.47638273,-1.26684964,2.87979317,0.00000000,0.00000000
0.09065948,-2.16979361,-1.69206500,-1.47065556,-0.30134907,0.00000000,0.00000000,-2.99069142,-0.68204266,1.48391521,-1.26102173,2.87979317,0.00000000,0.00000000
0.08557436,-2.16998672,-1.68238997,-1.48698413,-0.30678135,0.00000000,0.00000000,-2.99396658,-0.67635763,1.49127614,-1.24820554,2.87979317,0.00000000,0.00000000
0.07620671,-2.17000008,-1.67328072,-1.50344479,-0.30792767,0.00000000,0.00000000,-2.99685144,-0.66850394,1.49949884,-1.23102915,2.87979317,0.00000000,0.00000000
0.06654190,-2.17000008,-1.66598535,-1.51605070,-0.31104428,0.00000000,0.00000000,-2.99861717,-0.66024178,1.50784636,-1.21315444,2.87979317,0.00000000,0.00000000
0.05936645,-2.17000008,-1.66101420,-1.52209258,-0.30903703,0.00000000,0.00000000,-3.00083733,-0.65755469,1.51142633,-1.20015907,2.87979317,0.00000000,0.00000000
0.05647479,-2.17000008,-1.65813756,-1.51996946,-0.30741999,0.00000000,0.00000000,-3.00431800,-0.66206002,1.50863016,-1.19374847,2.87979317,0.00000000,0.00000000
0.05894914,-2.16994667,-1.65693295,-1.50886703,-0.31321901,0.00000000,0.00000000,-3.00777364,-0.67192179,1.50062728,-1.19298780,2.87979317,0.00000000,0.00000000
0.06524903,-2.16920233,-1.65782118,-1.49020529,-0.32235834,0.00000000,0.00000000,-3.00910568,-0.68029034,1.49332142,-1.19398212,2.87979317,0.00000000,0.00000000
0.07210000,-2.16770315,-1.65874064,-1.46962762,-0.33223325,0.00000000,0.00000000,-3.00778818,-0.68444335,1.48902285,-1.19409692,2.87979317,0.00000000,0.00000000
0.07894827,-2.16818738,-1.65236819,-1.45627582,-0.34558520,0.00000000,0.00000000,-3.00507736,-0.68576127,1.48620796,-1.19082749,2.87979317,0.00000000,0.00000000
0.07783740,-2.16951704,-1.64032018,-1.45799863,-0.36134559,0.00000000,0.00000000,-3.00184679,-0.68472576,1.48407137,-1.18310142,2.87979317,0.00000000,0.00000000
0.06733960,-2.16997051,-1.63131547,-1.46794915,-0.37680942,0.00000000,0.00000000,-2.99874234,-0.68140841,1.48229730,-1.17163062,2.87979317,0.00000000,0.00000000
0.05595838,-2.17000008,-1.62982774,-1.47477603,-0.39291728,0.00000000,0.00000000,-2.99958396,-0.67595273,1.48073936,-1.15710449,2.87979317,0.00000000,0.00000000
0.04989479,-2.17000008,-1.63657665,-1.47277009,-0.40671149,0.00000000,0.00000000,-3.00500441,-0.66855329,1.47998667,-1.14341307,2.87979317,0.00000000,0.00000000
0.04999430,-2.16995978,-1.65060925,-1.46112347,-0.41578817,0.00000000,0.00000000,-3.00896740,-0.66406238,1.47738981,-1.13973868,2.87979317,0.00000000,0.00000000
0.05389718,-2.16933036,-1.66841114,-1.44170976,-0.42443141,0.00000000,0.00000000,-3.00987005,-0.66428542,1.47240424,-1.15091515,2.87979317,0.00000000,0.00000000
0.05962986,-2.16723371,-1.68427205,-1.41703057,-0.43164957,0.00000000,0.00000000,-3.00872111,-0.66907519,1.46521425,-1.17476904,2.87979317,0.00000000,0.00000000
0.06727916,-2.16548705,-1.69300365,-1.39070642,-0.44316369,0.00000000,0.00000000,-3.00350595,-0.67777801,1.45576501,-1.20516169,2.87979317,0.00000000,0.00000000
0.07567216,-2.16658211,-1.69150615,-1.37097383,-0.44716883,0.00000000,0.00000000,-2.99375439,-0.68665928,1.44628167,-1.23438382,2.87979317,0.00000000,0.00000000
0.08043167,-2.16849279,-1.68200481,-1.36587977,-0.45384994,0.00000000,0.00000000,-2.98357964,-0.69218570,1.43875301,-1.25656688,2.87979317,0.00000000,0.00000000
0.07846013,-2.16966963,-1.66678214,-1.37816811,-0.46097907,0.00000000,0.00000000,-2.97668910,-0.69314784,1.43330610,-1.26870608,2.87979317,0.00000000,0.00000000
0.06792218,-2.16998076,-1.64925706,-1.40499496,-0.45986712,0.00000000,0.00000000,-2.97517276,-0.68941742,1.42932129,-1.26948214,2.87979317,0.00000000,0.00000000
0.05236754,-2.17000008,-1.63511717,-1.43476868,-0.45456502,0.00000000,0.00000000,-2.98043942,-0.68092674,1.42661846,-1.25836527,2.87979317,0.00000000,0.00000000
0.03593390,-2.17000008,-1.62623477,-1.46077907,-0.44633645,0.00000000,0.00000000,-2.99188423,-0.66762942,1.42604804,-1.23625684,2.87979317,0.00000000,0.00000000
0.02105147,-2.17000008,-1.62163150,-1.48070681,-0.43577942,0.00000000,0.00000000,-3.00381684,-0.65124255,1.42846179,-1.20823586,2.87979317,0.00000000,0.00000000
0.00854189,-2.17000008,-1.61840248,-1.49380958,-0.42554632,0.00000000,0.00000000,-3.00905728,-0.63772780,1.43135071,-1.18505883,2.87979317,0.00000000,0.00000000
-0.00113325,-2.17000008,-1.61503017,-1.49973500,-0.41399568,0.00000000,0.00000000,-3.00995421,-0.63308311,1.43019474,-1.17449176,2.87979317,0.00000000,0.00000000
-0.00714117,-2.17000008,-1.61227894,-1.49775267,-0.39926639,0.00000000,0.00000000,-3.00999999,-0.63628751,1.42508852,-1.17359877,2.87979317,0.00000000,0.00000000
-0.00857704,-2.17000008,-1.61093700,-1.48709774,-0.37761265,0.00000000,0.00000000,-3.00999999,-0.64297014,1.41936088,-1.17899728,2.87979317,0.00000000,0.00000000
-0.00439792,-2.17000008,-1.61074483,-1.46701515,-0.35643935,0.00000000,0.00000000,-3.00993085,-0.65221500,1.41400087,-1.19241941,2.87979317,0.00000000,0.00000000
0.00522742,-2.16998887,-1.61191940,-1.43767488,-0.34080499,0.00000000,0.00000000,-3.00876856,-0.66417342,1.40902865,-1.21602941,2.87979317,0.00000000,0.00000000
0.01889708,-2.16976690,-1.61579525,-1.40049732,-0.32784483,0.00000000,0.00000000,-3.00375223,-0.67679369,1.40570223,-1.24665153,2.87979317,0.00000000,0.00000000
0.03414327,-2.16846013,-1.62254512,-1.35940635,-0.30924201,0.00000000,0.00000000,-2.99390697,-0.68763638,1.40519142,-1.27748275,2.87979317,0.00000000,0.00000000
0.04532882,-2.16572785,-1.62794232,-1.32469332,-0.29218036,0.00000000,0.00000000,-2.98171830,-0.69577748,1.40760911,-1.30380893,2.87979317,0.00000000,0.00000000
0.05481716,-2.16390729,-1.62771726,-1.30223501,-0.27465597,0.00000000,0.00000000,-2.96980095,-0.70117307,1.41218090,-1.32324302,2.87979317,0.00000000,0.00000000
0.06233259,-2.16410828,-1.62008071,-1.29426360,-0.25313815,0.00000000,0.00000000,-2.95985198,-0.70383567,1.41768384,-1.33461249,2.87979317,0.00000000,0.00000000
0.06651227,-2.16613269,-1.60458648,-1.30139506,-0.23045598,0.00000000,0.00000000,-2.95376921,-0.70395720,1.42266035,-1.33698320,2.87979317,0.00000000,0.00000000
0.06646282,-2.16869640,-1.58226120,-1.32274091,-0.21087383,0.00000000,0.00000000,-2.95342159,-0.70182908,1.42615187,-1.32951021,2.87979317,0.00000000,0.00000000
0.05984941,-2.16981912,-1.55714881,-1.35604751,-0.19052157,0.00000000,0.00000000,-2.95980930,-0.69709778,1.42886877,-1.31175125,2.87979317,0.00000000,0.00000000
0.04655122,-2.16999197,-1.53546798,-1.39573193,-0.16724032,0.00000000,0.00000000,-2.97050977,-0.68858117,1.43389773,-1.28565395,2.87979317,0.00000000,0.00000000
0.03169575,-2.17000008,-1.52167130,-1.43281078,-0.14350633,0.00000000,0.00000000,-2.97965097,-0.67780739,1.44239032,-1.25904942,2.87979317,0.00000000,0.00000000
0.01812144,-2.17000008,-1.51562929,-1.46321106,-0.12320569,0.00000000,0.00000000,-2.98507452,-0.67087889,1.44924176,-1.24266863,2.87979317,0.00000000,0.00000000
0.00746928,-2.17000008,-1.51571620,-1.48538470,-0.10375534,0.00000000,0.00000000,-2.98965001,-0.66929609,1.45205390,-1.23645949,2.87979317,0.00000000,0.00000000
-0.00005388,-2.17000008,-1.52000940,-1.49917853,-0.09020060,0.00000000,0.00000000,-2.99477601,-0.67234486,1.45051265,-1.23582947,2.87979317,0.00000000,0.00000000
-0.00494511,-2.17000008,-1.52724946,-1.50508189,-0.07724041,0.00000000,0.00000000,-3.00051069,-0.67734671,1.44653893,-1.23714197,2.87979317,0.00000000,0.00000000
-0.00691308,-2.17000008,-1.53695738,-1.50298488,-0.06121213,0.00000000,0.00000000,-3.00608969,-0.68456984,1.43963373,-1.24135160,2.87979317,0.00000000,0.00000000
-0.00448541,-2.17000008,-1.54877019,-1.49188042,-0.04455889,0.00000000,0.00000000,-3.00921583,-0.69503909,1.42920232,-1.25225675,2.87979317,0.00000000,0.00000000
0.00381761,-2.16997266,-1.56298065,-1.47076368,-0.02962478,0.00000000,0.00000000,-3.00990462,-0.70479459,1.41968644,-1.26887488,2.87979317,0.00000000,0.00000000
0.01747186,-2.16957808,-1.58109796,-1.44032335,-0.01375507,0.00000000,0.00000000,-3.00914550,-0.71141446,1.41365206,-1.28775299,2.87979317,0.00000000,0.00000000
0.03317956,-2.16861057,-1.60255575,-1.40561032,-0.00437775,0.00000000,0.00000000,-3.00634003,-0.71501273,1.41070783,-1.30518115,2.87979317,0.00000000,0.00000000
0.04659599,-2.16816521,-1.62074649,-1.37717855,0.00505557,0.00000000,0.00000000,-3.00229216,-0.71567816,1.40998256,-1.31826842,2.87979317,0.00000000,0.00000000
0.05769394,-2.16825604,-1.63291717,-1.36118913,0.01722051,0.00000000,0.00000000,-2.99815917,-0.71366012,1.41032183,-1.32560050,2.87979317,0.00000000,0.00000000
0.06685854,-2.16900682,-1.63812506,-1.35897636,0.02786612,0.00000000,0.00000000,-2.99480319,-0.70895529,1.41103792,-1.32650328,2.87979317,0.00000000,0.00000000
0.07462302,-2.16975880,-1.63775814,-1.36856806,0.03606979,0.00000000,0.00000000,-2.99283457,-0.70156133,1.41181576,-1.32064962,2.87979317,0.00000000,0.00000000
0.08088701,-2.16998577,-1.63478184,-1.38490820,0.04775336,0.00000000,0.00000000,-2.99284911,-0.69257641,1.41159570,-1.30778587,2.87979317,0.00000000,0.00000000
0.08248850,-2.17000008,-1.62983072,-1.40476763,0.05221816,0.00000000,0.00000000,-2.99595666,-0.68300557,1.40975249,-1.28706622,2.87979317,0.00000000,0.00000000
0.07994515,-2.17000008,-1.62769043,-1.42463744,0.05417610,0.00000000,0.00000000,-3.00204539,-0.67248702,1.40801072,-1.25845933,2.87979317,0.00000000,0.00000000
0.07576326,-2.17000008,-1.62983799,-1.44122469,0.05155046,0.00000000,0.00000000,-3.00742579,-0.66150427,1.40820706,-1.22553539,2.87979317,0.00000000,0.00000000
0.07223307,-2.17000008,-1.63482547,-1.45229411,0.04937063,0.00000000,0.00000000,-3.00960660,-0.65250045,1.40971255,-1.19423079,2.87979317,0.00000000,0.00000000
0.07042269,-2.17000008,-1.64202690,-1.45705700,0.04944726,0.00000000,0.00000000,-3.00998068,-0.64644861,1.41246915,-1.17075121,2.87979317,0.00000000,0.00000000
0.07005723,-2.17000008,-1.65047288,-1.45619500,0.05252014,0.00000000,0.00000000,-3.00999999,-0.64334488,1.41633248,-1.15687132,2.87979317,0.00000000,0.00000000
0.07063568,-2.17000008,-1.65776503,-1.45130026,0.04943002,0.00000000,0.00000000,-3.00999999,-0.64405853,1.41993630,-1.15157390,2.87979317,0.00000000,0.00000000
0.07337399,-2.17000008,-1.66121244,-1.44282973,0.04898449,0.00000000,0.00000000,-3.00999999,-0.64920491,1.42219317,-1.15424263,2.87979317,0.00000000,0.00000000
0.07950400,-2.17000008,-1.66120672,-1.42964613,0.05535560,0.00000000,0.00000000,-3.00999999,-0.65822619,1.42311978,-1.16471970,2.87979317,0.00000000,0.00000000
0.08789296,-2.17000008,-1.66003275,-1.41206217,0.06493766,0.00000000,0.00000000,-3.00999546,-0.66944706,1.42367089,-1.18225861,2.87979317,0.00000000,0.00000000
0.09715328,-2.17000008,-1.66015482,-1.39222765,0.06916039,0.00000000,0.00000000,-3.00986481,-0.68032557,1.42535949,-1.20365071,2.87979317,0.00000000,0.00000000
0.10652386,-2.17000008,-1.66303968,-1.37532949,0.07025367,0.00000000,0.00000000,-3.00865746,-0.68856561,1.42950022,-1.22452033,2.87979317,0.00000000,0.00000000
0.11427706,-2.17000008,-1.66684842,-1.36925566,0.07524056,0.00000000,0.00000000,-3.00472975,-0.69301343,1.43645108,-1.24186885,2.87979317,0.00000000,0.00000000
0.12244712,-2.17000008,-1.67042756,-1.37157655,0.07611279,0.00000000,0.00000000,-2.99879742,-0.69416314,1.44472778,-1.25386775,2.87979317,0.00000000,0.00000000
0.13104157,-2.17000008,-1.67453694,-1.37673354,0.07695656,0.00000000,0.00000000,-2.99302745,-0.69291455,1.45214772,-1.25897110,2.87979317,0.00000000,0.00000000
0.13499957,-2.17000008,-1.67939317,-1.38557541,0.07992323,0.00000000,0.00000000,-2.98903823,-0.68961710,1.45727694,-1.25623035,2.87979317,0.00000000,0.00000000
0.13292605,-2.17000008,-1.68307805,-1.40099716,0.08534044,0.00000000,0.00000000,-2.98789310,-0.68465930,1.45921588,-1.24523187,2.87979317,0.00000000,0.00000000
0.12505625,-2.17000008,-1.68603420,-1.42179060,0.08494649,0.00000000,0.00000000,-2.99087286,-0.67870367,1.45749736,-1.22546649,2.87979317,0.00000000,0.00000000
0.11259801,-2.17000008,-1.68979609,-1.44360685,0.08537403,0.00000000,0.00000000,-2.99805021,-0.67098761,1.45382953,-1.19688642,2.87979317,0.00000000,0.00000000
0.09723471,-2.17000008,-1.69463241,-1.46357727,0.08277522,0.00000000,0.00000000,-3.00576544,-0.66084087,1.45078671,-1.16225433,2.87979317,0.00000000,0.00000000
0.08128811,-2.17000008,-1.69981420,-1.47952104,0.07963975,0.00000000,0.00000000,-3.00931406,-0.64941984,1.44992745,-1.13015306,2.87979317,0.00000000,0.00000000
0.06680847,-2.17000008,-1.70455670,-1.48970008,0.08329520,0.00000000,0.00000000,-3.00996542,-0.64079660,1.44976151,-1.11329031,2.87979317,0.00000000,0.00000000
0.05522917,-2.17000008,-1.70830178,-1.49292171,0.09473195,0.00000000,0.00000000,-3.00995708,-0.63631403,1.44938636,-1.11441267,2.87979317,0.00000000,0.00000000
0.04806945,-2.17000008,-1.71070325,-1.48797941,0.11552940,0.00000000,0.00000000,-3.00922394,-0.63602936,1.44804835,-1.13068724,2.87979317,0.00000000,0.00000000
0.04625409,-2.17000008,-1.71139348,-1.47418511,0.13803263,0.00000000,0.00000000,-3.00586128,-0.64015639,1.44459569,-1.15782702,2.87979317,0.00000000,0.00000000
0.05060782,-2.17000008,-1.71053994,-1.45097446,0.15920994,0.00000000,0.00000000,-2.99821568,-0.64728081,1.43920290,-1.19031298,2.87979317,0.00000000,0.00000000
0.06131179,-2.17000008,-1.70920479,-1.41846287,0.18178347,0.00000000,0.00000000,-2.98666716,-0.65325314,1.43460155,-1.22254372,2.87979317,0.00000000,0.00000000
0.07601405,-2.17000008,-1.70962322,-1.37971306,0.20655107,0.00000000,0.00000000,-2.97419095,-0.65628868,1.43142796,-1.24994862,2.87979317,0.00000000,0.00000000
0.08982734,-2.17000008,-1.71301806,-1.34342754,0.22561827,0.00000000,0.00000000,-2.96378469,-0.65668362,1.42853010,-1.26951528,2.87979317,0.00000000,0.00000000
0.09785525,-2.17000008,-1.71456158,-1.32195234,0.24558479,0.00000000,0.00000000,-2.95644426,-0.65472645,1.42524195,-1.28005350,2.87979317,0.00000000,0.00000000
0.09953398,-2.17000008,-1.71287012,-1.31824052,0.26970693,0.00000000,0.00000000,-2.95256639,-0.65067381,1.42119503,-1.28104997,2.87979317,0.00000000,0.00000000
0.09582459,-2.17000008,-1.70860803,-1.33127975,0.29665777,0.00000000,0.00000000,-2.95293522,-0.64420748,1.41655707,-1.27189291,2.87979317,0.00000000,0.00000000
0.08626056,-2.17000008,-1.70328116,-1.35871506,0.32062754,0.00000000,0.00000000,-2.95864630,-0.63488024,1.41173959,-1.25191534,2.87979317,0.00000000,0.00000000
0.07057996,-2.17000008,-1.69950843,-1.39324546,0.35132903,0.00000000,0.00000000,-2.97053742,-0.62323952,1.40661919,-1.22087574,2.87979317,0.00000000,0.00000000
0.05457964,-2.17000008,-1.69751990,-1.42475569,0.38037136,0.00000000,0.00000000,-2.98764157,-0.61003226,1.40126586,-1.17999256,2.87979317,0.00000000,0.00000000
0.04059249,-2.17000008,-1.69573021,-1.44971979,0.41376027,0.00000000,0.00000000,-3.00325584,-0.59706336,1.39579761,-1.13689232,2.87979317,0.00000000,0.00000000
0.02918943,-2.17000008,-1.69335127,-1.46738434,0.44486025,0.00000000,0.00000000,-3.00917649,-0.58854693,1.38905525,-1.10648704,2.87979317,0.00000000,0.00000000
0.02106792,-2.17000008,-1.69057167,-1.47714806,0.46846896,0.00000000,0.00000000,-3.00996661,-0.58444595,1.38213980,-1.09405816,2.87979317,0.00000000,0.00000000
0.01671673,-2.17000008,-1.68739712,-1.47870398,0.48967347,0.00000000,0.00000000,-3.00999165,-0.58405447,1.37584376,-1.09844434,2.87979317,0.00000000,0.00000000
0.01665659,-2.17000008,-1.68348944,-1.47178054,0.51597738,0.00000000,0.00000000,-3.00970888,-0.58681446,1.37047768,-1.11846483,2.87979317,0.00000000,0.00000000
0.02178982,-2.17000008,-1.67863417,-1.45587301,0.54569507,0.00000000,0.00000000,-3.00685954,-0.59304386,1.36524010,-1.15333056,2.87979317,0.00000000,0.00000000
0.03297976,-2.17000008,-1.67302704,-1.43054128,0.57766813,0.00000000,0.00000000,-2.99774337,-0.60253376,1.35909843,-1.19736004,2.87979317,0.00000000,0.00000000
0.04940072,-2.17000008,-1.66756415,-1.39672768,0.60968238,0.00000000,0.00000000,-2.98472190,-0.61111099,1.35416186,-1.24103594,2.87979317,0.00000000,0.00000000
0.06906074,-2.17000008,-1.66389465,-1.35905433,0.64026552,0.00000000,0.00000000,-2.97185421,-0.61692756,1.35091197,-1.27848756,2.87979317,0.00000000,0.00000000
0.09011760,-2.17000008,-1.66171706,-1.32734931,0.67246687,0.00000000,0.00000000,-2.96181774,-0.61946106,1.34893644,-1.30687809,2.87979317,0.00000000,0.00000000
0.10207967,-2.17000008,-1.65994084,-1.31374347,0.70216191,0.00000000,0.00000000,-2.95558476,-0.61898553,1.34728360,-1.32507551,2.87979317,0.00000000,0.00000000
0.10344601,-2.17000008,-1.65736496,-1.31992543,0.74297905,0.00000000,0.00000000,-2.95374584,-0.61580324,1.34506822,-1.33247077,2.87979317,0.00000000,0.00000000
0.09576702,-2.17000008,-1.65498912,-1.34194863,0.78014344,0.00000000,0.00000000,-2.95711565,-0.60990256,1.34187329,-1.32848299,2.87979317,0.00000000,0.00000000
0.08316214,-2.17000008,-1.65597451,-1.36801767,0.81883782,0.00000000,0.00000000,-2.96664071,-0.60154212,1.33730447,-1.31267762,2.87979317,0.00000000,0.00000000
0.06926039,-2.17000008,-1.65910876,-1.39109707,0.85702109,0.00000000,0.00000000,-2.98242259,-0.59165734,1.33080268,-1.28552926,2.87979317,0.00000000,0.00000000
0.05706311,-2.17000008,-1.66185093,-1.40783203,0.89213490,0.00000000,0.00000000,-2.99931335,-0.58173764,1.32263136,-1.25175822,2.87979317,0.00000000,0.00000000
0.04847532,-2.17000008,-1.66251922,-1.41652071,0.92217910,0.00000000,0.00000000,-3.00803852,-0.57376152,1.31449127,-1.22215664,2.87979317,0.00000000,0.00000000
0.04468530,-2.17000008,-1.66031778,-1.41645217,0.94737780,0.00000000,0.00000000,-3.00989389,-0.56999236,1.30704296,-1.20500124,2.87979317,0.00000000,0.00000000
0.04725875,-2.17000008,-1.65477359,-1.40690422,0.96456212,0.00000000,0.00000000,-3.00992084,-0.57169390,1.30021822,-1.20253968,2.87979317,0.00000000,0.00000000
0.05847482,-2.17000008,-1.64622343,-1.38678420,0.97882378,0.00000000,0.00000000,-3.00861788,-0.57808840,1.29469061,-1.21372271,2.87979317,0.00000000,0.00000000
0.07650649,-2.17000008,-1.63670051,-1.36013484,0.99180901,0.00000000,0.00000000,-3.00338101,-0.58618361,1.29172778,-1.23321533,2.87979317,0.00000000,0.00000000
0.09067917,-2.17000008,-1.62863708,-1.34197366,1.00195527,0.00000000,0.00000000,-2.99484396,-0.59283763,1.29100275,-1.25105119,2.87979317,0.00000000,0.00000000
0.09748843,-2.17000008,-1.62121594,-1.33980608,1.01056290,0.00000000,0.00000000,-2.98776960,-0.59727329,1.29059231,-1.26078594,2.87979317,0.00000000,0.00000000
0.09600392,-2.17000008,-1.61388421,-1.35592222,1.02132750,0.00000000,0.00000000,-2.98462558,-0.59959018,1.28916168,-1.26053452,2.87979317,0.00000000,0.00000000
0.08838639,-2.17000008,-1.60707080,-1.38663423,1.02650154,0.00000000,0.00000000,-2.98584437,-0.59958863,1.28622901,-1.24995911,2.87979317,0.00000000,0.00000000
0.07952716,-2.17000008,-1.60343051,-1.41922665,1.02763319,0.00000000,0.00000000,-2.99142957,-0.59729624,1.28140247,-1.22917390,2.87979317,0.00000000,0.00000000
0.06978722,-2.17000008,-1.60360456,-1.44875896,1.02947223,0.00000000,0.00000000,-3.00019741,-0.59311420,1.27457917,-1.19939303,2.87979317,0.00000000,0.00000000
0.06036578,-2.17000008,-1.60611367,-1.47331393,1.02426481,0.00000000,0.00000000,-3.00760579,-0.58801657,1.26674700,-1.16592324,2.87979317,0.00000000,0.00000000
0.05241502,-2.17000008,-1.60982704,-1.49168444,1.02279770,0.00000000,0.00000000,-3.00985456,-0.58353829,1.25989044,-1.13861918,2.87979317,0.00000000,0.00000000
0.04611670,-2.17000008,-1.61431706,-1.50359464,1.02090943,0.00000000,0.00000000,-3.00999999,-0.58114010,1.25482309,-1.12391698,2.87979317,0.00000000,0.00000000
0.04165342,-2.17000008,-1.61939228,-1.50888598,1.02132440,0.00000000,0.00000000,-3.00999999,-0.58077711,1.25189614,-1.12178564,2.87979317,0.00000000,0.00000000
0.03941911,-2.17000008,-1.62491429,-1.50727379,1.02432895,0.00000000,0.00000000,-3.00999999,-0.58148861,1.25134480,-1.12921011,2.87979317,0.00000000,0.00000000
0.03994250,-2.17000008,-1.63063490,-1.49838328,1.02426267,0.00000000,0.00000000,-3.00999999,-0.58288032,1.25303519,-1.14431715,2.87979317,0.00000000,0.00000000
0.04405653,-2.17000008,-1.63625681,-1.48164344,1.02408540,0.00000000,0.00000000,-3.00999403,-0.58511478,1.25683331,-1.16728902,2.87979317,0.00000000,0.00000000
0.05286086,-2.17000008,-1.64171803,-1.45629251,1.02757692,0.00000000,0.00000000,-3.00979400,-0.58850867,1.26259422,-1.19869244,2.87979317,0.00000000,0.00000000
0.06678035,-2.16998243,-1.64765441,-1.42213070,1.02494478,0.00000000,0.00000000,-3.00782466,-0.59279895,1.26972210,-1.23587012,2.87979317,0.00000000,0.00000000
0.08405715,-2.16972399,-1.65581357,-1.38102221,1.02464759,0.00000000,0.00000000,-3.00196242,-0.59695613,1.27693892,-1.27217805,2.87979317,0.00000000,0.00000000
