isaac-sim2real/sage/motion_files/wr75s/amass/0-Eyes_Japan_Dataset_yokoyama_karate-08-jab-yokoyama_poses_idx58.txt
l_joint1,l_joint2,l_joint3,l_joint4,l_joint5,l_joint6,l_joint7,r_joint1,r_joint2,r_joint3,r_joint4,r_joint5,r_joint6,r_joint7
-1.30470276,-2.00274777,-0.58570725,-0.80910593,0.14512703,0.00000000,0.00000000,-1.95430911,-0.56695670,0.76204371,-0.83212054,0.09022833,0.00000000,0.00000000
-1.30358624,-2.00439835,-0.58305144,-0.80993474,0.16144463,0.00000000,0.00000000,-1.95319307,-0.56838387,0.76178616,-0.83282131,0.09859660,0.00000000,0.00000000
-1.30127621,-2.00738573,-0.57844061,-0.81133729,0.17448381,0.00000000,0.00000000,-1.95120263,-0.57099169,0.76137078,-0.83401620,0.10784639,0.00000000,0.00000000
-1.29981339,-2.00927758,-0.57433301,-0.81247056,0.18643811,0.00000000,0.00000000,-1.94982231,-0.57237643,0.76099879,-0.83440155,0.11146573,0.00000000,0.00000000
-1.29925752,-2.00999045,-0.57127166,-0.81318295,0.19804959,0.00000000,0.00000000,-1.94919074,-0.57254124,0.76068932,-0.83405131,0.11840838,0.00000000,0.00000000
-1.29886317,-2.01027608,-0.56886840,-0.81363642,0.21152034,0.00000000,0.00000000,-1.94894135,-0.57234359,0.76043659,-0.83343369,0.12183463,0.00000000,0.00000000
-1.29833293,-2.01040936,-0.56686217,-0.81394714,0.22693525,0.00000000,0.00000000,-1.94883561,-0.57212156,0.76018518,-0.83271742,0.12303776,0.00000000,0.00000000
-1.29762316,-2.01051760,-0.56514382,-0.81418896,0.24173477,0.00000000,0.00000000,-1.94879735,-0.57196730,0.75992584,-0.83201289,0.12421472,0.00000000,0.00000000
-1.29688358,-2.01052141,-0.56369936,-0.81439364,0.25405079,0.00000000,0.00000000,-1.94882345,-0.57172322,0.75966698,-0.83132339,0.12243213,0.00000000,0.00000000
-1.29624641,-2.01034832,-0.56249470,-0.81459087,0.26507235,0.00000000,0.00000000,-1.94892085,-0.57141477,0.75941664,-0.83060122,0.12176674,0.00000000,0.00000000
-1.29579282,-2.01006269,-0.56149620,-0.81484079,0.27575192,0.00000000,0.00000000,-1.94906390,-0.57124740,0.75917596,-0.82987487,0.11688941,0.00000000,0.00000000
-1.29548550,-2.00974822,-0.56062335,-0.81518120,0.28757104,0.00000000,0.00000000,-1.94911897,-0.57136303,0.75899100,-0.82924849,0.11585154,0.00000000,0.00000000
-1.29525220,-2.00946736,-0.55976546,-0.81560546,0.29623622,0.00000000,0.00000000,-1.94906127,-0.57175756,0.75888890,-0.82878143,0.11180800,0.00000000,0.00000000
-1.29506183,-2.00931263,-0.55888069,-0.81608444,0.30515489,0.00000000,0.00000000,-1.94900954,-0.57235646,0.75884032,-0.82841796,0.10597375,0.00000000,0.00000000
-1.29501629,-2.00924277,-0.55801266,-0.81660801,0.31138006,0.00000000,0.00000000,-1.94897616,-0.57293874,0.75879645,-0.82808834,0.09550732,0.00000000,0.00000000
-1.29513180,-2.00915575,-0.55720353,-0.81715226,0.31214583,0.00000000,0.00000000,-1.94882858,-0.57341808,0.75876230,-0.82781011,0.08748767,0.00000000,0.00000000
-1.29534304,-2.00893927,-0.55648661,-0.81765592,0.31078586,0.00000000,0.00000000,-1.94856691,-0.57373816,0.75871873,-0.82754850,0.07842994,0.00000000,0.00000000
-1.29559529,-2.00856900,-0.55587178,-0.81810671,0.30930343,0.00000000,0.00000000,-1.94827509,-0.57389444,0.75865740,-0.82724893,0.06921685,0.00000000,0.00000000
-1.29578400,-2.00813651,-0.55535460,-0.81852967,0.31052861,0.00000000,0.00000000,-1.94801307,-0.57399267,0.75859445,-0.82690567,0.05162229,0.00000000,0.00000000
-1.29585254,-2.00771308,-0.55493295,-0.81896806,0.30848134,0.00000000,0.00000000,-1.94779038,-0.57410038,0.75856465,-0.82654685,0.02934120,0.00000000,0.00000000
-1.29578674,-2.00729108,-0.55460596,-0.81945133,0.29948911,0.00000000,0.00000000,-1.94763386,-0.57420111,0.75858390,-0.82617503,0.00458860,0.00000000,0.00000000
-1.29558218,-2.00684857,-0.55435282,-0.82000870,0.28752330,0.00000000,0.00000000,-1.94762087,-0.57426661,0.75864434,-0.82579541,-0.01582775,0.00000000,0.00000000
-1.29524934,-2.00638890,-0.55413210,-0.82068735,0.26559043,0.00000000,0.00000000,-1.94777954,-0.57436275,0.75877053,-0.82544923,-0.03623614,0.00000000,0.00000000
-1.29482532,-2.00590467,-0.55394578,-0.82151318,0.24207859,0.00000000,0.00000000,-1.94814622,-0.57455176,0.75897604,-0.82511228,-0.06042721,0.00000000,0.00000000
-1.29426610,-2.00537729,-0.55383623,-0.82247198,0.22027379,0.00000000,0.00000000,-1.94873428,-0.57480019,0.75921327,-0.82474416,-0.08888051,0.00000000,0.00000000
-1.29345417,-2.00482583,-0.55381060,-0.82355517,0.19952637,0.00000000,0.00000000,-1.94954026,-0.57506651,0.75945240,-0.82436907,-0.11106850,0.00000000,0.00000000
-1.29237294,-2.00428843,-0.55385464,-0.82478845,0.18070386,0.00000000,0.00000000,-1.95053959,-0.57545513,0.75972271,-0.82402545,-0.13739587,0.00000000,0.00000000
-1.29119051,-2.00367665,-0.55398768,-0.82619023,0.16448572,0.00000000,0.00000000,-1.95156276,-0.57592285,0.76001620,-0.82373559,-0.17044662,0.00000000,0.00000000
-1.29006553,-2.00279927,-0.55422324,-0.82776052,0.15221395,0.00000000,0.00000000,-1.95236862,-0.57630056,0.76035196,-0.82349163,-0.19507261,0.00000000,0.00000000
-1.28905511,-2.00158596,-0.55456454,-0.82952601,0.13694306,0.00000000,0.00000000,-1.95285916,-0.57659286,0.76078773,-0.82331896,-0.21855019,0.00000000,0.00000000
-1.28814483,-2.00008893,-0.55502158,-0.83153105,0.11490994,0.00000000,0.00000000,-1.95312750,-0.57680380,0.76137495,-0.82325923,-0.23517165,0.00000000,0.00000000
-1.28702843,-1.99842811,-0.55561316,-0.83376551,0.09521421,0.00000000,0.00000000,-1.95342064,-0.57703048,0.76212281,-0.82331496,-0.24743527,0.00000000,0.00000000
-1.28554976,-1.99669266,-0.55631816,-0.83625549,0.07294417,0.00000000,0.00000000,-1.95382321,-0.57743949,0.76297891,-0.82343525,-0.26270449,0.00000000,0.00000000
-1.28377974,-1.99485183,-0.55708313,-0.83905762,0.05406510,0.00000000,0.00000000,-1.95425010,-0.57799530,0.76383877,-0.82361323,-0.27747267,0.00000000,0.00000000
-1.28181565,-1.99288762,-0.55783206,-0.84223533,0.03503843,0.00000000,0.00000000,-1.95461035,-0.57858038,0.76461703,-0.82393086,-0.30040273,0.00000000,0.00000000
-1.27972448,-1.99075687,-0.55848145,-0.84582132,0.01791796,0.00000000,0.00000000,-1.95490372,-0.57911253,0.76531047,-0.82448232,-0.32244682,0.00000000,0.00000000
-1.27747619,-1.98831689,-0.55902958,-0.84974158,0.00425198,0.00000000,0.00000000,-1.95525157,-0.57947552,0.76601553,-0.82527381,-0.34815362,0.00000000,0.00000000
-1.27501142,-1.98552811,-0.55952007,-0.85394317,-0.01267128,0.00000000,0.00000000,-1.95589828,-0.57962048,0.76683354,-0.82630718,-0.37710217,0.00000000,0.00000000
-1.27231801,-1.98241377,-0.56004673,-0.85843062,-0.03309805,0.00000000,0.00000000,-1.95698428,-0.57952803,0.76781875,-0.82764357,-0.39961451,0.00000000,0.00000000
-1.26949942,-1.97897637,-0.56066400,-0.86327547,-0.05683904,0.00000000,0.00000000,-1.95846462,-0.57913226,0.76889247,-0.82941830,-0.42590615,0.00000000,0.00000000
-1.26665127,-1.97523916,-0.56134748,-0.86857623,-0.07740229,0.00000000,0.00000000,-1.96023822,-0.57848245,0.76999849,-0.83180702,-0.44520485,0.00000000,0.00000000
-1.26382208,-1.97120690,-0.56208050,-0.87439007,-0.10093695,0.00000000,0.00000000,-1.96229112,-0.57761431,0.77108341,-0.83494616,-0.45944506,0.00000000,0.00000000
-1.26097238,-1.96682346,-0.56291735,-0.88069725,-0.12270582,0.00000000,0.00000000,-1.96471846,-0.57636517,0.77206659,-0.83887053,-0.48166713,0.00000000,0.00000000
-1.25803077,-1.96212173,-0.56391352,-0.88751441,-0.15368998,0.00000000,0.00000000,-1.96755838,-0.57460898,0.77294004,-0.84364235,-0.49404290,0.00000000,0.00000000
-1.25488746,-1.95710838,-0.56502777,-0.89486378,-0.18686838,0.00000000,0.00000000,-1.97083712,-0.57228917,0.77375138,-0.84933043,-0.49947649,0.00000000,0.00000000
-1.25147045,-1.95175576,-0.56622237,-0.90277553,-0.21381837,0.00000000,0.00000000,-1.97459900,-0.56943172,0.77456820,-0.85603756,-0.50493103,0.00000000,0.00000000
-1.24779069,-1.94604123,-0.56749731,-0.91129923,-0.24285439,0.00000000,0.00000000,-1.97897756,-0.56605637,0.77548724,-0.86381721,-0.52143425,0.00000000,0.00000000
-1.24386859,-1.93997025,-0.56881702,-0.92051154,-0.27168870,0.00000000,0.00000000,-1.98407400,-0.56214386,0.77655530,-0.87269419,-0.54044157,0.00000000,0.00000000
-1.23957467,-1.93349659,-0.57011521,-0.93040240,-0.29484534,0.00000000,0.00000000,-1.98990440,-0.55766308,0.77782583,-0.88271785,-0.56468153,0.00000000,0.00000000
-1.23470962,-1.92658174,-0.57132483,-0.94092876,-0.31651947,0.00000000,0.00000000,-1.99655497,-0.55260164,0.77929956,-0.89390677,-0.58523387,0.00000000,0.00000000
-1.22946465,-1.91906095,-0.57255358,-0.95211619,-0.34194455,0.00000000,0.00000000,-2.00401759,-0.54683447,0.78098673,-0.90622205,-0.60000432,0.00000000,0.00000000
-1.22391343,-1.91094303,-0.57382077,-0.96403444,-0.36239985,0.00000000,0.00000000,-2.01232648,-0.54040688,0.78289348,-0.91966486,-0.60968858,0.00000000,0.00000000
-1.21794820,-1.90226567,-0.57504135,-0.97669566,-0.38334620,0.00000000,0.00000000,-2.02148342,-0.53331447,0.78511077,-0.93422133,-0.61422044,0.00000000,0.00000000
-1.21140027,-1.89298165,-0.57608211,-0.99002540,-0.41161969,0.00000000,0.00000000,-2.03148794,-0.52545249,0.78767478,-0.94982368,-0.62153894,0.00000000,0.00000000
-1.20432520,-1.88303745,-0.57693589,-1.00401831,-0.44190350,0.00000000,0.00000000,-2.04237795,-0.51672256,0.79060251,-0.96637672,-0.62976229,0.00000000,0.00000000
-1.19665968,-1.87233078,-0.57759631,-1.01858151,-0.46424162,0.00000000,0.00000000,-2.05397105,-0.50702798,0.79401618,-0.98387647,-0.63877410,0.00000000,0.00000000
-1.18842208,-1.86057115,-0.57810205,-1.03352094,-0.49606216,0.00000000,0.00000000,-2.06591010,-0.49600828,0.79808247,-1.00225472,-0.64943206,0.00000000,0.00000000
-1.17943501,-1.84755313,-0.57833147,-1.04864192,-0.52551115,0.00000000,0.00000000,-2.07845044,-0.48338529,0.80251813,-1.02120304,-0.65642697,0.00000000,0.00000000
-1.16953206,-1.83259964,-0.57823336,-1.06343782,-0.55894470,0.00000000,0.00000000,-2.09218979,-0.46864218,0.80687684,-1.04009438,-0.66497880,0.00000000,0.00000000
-1.15878785,-1.81495965,-0.57779735,-1.07741094,-0.59560460,0.00000000,0.00000000,-2.10808325,-0.45112243,0.81046432,-1.05801284,-0.66620404,0.00000000,0.00000000
-1.14767861,-1.79504442,-0.57686001,-1.09093118,-0.63857073,0.00000000,0.00000000,-2.12608624,-0.43111944,0.81257093,-1.07501352,-0.65894079,0.00000000,0.00000000
-1.13634861,-1.77264774,-0.57532459,-1.10377622,-0.68536562,0.00000000,0.00000000,-2.14516163,-0.40843362,0.81331307,-1.09121275,-0.65382534,0.00000000,0.00000000
-1.12538433,-1.74621975,-0.57373291,-1.11488008,-0.72720337,0.00000000,0.00000000,-2.16440701,-0.38131121,0.81348616,-1.10555387,-0.63966912,0.00000000,0.00000000
-1.11499739,-1.71516454,-0.57211858,-1.12365246,-0.76559329,0.00000000,0.00000000,-2.18291211,-0.34876052,0.81353462,-1.11726487,-0.62806523,0.00000000,0.00000000
-1.10567689,-1.67979801,-0.57032788,-1.13016772,-0.79980218,0.00000000,0.00000000,-2.19946671,-0.31075034,0.81365669,-1.12598431,-0.60816211,0.00000000,0.00000000
-1.09784067,-1.64059460,-0.56819361,-1.13449979,-0.83215582,0.00000000,0.00000000,-2.21309900,-0.26725644,0.81408632,-1.13106859,-0.59520924,0.00000000,0.00000000
-1.09163845,-1.59811676,-0.56569654,-1.13648891,-0.85769284,0.00000000,0.00000000,-2.22364902,-0.21842901,0.81460184,-1.13159871,-0.58025646,0.00000000,0.00000000
-1.08655155,-1.55300653,-0.56253356,-1.13554811,-0.88536811,0.00000000,0.00000000,-2.23171067,-0.16516088,0.81424260,-1.12676060,-0.56258279,0.00000000,0.00000000
-1.08246863,-1.50500381,-0.55846006,-1.13053226,-0.90922803,0.00000000,0.00000000,-2.23770547,-0.10811080,0.81211567,-1.11564875,-0.54679388,0.00000000,0.00000000
-1.07961190,-1.45393479,-0.55293757,-1.12060380,-0.92217463,0.00000000,0.00000000,-2.24106812,-0.04809737,0.80778956,-1.09796691,-0.53291392,0.00000000,0.00000000
-1.07844770,-1.40018344,-0.54526019,-1.10537267,-0.93718165,0.00000000,0.00000000,-2.24139524,0.01404184,0.80090249,-1.07370961,-0.51698649,0.00000000,0.00000000
-1.07941890,-1.34452045,-0.53477138,-1.08467376,-0.95343041,0.00000000,0.00000000,-2.23790050,0.07715832,0.79139620,-1.04357648,-0.49647278,0.00000000,0.00000000
-1.08261049,-1.28770804,-0.52106589,-1.05849361,-0.96621525,0.00000000,0.00000000,-2.23040771,0.14078701,0.77930713,-1.00786424,-0.47204772,0.00000000,0.00000000
-1.08786917,-1.23084915,-0.50391537,-1.02745032,-0.97900105,0.00000000,0.00000000,-2.21911240,0.20443355,0.76460344,-0.96707517,-0.44417483,0.00000000,0.00000000
-1.09507763,-1.17500091,-0.48337710,-0.99244016,-0.98808330,0.00000000,0.00000000,-2.20424128,0.26738772,0.74735403,-0.92194903,-0.41973060,0.00000000,0.00000000
-1.10404253,-1.12132251,-0.45960280,-0.95475537,-0.99150169,0.00000000,0.00000000,-2.18589830,0.32913199,0.72781765,-0.87332654,-0.40199518,0.00000000,0.00000000
-1.11458075,-1.07080591,-0.43287590,-0.91573584,-0.99954706,0.00000000,0.00000000,-2.16444325,0.38908532,0.70613635,-0.82227683,-0.38473290,0.00000000,0.00000000
-1.12677586,-1.02397776,-0.40376866,-0.87649262,-1.00908458,0.00000000,0.00000000,-2.13997269,0.44681364,0.68270791,-0.76977396,-0.35957152,0.00000000,0.00000000
-1.14084423,-0.98099405,-0.37298942,-0.83778912,-1.01599896,0.00000000,0.00000000,-2.11229491,0.50187033,0.65813428,-0.71691024,-0.32893717,0.00000000,0.00000000
-1.15711451,-0.94130254,-0.34137550,-0.79989886,-1.01430988,0.00000000,0.00000000,-2.08142948,0.55417848,0.63295823,-0.66453367,-0.30554774,0.00000000,0.00000000
-1.17632449,-0.90427762,-0.31007570,-0.76312190,-1.01516449,0.00000000,0.00000000,-2.04727530,0.60383606,0.60782081,-0.61351812,-0.28527629,0.00000000,0.00000000
-1.19894040,-0.86972648,-0.28001288,-0.72777909,-1.01234913,0.00000000,0.00000000,-2.00989294,0.65029478,0.58320326,-0.56532359,-0.26577556,0.00000000,0.00000000
-1.22481251,-0.83756769,-0.25162515,-0.69397813,-1.00674927,0.00000000,0.00000000,-1.96983802,0.69318265,0.55927616,-0.52097762,-0.24502029,0.00000000,0.00000000
-1.25379610,-0.80756211,-0.22537470,-0.66171378,-1.00386691,0.00000000,0.00000000,-1.92769063,0.73256552,0.53619981,-0.48113534,-0.21702187,0.00000000,0.00000000
-1.28582525,-0.77927577,-0.20180851,-0.63090295,-0.99476248,0.00000000,0.00000000,-1.88383150,0.76889443,0.51424980,-0.44618717,-0.18699899,0.00000000,0.00000000
-1.32050657,-0.75240767,-0.18117763,-0.60141098,-0.97751468,0.00000000,0.00000000,-1.83883905,0.80240440,0.49350658,-0.41618758,-0.15409242,0.00000000,0.00000000
-1.35719275,-0.72716874,-0.16347964,-0.57332510,-0.96406001,0.00000000,0.00000000,-1.79300165,0.83340639,0.47430989,-0.39125505,-0.11337881,0.00000000,0.00000000
-1.39506221,-0.70431626,-0.14848071,-0.54703516,-0.94778025,0.00000000,0.00000000,-1.74683404,0.86177540,0.45669627,-0.37139425,-0.08092470,0.00000000,0.00000000
-1.43323922,-0.68425447,-0.13579567,-0.52261317,-0.92786324,0.00000000,0.00000000,-1.70119417,0.88723600,0.44013914,-0.35586432,-0.05064017,0.00000000,0.00000000
-1.47106588,-0.66687328,-0.12520461,-0.49988723,-0.91114771,0.00000000,0.00000000,-1.65676594,0.90974212,0.42409974,-0.34362519,-0.02020541,0.00000000,0.00000000
-1.50804651,-0.65144187,-0.11658709,-0.47837880,-0.89883804,0.00000000,0.00000000,-1.61388314,0.92992198,0.40836349,-0.33355328,0.00780205,0.00000000,0.00000000
-1.54368341,-0.63767177,-0.10971638,-0.45791689,-0.88117659,0.00000000,0.00000000,-1.57267499,0.94819903,0.39310077,-0.32523915,0.03107348,0.00000000,0.00000000
-1.57742155,-0.62573010,-0.10412795,-0.43854433,-0.86622548,0.00000000,0.00000000,-1.53324580,0.96456420,0.37850040,-0.31874818,0.05813972,0.00000000,0.00000000
-1.60870898,-0.61542124,-0.09914652,-0.42006305,-0.84612912,0.00000000,0.00000000,-1.49569869,0.97929209,0.36442998,-0.31368285,0.08657692,0.00000000,0.00000000
-1.63714862,-0.60674077,-0.09429154,-0.40253812,-0.83187562,0.00000000,0.00000000,-1.46012378,0.99241090,0.35095465,-0.31018052,0.11904101,0.00000000,0.00000000
-1.66253221,-0.59997886,-0.08948391,-0.38628545,-0.81859988,0.00000000,0.00000000,-1.42661715,1.00361490,0.33821842,-0.30870235,0.14956041,0.00000000,0.00000000
-1.68471694,-0.59522200,-0.08469462,-0.37156105,-0.80088007,0.00000000,0.00000000,-1.39521408,1.01297939,0.32630402,-0.30932045,0.17863911,0.00000000,0.00000000
-1.70358586,-0.59239846,-0.07986164,-0.35853171,-0.77722627,0.00000000,0.00000000,-1.36588800,1.02076328,0.31520665,-0.31187004,0.20648928,0.00000000,0.00000000
-1.71904445,-0.59120089,-0.07494663,-0.34716880,-0.75747180,0.00000000,0.00000000,-1.33856988,1.02739310,0.30491748,-0.31605050,0.23392174,0.00000000,0.00000000
-1.73101163,-0.59129798,-0.07000842,-0.33732125,-0.74157900,0.00000000,0.00000000,-1.31316316,1.03330779,0.29540971,-0.32153606,0.26585186,0.00000000,0.00000000
-1.73940754,-0.59242094,-0.06516239,-0.32873270,-0.72611326,0.00000000,0.00000000,-1.28954232,1.03894842,0.28658542,-0.32794505,0.30189887,0.00000000,0.00000000
-1.74415243,-0.59459800,-0.06052411,-0.32124421,-0.70905316,0.00000000,0.00000000,-1.26754379,1.04465353,0.27821013,-0.33487296,0.34373873,0.00000000,0.00000000
-1.74517143,-0.59824085,-0.05622037,-0.31490588,-0.69025409,0.00000000,0.00000000,-1.24701357,1.05040359,0.26998726,-0.34212863,0.37759379,0.00000000,0.00000000
-1.74240613,-0.60382676,-0.05242609,-0.30981314,-0.66796952,0.00000000,0.00000000,-1.22782397,1.05607033,0.26165122,-0.34968176,0.40349245,0.00000000,0.00000000
-1.73584342,-0.61156487,-0.04940869,-0.30592930,-0.65477681,0.00000000,0.00000000,-1.20989239,1.06165469,0.25308183,-0.35752892,0.43362877,0.00000000,0.00000000
-1.72552800,-0.62107724,-0.04756152,-0.30288386,-0.64421463,0.00000000,0.00000000,-1.19320655,1.06747663,0.24439445,-0.36561412,0.46493927,0.00000000,0.00000000
-1.71156931,-0.63170016,-0.04732673,-0.30013064,-0.63258207,0.00000000,0.00000000,-1.17781770,1.07383180,0.23583688,-0.37395307,0.49641198,0.00000000,0.00000000
-1.69414532,-0.64291662,-0.04914172,-0.29725638,-0.62266523,0.00000000,0.00000000,-1.16380620,1.08077824,0.22766739,-0.38272166,0.52188677,0.00000000,0.00000000
-1.67349184,-0.65432823,-0.05340648,-0.29402694,-0.59997386,0.00000000,0.00000000,-1.15126586,1.08825028,0.22010857,-0.39214298,0.54483074,0.00000000,0.00000000
-1.64988017,-0.66562569,-0.06043814,-0.29037601,-0.57541919,0.00000000,0.00000000,-1.14026141,1.09628260,0.21326226,-0.40227371,0.56053174,0.00000000,0.00000000
-1.62359405,-0.67655605,-0.07045947,-0.28636676,-0.55225581,0.00000000,0.00000000,-1.13080692,1.10512054,0.20709747,-0.41297558,0.56783926,0.00000000,0.00000000
-1.59491193,-0.68705517,-0.08361283,-0.28216711,-0.52256018,0.00000000,0.00000000,-1.12290001,1.11478317,0.20144816,-0.42425728,0.56689507,0.00000000,0.00000000
-1.56411600,-0.69716823,-0.10001601,-0.27806106,-0.49305812,0.00000000,0.00000000,-1.11655712,1.12507212,0.19612104,-0.43631074,0.57211381,0.00000000,0.00000000
-1.53150201,-0.70703048,-0.11979327,-0.27446949,-0.45624366,0.00000000,0.00000000,-1.11180389,1.13571513,0.19087683,-0.44940698,0.57620555,0.00000000,0.00000000
-1.49738312,-0.71673876,-0.14306998,-0.27186227,-0.42074016,0.00000000,0.00000000,-1.10865617,1.14649487,0.18541287,-0.46377337,0.57979411,0.00000000,0.00000000
-1.46206892,-0.72662359,-0.16992688,-0.27091888,-0.38892141,0.00000000,0.00000000,-1.10714436,1.15685678,0.17939825,-0.47984153,0.57950634,0.00000000,0.00000000
-1.42587602,-0.73696929,-0.20040376,-0.27238527,-0.36387041,0.00000000,0.00000000,-1.10724986,1.16660285,0.17245033,-0.49785084,0.58271056,0.00000000,0.00000000
-1.38918233,-0.74805850,-0.23457485,-0.27712673,-0.33700937,0.00000000,0.00000000,-1.10898018,1.17538583,0.16419911,-0.51819348,0.58128983,0.00000000,0.00000000
-1.35247231,-0.76061100,-0.27260011,-0.28638482,-0.30630830,0.00000000,0.00000000,-1.11251402,1.18160939,0.15446839,-0.54213172,0.58170778,0.00000000,0.00000000
-1.31632388,-0.77538007,-0.31466129,-0.30150726,-0.27578887,0.00000000,0.00000000,-1.11811829,1.18326151,0.14331909,-0.57124978,0.57358891,0.00000000,0.00000000
-1.28133690,-0.79283696,-0.36085299,-0.32364669,-0.24519788,0.00000000,0.00000000,-1.12598979,1.17890072,0.13095629,-0.60678613,0.56273884,0.00000000,0.00000000
-1.24804127,-0.81337082,-0.41110805,-0.35374650,-0.21867931,0.00000000,0.00000000,-1.13620782,1.16753995,0.11766147,-0.64960974,0.55362922,0.00000000,0.00000000
-1.21682227,-0.83717275,-0.46517149,-0.39224955,-0.20207258,0.00000000,0.00000000,-1.14871359,1.14836776,0.10374421,-0.70032948,0.54313964,0.00000000,0.00000000
-1.18784297,-0.86439335,-0.52257341,-0.43908346,-0.18659341,0.00000000,0.00000000,-1.16322780,1.12045550,0.08945192,-0.75947565,0.53111273,0.00000000,0.00000000
-1.16097987,-0.89553100,-0.58260149,-0.49417070,-0.16875055,0.00000000,0.00000000,-1.17918515,1.08353984,0.07513587,-0.82688683,0.51900375,0.00000000,0.00000000
-1.13561821,-0.93133581,-0.64416611,-0.55717045,-0.15552668,0.00000000,0.00000000,-1.19575357,1.03844261,0.06112329,-0.90140128,0.50908053,0.00000000,0.00000000
-1.11070085,-0.97240162,-0.70586079,-0.62723058,-0.14303353,0.00000000,0.00000000,-1.21199608,0.98675233,0.04748701,-0.98114115,0.49032173,0.00000000,0.00000000
-1.08519089,-1.01912928,-0.76628792,-0.70356846,-0.13149302,0.00000000,0.00000000,-1.22692025,0.93024611,0.03419187,-1.06399643,0.47020280,0.00000000,0.00000000
-1.05805790,-1.07126665,-0.82412416,-0.78510493,-0.12516488,0.00000000,0.00000000,-1.23962831,0.87127125,0.02108190,-1.14740717,0.45394343,0.00000000,0.00000000
-1.02826929,-1.12798321,-0.87812173,-0.87041020,-0.11052830,0.00000000,0.00000000,-1.24985516,0.81273466,0.00730754,-1.22836280,0.44039071,0.00000000,0.00000000
-0.99597597,-1.18835926,-0.92775494,-0.95893210,-0.09416857,0.00000000,0.00000000,-1.25735748,0.75691915,-0.00786007,-1.30465937,0.43098834,0.00000000,0.00000000
-0.96162194,-1.25021911,-0.97306490,-1.04916489,-0.08252517,0.00000000,0.00000000,-1.26241767,0.70540750,-0.02547042,-1.37595499,0.42145634,0.00000000,0.00000000
-0.92470837,-1.31115818,-1.01383376,-1.13865745,-0.07418449,0.00000000,0.00000000,-1.26567590,0.65943903,-0.04675426,-1.44346285,0.42194703,0.00000000,0.00000000
-0.88526565,-1.36977744,-1.05004358,-1.22597253,-0.07788152,0.00000000,0.00000000,-1.26667249,0.62013769,-0.07183278,-1.50804424,0.41942316,0.00000000,0.00000000
-0.84349239,-1.42483366,-1.08198822,-1.30981898,-0.08252356,0.00000000,0.00000000,-1.26476979,0.58825654,-0.10061990,-1.57050467,0.42129022,0.00000000,0.00000000
-0.79859489,-1.47534478,-1.10965621,-1.38843155,-0.08834503,0.00000000,0.00000000,-1.26074278,0.56678963,-0.13430859,-1.62815177,0.41960549,0.00000000,0.00000000
-0.74982727,-1.52067673,-1.13338482,-1.46036613,-0.09599413,0.00000000,0.00000000,-1.25433886,0.55772382,-0.17311022,-1.68036056,0.41893435,0.00000000,0.00000000
-0.69666386,-1.56038129,-1.15389514,-1.52485561,-0.10091819,0.00000000,0.00000000,-1.24414909,0.55956221,-0.21603061,-1.73275197,0.41857886,0.00000000,0.00000000
-0.63924807,-1.59428179,-1.17206013,-1.58189607,-0.12421274,0.00000000,0.00000000,-1.23076355,0.57227051,-0.26381567,-1.78574562,0.42199707,0.00000000,0.00000000
-0.57902956,-1.62192976,-1.18963087,-1.63145232,-0.15142661,0.00000000,0.00000000,-1.21400762,0.59613085,-0.31638858,-1.83854938,0.43159097,0.00000000,0.00000000
-0.51638204,-1.64452231,-1.20632529,-1.67422771,-0.17561018,0.00000000,0.00000000,-1.19426811,0.63005352,-0.37396750,-1.88971639,0.45008883,0.00000000,0.00000000
-0.45342800,-1.66298747,-1.22302973,-1.71183646,-0.19295454,0.00000000,0.00000000,-1.17173791,0.67272550,-0.43638882,-1.93893385,0.46415654,0.00000000,0.00000000
-0.39141479,-1.67794800,-1.24041820,-1.74572468,-0.21394251,0.00000000,0.00000000,-1.14687121,0.72333348,-0.50358403,-1.98592997,0.47826871,0.00000000,0.00000000
-0.33056247,-1.69006073,-1.25886059,-1.77702415,-0.23664910,0.00000000,0.00000000,-1.12041175,0.78152424,-0.57557195,-2.03007388,0.49131197,0.00000000,0.00000000
-0.26999679,-1.69922757,-1.27904391,-1.80527842,-0.26053569,0.00000000,0.00000000,-1.09246397,0.84751612,-0.65147680,-2.07086992,0.50662673,0.00000000,0.00000000
-0.20978040,-1.70558870,-1.30158997,-1.83009875,-0.28092447,0.00000000,0.00000000,-1.06310499,0.92085606,-0.73005778,-2.10713291,0.52332920,0.00000000,0.00000000
-0.15000711,-1.71024299,-1.32546270,-1.85177994,-0.29556817,0.00000000,0.00000000,-1.03302312,0.99968541,-0.81042773,-2.13870597,0.53745097,0.00000000,0.00000000
-0.09000555,-1.71373403,-1.34992397,-1.86985588,-0.30370083,0.00000000,0.00000000,-1.00338900,1.08225131,-0.89193374,-2.16619182,0.55482429,0.00000000,0.00000000
-0.02962182,-1.71664262,-1.37452197,-1.88477337,-0.31768307,0.00000000,0.00000000,-0.97513211,1.16742301,-0.97329414,-2.18885016,0.57293719,0.00000000,0.00000000
0.03069826,-1.71970737,-1.39899540,-1.89763927,-0.33884740,0.00000000,0.00000000,-0.94933057,1.25401235,-1.05309129,-2.20512819,0.58733863,0.00000000,0.00000000
0.09081093,-1.72381258,-1.42269146,-1.90936840,-0.35894856,0.00000000,0.00000000,-0.92685914,1.34064066,-1.12934208,-2.21198773,0.59797710,0.00000000,0.00000000
0.15060961,-1.72966027,-1.44522059,-1.92042232,-0.38676047,0.00000000,0.00000000,-0.90721422,1.42550659,-1.19903684,-2.20867205,0.61387801,0.00000000,0.00000000
0.21009652,-1.73786032,-1.46653748,-1.93080342,-0.41320872,0.00000000,0.00000000,-0.89375317,1.50650179,-1.26530445,-2.20364928,0.63409531,0.00000000,0.00000000
0.26905721,-1.74865818,-1.48720682,-1.94009507,-0.43775365,0.00000000,0.00000000,-0.88738453,1.58216178,-1.32746387,-2.20076513,0.64705276,0.00000000,0.00000000
0.32728243,-1.76199877,-1.50753367,-1.94794238,-0.47109488,0.00000000,0.00000000,-0.88851207,1.65157795,-1.38327491,-2.19988155,0.65020394,0.00000000,0.00000000
0.38433167,-1.77751327,-1.52774405,-1.95412207,-0.50146478,0.00000000,0.00000000,-0.89737326,1.71411526,-1.43206263,-2.19879627,0.64594895,0.00000000,0.00000000
0.43983206,-1.79485631,-1.54747415,-1.95852900,-0.52868831,0.00000000,0.00000000,-0.90776265,1.76850224,-1.47107828,-2.20249033,0.64445871,0.00000000,0.00000000
0.49297500,-1.81346881,-1.56639934,-1.96161902,-0.54946214,0.00000000,0.00000000,-0.92179877,1.81552124,-1.49946117,-2.20462918,0.63482118,0.00000000,0.00000000
0.54290867,-1.83253288,-1.58457565,-1.96387696,-0.56694651,0.00000000,0.00000000,-0.93832570,1.85581720,-1.51737213,-2.20174289,0.62341976,0.00000000,0.00000000
0.58920574,-1.85142434,-1.60209203,-1.96561825,-0.58172375,0.00000000,0.00000000,-0.95352113,1.88978636,-1.52347827,-2.19710875,0.60344297,0.00000000,0.00000000
0.63180077,-1.86983967,-1.61870980,-1.96710134,-0.59967607,0.00000000,0.00000000,-0.96622080,1.91822505,-1.51917732,-2.19313884,0.58536780,0.00000000,0.00000000
0.67071056,-1.88765919,-1.63396060,-1.96863461,-0.62044638,0.00000000,0.00000000,-0.97701931,1.94221890,-1.50873923,-2.19091845,0.56591511,0.00000000,0.00000000
0.70603114,-1.90470016,-1.64784956,-1.97031283,-0.63956058,0.00000000,0.00000000,-0.98740917,1.96277916,-1.49613178,-2.19006658,0.54094762,0.00000000,0.00000000
0.73800200,-1.92071056,-1.66082597,-1.97192609,-0.65265048,0.00000000,0.00000000,-0.99841857,1.98053443,-1.48291850,-2.18962550,0.51455432,0.00000000,0.00000000
0.76683515,-1.93546367,-1.67332888,-1.97312438,-0.66770494,0.00000000,0.00000000,-1.01032853,1.99579072,-1.46955168,-2.18924403,0.48304099,0.00000000,0.00000000
0.79288411,-1.94897676,-1.68528569,-1.97358179,-0.67383707,0.00000000,0.00000000,-1.02360106,2.00880218,-1.45673501,-2.18835282,0.44739908,0.00000000,0.00000000
0.81628472,-1.96137607,-1.69643474,-1.97334361,-0.68988109,0.00000000,0.00000000,-1.03816664,2.01973891,-1.44471109,-2.18688107,0.41149107,0.00000000,0.00000000
0.83657449,-1.97261083,-1.70700216,-1.97286355,-0.70288104,0.00000000,0.00000000,-1.05352867,2.02848554,-1.43346643,-2.18540478,0.37733558,0.00000000,0.00000000
0.85285610,-1.98242819,-1.71791673,-1.97265673,-0.71658719,0.00000000,0.00000000,-1.06901753,2.03467441,-1.42259943,-2.18466544,0.33795884,0.00000000,0.00000000
0.86485994,-1.99069095,-1.72947311,-1.97285199,-0.72620147,0.00000000,0.00000000,-1.08409202,2.03789616,-1.41175950,-2.18536568,0.30118302,0.00000000,0.00000000
0.87290865,-1.99763739,-1.74100840,-1.97342658,-0.73331243,0.00000000,0.00000000,-1.09884906,2.03768921,-1.40092397,-2.18751073,0.26254275,0.00000000,0.00000000
0.87770867,-2.00357294,-1.75164175,-1.97384739,-0.74198765,0.00000000,0.00000000,-1.11377978,2.03357601,-1.39020157,-2.19054627,0.22528961,0.00000000,0.00000000
0.87981290,-2.00864387,-1.76074469,-1.97356761,-0.75660890,0.00000000,0.00000000,-1.12936580,2.02505994,-1.37962139,-2.19388938,0.18560913,0.00000000,0.00000000
0.87921476,-2.01281524,-1.76801777,-1.97252584,-0.76554650,0.00000000,0.00000000,-1.14579546,2.01167083,-1.36935866,-2.19754457,0.14661001,0.00000000,0.00000000
0.87565655,-2.01599956,-1.77353489,-1.97079468,-0.77285910,0.00000000,0.00000000,-1.16315818,1.99300420,-1.35939062,-2.20165133,0.11030368,0.00000000,0.00000000
0.86882293,-2.01809263,-1.77759540,-1.96845198,-0.77869993,0.00000000,0.00000000,-1.18147123,1.96862245,-1.34897745,-2.20610094,0.07580083,0.00000000,0.00000000
0.85818982,-2.01895475,-1.78052652,-1.96579552,-0.77812976,0.00000000,0.00000000,-1.20049918,1.93795800,-1.33708346,-2.21103287,0.04239890,0.00000000,0.00000000
0.84305066,-2.01852846,-1.78248501,-1.96317065,-0.77704239,0.00000000,0.00000000,-1.21974909,1.90033567,-1.32285726,-2.21710467,0.00819385,0.00000000,0.00000000
0.82270306,-2.01683211,-1.78344417,-1.96091664,-0.77379662,0.00000000,0.00000000,-1.23843336,1.85491192,-1.30475533,-2.22499847,-0.01940768,0.00000000,0.00000000
0.79643101,-2.01391673,-1.78334892,-1.95959330,-0.76002175,0.00000000,0.00000000,-1.25569856,1.80081999,-1.28045523,-2.23501587,-0.04095543,0.00000000,0.00000000
0.76415598,-2.01017761,-1.78211379,-1.95955217,-0.74997121,0.00000000,0.00000000,-1.27127552,1.73770165,-1.24642682,-2.24593949,-0.05858332,0.00000000,0.00000000
0.72691137,-2.00660467,-1.77965963,-1.96050382,-0.73195511,0.00000000,0.00000000,-1.28674316,1.66583574,-1.20047569,-2.25395703,-0.07733143,0.00000000,0.00000000
0.68620551,-2.00422740,-1.77585161,-1.96192479,-0.71855307,0.00000000,0.00000000,-1.30450940,1.58573151,-1.14419889,-2.25758910,-0.09398811,0.00000000,0.00000000
0.64351648,-2.00351357,-1.77133358,-1.96299803,-0.69943398,0.00000000,0.00000000,-1.32665718,1.49981999,-1.07622015,-2.25913262,-0.10466623,0.00000000,0.00000000
0.60022891,-2.00441289,-1.76698887,-1.96275115,-0.68623614,0.00000000,0.00000000,-1.35585392,1.41085470,-0.99881035,-2.25550866,-0.10129065,0.00000000,0.00000000
0.55738705,-2.00661874,-1.76306832,-1.96057642,-0.67116904,0.00000000,0.00000000,-1.39187348,1.32038367,-0.91346705,-2.24276447,-0.09827183,0.00000000,0.00000000
0.51585114,-2.00984955,-1.75871050,-1.95632946,-0.65648746,0.00000000,0.00000000,-1.43677592,1.22795224,-0.82645249,-2.22812986,-0.09456663,0.00000000,0.00000000
0.47572371,-2.01353240,-1.75326252,-1.95061302,-0.64137506,0.00000000,0.00000000,-1.48961353,1.13541448,-0.73887873,-2.20947003,-0.09323101,0.00000000,0.00000000
0.43686777,-2.01674509,-1.74836099,-1.94318354,-0.62592953,0.00000000,0.00000000,-1.54600668,1.04633856,-0.64680517,-2.18084407,-0.09642570,0.00000000,0.00000000
0.39958334,-2.01937413,-1.74503970,-1.93326712,-0.60214615,0.00000000,0.00000000,-1.60690200,0.96085685,-0.55347717,-2.14752460,-0.10298483,0.00000000,0.00000000
0.36357561,-2.02139902,-1.74445999,-1.92089128,-0.58713287,0.00000000,0.00000000,-1.67074871,0.88192070,-0.45886862,-2.10715389,-0.11350287,0.00000000,0.00000000
0.32868797,-2.02278733,-1.74804878,-1.90635848,-0.57355684,0.00000000,0.00000000,-1.73599601,0.81097335,-0.36269826,-2.06148505,-0.12190240,0.00000000,0.00000000
0.29588273,-2.02427101,-1.75461197,-1.89039958,-0.55990058,0.00000000,0.00000000,-1.80191863,0.74575758,-0.26539898,-2.01682734,-0.12940377,0.00000000,0.00000000
0.26647779,-2.02662563,-1.76249385,-1.87455237,-0.55200744,0.00000000,0.00000000,-1.86845970,0.68503129,-0.16767520,-1.97543514,-0.13547222,0.00000000,0.00000000
0.24036211,-2.02980018,-1.77117324,-1.86169136,-0.54149580,0.00000000,0.00000000,-1.93555307,0.62918615,-0.07000490,-1.93799901,-0.14100645,0.00000000,0.00000000
0.21714097,-2.03370237,-1.77942252,-1.85442233,-0.53519243,0.00000000,0.00000000,-2.00332832,0.57651585,0.02708520,-1.90517521,-0.15096378,0.00000000,0.00000000
0.19849046,-2.03906798,-1.78463829,-1.85262096,-0.52734613,0.00000000,0.00000000,-2.07236409,0.52617782,0.12272788,-1.87572634,-0.15901448,0.00000000,0.00000000
0.18570593,-2.04419088,-1.79211843,-1.85255516,-0.51433438,0.00000000,0.00000000,-2.14341283,0.47909895,0.21592572,-1.84931624,-0.16571812,0.00000000,0.00000000
0.17874210,-2.04987884,-1.79898596,-1.85300481,-0.49562836,0.00000000,0.00000000,-2.21587849,0.43253690,0.30678260,-1.82633746,-0.17779221,0.00000000,0.00000000
0.17596759,-2.05634475,-1.80338728,-1.85391343,-0.47095191,0.00000000,0.00000000,-2.28897476,0.38425505,0.39549917,-1.80633497,-0.18374908,0.00000000,0.00000000
0.17567666,-2.06259036,-1.80752015,-1.85409069,-0.44330570,0.00000000,0.00000000,-2.36179996,0.33377227,0.48229885,-1.78760290,-0.19399557,0.00000000,0.00000000
0.17627613,-2.06829095,-1.81160760,-1.85379481,-0.41522464,0.00000000,0.00000000,-2.43302774,0.28050554,0.56754386,-1.76997173,-0.21560161,0.00000000,0.00000000
0.17724606,-2.07347083,-1.81559610,-1.85316896,-0.39794275,0.00000000,0.00000000,-2.50182533,0.22481553,0.65117711,-1.75347304,-0.24159014,0.00000000,0.00000000
0.17837906,-2.07819605,-1.81946826,-1.85223508,-0.38411307,0.00000000,0.00000000,-2.56782174,0.16717373,0.73260939,-1.73859072,-0.27314946,0.00000000,0.00000000
0.17936182,-2.08242083,-1.82312620,-1.85115564,-0.37245381,0.00000000,0.00000000,-2.63037658,0.10794551,0.81135470,-1.72616351,-0.30584434,0.00000000,0.00000000
0.18014321,-2.08614898,-1.82630086,-1.84988797,-0.35995489,0.00000000,0.00000000,-2.68855047,0.04774323,0.88718891,-1.71676755,-0.33291638,0.00000000,0.00000000
0.18068159,-2.08945251,-1.82860076,-1.84851015,-0.35188800,0.00000000,0.00000000,-2.74194694,-0.01277104,0.95942569,-1.71068180,-0.35731396,0.00000000,0.00000000
0.18027361,-2.09211373,-1.83017445,-1.84787643,-0.34338725,0.00000000,0.00000000,-2.79018807,-0.07269258,1.02758467,-1.70776880,-0.37952876,0.00000000,0.00000000
0.17896371,-2.09427810,-1.83090782,-1.84801471,-0.33447036,0.00000000,0.00000000,-2.83320689,-0.13105465,1.09114861,-1.70753396,-0.40524483,0.00000000,0.00000000
0.17705670,-2.09612751,-1.83057046,-1.84861612,-0.32370964,0.00000000,0.00000000,-2.87105966,-0.18702449,1.14961410,-1.70947373,-0.43816733,0.00000000,0.00000000
0.17470936,-2.09769440,-1.82910073,-1.84945691,-0.30801412,0.00000000,0.00000000,-2.90385127,-0.23986831,1.20263040,-1.71303511,-0.47344553,0.00000000,0.00000000
0.17225745,-2.09907508,-1.82655549,-1.85005486,-0.29204285,0.00000000,0.00000000,-2.93168783,-0.28905913,1.24997592,-1.71784270,-0.50830245,0.00000000,0.00000000
0.16981372,-2.10033059,-1.82297456,-1.85032737,-0.28006592,0.00000000,0.00000000,-2.95466518,-0.33425701,1.29159307,-1.72362053,-0.53935581,0.00000000,0.00000000
0.16728880,-2.10142207,-1.81850517,-1.85045278,-0.26894653,0.00000000,0.00000000,-2.97309351,-0.37519035,1.32760739,-1.72981632,-0.56914419,0.00000000,0.00000000
0.16475762,-2.10230398,-1.81349301,-1.85028446,-0.25947145,0.00000000,0.00000000,-2.98735476,-0.41165236,1.35840273,-1.73572469,-0.59589881,0.00000000,0.00000000
0.16211309,-2.10293174,-1.80822659,-1.84973407,-0.24285109,0.00000000,0.00000000,-2.99787116,-0.44368744,1.38431144,-1.74074984,-0.61994958,0.00000000,0.00000000
0.15931757,-2.10321474,-1.80288100,-1.84864593,-0.21733069,0.00000000,0.00000000,-3.00494981,-0.47142759,1.40579331,-1.74431098,-0.64016724,0.00000000,0.00000000
0.15616640,-2.10298038,-1.79765880,-1.84712827,-0.19191672,0.00000000,0.00000000,-3.00872970,-0.49506938,1.42345881,-1.74583662,-0.66658002,0.00000000,0.00000000
0.15216117,-2.10200262,-1.79282618,-1.84560180,-0.16683336,0.00000000,0.00000000,-3.00944638,-0.51495248,1.43784487,-1.74493158,-0.69125730,0.00000000,0.00000000
0.14697841,-2.10023618,-1.78840196,-1.84425545,-0.14623336,0.00000000,0.00000000,-3.00754571,-0.53161752,1.44923723,-1.74138820,-0.72349155,0.00000000,0.00000000
0.14055339,-2.09785318,-1.78408206,-1.84301853,-0.12451234,0.00000000,0.00000000,-3.00238204,-0.54580557,1.45770824,-1.73520422,-0.75215304,0.00000000,0.00000000
0.13297994,-2.09508300,-1.77948368,-1.84167683,-0.09995057,0.00000000,0.00000000,-2.99341726,-0.55814201,1.46358383,-1.72633684,-0.78307265,0.00000000,0.00000000
0.12463573,-2.09225464,-1.77402592,-1.83975434,-0.07918533,0.00000000,0.00000000,-2.98017550,-0.56909871,1.46734726,-1.71450567,-0.81383061,0.00000000,0.00000000
0.11524360,-2.08937597,-1.76736772,-1.83757532,-0.06668045,0.00000000,0.00000000,-2.96176267,-0.57904601,1.46967673,-1.69922674,-0.84111947,0.00000000,0.00000000
0.10481177,-2.08670902,-1.75879383,-1.83519387,-0.05618244,0.00000000,0.00000000,-2.93684244,-0.58828855,1.47135627,-1.67992985,-0.87183756,0.00000000,0.00000000
0.09382123,-2.08487439,-1.74705172,-1.83217168,-0.04879311,0.00000000,0.00000000,-2.90331125,-0.59708011,1.47329473,-1.65640867,-0.89908236,0.00000000,0.00000000
0.08311553,-2.08469820,-1.73038554,-1.82790923,-0.04216391,0.00000000,0.00000000,-2.85823464,-0.60531032,1.47653031,-1.62873447,-0.90983891,0.00000000,0.00000000
0.07330263,-2.08710504,-1.70680273,-1.82232368,-0.02088370,0.00000000,0.00000000,-2.79811549,-0.61211646,1.48224497,-1.59708238,-0.91973490,0.00000000,0.00000000
0.06423494,-2.09287119,-1.67493129,-1.81599402,0.00204234,0.00000000,0.00000000,-2.71991420,-0.61579913,1.49162197,-1.56135523,-0.92667437,0.00000000,0.00000000
0.05490630,-2.10195637,-1.63503349,-1.81016207,0.02068781,0.00000000,0.00000000,-2.62185550,-0.61460960,1.50573516,-1.52120602,-0.93277097,0.00000000,0.00000000
0.04320576,-2.11358666,-1.58907163,-1.80887973,0.04581027,0.00000000,0.00000000,-2.50446367,-0.60784823,1.52505946,-1.47556996,-0.94260168,0.00000000,0.00000000
0.02724277,-2.12558103,-1.54340291,-1.81562495,0.06578226,0.00000000,0.00000000,-2.37488055,-0.59620631,1.54999292,-1.42146420,-0.95218271,0.00000000,0.00000000
0.01068811,-2.13529539,-1.50654030,-1.82384586,0.08046342,0.00000000,0.00000000,-2.25264740,-0.58270001,1.57989299,-1.35677481,-0.96507150,0.00000000,0.00000000
-0.00124276,-2.14157724,-1.48168778,-1.82787001,0.09552696,0.00000000,0.00000000,-2.15516520,-0.57146877,1.61063325,-1.28908205,-0.97897971,0.00000000,0.00000000
-0.00847440,-2.14546323,-1.46492183,-1.82696247,0.10398680,0.00000000,0.00000000,-2.07902050,-0.56465340,1.63692784,-1.22884345,-0.99199301,0.00000000,0.00000000
-0.01471995,-2.14776850,-1.45326614,-1.82324433,0.10644002,0.00000000,0.00000000,-2.02144670,-0.56260556,1.65729153,-1.17827272,-1.00088704,0.00000000,0.00000000
-0.02054490,-2.14908648,-1.44495773,-1.81714904,0.11118023,0.00000000,0.00000000,-1.98242486,-0.56516963,1.67259765,-1.13689423,-1.00702667,0.00000000,0.00000000
-0.02710805,-2.15079117,-1.43852472,-1.81194711,0.11519784,0.00000000,0.00000000,-1.95852864,-0.57182240,1.68277621,-1.10643995,-1.01610005,0.00000000,0.00000000
-0.03555604,-2.15289259,-1.43598294,-1.81152248,0.12515272,0.00000000,0.00000000,-1.94802594,-0.58042502,1.68955779,-1.08776438,-1.02674472,0.00000000,0.00000000
-0.04292161,-2.15493417,-1.43715298,-1.81315005,0.13361485,0.00000000,0.00000000,-1.94926083,-0.59067255,1.69316268,-1.08165777,-1.03857934,0.00000000,0.00000000
-0.04677716,-2.15667248,-1.44094038,-1.81492865,0.13516980,0.00000000,0.00000000,-1.96205461,-0.60282111,1.69351363,-1.08809125,-1.04911089,0.00000000,0.00000000
-0.04772228,-2.15817404,-1.44708025,-1.81736290,0.13537708,0.00000000,0.00000000,-1.98699129,-0.61670297,1.69086409,-1.10666502,-1.06325507,0.00000000,0.00000000
-0.04645185,-2.15874481,-1.45723605,-1.82056642,0.13487163,0.00000000,0.00000000,-2.02564073,-0.63182199,1.68560970,-1.13645470,-1.07224905,0.00000000,0.00000000
-0.04343989,-2.15827680,-1.47144425,-1.82472861,0.14157510,0.00000000,0.00000000,-2.07985520,-0.64866138,1.67713773,-1.17636871,-1.08394957,0.00000000,0.00000000
-0.03856107,-2.15753245,-1.48742652,-1.82964146,0.14707820,0.00000000,0.00000000,-2.14998293,-0.66869825,1.66422689,-1.22635055,-1.08936846,0.00000000,0.00000000
-0.03025097,-2.15667224,-1.50429368,-1.83334935,0.15618357,0.00000000,0.00000000,-2.23285222,-0.69281906,1.64720929,-1.28862274,-1.09177363,0.00000000,0.00000000
-0.01776704,-2.15484095,-1.52322435,-1.83377326,0.15665281,0.00000000,0.00000000,-2.32259560,-0.71934599,1.62779713,-1.36178887,-1.08956313,0.00000000,0.00000000
-0.00490465,-2.15281725,-1.54178143,-1.83373737,0.15694217,0.00000000,0.00000000,-2.41404796,-0.74395978,1.61086667,-1.43422234,-1.09276116,0.00000000,0.00000000
0.00693966,-2.15180969,-1.55599999,-1.83520257,0.16014890,0.00000000,0.00000000,-2.50007296,-0.76747692,1.59711385,-1.50108171,-1.09622192,0.00000000,0.00000000
0.01734483,-2.15074873,-1.56731904,-1.83777404,0.16014384,0.00000000,0.00000000,-2.57599854,-0.78708750,1.58592331,-1.56197476,-1.10104370,0.00000000,0.00000000
0.02635861,-2.14935637,-1.57579923,-1.84114957,0.15967654,0.00000000,0.00000000,-2.64043522,-0.80120599,1.57641649,-1.61659467,-1.10529625,0.00000000,0.00000000
0.03441510,-2.14756370,-1.58130610,-1.84487081,0.15781756,0.00000000,0.00000000,-2.69334483,-0.81023359,1.56806958,-1.66504312,-1.11973190,0.00000000,0.00000000
0.04220193,-2.14507675,-1.58429205,-1.84806132,0.15235977,0.00000000,0.00000000,-2.73582125,-0.81525546,1.56056046,-1.70746624,-1.12717843,0.00000000,0.00000000
0.04991242,-2.14151287,-1.58541441,-1.85049939,0.15264899,0.00000000,0.00000000,-2.76951671,-0.81763721,1.55366898,-1.74417305,-1.13920915,0.00000000,0.00000000
0.05725088,-2.13636780,-1.58557236,-1.85260320,0.15254562,0.00000000,0.00000000,-2.79624820,-0.81851387,1.54728138,-1.77562273,-1.14887524,0.00000000,0.00000000
0.06386802,-2.12937427,-1.58480990,-1.85519564,0.15369669,0.00000000,0.00000000,-2.81764865,-0.81869179,1.54104483,-1.80208778,-1.16467083,0.00000000,0.00000000
0.06993882,-2.12017465,-1.58319676,-1.85858750,0.15977027,0.00000000,0.00000000,-2.83498836,-0.81869745,1.53472292,-1.82390976,-1.18502212,0.00000000,0.00000000
0.07540679,-2.10809588,-1.58136868,-1.86303222,0.16917790,0.00000000,0.00000000,-2.84904170,-0.81878710,1.52818882,-1.84165597,-1.20167780,0.00000000,0.00000000
0.07999203,-2.09256506,-1.57957721,-1.86907554,0.17459619,0.00000000,0.00000000,-2.86056590,-0.81908530,1.52122378,-1.85558140,-1.21908581,0.00000000,0.00000000
0.08506595,-2.07295156,-1.57820785,-1.87554002,0.18627568,0.00000000,0.00000000,-2.87025738,-0.81934100,1.51410973,-1.86587715,-1.23582470,0.00000000,0.00000000
0.09153292,-2.04843116,-1.57782364,-1.88162506,0.19853996,0.00000000,0.00000000,-2.87818480,-0.81943756,1.50704825,-1.87313545,-1.24843240,0.00000000,0.00000000
0.09985051,-2.01841807,-1.57794106,-1.88776934,0.20402889,0.00000000,0.00000000,-2.88451266,-0.81959981,1.49927449,-1.87766016,-1.26419175,0.00000000,0.00000000
0.11013547,-1.98214996,-1.57826948,-1.89513624,0.20409434,0.00000000,0.00000000,-2.88941216,-0.81999558,1.49017203,-1.87963176,-1.27597964,0.00000000,0.00000000
0.12372442,-1.93879247,-1.57856357,-1.90326941,0.19905798,0.00000000,0.00000000,-2.89321065,-0.82062703,1.47956991,-1.87894154,-1.27838099,0.00000000,0.00000000
0.14151047,-1.88736451,-1.57892609,-1.91191065,0.20231058,0.00000000,0.00000000,-2.89599133,-0.82154185,1.46727443,-1.87569535,-1.28206611,0.00000000,0.00000000
0.16371436,-1.82654917,-1.58057356,-1.92093098,0.21282643,0.00000000,0.00000000,-2.89758086,-0.82287061,1.45313036,-1.87028933,-1.28079486,0.00000000,0.00000000
0.19086458,-1.75536299,-1.58400261,-1.93038428,0.21726237,0.00000000,0.00000000,-2.89771295,-0.82501495,1.43660522,-1.86320817,-1.28100407,0.00000000,0.00000000
0.22037749,-1.67273021,-1.59035456,-1.94392312,0.21988121,0.00000000,0.00000000,-2.89635515,-0.82808238,1.41731358,-1.85458803,-1.28266704,0.00000000,0.00000000
0.25084695,-1.57713103,-1.60321844,-1.96049058,0.21513505,0.00000000,0.00000000,-2.89335895,-0.83164763,1.39637804,-1.84452391,-1.28620434,0.00000000,0.00000000
0.28616148,-1.46815920,-1.62422538,-1.97352576,0.20860884,0.00000000,0.00000000,-2.88858008,-0.83587021,1.37400627,-1.83320856,-1.29651415,0.00000000,0.00000000
0.32541621,-1.34616256,-1.65333068,-1.97850716,0.19802177,0.00000000,0.00000000,-2.88200474,-0.84105420,1.34951210,-1.82072735,-1.30554438,0.00000000,0.00000000
0.36442244,-1.21099317,-1.69381940,-1.96979928,0.19365926,0.00000000,0.00000000,-2.87481165,-0.84729916,1.32157111,-1.80574584,-1.31415093,0.00000000,0.00000000
0.40294945,-1.06429946,-1.74519229,-1.94222116,0.18794349,0.00000000,0.00000000,-2.86631680,-0.85498148,1.29045260,-1.78900480,-1.31466818,0.00000000,0.00000000
0.44214237,-0.90937459,-1.80366158,-1.89340162,0.18508998,0.00000000,0.00000000,-2.85600948,-0.86349934,1.25872803,-1.77092302,-1.30993569,0.00000000,0.00000000
0.48147124,-0.75007623,-1.86558247,-1.82300901,0.18867096,0.00000000,0.00000000,-2.84354663,-0.87250799,1.22875452,-1.75210071,-1.30722272,0.00000000,0.00000000
0.52049690,-0.59135395,-1.92647934,-1.73194051,0.19592229,0.00000000,0.00000000,-2.83020258,-0.88163602,1.20144475,-1.73377228,-1.30554616,0.00000000,0.00000000
0.55977756,-0.43916872,-1.98083556,-1.62305546,0.20282197,0.00000000,0.00000000,-2.82030845,-0.89010960,1.17560863,-1.71758747,-1.30326378,0.00000000,0.00000000
0.59991777,-0.29915071,-2.02398729,-1.50151110,0.20418261,0.00000000,0.00000000,-2.81539822,-0.89725554,1.15146649,-1.70485163,-1.31079578,0.00000000,0.00000000
0.63967085,-0.17497501,-2.05469751,-1.37359083,0.20113945,0.00000000,0.00000000,-2.81275368,-0.90077847,1.13575351,-1.69834340,-1.30653822,0.00000000,0.00000000
0.67653209,-0.06759506,-2.07516170,-1.24565661,0.19740030,0.00000000,0.00000000,-2.81048989,-0.90050292,1.13032293,-1.70173168,-1.30226648,0.00000000,0.00000000
0.70922452,0.02521641,-2.08916354,-1.12408292,0.19006792,0.00000000,0.00000000,-2.80959511,-0.89858085,1.12925386,-1.70889354,-1.29057240,0.00000000,0.00000000
0.73909926,0.10655122,-2.09936976,-1.01388443,0.18383835,0.00000000,0.00000000,-2.81157255,-0.89678788,1.12645519,-1.71691167,-1.28336573,0.00000000,0.00000000
0.76915777,0.17634298,-2.10547996,-0.91686583,0.18043114,0.00000000,0.00000000,-2.81427193,-0.89391333,1.12554371,-1.72370517,-1.27857506,0.00000000,0.00000000
0.80065399,0.23389289,-2.10730004,-0.83303297,0.17356241,0.00000000,0.00000000,-2.81583047,-0.88986957,1.12827921,-1.72861958,-1.26797032,0.00000000,0.00000000
0.83236098,0.27897966,-2.10562038,-0.76144022,0.16778599,0.00000000,0.00000000,-2.81707215,-0.88429391,1.13479114,-1.73164058,-1.25592363,0.00000000,0.00000000
0.86225224,0.31235442,-2.10168576,-0.70115650,0.16278042,0.00000000,0.00000000,-2.81873775,-0.87788218,1.14321554,-1.73405135,-1.24486065,0.00000000,0.00000000
0.88848174,0.33579394,-2.09687686,-0.65170062,0.16478378,0.00000000,0.00000000,-2.82156825,-0.87121600,1.15180385,-1.73607218,-1.23226535,0.00000000,0.00000000
0.91016936,0.35180518,-2.09241581,-0.61329222,0.17088100,0.00000000,0.00000000,-2.82497621,-0.86495155,1.15969419,-1.73768294,-1.21588850,0.00000000,0.00000000
0.92670202,0.36258477,-2.08922625,-0.58613682,0.17267238,0.00000000,0.00000000,-2.82815695,-0.85997266,1.16564572,-1.73900175,-1.20797181,0.00000000,0.00000000
0.93772608,0.36955145,-2.08785343,-0.57030362,0.17453694,0.00000000,0.00000000,-2.83009076,-0.85732561,1.16812956,-1.74096334,-1.20302355,0.00000000,0.00000000
0.94303119,0.37266985,-2.08837891,-0.56545883,0.16928934,0.00000000,0.00000000,-2.83055401,-0.85685742,1.16720223,-1.74345982,-1.20456386,0.00000000,0.00000000
0.94263679,0.37028465,-2.09035397,-0.57086426,0.16671312,0.00000000,0.00000000,-2.83030105,-0.85722554,1.16478777,-1.74509287,-1.20720816,0.00000000,0.00000000
0.93678224,0.36135054,-2.09337139,-0.58627224,0.16256195,0.00000000,0.00000000,-2.82926083,-0.85841876,1.16150284,-1.74612737,-1.21282256,0.00000000,0.00000000
0.92565870,0.34556234,-2.09722257,-0.61186957,0.15999627,0.00000000,0.00000000,-2.82790041,-0.85995191,1.15809107,-1.74616599,-1.21426558,0.00000000,0.00000000
0.90895545,0.32266206,-2.10177946,-0.64770991,0.15642300,0.00000000,0.00000000,-2.82727480,-0.86114991,1.15491259,-1.74430394,-1.21076524,0.00000000,0.00000000
0.88780266,0.29309967,-2.10680723,-0.69487840,0.15396276,0.00000000,0.00000000,-2.82656503,-0.86289483,1.15091503,-1.74145710,-1.20801735,0.00000000,0.00000000
0.86334741,0.25653264,-2.11176538,-0.75417286,0.14748293,0.00000000,0.00000000,-2.82505965,-0.86543930,1.14626086,-1.73781443,-1.20656168,0.00000000,0.00000000
0.83573878,0.21295486,-2.11635780,-0.82604408,0.14330651,0.00000000,0.00000000,-2.82293558,-0.86883324,1.14074767,-1.73285246,-1.21168876,0.00000000,0.00000000
0.80513632,0.16215368,-2.11998034,-0.91076916,0.14068030,0.00000000,0.00000000,-2.81998873,-0.87355685,1.13373041,-1.72711277,-1.22306395,0.00000000,0.00000000
0.77114773,0.10310196,-2.12158561,-1.00776553,0.12703374,0.00000000,0.00000000,-2.81677008,-0.87937939,1.12527192,-1.72068989,-1.22650492,0.00000000,0.00000000
0.73299760,0.03472112,-2.11997223,-1.11580288,0.11207027,0.00000000,0.00000000,-2.81575298,-0.88515770,1.11537707,-1.71186078,-1.23345280,0.00000000,0.00000000
0.69092441,-0.04519454,-2.11282992,-1.23265946,0.10071956,0.00000000,0.00000000,-2.81637859,-0.89095628,1.10477209,-1.70246768,-1.24530327,0.00000000,0.00000000
0.64562017,-0.14025782,-2.09682727,-1.35374641,0.09176483,0.00000000,0.00000000,-2.81648421,-0.89670259,1.09606004,-1.69736779,-1.25090992,0.00000000,0.00000000
0.59758306,-0.25355884,-2.06906748,-1.47220647,0.08522984,0.00000000,0.00000000,-2.81897402,-0.89870358,1.09379005,-1.69514966,-1.26203394,0.00000000,0.00000000
0.54785830,-0.38512024,-2.02847743,-1.58132803,0.08140683,0.00000000,0.00000000,-2.82296991,-0.89728409,1.09818506,-1.69712532,-1.27734375,0.00000000,0.00000000
0.49650097,-0.53185248,-1.97705400,-1.67505622,0.06929668,0.00000000,0.00000000,-2.82864285,-0.89257324,1.10821903,-1.70104814,-1.29777527,0.00000000,0.00000000
0.44368690,-0.68888509,-1.91848803,-1.74984312,0.05312518,0.00000000,0.00000000,-2.83496523,-0.88626128,1.12139821,-1.70659041,-1.31381273,0.00000000,0.00000000
0.38916549,-0.85050827,-1.85789096,-1.80383945,0.03592205,0.00000000,0.00000000,-2.84153366,-0.87878811,1.13696754,-1.71343184,-1.32776976,0.00000000,0.00000000
0.33249089,-1.01102364,-1.80083418,-1.83676350,0.01960430,0.00000000,0.00000000,-2.84807515,-0.87105012,1.15327013,-1.72088015,-1.34857559,0.00000000,0.00000000
0.27298546,-1.16508126,-1.75263476,-1.84983969,-0.00163046,0.00000000,0.00000000,-2.85395861,-0.86377662,1.16912913,-1.72826731,-1.37044740,0.00000000,0.00000000
0.21057422,-1.30856347,-1.71657252,-1.84654629,-0.02212378,0.00000000,0.00000000,-2.85858488,-0.85643208,1.18566632,-1.73411143,-1.38958180,0.00000000,0.00000000
0.14727986,-1.43955064,-1.69178236,-1.83350265,-0.04145712,0.00000000,0.00000000,-2.86115599,-0.84927350,1.20250964,-1.73799622,-1.41016018,0.00000000,0.00000000
0.08527996,-1.55734491,-1.67588162,-1.81876850,-0.06300686,0.00000000,0.00000000,-2.86129498,-0.84341270,1.21769595,-1.74019945,-1.43496168,0.00000000,0.00000000
0.02670800,-1.66191411,-1.66674030,-1.80512369,-0.08325195,0.00000000,0.00000000,-2.85875750,-0.83894038,1.23195040,-1.74070573,-1.46051705,0.00000000,0.00000000
-0.02627275,-1.75375724,-1.66225064,-1.79176795,-0.11572583,0.00000000,0.00000000,-2.85363054,-0.83555454,1.24575651,-1.73898578,-1.47867227,0.00000000,0.00000000
-0.07331461,-1.83317709,-1.66140437,-1.77771080,-0.14617713,0.00000000,0.00000000,-2.84614253,-0.83312333,1.25885272,-1.73438144,-1.49145544,0.00000000,0.00000000
-0.11291617,-1.90180099,-1.66108835,-1.76430988,-0.17504957,0.00000000,0.00000000,-2.83625007,-0.83174556,1.27069867,-1.72652996,-1.49765658,0.00000000,0.00000000
-0.14612639,-1.96028447,-1.66051936,-1.75124145,-0.20290560,0.00000000,0.00000000,-2.82342696,-0.83111191,1.28150296,-1.71522808,-1.49739826,0.00000000,0.00000000
-0.17465125,-2.00902724,-1.65979838,-1.73770332,-0.22966345,0.00000000,0.00000000,-2.80733132,-0.83093256,1.29111350,-1.69992208,-1.49714661,0.00000000,0.00000000
-0.19893816,-2.04899931,-1.65827465,-1.72308433,-0.25072899,0.00000000,0.00000000,-2.78760386,-0.83064550,1.29986799,-1.67989433,-1.49996626,0.00000000,0.00000000
-0.21990021,-2.08112168,-1.65540862,-1.70697141,-0.27692607,0.00000000,0.00000000,-2.76359940,-0.83010155,1.30810452,-1.65457249,-1.50572741,0.00000000,0.00000000
-0.23839617,-2.10623813,-1.65095377,-1.68901730,-0.29924810,0.00000000,0.00000000,-2.73417044,-0.82983190,1.31598461,-1.62373018,-1.51151478,0.00000000,0.00000000
-0.25561097,-2.12569547,-1.64372981,-1.67017961,-0.32530388,0.00000000,0.00000000,-2.69796419,-0.82985741,1.32358611,-1.58708847,-1.52041411,0.00000000,0.00000000
-0.27259788,-2.14102221,-1.63217008,-1.65172577,-0.33989027,0.00000000,0.00000000,-2.65368176,-0.83008724,1.33073509,-1.54423976,-1.52568865,0.00000000,0.00000000
-0.28977373,-2.15263724,-1.61658943,-1.63337564,-0.34911036,0.00000000,0.00000000,-2.60002923,-0.83021408,1.33758318,-1.49488497,-1.53994715,0.00000000,0.00000000
-0.30742118,-2.16091776,-1.59715283,-1.61494684,-0.36314067,0.00000000,0.00000000,-2.53601980,-0.83013296,1.34414482,-1.43888319,-1.55234802,0.00000000,0.00000000
-0.32625255,-2.16652727,-1.57329130,-1.59724474,-0.37530184,0.00000000,0.00000000,-2.46135259,-0.82989103,1.35017455,-1.37621689,-1.56360781,0.00000000,0.00000000
-0.34652606,-2.16930938,-1.54585075,-1.58015358,-0.39089048,0.00000000,0.00000000,-2.37644958,-0.82933199,1.35553837,-1.30701292,-1.57562840,0.00000000,0.00000000
-0.36835349,-2.16996098,-1.51571488,-1.56359065,-0.40947613,0.00000000,0.00000000,-2.28279877,-0.82827789,1.36010134,-1.23146236,-1.59291792,0.00000000,0.00000000
-0.39123014,-2.17000008,-1.48336518,-1.54758489,-0.42786711,0.00000000,0.00000000,-2.18260527,-0.82633281,1.36416852,-1.15012252,-1.61296844,0.00000000,0.00000000
-0.41598722,-2.17000008,-1.44846523,-1.53401053,-0.44211295,0.00000000,0.00000000,-2.08172107,-0.82356012,1.36741602,-1.06315899,-1.63453150,0.00000000,0.00000000
-0.44422123,-2.17000008,-1.41396034,-1.52552938,-0.45629302,0.00000000,0.00000000,-1.99105740,-0.81952649,1.36916482,-0.97203541,-1.65324283,0.00000000,0.00000000
-0.46825400,-2.17000008,-1.38470995,-1.51835823,-0.47071376,0.00000000,0.00000000,-1.90980041,-0.81323516,1.37105286,-0.88659471,-1.67524493,0.00000000,0.00000000
-0.48652396,-2.17000008,-1.36020875,-1.51451206,-0.48473066,0.00000000,0.00000000,-1.83806241,-0.80482465,1.37356412,-0.80996728,-1.69341493,0.00000000,0.00000000
-0.50054586,-2.17000008,-1.33913291,-1.51320040,-0.49497476,0.00000000,0.00000000,-1.77561140,-0.79544950,1.37602472,-0.74246907,-1.71257389,0.00000000,0.00000000
-0.51143068,-2.17000008,-1.32080638,-1.51060152,-0.50481814,0.00000000,0.00000000,-1.72247648,-0.78746927,1.37708282,-0.68375564,-1.73841453,0.00000000,0.00000000
-0.51952642,-2.17000008,-1.30416119,-1.50559425,-0.51582879,0.00000000,0.00000000,-1.68004894,-0.78191596,1.37642193,-0.63238198,-1.75933981,0.00000000,0.00000000
-0.52537090,-2.17000008,-1.29028308,-1.49824512,-0.52677047,0.00000000,0.00000000,-1.64813316,-0.77796406,1.37480807,-0.58760059,-1.77826214,0.00000000,0.00000000
-0.52848369,-2.17000008,-1.27905667,-1.48887289,-0.53219223,0.00000000,0.00000000,-1.62478471,-0.77509338,1.37295616,-0.54977262,-1.79856145,0.00000000,0.00000000
-0.53053033,-2.17000008,-1.27035904,-1.47942376,-0.53558141,0.00000000,0.00000000,-1.60813558,-0.77282745,1.37144458,-0.51921582,-1.82620311,0.00000000,0.00000000
-0.53233606,-2.17000008,-1.26398134,-1.47098219,-0.54168487,0.00000000,0.00000000,-1.59667218,-0.77098244,1.37066376,-0.49614275,-1.85963166,0.00000000,0.00000000
-0.53348202,-2.17000008,-1.26076925,-1.46313918,-0.55225974,0.00000000,0.00000000,-1.58918810,-0.76966864,1.37083673,-0.48073113,-1.89540875,0.00000000,0.00000000
-0.53597224,-2.17000008,-1.25977445,-1.45785165,-0.55615675,0.00000000,0.00000000,-1.58511806,-0.76888752,1.37213600,-0.47294039,-1.93134654,0.00000000,0.00000000
-0.53989577,-2.17000008,-1.26151538,-1.45480597,-0.56584567,0.00000000,0.00000000,-1.58437479,-0.76877326,1.37462056,-0.47263235,-1.96910930,0.00000000,0.00000000
-0.54197830,-2.17000008,-1.26353300,-1.45285225,-0.57388717,0.00000000,0.00000000,-1.58729815,-0.76952267,1.37825203,-0.47959274,-2.00779843,0.00000000,0.00000000
-0.54232526,-2.17000008,-1.26616609,-1.45287824,-0.57400668,0.00000000,0.00000000,-1.59427595,-0.77105522,1.38301253,-0.49370253,-2.04200077,0.00000000,0.00000000
-0.53928518,-2.16997051,-1.26941633,-1.45412290,-0.57199228,0.00000000,0.00000000,-1.60606945,-0.77327025,1.38881755,-0.51477545,-2.07735038,0.00000000,0.00000000
-0.53475851,-2.16957641,-1.27502751,-1.45556569,-0.56555241,0.00000000,0.00000000,-1.62348032,-0.77607620,1.39553285,-0.54273272,-2.10826707,0.00000000,0.00000000
-0.53091568,-2.16896915,-1.28408837,-1.45843542,-0.57416493,0.00000000,0.00000000,-1.64750111,-0.77940267,1.40297008,-0.57748699,-2.14009047,0.00000000,0.00000000
-0.52773035,-2.16957617,-1.29244256,-1.46586072,-0.58160549,0.00000000,0.00000000,-1.67933071,-0.78303766,1.41093302,-0.61890292,-2.17026734,0.00000000,0.00000000
-0.52352619,-2.16997075,-1.30171835,-1.47483921,-0.58166093,0.00000000,0.00000000,-1.72002518,-0.78712261,1.41902316,-0.66698372,-2.20235825,0.00000000,0.00000000
-0.51478261,-2.17000008,-1.31334281,-1.48237813,-0.58293027,0.00000000,0.00000000,-1.77039075,-0.79228401,1.42650425,-0.72181869,-2.22843695,0.00000000,0.00000000
-0.50452429,-2.17000008,-1.32853019,-1.49068940,-0.57750410,0.00000000,0.00000000,-1.83038700,-0.79933053,1.43238568,-0.78385210,-2.25180173,0.00000000,0.00000000
-0.49381471,-2.17000008,-1.34594429,-1.50262713,-0.56893271,0.00000000,0.00000000,-1.89943838,-0.80880487,1.43592894,-0.85369658,-2.27372336,0.00000000,0.00000000
-0.48178136,-2.17000008,-1.36435580,-1.51850843,-0.55939829,0.00000000,0.00000000,-1.97585869,-0.82073647,1.43696058,-0.93224436,-2.29048395,0.00000000,0.00000000
-0.46833265,-2.17000008,-1.38418484,-1.53661585,-0.55241066,0.00000000,0.00000000,-2.05765152,-0.83648771,1.43404496,-1.01837456,-2.30328465,0.00000000,0.00000000
-0.45178244,-2.17000008,-1.40291548,-1.55461061,-0.54680479,0.00000000,0.00000000,-2.14391112,-0.85634333,1.42630470,-1.10506308,-2.31237531,0.00000000,0.00000000
-0.43374911,-2.16998601,-1.41656649,-1.57324183,-0.54321241,0.00000000,0.00000000,-2.22678924,-0.87536788,1.41754436,-1.18872464,-2.31760693,0.00000000,0.00000000
-0.41618192,-2.16968703,-1.42667460,-1.59329164,-0.53518283,0.00000000,0.00000000,-2.30420566,-0.89149135,1.40893173,-1.26689053,-2.32053328,0.00000000,0.00000000
-0.39946595,-2.16757751,-1.43568528,-1.61455023,-0.52819377,0.00000000,0.00000000,-2.37599397,-0.90423220,1.40028930,-1.33810711,-2.32463861,0.00000000,0.00000000
-0.38267508,-2.16071391,-1.44335198,-1.63635492,-0.52658045,0.00000000,0.00000000,-2.44146490,-0.91371489,1.39130259,-1.40175009,-2.32469153,0.00000000,0.00000000
-0.36565432,-2.14670587,-1.45075846,-1.65795577,-0.52968746,0.00000000,0.00000000,-2.50008202,-0.92012733,1.38196945,-1.45753241,-2.32804179,0.00000000,0.00000000
-0.34760129,-2.12403774,-1.45926559,-1.67836213,-0.53007698,0.00000000,0.00000000,-2.55139208,-0.92368865,1.37246740,-1.50561368,-2.32983160,0.00000000,0.00000000
-0.32745063,-2.09374332,-1.46650636,-1.69877493,-0.53657806,0.00000000,0.00000000,-2.59553719,-0.92559022,1.36192846,-1.54621887,-2.32803750,0.00000000,0.00000000
-0.30527866,-2.05448008,-1.47400701,-1.71996737,-0.54047102,0.00000000,0.00000000,-2.63269711,-0.92695844,1.35000157,-1.57989478,-2.31405306,0.00000000,0.00000000
-0.28220034,-2.00493574,-1.48309839,-1.74417186,-0.54256094,0.00000000,0.00000000,-2.66318083,-0.92880213,1.33679152,-1.60741425,-2.30103636,0.00000000,0.00000000
-0.25881422,-1.94406450,-1.49470615,-1.77355623,-0.54737729,0.00000000,0.00000000,-2.68741918,-0.93191600,1.32248664,-1.62971377,-2.29114008,0.00000000,0.00000000
-0.22843279,-1.87045002,-1.50951266,-1.80130851,-0.55152571,0.00000000,0.00000000,-2.70591474,-0.93652791,1.30758667,-1.64774501,-2.27824903,0.00000000,0.00000000
-0.18861432,-1.78344822,-1.52784777,-1.82809889,-0.54435492,0.00000000,0.00000000,-2.71952724,-0.94271952,1.29173458,-1.66199338,-2.26403546,0.00000000,0.00000000
-0.13987209,-1.68392980,-1.54788244,-1.85499680,-0.53755629,0.00000000,0.00000000,-2.72973752,-0.95078498,1.27313364,-1.67206085,-2.24637103,0.00000000,0.00000000
-0.08257569,-1.57173741,-1.57051802,-1.88079715,-0.53455138,0.00000000,0.00000000,-2.73742557,-0.95984131,1.25286722,-1.67784953,-2.22597909,0.00000000,0.00000000
-0.01647140,-1.44689584,-1.59685230,-1.90360963,-0.53336477,0.00000000,0.00000000,-2.74263215,-0.96850479,1.23369694,-1.68001604,-2.20552635,0.00000000,0.00000000
0.05872308,-1.31010973,-1.62751245,-1.92032814,-0.53311092,0.00000000,0.00000000,-2.74499154,-0.97523499,1.21915138,-1.67984056,-2.17474532,0.00000000,0.00000000
0.14103056,-1.16227031,-1.66414785,-1.92733932,-0.52791858,0.00000000,0.00000000,-2.74479747,-0.97896272,1.21151233,-1.67827749,-2.14115024,0.00000000,0.00000000
0.22748373,-1.00516808,-1.70675325,-1.92145419,-0.52174151,0.00000000,0.00000000,-2.74305701,-0.97966236,1.21036637,-1.67600644,-2.10427642,0.00000000,0.00000000
0.31485006,-0.84123319,-1.75416040,-1.90106392,-0.52531612,0.00000000,0.00000000,-2.73925161,-0.97859502,1.21376967,-1.67550659,-2.06571937,0.00000000,0.00000000
0.39958915,-0.67323536,-1.80507410,-1.86481786,-0.53812975,0.00000000,0.00000000,-2.73461628,-0.97647643,1.21936631,-1.67649293,-2.02864933,0.00000000,0.00000000
0.47819221,-0.50435942,-1.85786140,-1.81105638,-0.55393112,0.00000000,0.00000000,-2.72966576,-0.97447425,1.22449327,-1.67857218,-1.99477124,0.00000000,0.00000000
0.54752630,-0.33827341,-1.91035712,-1.73809254,-0.56758130,0.00000000,0.00000000,-2.72542453,-0.97203946,1.22952306,-1.68015957,-1.95667303,0.00000000,0.00000000
0.60529768,-0.17906773,-1.95980394,-1.64491308,-0.57873529,0.00000000,0.00000000,-2.72366285,-0.96874875,1.23407984,-1.67970884,-1.92057002,0.00000000,0.00000000
0.65154785,-0.03107744,-2.00230360,-1.53138304,-0.58691096,0.00000000,0.00000000,-2.72452688,-0.96694160,1.23386908,-1.67857838,-1.88936150,0.00000000,0.00000000
0.69001621,0.10139067,-2.03277612,-1.40021276,-0.59301054,0.00000000,0.00000000,-2.72766209,-0.96738428,1.22798038,-1.67763960,-1.86308658,0.00000000,0.00000000
0.72595102,0.21521239,-2.04738903,-1.25988829,-0.59394795,0.00000000,0.00000000,-2.73130155,-0.96775448,1.22242224,-1.67697573,-1.84425569,0.00000000,0.00000000
0.75908554,0.31130752,-2.04874659,-1.12142742,-0.60024184,0.00000000,0.00000000,-2.73766303,-0.96536362,1.22099924,-1.67524958,-1.82475865,0.00000000,0.00000000
0.78786886,0.39180705,-2.04096317,-0.99035501,-0.59989727,0.00000000,0.00000000,-2.74283195,-0.96210110,1.22301567,-1.67910504,-1.80511022,0.00000000,0.00000000
0.81283414,0.45955652,-2.02741337,-0.86972874,-0.59344608,0.00000000,0.00000000,-2.74957418,-0.95822251,1.22549057,-1.68484676,-1.78590822,0.00000000,0.00000000
0.83565688,0.51701450,-2.01066685,-0.76187074,-0.58358657,0.00000000,0.00000000,-2.75690627,-0.95600528,1.22409582,-1.69378912,-1.76717961,0.00000000,0.00000000
0.85770863,0.56415731,-1.99189556,-0.66735780,-0.57147396,0.00000000,0.00000000,-2.76442719,-0.95259279,1.22471726,-1.70243084,-1.74911654,0.00000000,0.00000000
0.87977040,0.60271680,-1.97280514,-0.58676940,-0.55470496,0.00000000,0.00000000,-2.77132559,-0.94791722,1.22803974,-1.70888543,-1.73633909,0.00000000,0.00000000
0.90177882,0.63323563,-1.95444059,-0.51973861,-0.54180717,0.00000000,0.00000000,-2.77699208,-0.94242609,1.23365784,-1.71344233,-1.73515189,0.00000000,0.00000000
0.92312956,0.65616125,-1.93756235,-0.46550965,-0.52812660,0.00000000,0.00000000,-2.78147745,-0.93653011,1.24088085,-1.71686852,-1.73319709,0.00000000,0.00000000
0.94305801,0.67209214,-1.92279911,-0.42329952,-0.50415707,0.00000000,0.00000000,-2.78505993,-0.93084025,1.24851668,-1.72002459,-1.73042297,0.00000000,0.00000000
0.96000874,0.68247277,-1.91091347,-0.39213768,-0.47967878,0.00000000,0.00000000,-2.78831601,-0.92531544,1.25631154,-1.72259629,-1.73048079,0.00000000,0.00000000
0.97296536,0.68912607,-1.90257788,-0.37148881,-0.46301892,0.00000000,0.00000000,-2.79093528,-0.92086577,1.26259124,-1.72508526,-1.73259580,0.00000000,0.00000000
0.98099983,0.69307423,-1.89818203,-0.36078617,-0.45086312,0.00000000,0.00000000,-2.79297090,-0.91806972,1.26598597,-1.72781861,-1.73494101,0.00000000,0.00000000
0.98386914,0.69438124,-1.89780426,-0.35976142,-0.44373384,0.00000000,0.00000000,-2.79357529,-0.91704023,1.26676905,-1.73155296,-1.74266911,0.00000000,0.00000000
0.98120844,0.69284421,-1.90144193,-0.36815354,-0.44259405,0.00000000,0.00000000,-2.79326439,-0.91717631,1.26589751,-1.73519135,-1.75242066,0.00000000,0.00000000
0.97274613,0.68824089,-1.90906203,-0.38587436,-0.43987924,0.00000000,0.00000000,-2.79313660,-0.91764653,1.26444340,-1.73714030,-1.77107716,0.00000000,0.00000000
0.95944273,0.68014908,-1.92045784,-0.41359922,-0.44092980,0.00000000,0.00000000,-2.79319072,-0.91854626,1.26218033,-1.73762167,-1.79539168,0.00000000,0.00000000
0.94206321,0.66739208,-1.93519747,-0.45183530,-0.44421354,0.00000000,0.00000000,-2.79319048,-0.91997170,1.25917685,-1.73747230,-1.82045496,0.00000000,0.00000000
0.92156023,0.64887303,-1.95274580,-0.50128216,-0.44414333,0.00000000,0.00000000,-2.79212165,-0.92194331,1.25623381,-1.73797548,-1.84191740,0.00000000,0.00000000
0.89803755,0.62396330,-1.97260296,-0.56234598,-0.43149412,0.00000000,0.00000000,-2.79125905,-0.92394209,1.25361133,-1.73775661,-1.85929859,0.00000000,0.00000000
0.87240833,0.59187591,-1.99379504,-0.63575077,-0.41711900,0.00000000,0.00000000,-2.79147148,-0.92537266,1.25184870,-1.73535407,-1.87921333,0.00000000,0.00000000
0.84612757,0.55028015,-2.01440120,-0.72190648,-0.41059610,0.00000000,0.00000000,-2.79211760,-0.92515785,1.25362980,-1.73045075,-1.90086377,0.00000000,0.00000000
0.81992954,0.49882656,-2.03297806,-0.82122934,-0.40192902,0.00000000,0.00000000,-2.79247212,-0.92428309,1.25744212,-1.72427750,-1.92019045,0.00000000,0.00000000
0.79406172,0.43646395,-2.04761744,-0.93274152,-0.39114985,0.00000000,0.00000000,-2.79210949,-0.92513549,1.25888264,-1.71938252,-1.93446696,0.00000000,0.00000000
0.76806515,0.36171022,-2.05632377,-1.05281508,-0.38101196,0.00000000,0.00000000,-2.79102516,-0.92682999,1.25987887,-1.71505618,-1.95092869,0.00000000,0.00000000
0.74079984,0.27431980,-2.05790305,-1.17657018,-0.37544069,0.00000000,0.00000000,-2.78872991,-0.92995721,1.25952077,-1.71049774,-1.96439242,0.00000000,0.00000000
0.71107984,0.17305706,-2.05062294,-1.29848242,-0.36185637,0.00000000,0.00000000,-2.78685355,-0.93367141,1.25847328,-1.70318484,-1.97494578,0.00000000,0.00000000
0.67856723,0.05683998,-2.03259969,-1.41304207,-0.35081461,0.00000000,0.00000000,-2.78527999,-0.93764132,1.25725222,-1.69237936,-1.98749030,0.00000000,0.00000000
0.64215684,-0.07370840,-2.00365448,-1.51671147,-0.34202212,0.00000000,0.00000000,-2.78317094,-0.94175982,1.25585902,-1.67978704,-2.00263596,0.00000000,0.00000000
0.60125840,-0.21604431,-1.96511424,-1.60810483,-0.33185482,0.00000000,0.00000000,-2.78098726,-0.94718945,1.25138044,-1.66837704,-2.01979756,0.00000000,0.00000000
0.55214775,-0.37006930,-1.91884518,-1.68272376,-0.32501674,0.00000000,0.00000000,-2.78040361,-0.95138735,1.24768162,-1.65810895,-2.03403330,0.00000000,0.00000000
0.49347386,-0.53294408,-1.86822295,-1.73992097,-0.31476113,0.00000000,0.00000000,-2.78155112,-0.95354819,1.24637818,-1.65179396,-2.03998971,0.00000000,0.00000000
0.42695537,-0.69990492,-1.81679237,-1.78116775,-0.30140781,0.00000000,0.00000000,-2.78497791,-0.95338655,1.24771917,-1.65030849,-2.04631639,0.00000000,0.00000000
0.35467228,-0.86637348,-1.76801109,-1.80715036,-0.28760257,0.00000000,0.00000000,-2.79113317,-0.95084995,1.25161231,-1.65248287,-2.05308557,0.00000000,0.00000000
0.27865335,-1.02817082,-1.72519374,-1.81773818,-0.27773994,0.00000000,0.00000000,-2.79806900,-0.94678831,1.25793958,-1.65759861,-2.06107616,0.00000000,0.00000000
0.20159179,-1.18195426,-1.69005561,-1.81331873,-0.27031413,0.00000000,0.00000000,-2.80496097,-0.94095427,1.26809025,-1.66350126,-2.06659818,0.00000000,0.00000000
0.12630528,-1.32540095,-1.66244435,-1.79762757,-0.26291025,0.00000000,0.00000000,-2.81245446,-0.93429267,1.28002989,-1.66994059,-2.07193351,0.00000000,0.00000000
0.05428293,-1.45656610,-1.64302254,-1.77655482,-0.24429181,0.00000000,0.00000000,-2.82034302,-0.92728329,1.29281497,-1.67820251,-2.07574511,0.00000000,0.00000000
-0.01299696,-1.57447934,-1.63127899,-1.75504267,-0.21853602,0.00000000,0.00000000,-2.82924342,-0.92024904,1.30534339,-1.68936110,-2.08092117,0.00000000,0.00000000
-0.07356787,-1.67943215,-1.62483382,-1.73541975,-0.19143511,0.00000000,0.00000000,-2.83916402,-0.91287291,1.31823158,-1.70201039,-2.08378768,0.00000000,0.00000000
-0.12611401,-1.77216208,-1.62136495,-1.71749258,-0.16557252,0.00000000,0.00000000,-2.84895086,-0.90522295,1.33205903,-1.71451867,-2.08895159,0.00000000,0.00000000
-0.16993955,-1.85265100,-1.62074351,-1.69963336,-0.14272457,0.00000000,0.00000000,-2.85697341,-0.89828074,1.34560275,-1.72690463,-2.09705305,0.00000000,0.00000000
-0.20639850,-1.92031896,-1.62435901,-1.68240309,-0.11932806,0.00000000,0.00000000,-2.86267996,-0.89126951,1.36042619,-1.73872995,-2.10998344,0.00000000,0.00000000
-0.23775434,-1.97898221,-1.62541127,-1.67078125,-0.09170320,0.00000000,0.00000000,-2.86596370,-0.88479441,1.37515950,-1.74947155,-2.12517476,0.00000000,0.00000000
-0.26246235,-2.02893448,-1.62466240,-1.66084206,-0.07470921,0.00000000,0.00000000,-2.86735749,-0.87941486,1.38821888,-1.75827026,-2.14017534,0.00000000,0.00000000
-0.28277862,-2.07024026,-1.62303650,-1.65173221,-0.05725879,0.00000000,0.00000000,-2.86692142,-0.87512749,1.39937043,-1.76488149,-2.15255642,0.00000000,0.00000000
-0.29831773,-2.10368824,-1.62038052,-1.64326823,-0.03703478,0.00000000,0.00000000,-2.86462307,-0.87175423,1.40884387,-1.76919031,-2.16292238,0.00000000,0.00000000
-0.30970743,-2.13058710,-1.61541331,-1.63563526,-0.02100756,0.00000000,0.00000000,-2.86005664,-0.86893815,1.41747558,-1.77142656,-2.17389011,0.00000000,0.00000000
-0.31903476,-2.15019202,-1.61000216,-1.63017952,-0.01288891,0.00000000,0.00000000,-2.85296464,-0.86657631,1.42554784,-1.77156079,-2.18615532,0.00000000,0.00000000
-0.32763931,-2.16276836,-1.60404932,-1.62697029,-0.00117427,0.00000000,0.00000000,-2.84302092,-0.86457342,1.43323314,-1.76955414,-2.19565630,0.00000000,0.00000000
-0.33582336,-2.16860676,-1.59767425,-1.62492967,0.01519578,0.00000000,0.00000000,-2.82952881,-0.86309510,1.44025230,-1.76566577,-2.20757055,0.00000000,0.00000000
-0.34442818,-2.16992235,-1.58971119,-1.62255025,0.02928610,0.00000000,0.00000000,-2.81143212,-0.86238331,1.44617891,-1.76035988,-2.22310376,0.00000000,0.00000000
-0.35280976,-2.17000008,-1.57884216,-1.61805630,0.04325016,0.00000000,0.00000000,-2.78796864,-0.86298114,1.44977868,-1.75341761,-2.22879219,0.00000000,0.00000000
-0.36032259,-2.16998529,-1.56443930,-1.61022079,0.05356090,0.00000000,0.00000000,-2.75790548,-0.86497855,1.45119405,-1.74446070,-2.23232031,0.00000000,0.00000000
-0.36609191,-2.16974854,-1.54555392,-1.59808576,0.05753217,0.00000000,0.00000000,-2.71940160,-0.86720586,1.45190179,-1.73284256,-2.23652744,0.00000000,0.00000000
-0.36959222,-2.16890621,-1.52116978,-1.58225167,0.06757649,0.00000000,0.00000000,-2.67021799,-0.86725402,1.45427430,-1.71748567,-2.23959398,0.00000000,0.00000000
-0.37222877,-2.16837645,-1.48715997,-1.56942356,0.07086001,0.00000000,0.00000000,-2.60786176,-0.86540049,1.45969284,-1.69780099,-2.24111080,0.00000000,0.00000000
-0.37639129,-2.16940498,-1.44281316,-1.57081544,0.07839239,0.00000000,0.00000000,-2.53590059,-0.86474913,1.46987391,-1.67282009,-2.23588610,0.00000000,0.00000000
-0.38273463,-2.16996002,-1.40027022,-1.58597660,0.08621065,0.00000000,0.00000000,-2.46812844,-0.86713058,1.48549855,-1.64363146,-2.22816706,0.00000000,0.00000000
-0.39060566,-2.17000008,-1.37016392,-1.60307550,0.09354230,0.00000000,0.00000000,-2.41734910,-0.87232727,1.50181413,-1.61933887,-2.21675253,0.00000000,0.00000000
-0.40010661,-2.17000008,-1.35460007,-1.61606681,0.09975290,0.00000000,0.00000000,-2.38453221,-0.87887084,1.51445687,-1.60543907,-2.21044207,0.00000000,0.00000000
-0.40837964,-2.17000008,-1.35148478,-1.62083387,0.10949075,0.00000000,0.00000000,-2.36823630,-0.88640416,1.52120399,-1.60274971,-2.20209455,0.00000000,0.00000000
-0.41238439,-2.17000008,-1.35848379,-1.61539268,0.11071365,0.00000000,0.00000000,-2.37054300,-0.89469486,1.52342820,-1.60993814,-2.18919516,0.00000000,0.00000000
-0.41381571,-2.17000008,-1.37305236,-1.60533738,0.10711373,0.00000000,0.00000000,-2.39036608,-0.90404898,1.52271116,-1.62820458,-2.17389274,0.00000000,0.00000000
-0.41751403,-2.17000008,-1.39240730,-1.60142291,0.10295559,0.00000000,0.00000000,-2.42698193,-0.91521752,1.51975584,-1.65798485,-2.15771794,0.00000000,0.00000000
-0.42149833,-2.16999984,-1.41384351,-1.60270667,0.10035913,0.00000000,0.00000000,-2.47849154,-0.92844361,1.51475179,-1.69375920,-2.13911557,0.00000000,0.00000000
-0.42246822,-2.16998315,-1.43080533,-1.60164976,0.09529267,0.00000000,0.00000000,-2.53541088,-0.94157875,1.50936913,-1.72356641,-2.11153245,0.00000000,0.00000000
-0.42011467,-2.16978431,-1.44059539,-1.59769309,0.08972830,0.00000000,0.00000000,-2.58743000,-0.95254469,1.50372541,-1.74526811,-2.08046556,0.00000000,0.00000000
-0.41794586,-2.16948628,-1.44285941,-1.59707439,0.08046830,0.00000000,0.00000000,-2.62976885,-0.96047074,1.49806356,-1.76258647,-2.04783845,0.00000000,0.00000000
-0.41494888,-2.16978979,-1.43761253,-1.60065734,0.07620120,0.00000000,0.00000000,-2.66229343,-0.96535361,1.49281752,-1.77897406,-2.02081442,0.00000000,0.00000000
-0.41326791,-2.16998577,-1.43154919,-1.60535145,0.07796880,0.00000000,0.00000000,-2.68688536,-0.96784955,1.48780739,-1.79570556,-1.99439895,0.00000000,0.00000000
-0.41283065,-2.17000008,-1.42634630,-1.60726726,0.07590844,0.00000000,0.00000000,-2.70623636,-0.96823871,1.48320997,-1.81195676,-1.96829200,0.00000000,0.00000000
-0.41435370,-2.17000008,-1.42234111,-1.60526395,0.07148403,0.00000000,0.00000000,-2.72297430,-0.96703327,1.47840214,-1.82610750,-1.94762993,0.00000000,0.00000000
-0.41914156,-2.17000008,-1.41869378,-1.60013592,0.07042737,0.00000000,0.00000000,-2.73867702,-0.96491003,1.47175038,-1.83717287,-1.92457926,0.00000000,0.00000000
-0.42864710,-2.17000008,-1.41491461,-1.59305882,0.07254539,0.00000000,0.00000000,-2.75377584,-0.96227443,1.46193373,-1.84512520,-1.90240431,0.00000000,0.00000000
-0.44544587,-2.17000008,-1.41196954,-1.58582950,0.07123103,0.00000000,0.00000000,-2.76781154,-0.95911324,1.44857097,-1.85070086,-1.87594163,0.00000000,0.00000000
-0.47266057,-2.17000008,-1.41068745,-1.58054030,0.06446178,0.00000000,0.00000000,-2.78037739,-0.95578647,1.43084455,-1.85450482,-1.85271251,0.00000000,0.00000000
-0.51309133,-2.17000008,-1.41076756,-1.57847881,0.05629988,0.00000000,0.00000000,-2.79191661,-0.95333105,1.40628302,-1.85634983,-1.83729219,0.00000000,0.00000000
-0.56751728,-2.17000008,-1.41162145,-1.57765722,0.05303726,0.00000000,0.00000000,-2.80408430,-0.95308226,1.37165272,-1.85501719,-1.82831156,0.00000000,0.00000000
-0.63426220,-2.17000008,-1.41354764,-1.57319999,0.05762099,0.00000000,0.00000000,-2.81806231,-0.95587546,1.32576036,-1.84956086,-1.81427145,0.00000000,0.00000000
-0.70810109,-2.16998982,-1.41951084,-1.55985606,0.04962006,0.00000000,0.00000000,-2.83334899,-0.95999283,1.27493405,-1.84073627,-1.80445254,0.00000000,0.00000000
-0.77707541,-2.16981840,-1.43453932,-1.53729224,0.04965961,0.00000000,0.00000000,-2.84986782,-0.96026534,1.23389423,-1.83176315,-1.80447400,0.00000000,0.00000000
-0.82952994,-2.16907716,-1.45773494,-1.51602089,0.04323867,0.00000000,0.00000000,-2.86932445,-0.95430410,1.21065497,-1.82439327,-1.80889797,0.00000000,0.00000000
-0.86691350,-2.16772866,-1.48064601,-1.50602448,0.03407867,0.00000000,0.00000000,-2.88969135,-0.94423550,1.20322621,-1.81753826,-1.81026244,0.00000000,0.00000000
-0.89021987,-2.16659784,-1.49911809,-1.50892282,0.02293398,0.00000000,0.00000000,-2.90687084,-0.93215877,1.20680583,-1.81129169,-1.81313813,0.00000000,0.00000000
-0.89197689,-2.16659665,-1.51419914,-1.51928985,0.00353774,0.00000000,0.00000000,-2.91637588,-0.92112845,1.21695304,-1.80940998,-1.81126988,0.00000000,0.00000000
-0.86683846,-2.16787148,-1.52615285,-1.53258312,-0.01572279,0.00000000,0.00000000,-2.91675067,-0.91294605,1.23212016,-1.81421709,-1.80712748,0.00000000,0.00000000
-0.81589973,-2.16943407,-1.53256917,-1.54331923,-0.03986004,0.00000000,0.00000000,-2.91036391,-0.90848613,1.24977028,-1.82353771,-1.80449343,0.00000000,0.00000000
-0.75753063,-2.16996479,-1.53237224,-1.55115557,-0.05974120,0.00000000,0.00000000,-2.90328622,-0.90722889,1.26456058,-1.83045053,-1.80175102,0.00000000,0.00000000
-0.70435911,-2.17000008,-1.52681565,-1.55968058,-0.08095253,0.00000000,0.00000000,-2.89852166,-0.90748906,1.27569878,-1.83176959,-1.79702377,0.00000000,0.00000000
-0.66061223,-2.17000008,-1.51851618,-1.57101297,-0.10659969,0.00000000,0.00000000,-2.89442492,-0.90850163,1.28434467,-1.82961786,-1.79282761,0.00000000,0.00000000
-0.62695366,-2.17000008,-1.50995445,-1.58510053,-0.12272499,0.00000000,0.00000000,-2.88826656,-0.91029000,1.29143953,-1.82726204,-1.79098475,0.00000000,0.00000000
-0.60221696,-2.17000008,-1.50222707,-1.60081875,-0.13753930,0.00000000,0.00000000,-2.87960148,-0.91226572,1.29782438,-1.82499659,-1.79059792,0.00000000,0.00000000
-0.58455843,-2.17000008,-1.49507511,-1.61691427,-0.14913410,0.00000000,0.00000000,-2.86945748,-0.91400117,1.30389094,-1.82127082,-1.78981459,0.00000000,0.00000000
-0.57216573,-2.17000008,-1.48736823,-1.63243091,-0.15912513,0.00000000,0.00000000,-2.85793424,-0.91563755,1.30927968,-1.81543386,-1.78666389,0.00000000,0.00000000
-0.56419343,-2.17000008,-1.47870731,-1.64714408,-0.17555039,0.00000000,0.00000000,-2.84414530,-0.91720521,1.31438458,-1.80791676,-1.78453195,0.00000000,0.00000000
-0.55986226,-2.17000008,-1.46981215,-1.66069245,-0.19142251,0.00000000,0.00000000,-2.82659698,-0.91829985,1.32056773,-1.79972351,-1.78167653,0.00000000,0.00000000
-0.55744451,-2.17000008,-1.46090126,-1.67220545,-0.20766239,0.00000000,0.00000000,-2.80441046,-0.91811448,1.32868946,-1.79074991,-1.77293909,0.00000000,0.00000000
-0.55617076,-2.17000008,-1.45185256,-1.68199778,-0.22054373,0.00000000,0.00000000,-2.77629471,-0.91530532,1.34036672,-1.78087783,-1.76191473,0.00000000,0.00000000
-0.55279177,-2.17000008,-1.43906593,-1.69004416,-0.23180810,0.00000000,0.00000000,-2.74008512,-0.90858299,1.35676789,-1.76962876,-1.75369036,0.00000000,0.00000000
-0.54224193,-2.17000008,-1.41545749,-1.69753766,-0.23672123,0.00000000,0.00000000,-2.69247055,-0.89734977,1.37809622,-1.75597370,-1.74134779,0.00000000,0.00000000
-0.52133024,-2.17000008,-1.37834036,-1.70454526,-0.24530721,0.00000000,0.00000000,-2.63029432,-0.88216877,1.40414786,-1.73860264,-1.72842443,0.00000000,0.00000000
-0.49297711,-2.17000008,-1.33204472,-1.70994496,-0.25856793,0.00000000,0.00000000,-2.55433965,-0.86649883,1.43368304,-1.71594298,-1.70693696,0.00000000,0.00000000
-0.46642938,-2.17000008,-1.28899431,-1.71321821,-0.27312621,0.00000000,0.00000000,-2.47651935,-0.85626405,1.46189857,-1.68775928,-1.67881250,0.00000000,0.00000000
-0.44725272,-2.17000008,-1.25584185,-1.71638989,-0.28944746,0.00000000,0.00000000,-2.41583776,-0.85496509,1.48109305,-1.65940189,-1.64699137,0.00000000,0.00000000
-0.43552819,-2.17000008,-1.23536861,-1.71852529,-0.29780266,0.00000000,0.00000000,-2.37479162,-0.85996908,1.49183702,-1.63872540,-1.61722541,0.00000000,0.00000000
-0.42928678,-2.17000008,-1.22612965,-1.71649683,-0.31239709,0.00000000,0.00000000,-2.35133314,-0.86853182,1.49495828,-1.62844074,-1.57289636,0.00000000,0.00000000
-0.42654750,-2.17000008,-1.22604620,-1.70836794,-0.32077706,0.00000000,0.00000000,-2.34810376,-0.87971383,1.49095416,-1.62644160,-1.52951109,0.00000000,0.00000000
-0.42649302,-2.17000008,-1.23494935,-1.69579649,-0.32728818,0.00000000,0.00000000,-2.36619353,-0.89174962,1.48244655,-1.63222182,-1.48814821,0.00000000,0.00000000
-0.42908093,-2.17000008,-1.25062931,-1.68610156,-0.32948610,0.00000000,0.00000000,-2.40344048,-0.90478247,1.47124135,-1.64773893,-1.44341028,0.00000000,0.00000000
-0.43119571,-2.17000008,-1.27071488,-1.68395829,-0.32882214,0.00000000,0.00000000,-2.45428610,-0.91866863,1.46066475,-1.67361140,-1.40067637,0.00000000,0.00000000
-0.42903790,-2.16999483,-1.29467273,-1.67890477,-0.33605871,0.00000000,0.00000000,-2.50695109,-0.93087369,1.45736134,-1.70603681,-1.36005282,0.00000000,0.00000000
-0.42530516,-2.16992068,-1.31599462,-1.66966558,-0.33956432,0.00000000,0.00000000,-2.55834723,-0.94207126,1.45582926,-1.73449337,-1.32028079,0.00000000,0.00000000
-0.42240956,-2.16973591,-1.33008528,-1.66168892,-0.34466809,0.00000000,0.00000000,-2.60411716,-0.95115626,1.45311165,-1.75646114,-1.27333426,0.00000000,0.00000000
-0.42204818,-2.16971970,-1.33659375,-1.66052520,-0.34998500,0.00000000,0.00000000,-2.64110589,-0.95709538,1.45035732,-1.77403736,-1.22894382,0.00000000,0.00000000
-0.42338046,-2.16990995,-1.33647072,-1.66507518,-0.35258207,0.00000000,0.00000000,-2.66987991,-0.96036774,1.44812870,-1.78895736,-1.18775618,0.00000000,0.00000000
-0.42523029,-2.16999435,-1.33337200,-1.66928220,-0.36012650,0.00000000,0.00000000,-2.69264483,-0.96205163,1.44602787,-1.80197930,-1.14626694,0.00000000,0.00000000
-0.42714474,-2.17000008,-1.33074391,-1.66889536,-0.36885118,0.00000000,0.00000000,-2.71156406,-0.96293199,1.44385302,-1.81325650,-1.10897219,0.00000000,0.00000000
-0.42949063,-2.17000008,-1.32964754,-1.66257119,-0.37994632,0.00000000,0.00000000,-2.72854924,-0.96313810,1.44150937,-1.82216454,-1.07582498,0.00000000,0.00000000
-0.43436593,-2.17000008,-1.33045816,-1.65124679,-0.38740093,0.00000000,0.00000000,-2.74462509,-0.96267092,1.43824351,-1.82817435,-1.04194963,0.00000000,0.00000000
-0.44471598,-2.17000008,-1.33314300,-1.63717258,-0.39404914,0.00000000,0.00000000,-2.75973248,-0.96193755,1.43235648,-1.83158612,-1.00824010,0.00000000,0.00000000
-0.46446383,-2.17000008,-1.33777237,-1.62360907,-0.39754796,0.00000000,0.00000000,-2.77374673,-0.96145165,1.42214179,-1.83270657,-0.97888798,0.00000000,0.00000000
-0.49817276,-2.17000008,-1.34470916,-1.61399150,-0.40131596,0.00000000,0.00000000,-2.78758931,-0.96159804,1.40619993,-1.83066618,-0.94983250,0.00000000,0.00000000
-0.54907876,-2.17000008,-1.35369647,-1.60938668,-0.40780020,0.00000000,0.00000000,-2.80247593,-0.96351469,1.38159716,-1.82441473,-0.92582196,0.00000000,0.00000000
-0.61761469,-2.17000008,-1.36480451,-1.60699201,-0.41977128,0.00000000,0.00000000,-2.81840491,-0.96854711,1.34637260,-1.81411576,-0.90380961,0.00000000,0.00000000
-0.69895267,-2.17000008,-1.37958455,-1.60131466,-0.43522686,0.00000000,0.00000000,-2.83300090,-0.97652131,1.30473840,-1.80231047,-0.88051677,0.00000000,0.00000000
-0.77730834,-2.17000008,-1.40001345,-1.58823848,-0.44935089,0.00000000,0.00000000,-2.84519029,-0.98397124,1.26839292,-1.79307413,-0.85765821,0.00000000,0.00000000
-0.83493268,-2.16997862,-1.42555344,-1.57339072,-0.46003047,0.00000000,0.00000000,-2.85759616,-0.98606580,1.24822640,-1.78868401,-0.84229589,0.00000000,0.00000000
-0.87371266,-2.16962433,-1.45342851,-1.56690574,-0.47173682,0.00000000,0.00000000,-2.87163353,-0.98083937,1.24588549,-1.78596509,-0.83185643,0.00000000,0.00000000
-0.89535856,-2.16818929,-1.48020446,-1.57124388,-0.49023771,0.00000000,0.00000000,-2.88496876,-0.96964794,1.25651836,-1.78310263,-0.83088630,0.00000000,0.00000000
-0.89426225,-2.16598272,-1.50614488,-1.58209765,-0.51011091,0.00000000,0.00000000,-2.89184928,-0.95726901,1.27247667,-1.78384924,-0.83369929,0.00000000,0.00000000
-0.86866218,-2.16458130,-1.53125560,-1.59831595,-0.52397352,0.00000000,0.00000000,-2.89143181,-0.94613791,1.29189754,-1.78915465,-0.84408998,0.00000000,0.00000000
-0.81839615,-2.16501307,-1.55460560,-1.61945939,-0.53771555,0.00000000,0.00000000,-2.88328648,-0.93777418,1.31613600,-1.80113959,-0.85168076,0.00000000,0.00000000
-0.74452257,-2.16773653,-1.57092988,-1.64015222,-0.54872900,0.00000000,0.00000000,-2.86905313,-0.93373197,1.34126818,-1.81757569,-0.86256105,0.00000000,0.00000000
-0.66259682,-2.16957521,-1.57860219,-1.65620613,-0.56898755,0.00000000,0.00000000,-2.85450530,-0.93346334,1.36181188,-1.83099067,-0.87593657,0.00000000,0.00000000
-0.58592659,-2.16997719,-1.57994246,-1.66898656,-0.58933872,0.00000000,0.00000000,-2.84298253,-0.93493438,1.37676513,-1.83749425,-0.88941908,0.00000000,0.00000000
-0.52078003,-2.17000008,-1.57790899,-1.68110657,-0.60766798,0.00000000,0.00000000,-2.83275056,-0.93803698,1.38609087,-1.83922553,-0.90121382,0.00000000,0.00000000
-0.46906054,-2.17000008,-1.57462001,-1.69432151,-0.62554580,0.00000000,0.00000000,-2.82104588,-0.94327295,1.38992000,-1.83980560,-0.90844357,0.00000000,0.00000000
-0.43000528,-2.17000008,-1.57134378,-1.70932806,-0.63328660,0.00000000,0.00000000,-2.80866313,-0.94908601,1.39033580,-1.83867991,-0.92709291,0.00000000,0.00000000
-0.40137768,-2.17000008,-1.56830156,-1.72569966,-0.64094901,0.00000000,0.00000000,-2.79694724,-0.95384312,1.38996696,-1.83419847,-0.94514573,0.00000000,0.00000000
-0.38065958,-2.17000008,-1.56541920,-1.74246418,-0.65321100,0.00000000,0.00000000,-2.78558135,-0.95703578,1.39038956,-1.82636476,-0.96280015,0.00000000,0.00000000
-0.36567602,-2.17000008,-1.56253064,-1.75854361,-0.66548061,0.00000000,0.00000000,-2.77346826,-0.95869875,1.39231801,-1.81593978,-0.98464888,0.00000000,0.00000000
-0.35431081,-2.17000008,-1.55871665,-1.77262437,-0.67432231,0.00000000,0.00000000,-2.75937748,-0.95894605,1.39545894,-1.80348611,-1.00442123,0.00000000,0.00000000
-0.34528211,-2.17000008,-1.55359197,-1.78384483,-0.67863518,0.00000000,0.00000000,-2.74190474,-0.95757580,1.40000474,-1.78949213,-1.02737975,0.00000000,0.00000000
-0.33832505,-2.17000008,-1.54701471,-1.79222715,-0.68864924,0.00000000,0.00000000,-2.71939754,-0.95434999,1.40658820,-1.77422702,-1.05035496,0.00000000,0.00000000
-0.33324331,-2.17000008,-1.53848255,-1.79785872,-0.69996530,0.00000000,0.00000000,-2.68980360,-0.94889969,1.41589224,-1.75753963,-1.07131386,0.00000000,0.00000000
-0.32938337,-2.17000008,-1.52669537,-1.80047917,-0.71051943,0.00000000,0.00000000,-2.65026116,-0.94053751,1.42880511,-1.73906958,-1.08983374,0.00000000,0.00000000
-0.32510412,-2.17000008,-1.50875795,-1.79963589,-0.72156453,0.00000000,0.00000000,-2.59710121,-0.92919153,1.44564736,-1.71834624,-1.10699308,0.00000000,0.00000000
-0.31867072,-2.17000008,-1.48255444,-1.79615498,-0.73287016,0.00000000,0.00000000,-2.52868080,-0.91567737,1.46665633,-1.69447315,-1.12680829,0.00000000,0.00000000
-0.31200188,-2.17000008,-1.44832921,-1.79613054,-0.74000430,0.00000000,0.00000000,-2.45111728,-0.90226531,1.49083579,-1.66486573,-1.13732243,0.00000000,0.00000000
-0.30756974,-2.17000008,-1.41220748,-1.80355799,-0.74713588,0.00000000,0.00000000,-2.38020158,-0.89181465,1.51464272,-1.62884378,-1.15202999,0.00000000,0.00000000
-0.30401200,-2.17000008,-1.38400161,-1.81306970,-0.74880350,0.00000000,0.00000000,-2.32833385,-0.88473046,1.53516293,-1.59591520,-1.17276347,0.00000000,0.00000000
-0.29974857,-2.17000008,-1.36751151,-1.81882071,-0.74661487,0.00000000,0.00000000,-2.29748464,-0.87994862,1.55025804,-1.57092059,-1.19621980,0.00000000,0.00000000
-0.29548335,-2.17000008,-1.36167622,-1.81856489,-0.74169451,0.00000000,0.00000000,-2.28848290,-0.87709367,1.55851924,-1.55293036,-1.21783388,0.00000000,0.00000000
-0.29115307,-2.17000008,-1.36468625,-1.81126809,-0.73153317,0.00000000,0.00000000,-2.30204988,-0.87671191,1.56057286,-1.54153073,-1.23955834,0.00000000,0.00000000
-0.28730589,-2.17000008,-1.37551939,-1.79833484,-0.71591640,0.00000000,0.00000000,-2.33528018,-0.87900299,1.55681741,-1.53912914,-1.25572240,0.00000000,0.00000000
-0.28646889,-2.17000008,-1.39326048,-1.78553140,-0.70601714,0.00000000,0.00000000,-2.38511467,-0.88455129,1.54869270,-1.54827893,-1.27098155,0.00000000,0.00000000
-0.28928766,-2.17000008,-1.41711795,-1.77814472,-0.69255233,0.00000000,0.00000000,-2.44951701,-0.89371622,1.53820026,-1.57025814,-1.28838658,0.00000000,0.00000000
-0.28918576,-2.16999412,-1.44361162,-1.77079284,-0.68049318,0.00000000,0.00000000,-2.52350378,-0.90620315,1.52646565,-1.60170257,-1.30609179,0.00000000,0.00000000
-0.28662160,-2.16991663,-1.46509922,-1.76380563,-0.65805495,0.00000000,0.00000000,-2.59713912,-0.91968042,1.51479518,-1.63092268,-1.32262623,0.00000000,0.00000000
-0.28366947,-2.16979694,-1.47897875,-1.75930345,-0.62877023,0.00000000,0.00000000,-2.66082215,-0.93085241,1.50411296,-1.65469193,-1.34694386,0.00000000,0.00000000
-0.28098205,-2.16991663,-1.48134255,-1.76090586,-0.59586281,0.00000000,0.00000000,-2.70937347,-0.93896121,1.49433994,-1.67491138,-1.36680079,0.00000000,0.00000000
-0.27744526,-2.16999435,-1.47650981,-1.76466668,-0.56818408,0.00000000,0.00000000,-2.74252057,-0.94491524,1.48537719,-1.69308925,-1.39493775,0.00000000,0.00000000
-0.27552080,-2.17000008,-1.46950877,-1.76849735,-0.54758614,0.00000000,0.00000000,-2.76309633,-0.94976652,1.47704387,-1.70936620,-1.42209482,0.00000000,0.00000000
-0.27653393,-2.17000008,-1.46286714,-1.77156627,-0.51655549,0.00000000,0.00000000,-2.77497101,-0.95355767,1.46961224,-1.72255397,-1.45009482,0.00000000,0.00000000
-0.27940372,-2.17000008,-1.45687580,-1.77290106,-0.47566164,0.00000000,0.00000000,-2.78104210,-0.95612907,1.46344423,-1.73118246,-1.47783816,0.00000000,0.00000000
-0.28378320,-2.17000008,-1.45008922,-1.77344847,-0.44112539,0.00000000,0.00000000,-2.78194261,-0.95762348,1.45862746,-1.73479140,-1.49895906,0.00000000,0.00000000
-0.28992033,-2.17000008,-1.44078183,-1.77419686,-0.40712544,0.00000000,0.00000000,-2.77625751,-0.95812166,1.45488155,-1.73389995,-1.51249635,0.00000000,0.00000000
-0.29734457,-2.17000008,-1.42855561,-1.77350914,-0.37480012,0.00000000,0.00000000,-2.76149035,-0.95752907,1.45159698,-1.72917771,-1.52223706,0.00000000,0.00000000
-0.30556533,-2.17000008,-1.41358566,-1.76927042,-0.34237117,0.00000000,0.00000000,-2.73469973,-0.95514977,1.44922650,-1.72141528,-1.52943802,0.00000000,0.00000000
-0.31431341,-2.17000008,-1.39608455,-1.76028991,-0.30757985,0.00000000,0.00000000,-2.69304013,-0.95002955,1.44907510,-1.71127653,-1.53698599,0.00000000,0.00000000
-0.32352492,-2.17000008,-1.37638795,-1.74644053,-0.27610686,0.00000000,0.00000000,-2.63484645,-0.94177055,1.45232439,-1.69866335,-1.54684830,0.00000000,0.00000000
-0.33488348,-2.17000008,-1.35537374,-1.73023176,-0.24058734,0.00000000,0.00000000,-2.56142330,-0.93188328,1.45951378,-1.68224359,-1.55479503,0.00000000,0.00000000
-0.35096946,-2.17000008,-1.33265972,-1.71701121,-0.20685501,0.00000000,0.00000000,-2.48197556,-0.92404991,1.47010112,-1.65807664,-1.56414998,0.00000000,0.00000000
-0.37237203,-2.17000008,-1.31097031,-1.71122932,-0.17691879,0.00000000,0.00000000,-2.41499329,-0.92013705,1.48293948,-1.62368333,-1.57635963,0.00000000,0.00000000
-0.39530244,-2.17000008,-1.29700971,-1.71419942,-0.14921485,0.00000000,0.00000000,-2.37033272,-0.91849709,1.49632025,-1.58997607,-1.58691156,0.00000000,0.00000000
-0.41504624,-2.17000008,-1.28774977,-1.72478878,-0.13042136,0.00000000,0.00000000,-2.34561682,-0.91767633,1.50721192,-1.56513405,-1.58665240,0.00000000,0.00000000
-0.43087089,-2.16999316,-1.28483140,-1.73074079,-0.11453553,0.00000000,0.00000000,-2.33944535,-0.91864622,1.51198924,-1.54983449,-1.58705509,0.00000000,0.00000000
-0.44210815,-2.16990304,-1.28936887,-1.72774684,-0.09864770,0.00000000,0.00000000,-2.35272932,-0.92150247,1.51179063,-1.54361451,-1.58754575,0.00000000,0.00000000
-0.45147094,-2.16976404,-1.29646909,-1.72440004,-0.08548184,0.00000000,0.00000000,-2.38363051,-0.92622852,1.50891256,-1.54819286,-1.57989824,0.00000000,0.00000000
-0.46160781,-2.16990328,-1.30214751,-1.73165703,-0.08546618,0.00000000,0.00000000,-2.42561555,-0.93234771,1.50658333,-1.56720996,-1.57897818,0.00000000,0.00000000
-0.46618238,-2.16999340,-1.31116986,-1.73865294,-0.08752316,0.00000000,0.00000000,-2.46770191,-0.93855709,1.50765884,-1.60031092,-1.57696378,0.00000000,0.00000000
-0.46727949,-2.17000008,-1.31918263,-1.74027908,-0.09163420,0.00000000,0.00000000,-2.50765538,-0.94445461,1.50943792,-1.63276529,-1.56842816,0.00000000,0.00000000
-0.46703023,-2.17000008,-1.32255697,-1.73754680,-0.09139695,0.00000000,0.00000000,-2.54227662,-0.94927871,1.50949967,-1.65959716,-1.55883598,0.00000000,0.00000000
-0.46666726,-2.17000008,-1.32156801,-1.73229945,-0.08827711,0.00000000,0.00000000,-2.56970644,-0.95228612,1.50802076,-1.68227148,-1.55549371,0.00000000,0.00000000
-0.46822122,-2.17000008,-1.31952631,-1.72454381,-0.08900275,0.00000000,0.00000000,-2.59125352,-0.95320380,1.50542367,-1.70161486,-1.54076087,0.00000000,0.00000000
-0.47353303,-2.17000008,-1.31882846,-1.71354890,-0.09891461,0.00000000,0.00000000,-2.60912132,-0.95234621,1.50144839,-1.71760142,-1.53367674,0.00000000,0.00000000
-0.48235911,-2.17000008,-1.32019675,-1.69766378,-0.10141568,0.00000000,0.00000000,-2.62500072,-0.95019281,1.49559557,-1.73010635,-1.52974081,0.00000000,0.00000000
-0.49455294,-2.17000008,-1.32356822,-1.67618787,-0.10630646,0.00000000,0.00000000,-2.63943672,-0.94746697,1.48679996,-1.73960221,-1.52542400,0.00000000,0.00000000
-0.51166117,-2.17000008,-1.32892430,-1.65022457,-0.12196245,0.00000000,0.00000000,-2.65237355,-0.94479603,1.47402489,-1.74677932,-1.52480209,0.00000000,0.00000000
-0.53665257,-2.17000008,-1.33648467,-1.62210798,-0.14253487,0.00000000,0.00000000,-2.66413617,-0.94250613,1.45661497,-1.75182390,-1.51987064,0.00000000,0.00000000
-0.57324350,-2.17000008,-1.34581840,-1.59464383,-0.15830408,0.00000000,0.00000000,-2.67537808,-0.94158971,1.43262923,-1.75464904,-1.51418710,0.00000000,0.00000000
-0.62386715,-2.17000008,-1.35700917,-1.56846905,-0.17657468,0.00000000,0.00000000,-2.68707061,-0.94328159,1.39971435,-1.75510120,-1.50956476,0.00000000,0.00000000
-0.68847466,-2.16998458,-1.36994338,-1.54165459,-0.19593011,0.00000000,0.00000000,-2.69970250,-0.94884914,1.35587645,-1.75341332,-1.50354409,0.00000000,0.00000000
-0.76093417,-2.16973281,-1.38515401,-1.50973809,-0.21233131,0.00000000,0.00000000,-2.71169376,-0.95771354,1.30478656,-1.75078118,-1.49980199,0.00000000,0.00000000
-0.82785916,-2.16875768,-1.40411925,-1.47201002,-0.22164500,0.00000000,0.00000000,-2.72218394,-0.96567100,1.25836599,-1.74814498,-1.49914193,0.00000000,0.00000000
-0.87894857,-2.16745210,-1.42256331,-1.43942213,-0.22418891,0.00000000,0.00000000,-2.73048639,-0.97020382,1.22362900,-1.74719036,-1.49476171,0.00000000,0.00000000
-0.91282439,-2.16704154,-1.43617451,-1.41763151,-0.22431305,0.00000000,0.00000000,-2.73546433,-0.97162616,1.19894886,-1.74756145,-1.48986471,0.00000000,0.00000000
-0.92745876,-2.16747499,-1.44412780,-1.40521240,-0.21700014,0.00000000,0.00000000,-2.73917961,-0.96794206,1.18464935,-1.74588299,-1.47748399,0.00000000,0.00000000
-0.91941476,-2.16843557,-1.44782460,-1.39945626,-0.21558182,0.00000000,0.00000000,-2.74158263,-0.95990443,1.18063748,-1.74212050,-1.46747506,0.00000000,0.00000000
-0.89036977,-2.16957331,-1.44918191,-1.40138376,-0.21619423,0.00000000,0.00000000,-2.74069667,-0.94992959,1.18705440,-1.74007893,-1.45955324,0.00000000,0.00000000
-0.84559608,-2.16997337,-1.45284998,-1.41169417,-0.20636675,0.00000000,0.00000000,-2.73567033,-0.93786901,1.20721984,-1.74405968,-1.45153654,0.00000000,0.00000000
-0.79137850,-2.17000008,-1.46310556,-1.42417419,-0.19815448,0.00000000,0.00000000,-2.73031163,-0.92258465,1.24061847,-1.75068498,-1.44147992,0.00000000,0.00000000
-0.73792660,-2.17000008,-1.47237325,-1.43427372,-0.19104618,0.00000000,0.00000000,-2.72578526,-0.90905833,1.27451563,-1.75511241,-1.43309414,0.00000000,0.00000000
-0.69062042,-2.17000008,-1.47712982,-1.44164264,-0.17856488,0.00000000,0.00000000,-2.72074795,-0.90004033,1.30242062,-1.75776780,-1.42973661,0.00000000,0.00000000
-0.65221989,-2.17000008,-1.47777820,-1.44828463,-0.15581279,0.00000000,0.00000000,-2.71530318,-0.89513856,1.32355106,-1.75962770,-1.42422187,0.00000000,0.00000000
-0.62386978,-2.17000008,-1.47545707,-1.45570588,-0.13121666,0.00000000,0.00000000,-2.70974374,-0.89346373,1.33800626,-1.76200855,-1.41957593,0.00000000,0.00000000
-0.60463017,-2.17000008,-1.47153103,-1.46344995,-0.11113172,0.00000000,0.00000000,-2.70430231,-0.89381653,1.34688437,-1.76555026,-1.41962826,0.00000000,0.00000000
-0.59269065,-2.17000008,-1.46705687,-1.47005773,-0.09184836,0.00000000,0.00000000,-2.69987226,-0.89491069,1.35152102,-1.76919281,-1.42037261,0.00000000,0.00000000
-0.58670366,-2.17000008,-1.46265507,-1.47444761,-0.07554808,0.00000000,0.00000000,-2.69660902,-0.89568651,1.35371518,-1.77196765,-1.41412461,0.00000000,0.00000000
-0.58659935,-2.17000008,-1.45900702,-1.47653055,-0.05592559,0.00000000,0.00000000,-2.69314528,-0.89588720,1.35468018,-1.77453125,-1.41806853,0.00000000,0.00000000
-0.59296280,-2.17000008,-1.45528233,-1.47698617,-0.02990873,0.00000000,0.00000000,-2.68924856,-0.89617205,1.35264719,-1.77658939,-1.41617668,0.00000000,0.00000000
-0.60684091,-2.17000008,-1.45123160,-1.47652102,-0.00732227,0.00000000,0.00000000,-2.68680358,-0.89586210,1.34724796,-1.77526641,-1.40930820,0.00000000,0.00000000
-0.63003117,-2.17000008,-1.44739234,-1.47592235,0.01322655,0.00000000,0.00000000,-2.68629193,-0.89545953,1.33718538,-1.77058947,-1.39977288,0.00000000,0.00000000
-0.66463584,-2.17000008,-1.44412482,-1.47568524,0.03716540,0.00000000,0.00000000,-2.68916202,-0.89645135,1.31913865,-1.76352346,-1.38655758,0.00000000,0.00000000
-0.71163529,-2.17000008,-1.44267952,-1.47446942,0.06229112,0.00000000,0.00000000,-2.69791770,-0.89904773,1.29228163,-1.75315070,-1.37619340,0.00000000,0.00000000
-0.76877475,-2.17000008,-1.44443512,-1.46916902,0.08884029,0.00000000,0.00000000,-2.71044707,-0.90389073,1.25824904,-1.74105942,-1.36658132,0.00000000,0.00000000
-0.82385921,-2.16997790,-1.45164585,-1.45695877,0.11456093,0.00000000,0.00000000,-2.71954823,-0.91000676,1.22653091,-1.73323357,-1.35877204,0.00000000,0.00000000
-0.85803574,-2.16965795,-1.46364975,-1.44121337,0.13885815,0.00000000,0.00000000,-2.72393870,-0.91424960,1.20771968,-1.73299325,-1.35243273,0.00000000,0.00000000
-0.87368721,-2.16885090,-1.47615695,-1.43330371,0.16273898,0.00000000,0.00000000,-2.72819233,-0.91540676,1.20342720,-1.73537338,-1.34730661,0.00000000,0.00000000
-0.87542921,-2.16848993,-1.48507631,-1.43827701,0.17799258,0.00000000,0.00000000,-2.73517346,-0.91392165,1.20826149,-1.73578405,-1.34043193,0.00000000,0.00000000
-0.85951471,-2.16881323,-1.49112236,-1.45372534,0.18961476,0.00000000,0.00000000,-2.74118567,-0.91111767,1.21856904,-1.73750162,-1.33430803,0.00000000,0.00000000
-0.82498163,-2.16964197,-1.49566054,-1.47881842,0.19090922,0.00000000,0.00000000,-2.74400187,-0.90598994,1.23740160,-1.74262309,-1.33297312,0.00000000,0.00000000
-0.77269822,-2.16997719,-1.50054955,-1.50800574,0.18748614,0.00000000,0.00000000,-2.74096417,-0.89963210,1.26500106,-1.75418282,-1.33573544,0.00000000,0.00000000
-0.70691448,-2.17000008,-1.50431633,-1.52783871,0.18746383,0.00000000,0.00000000,-2.73507762,-0.89491564,1.29303968,-1.76659214,-1.34383142,0.00000000,0.00000000
-0.64114958,-2.17000008,-1.50495744,-1.53931284,0.19553992,0.00000000,0.00000000,-2.73183870,-0.89187104,1.31672001,-1.77272570,-1.35394633,0.00000000,0.00000000
-0.58511943,-2.17000008,-1.50324166,-1.54807234,0.19916946,0.00000000,0.00000000,-2.73139143,-0.88993907,1.33574653,-1.77217376,-1.37156546,0.00000000,0.00000000
-0.54223973,-2.17000008,-1.50080693,-1.55779707,0.20304969,0.00000000,0.00000000,-2.73171353,-0.88867033,1.35148597,-1.76761222,-1.38478851,0.00000000,0.00000000
-0.51166302,-2.17000008,-1.49849880,-1.56948888,0.20654479,0.00000000,0.00000000,-2.73184013,-0.88810599,1.36383104,-1.76213670,-1.38984263,0.00000000,0.00000000
-0.49026191,-2.17000008,-1.49669456,-1.58181202,0.20641759,0.00000000,0.00000000,-2.73253274,-0.88850224,1.37157965,-1.75732982,-1.39824677,0.00000000,0.00000000
-0.47440132,-2.17000008,-1.49561048,-1.59258199,0.20236966,0.00000000,0.00000000,-2.73374748,-0.88936442,1.37617314,-1.75343490,-1.40431237,0.00000000,0.00000000
-0.46213901,-2.17000008,-1.49487221,-1.60137486,0.19943362,0.00000000,0.00000000,-2.73355985,-0.89066756,1.37903893,-1.75160360,-1.41351914,0.00000000,0.00000000
-0.45404980,-2.17000008,-1.49448359,-1.61009204,0.20029256,0.00000000,0.00000000,-2.73208117,-0.89176428,1.38167608,-1.75030577,-1.41728628,0.00000000,0.00000000
-0.44878563,-2.17000008,-1.49409568,-1.61795223,0.19546585,0.00000000,0.00000000,-2.73076677,-0.89195734,1.38484490,-1.74716818,-1.42261744,0.00000000,0.00000000
