isaac-sim2real/sage/motion_files/wr75s/amass/0-Eyes_Japan_Dataset_kaiwa_throw_toss-09-shotput-kaiwa_poses_idx26.txt
l_joint1,l_joint2,l_joint3,l_joint4,l_joint5,l_joint6,l_joint7,r_joint1,r_joint2,r_joint3,r_joint4,r_joint5,r_joint6,r_joint7
-1.45491028,-0.67913944,-0.82391047,-0.26719016,-0.09613036,0.00000000,0.00000000,-0.60883611,0.57103556,-0.03997114,0.02238776,-0.04869095,0.00000000,0.00000000
-1.45480132,-0.67981088,-0.82370365,-0.26682934,-0.10340113,0.00000000,0.00000000,-0.60891819,0.57120657,-0.03975929,0.02251646,-0.05855531,0.00000000,0.00000000
-1.45460582,-0.68083566,-0.82336777,-0.26616549,-0.10954732,0.00000000,0.00000000,-0.60901535,0.57150376,-0.03935111,0.02274793,-0.06711986,0.00000000,0.00000000
-1.45433199,-0.68188685,-0.82298589,-0.26528785,-0.11503508,0.00000000,0.00000000,-0.60905075,0.57186371,-0.03874908,0.02303480,-0.07396851,0.00000000,0.00000000
-1.45396745,-0.68276697,-0.82261539,-0.26431841,-0.12201287,0.00000000,0.00000000,-0.60897404,0.57222939,-0.03795538,0.02331746,-0.07864895,0.00000000,0.00000000
-1.45348358,-0.68346673,-0.82227361,-0.26336947,-0.12626737,0.00000000,0.00000000,-0.60877812,0.57257986,-0.03696966,0.02355999,-0.08732178,0.00000000,0.00000000
-1.45285356,-0.68407452,-0.82196176,-0.26252133,-0.12653761,0.00000000,0.00000000,-0.60848171,0.57290888,-0.03578950,0.02374950,-0.09436911,0.00000000,0.00000000
-1.45206344,-0.68464303,-0.82168955,-0.26182723,-0.12926412,0.00000000,0.00000000,-0.60809809,0.57320589,-0.03441212,0.02386937,-0.10051954,0.00000000,0.00000000
-1.45111322,-0.68509901,-0.82148051,-0.26132047,-0.13217106,0.00000000,0.00000000,-0.60761219,0.57347077,-0.03283612,0.02389276,-0.11006248,0.00000000,0.00000000
-1.45001090,-0.68525922,-0.82136482,-0.26101801,-0.13521349,0.00000000,0.00000000,-0.60698140,0.57372892,-0.03106183,0.02380446,-0.11953545,0.00000000,0.00000000
-1.44876456,-0.68494260,-0.82136685,-0.26091501,-0.13854116,0.00000000,0.00000000,-0.60616171,0.57401657,-0.02908999,0.02361325,-0.12844048,0.00000000,0.00000000
-1.44737422,-0.68409753,-0.82148826,-0.26097673,-0.14287917,0.00000000,0.00000000,-0.60513401,0.57434297,-0.02692024,0.02333104,-0.13715172,0.00000000,0.00000000
-1.44582641,-0.68283826,-0.82169694,-0.26114064,-0.14649171,0.00000000,0.00000000,-0.60391307,0.57470846,-0.02455041,0.02296098,-0.14131416,0.00000000,0.00000000
-1.44410002,-0.68138272,-0.82193351,-0.26132765,-0.14902379,0.00000000,0.00000000,-0.60253918,0.57515359,-0.02197651,0.02250956,-0.14541522,0.00000000,0.00000000
-1.44217718,-0.67996734,-0.82213455,-0.26145792,-0.15218250,0.00000000,0.00000000,-0.60106450,0.57577646,-0.01919322,0.02199971,-0.15236664,0.00000000,0.00000000
-1.44004822,-0.67879415,-0.82225144,-0.26147005,-0.15690519,0.00000000,0.00000000,-0.59953886,0.57669014,-0.01619492,0.02145940,-0.15988518,0.00000000,0.00000000
-1.43770492,-0.67800874,-0.82225662,-0.26133943,-0.16239648,0.00000000,0.00000000,-0.59799325,0.57796627,-0.01297706,0.02089913,-0.16642395,0.00000000,0.00000000
-1.43513644,-0.67768353,-0.82214248,-0.26108265,-0.17063598,0.00000000,0.00000000,-0.59642977,0.57961291,-0.00953690,0.02030766,-0.16933879,0.00000000,0.00000000
-1.43232882,-0.67780226,-0.82192367,-0.26074687,-0.17927451,0.00000000,0.00000000,-0.59481972,0.58157754,-0.00587338,0.01966696,-0.16975583,0.00000000,0.00000000
-1.42926991,-0.67825288,-0.82163972,-0.26039746,-0.18323685,0.00000000,0.00000000,-0.59310853,0.58376890,-0.00198674,0.01897142,-0.17338739,0.00000000,0.00000000
-1.42595303,-0.67885101,-0.82134378,-0.26010340,-0.18428259,0.00000000,0.00000000,-0.59122002,0.58606660,0.00212175,0.01822478,-0.18154134,0.00000000,0.00000000
-1.42237449,-0.67939639,-0.82108450,-0.25993061,-0.18514372,0.00000000,0.00000000,-0.58907330,0.58838278,0.00645058,0.01744447,-0.19023317,0.00000000,0.00000000
-1.41852629,-0.67974633,-0.82089031,-0.25993308,-0.19018261,0.00000000,0.00000000,-0.58660275,0.59068763,0.01099899,0.01664967,-0.20246303,0.00000000,0.00000000
-1.41439223,-0.67984855,-0.82076544,-0.26014906,-0.19366516,0.00000000,0.00000000,-0.58376789,0.59299946,0.01576745,0.01585227,-0.21111755,0.00000000,0.00000000
-1.40994620,-0.67970508,-0.82069510,-0.26060131,-0.19051495,0.00000000,0.00000000,-0.58054143,0.59535509,0.02075686,0.01506232,-0.22514592,0.00000000,0.00000000
-1.40515959,-0.67930442,-0.82065785,-0.26129609,-0.19150136,0.00000000,0.00000000,-0.57688606,0.59776831,0.02596749,0.01430468,-0.23679167,0.00000000,0.00000000
-1.40000725,-0.67859387,-0.82064009,-0.26223394,-0.19048981,0.00000000,0.00000000,-0.57274848,0.60020953,0.03139873,0.01363334,-0.24737310,0.00000000,0.00000000
-1.39447391,-0.67752194,-0.82064086,-0.26340666,-0.18522334,0.00000000,0.00000000,-0.56807208,0.60256249,0.03704967,0.01308578,-0.25429088,0.00000000,0.00000000
-1.38855469,-0.67609578,-0.82065916,-0.26476899,-0.18898116,0.00000000,0.00000000,-0.56281602,0.60464585,0.04291976,0.01263286,-0.25388727,0.00000000,0.00000000
-1.38225389,-0.67441356,-0.82067162,-0.26621011,-0.18606330,0.00000000,0.00000000,-0.55696934,0.60633004,0.04900912,0.01219997,-0.25513574,0.00000000,0.00000000
-1.37557495,-0.67265981,-0.82061851,-0.26756388,-0.18241389,0.00000000,0.00000000,-0.55055100,0.60765731,0.05531840,0.01174713,-0.25270474,0.00000000,0.00000000
-1.36850905,-0.67104590,-0.82041442,-0.26866823,-0.18169512,0.00000000,0.00000000,-0.54358882,0.60881412,0.06184813,0.01131067,-0.25185597,0.00000000,0.00000000
-1.36103261,-0.66972792,-0.81997770,-0.26942170,-0.17957164,0.00000000,0.00000000,-0.53609443,0.61000872,0.06859789,0.01096617,-0.25580159,0.00000000,0.00000000
-1.35311115,-0.66882467,-0.81924522,-0.26980332,-0.17821893,0.00000000,0.00000000,-0.52806556,0.61138278,0.07556626,0.01077887,-0.26063031,0.00000000,0.00000000
-1.34470844,-0.66839969,-0.81818849,-0.26987433,-0.17639311,0.00000000,0.00000000,-0.51948524,0.61296672,0.08275075,0.01077198,-0.26450244,0.00000000,0.00000000
-1.33579612,-0.66841483,-0.81682265,-0.26974708,-0.17490271,0.00000000,0.00000000,-0.51031679,0.61466986,0.09014751,0.01091754,-0.26528120,0.00000000,0.00000000
-1.32634938,-0.66874748,-0.81518793,-0.26953506,-0.17451940,0.00000000,0.00000000,-0.50050831,0.61630958,0.09775130,0.01114700,-0.26664901,0.00000000,0.00000000
-1.31634235,-0.66924787,-0.81331819,-0.26931131,-0.17008257,0.00000000,0.00000000,-0.49000072,0.61768007,0.10555561,0.01137719,-0.26841053,0.00000000,0.00000000
-1.30575705,-0.66975027,-0.81122738,-0.26907226,-0.17131071,0.00000000,0.00000000,-0.47872886,0.61862218,0.11355258,0.01154702,-0.26499379,0.00000000,0.00000000
-1.29458845,-0.67007220,-0.80890393,-0.26870859,-0.16929165,0.00000000,0.00000000,-0.46662456,0.61912054,0.12173324,0.01167756,-0.26181772,0.00000000,0.00000000
-1.28283846,-0.67006552,-0.80631196,-0.26803094,-0.16954836,0.00000000,0.00000000,-0.45362911,0.61928254,0.13008809,0.01185381,-0.26585442,0.00000000,0.00000000
-1.27049673,-0.66969097,-0.80339891,-0.26686117,-0.17228413,0.00000000,0.00000000,-0.43970686,0.61918867,0.13860790,0.01210646,-0.26892275,0.00000000,0.00000000
-1.25753212,-0.66905820,-0.80010331,-0.26510507,-0.17925964,0.00000000,0.00000000,-0.42485201,0.61883688,0.14728414,0.01237069,-0.27803367,0.00000000,0.00000000
-1.24389553,-0.66840893,-0.79635936,-0.26276508,-0.18904163,0.00000000,0.00000000,-0.40908521,0.61820686,0.15610866,0.01253251,-0.28180778,0.00000000,0.00000000
-1.22953022,-0.66806239,-0.79210001,-0.25989774,-0.19719440,0.00000000,0.00000000,-0.39244568,0.61734754,0.16507387,0.01248247,-0.28601071,0.00000000,0.00000000
-1.21438086,-0.66836590,-0.78725833,-0.25655511,-0.20135427,0.00000000,0.00000000,-0.37498286,0.61640376,0.17417285,0.01213299,-0.29436475,0.00000000,0.00000000
-1.19840169,-0.66965431,-0.78176713,-0.25273904,-0.21010645,0.00000000,0.00000000,-0.35674420,0.61560947,0.18339916,0.01142244,-0.30427501,0.00000000,0.00000000
-1.18155754,-0.67221588,-0.77555549,-0.24837637,-0.21900710,0.00000000,0.00000000,-0.33775941,0.61528313,0.19274618,0.01032998,-0.31804338,0.00000000,0.00000000
-1.16381717,-0.67628658,-0.76854807,-0.24332595,-0.22808179,0.00000000,0.00000000,-0.31803194,0.61579233,0.20220692,0.00887343,-0.32978788,0.00000000,0.00000000
-1.14514184,-0.68208063,-0.76066983,-0.23741922,-0.23755257,0.00000000,0.00000000,-0.29754391,0.61746639,0.21177457,0.00706577,-0.34064621,0.00000000,0.00000000
-1.12547779,-0.68981481,-0.75185549,-0.23050576,-0.24787807,0.00000000,0.00000000,-0.27626517,0.62052578,0.22144340,0.00486240,-0.35480279,0.00000000,0.00000000
-1.10475588,-0.69971043,-0.74205530,-0.22247453,-0.25756082,0.00000000,0.00000000,-0.25415626,0.62509698,0.23120977,0.00214836,-0.37301907,0.00000000,0.00000000
-1.08289123,-0.71201801,-0.73123443,-0.21325891,-0.26202297,0.00000000,0.00000000,-0.23117232,0.63129973,0.24107295,-0.00122385,-0.38706666,0.00000000,0.00000000
-1.05977452,-0.72708720,-0.71936679,-0.20284060,-0.27013883,0.00000000,0.00000000,-0.20727412,0.63936955,0.25103652,-0.00536567,-0.40133634,0.00000000,0.00000000
-1.03526711,-0.74542207,-0.70643127,-0.19124526,-0.27677807,0.00000000,0.00000000,-0.18243574,0.64980543,0.26110962,-0.01027559,-0.40811387,0.00000000,0.00000000
-1.00919390,-0.76765728,-0.69241756,-0.17853738,-0.28051141,0.00000000,0.00000000,-0.15663882,0.66350532,0.27130839,-0.01577641,-0.41263980,0.00000000,0.00000000
-0.98134345,-0.79447758,-0.67734116,-0.16484058,-0.28402063,0.00000000,0.00000000,-0.12986307,0.68180090,0.28165743,-0.02148703,-0.41904715,0.00000000,0.00000000
-0.95147526,-0.82652438,-0.66126156,-0.15036845,-0.28517723,0.00000000,0.00000000,-0.10208785,0.70634741,0.29219115,-0.02684322,-0.42287540,0.00000000,0.00000000
-0.91934544,-0.86430079,-0.64429045,-0.13542365,-0.28492087,0.00000000,0.00000000,-0.07331192,0.73888481,0.30295336,-0.03117694,-0.42717662,0.00000000,0.00000000
-0.88475776,-0.90809232,-0.62659317,-0.12037818,-0.28948781,0.00000000,0.00000000,-0.04359271,0.78094351,0.31399265,-0.03382881,-0.42442912,0.00000000,0.00000000
-0.84763944,-0.95797724,-0.60838097,-0.10570839,-0.29871279,0.00000000,0.00000000,-0.01310016,0.83362353,0.32535365,-0.03420862,-0.42348102,0.00000000,0.00000000
-0.80814493,-1.01395142,-0.58989525,-0.09211530,-0.30701798,0.00000000,0.00000000,0.01781987,0.89738649,0.33706433,-0.03175580,-0.42319620,0.00000000,0.00000000
-0.76675385,-1.07604742,-0.57138455,-0.08059707,-0.31511122,0.00000000,0.00000000,0.04858452,0.97163868,0.34911746,-0.02587271,-0.42234641,0.00000000,0.00000000
-0.72419882,-1.14410555,-0.55306959,-0.07214852,-0.31865534,0.00000000,0.00000000,0.07838111,1.05437481,0.36144781,-0.01594654,-0.42080155,0.00000000,0.00000000
-0.68111926,-1.21736157,-0.53510571,-0.06718390,-0.32646745,0.00000000,0.00000000,0.10632793,1.14308536,0.37392005,-0.00151463,-0.42545012,0.00000000,0.00000000
-0.63786477,-1.29463625,-0.51758146,-0.06545975,-0.34179914,0.00000000,0.00000000,0.13171211,1.23622406,0.38634264,0.01757877,-0.43200186,0.00000000,0.00000000
-0.59458035,-1.37439406,-0.50055039,-0.06620732,-0.36105031,0.00000000,0.00000000,0.15412270,1.33308601,0.39849266,0.04127287,-0.44424042,0.00000000,0.00000000
-0.55147487,-1.45463681,-0.48406112,-0.06846136,-0.38209844,0.00000000,0.00000000,0.17336579,1.43282342,0.41013405,0.06921828,-0.45544592,0.00000000,0.00000000
-0.50888687,-1.53210807,-0.46818614,-0.07060580,-0.39965919,0.00000000,0.00000000,0.18921676,1.53381765,0.42103010,0.10048458,-0.46946868,0.00000000,0.00000000
-0.46750510,-1.60256910,-0.45303568,-0.07071022,-0.41670579,0.00000000,0.00000000,0.20136198,1.63341224,0.43097144,0.13344657,-0.48640338,0.00000000,0.00000000
-0.42829689,-1.66993940,-0.43859223,-0.07158223,-0.43032351,0.00000000,0.00000000,0.20976590,1.72839415,0.43982416,0.16622624,-0.49654022,0.00000000,0.00000000
-0.39199385,-1.73411477,-0.42489621,-0.07339206,-0.44496456,0.00000000,0.00000000,0.21488133,1.81627905,0.44753727,0.19750810,-0.50894529,0.00000000,0.00000000
-0.35899490,-1.79323184,-0.41199511,-0.07505594,-0.45495009,0.00000000,0.00000000,0.21763113,1.89557397,0.45414424,0.22670445,-0.51750869,0.00000000,0.00000000
-0.32960096,-1.84656060,-0.39990225,-0.07606442,-0.46208286,0.00000000,0.00000000,0.21950990,1.96552002,0.45978722,0.25382307,-0.53447568,0.00000000,0.00000000
-0.30419251,-1.89392221,-0.38861400,-0.07621949,-0.46827745,0.00000000,0.00000000,0.22258070,2.02569914,0.46473786,0.27921373,-0.55235010,0.00000000,0.00000000
-0.28311789,-1.93546057,-0.37810746,-0.07549343,-0.47672063,0.00000000,0.00000000,0.22887689,2.07557225,0.46934023,0.30314109,-0.56277961,0.00000000,0.00000000
-0.26604638,-1.97190356,-0.36831221,-0.07404318,-0.47895059,0.00000000,0.00000000,0.23868459,2.11462474,0.47371498,0.32543582,-0.57525450,0.00000000,0.00000000
-0.25177950,-2.00371361,-0.35912138,-0.07177821,-0.47767541,0.00000000,0.00000000,0.24888416,2.14283800,0.47738814,0.34532312,-0.58706427,0.00000000,0.00000000
-0.23927632,-2.03134990,-0.35044077,-0.06874831,-0.47733992,0.00000000,0.00000000,0.25593734,2.16043782,0.47977188,0.36199316,-0.60005569,0.00000000,0.00000000
-0.22804643,-2.05642700,-0.34219548,-0.06580560,-0.47458112,0.00000000,0.00000000,0.26018330,2.16820860,0.48108658,0.37492415,-0.60966444,0.00000000,0.00000000
-0.21701534,-2.07877183,-0.33432400,-0.06252906,-0.47045046,0.00000000,0.00000000,0.26479346,2.16987634,0.48222890,0.38363543,-0.61574382,0.00000000,0.00000000
-0.20501710,-2.09585834,-0.32680419,-0.05691819,-0.46615845,0.00000000,0.00000000,0.27212173,2.16960812,0.48381531,0.38825279,-0.61781484,0.00000000,0.00000000
-0.19229303,-2.11056137,-0.31961724,-0.05052859,-0.45777324,0.00000000,0.00000000,0.28300706,2.16863728,0.48587042,0.39052472,-0.62068695,0.00000000,0.00000000
-0.17902201,-2.12373281,-0.31277648,-0.04395940,-0.44660348,0.00000000,0.00000000,0.29637367,2.16818261,0.48776919,0.39361301,-0.62827837,0.00000000,0.00000000
-0.16589922,-2.13452244,-0.30632898,-0.03699557,-0.43217245,0.00000000,0.00000000,0.30907726,2.16864491,0.48857886,0.39887911,-0.64141423,0.00000000,0.00000000
-0.15463358,-2.14274955,-0.30033487,-0.03000863,-0.42152411,0.00000000,0.00000000,0.31931600,2.16942883,0.48779199,0.40638345,-0.65203965,0.00000000,0.00000000
-0.14705865,-2.14863467,-0.29484200,-0.02360821,-0.41168287,0.00000000,0.00000000,0.32677457,2.16988754,0.48528999,0.41558611,-0.66062456,0.00000000,0.00000000
-0.14418714,-2.15263462,-0.28987089,-0.01833467,-0.40546414,0.00000000,0.00000000,0.33140656,2.16999388,0.48109528,0.42531589,-0.67159832,0.00000000,0.00000000
-0.14588262,-2.15551805,-0.28541902,-0.01462215,-0.39673907,0.00000000,0.00000000,0.33281961,2.17000008,0.47535017,0.43335783,-0.68441153,0.00000000,0.00000000
-0.15083206,-2.15779948,-0.28147054,-0.01249607,-0.39274105,0.00000000,0.00000000,0.33003139,2.17000008,0.46808413,0.43741202,-0.69819188,0.00000000,0.00000000
-0.15703243,-2.15970039,-0.27800390,-0.01169668,-0.38807666,0.00000000,0.00000000,0.32311907,2.17000008,0.45951778,0.43613359,-0.70963216,0.00000000,0.00000000
-0.16249226,-2.16123390,-0.27499533,-0.01191370,-0.38859197,0.00000000,0.00000000,0.31273973,2.17000008,0.44995183,0.42909890,-0.71890295,0.00000000,0.00000000
-0.16599934,-2.16261625,-0.27242041,-0.01317860,-0.39487693,0.00000000,0.00000000,0.29992583,2.17000008,0.43979707,0.41617054,-0.72424465,0.00000000,0.00000000
-0.16743302,-2.16431117,-0.27025369,-0.01591066,-0.40436953,0.00000000,0.00000000,0.28641850,2.17000008,0.42953846,0.39793995,-0.73053426,0.00000000,0.00000000
-0.16747706,-2.16642714,-0.26846763,-0.02045795,-0.40553260,0.00000000,0.00000000,0.27367887,2.17000008,0.41945395,0.37561089,-0.73369688,0.00000000,0.00000000
-0.16732199,-2.16847301,-0.26703402,-0.02685401,-0.40299171,0.00000000,0.00000000,0.26271787,2.17000008,0.40964273,0.35059163,-0.73519790,0.00000000,0.00000000
-0.16834120,-2.16967750,-0.26592651,-0.03478052,-0.39961681,0.00000000,0.00000000,0.25415233,2.17000008,0.40010008,0.32424328,-0.73184150,0.00000000,0.00000000
-0.17168479,-2.16998148,-0.26512060,-0.04364888,-0.39688891,0.00000000,0.00000000,0.24807359,2.17000008,0.39073682,0.29772565,-0.72810149,0.00000000,0.00000000
-0.17787994,-2.17000008,-0.26458454,-0.05282682,-0.39524606,0.00000000,0.00000000,0.24408692,2.17000008,0.38142049,0.27196911,-0.72253972,0.00000000,0.00000000
-0.18663050,-2.17000008,-0.26426432,-0.06188469,-0.39775124,0.00000000,0.00000000,0.24159291,2.17000008,0.37203661,0.24771470,-0.71143305,0.00000000,0.00000000
-0.19693531,-2.17000008,-0.26407561,-0.07060669,-0.40308127,0.00000000,0.00000000,0.24002160,2.17000008,0.36251491,0.22554420,-0.70318431,0.00000000,0.00000000
-0.20744172,-2.17000008,-0.26391044,-0.07882490,-0.40499818,0.00000000,0.00000000,0.23891187,2.17000008,0.35281748,0.20590924,-0.69316906,0.00000000,0.00000000
-0.21681142,-2.17000008,-0.26365361,-0.08629123,-0.40895498,0.00000000,0.00000000,0.23795810,2.17000008,0.34293076,0.18913221,-0.69061422,0.00000000,0.00000000
-0.22398151,-2.17000008,-0.26320073,-0.09268408,-0.41588926,0.00000000,0.00000000,0.23707704,2.17000008,0.33286881,0.17538074,-0.68490231,0.00000000,0.00000000
-0.22828202,-2.17000008,-0.26246950,-0.09780066,-0.42383668,0.00000000,0.00000000,0.23642074,2.17000008,0.32267046,0.16467780,-0.67597234,0.00000000,0.00000000
-0.22952561,-2.16994524,-0.26140380,-0.10200660,-0.42946187,0.00000000,0.00000000,0.23631835,2.17000008,0.31238934,0.15692841,-0.67109030,0.00000000,0.00000000
-0.22735071,-2.16917968,-0.25995806,-0.10550720,-0.43334347,0.00000000,0.00000000,0.23704697,2.17000008,0.30207625,0.15186802,-0.66351211,0.00000000,0.00000000
-0.22090264,-2.16759491,-0.25808889,-0.10811076,-0.43781438,0.00000000,0.00000000,0.23846847,2.17000008,0.29175669,0.14887901,-0.65426522,0.00000000,0.00000000
-0.21225584,-2.16801500,-0.25586259,-0.11331344,-0.43900445,0.00000000,0.00000000,0.24001320,2.17000008,0.28142390,0.14707677,-0.64649349,0.00000000,0.00000000
-0.20321962,-2.16945267,-0.25341755,-0.12131347,-0.44114193,0.00000000,0.00000000,0.24125679,2.17000008,0.27105966,0.14587906,-0.64159149,0.00000000,0.00000000
-0.19444466,-2.16996598,-0.25087580,-0.13032560,-0.44579583,0.00000000,0.00000000,0.24199429,2.17000008,0.26064074,0.14503290,-0.63403755,0.00000000,0.00000000
-0.18644191,-2.17000008,-0.24834892,-0.13913178,-0.45212936,0.00000000,0.00000000,0.24208367,2.17000008,0.25013638,0.14440590,-0.62531197,0.00000000,0.00000000
-0.17971955,-2.17000008,-0.24594696,-0.14712849,-0.46523559,0.00000000,0.00000000,0.24138607,2.17000008,0.23950772,0.14393570,-0.61933166,0.00000000,0.00000000
-0.17473236,-2.17000008,-0.24377598,-0.15419149,-0.48135179,0.00000000,0.00000000,0.23972732,2.17000008,0.22870648,0.14362623,-0.60799372,0.00000000,0.00000000
-0.17184201,-2.17000008,-0.24193004,-0.16060007,-0.50409865,0.00000000,0.00000000,0.23696281,2.17000008,0.21768095,0.14352605,-0.59578896,0.00000000,0.00000000
-0.17127219,-2.17000008,-0.24048242,-0.16690978,-0.52871120,0.00000000,0.00000000,0.23310246,2.17000008,0.20638627,0.14369901,-0.57832438,0.00000000,0.00000000
-0.17303307,-2.17000008,-0.23948584,-0.17360972,-0.55282843,0.00000000,0.00000000,0.22823407,2.17000008,0.19478014,0.14416865,-0.56156784,0.00000000,0.00000000
-0.17688549,-2.17000008,-0.23896940,-0.18099636,-0.57793915,0.00000000,0.00000000,0.22260697,2.17000008,0.18282932,0.14492498,-0.54820120,0.00000000,0.00000000
-0.18235916,-2.17000008,-0.23894008,-0.18912801,-0.60762864,0.00000000,0.00000000,0.21666051,2.17000008,0.17051193,0.14593501,-0.53126144,0.00000000,0.00000000
-0.18884614,-2.17000008,-0.23938952,-0.19784258,-0.63276738,0.00000000,0.00000000,0.21093756,2.17000008,0.15781161,0.14712958,-0.51440173,0.00000000,0.00000000
-0.19575383,-2.17000008,-0.24030380,-0.20685132,-0.65495223,0.00000000,0.00000000,0.20595571,2.17000008,0.14470848,0.14838602,-0.50262952,0.00000000,0.00000000
-0.20260878,-2.17000008,-0.24166779,-0.21584068,-0.67215741,0.00000000,0.00000000,0.20207475,2.17000008,0.13116977,0.14951780,-0.49788466,0.00000000,0.00000000
-0.20906618,-2.17000008,-0.24346282,-0.22453946,-0.68851680,0.00000000,0.00000000,0.19943750,2.17000008,0.11714637,0.15027301,-0.49368402,0.00000000,0.00000000
-0.21487047,-2.17000008,-0.24566391,-0.23274291,-0.71178299,0.00000000,0.00000000,0.19799754,2.17000008,0.10257488,0.15035194,-0.49055102,0.00000000,0.00000000
-0.21983583,-2.17000008,-0.24824381,-0.24031441,-0.73726857,0.00000000,0.00000000,0.19757666,2.17000008,0.08738063,0.14944455,-0.48554710,0.00000000,0.00000000
-0.22386566,-2.17000008,-0.25118291,-0.24718866,-0.76139045,0.00000000,0.00000000,0.19791704,2.17000008,0.07147966,0.14727008,-0.48193020,0.00000000,0.00000000
-0.22697669,-2.17000008,-0.25447738,-0.25338423,-0.78587240,0.00000000,0.00000000,0.19871992,2.17000008,0.05478049,0.14360154,-0.47632062,0.00000000,0.00000000
-0.22928935,-2.17000008,-0.25813890,-0.25901753,-0.81082261,0.00000000,0.00000000,0.19966483,2.17000008,0.03718516,0.13827012,-0.47177249,0.00000000,0.00000000
-0.23098978,-2.17000008,-0.26218748,-0.26430535,-0.83184350,0.00000000,0.00000000,0.20043206,2.17000008,0.01859165,0.13114744,-0.46504423,0.00000000,0.00000000
-0.23229115,-2.17000008,-0.26664463,-0.26954541,-0.84906346,0.00000000,0.00000000,0.20074455,2.17000008,-0.00110149,0.12210539,-0.45905468,0.00000000,0.00000000
-0.23341331,-2.17000008,-0.27153119,-0.27508596,-0.86606765,0.00000000,0.00000000,0.20039915,2.17000008,-0.02199152,0.11097293,-0.45258456,0.00000000,0.00000000
-0.23459053,-2.17000008,-0.27686948,-0.28130639,-0.87743419,0.00000000,0.00000000,0.19925645,2.17000008,-0.04417190,0.09751653,-0.45128676,0.00000000,0.00000000
-0.23610029,-2.17000008,-0.28268772,-0.28861046,-0.89225894,0.00000000,0.00000000,0.19720836,2.17000008,-0.06773446,0.08143565,-0.44426578,0.00000000,0.00000000
-0.23828626,-2.17000008,-0.28902474,-0.29741243,-0.90988296,0.00000000,0.00000000,0.19416367,2.17000008,-0.09276981,0.06232987,-0.43539825,0.00000000,0.00000000
-0.24156073,-2.17000008,-0.29593307,-0.30810988,-0.93003422,0.00000000,0.00000000,0.19004656,2.17000008,-0.11936571,0.03962521,-0.42517111,0.00000000,0.00000000
-0.24640448,-2.17000008,-0.30348444,-0.32105482,-0.94837284,0.00000000,0.00000000,0.18475613,2.17000008,-0.14760444,0.01251520,-0.41401821,0.00000000,0.00000000
-0.25337124,-2.17000008,-0.31177589,-0.33654511,-0.97037268,0.00000000,0.00000000,0.17807513,2.17000008,-0.17755532,-0.02003335,-0.39969054,0.00000000,0.00000000
-0.26307422,-2.17000008,-0.32093230,-0.35482249,-0.99624759,0.00000000,0.00000000,0.16955715,2.17000008,-0.20925471,-0.05922459,-0.38386843,0.00000000,0.00000000
-0.27612501,-2.17000008,-0.33110145,-0.37605250,-1.02349949,0.00000000,0.00000000,0.15841530,2.17000008,-0.24266656,-0.10637112,-0.36704049,0.00000000,0.00000000
-0.29305506,-2.17000008,-0.34244657,-0.40028477,-1.05044615,0.00000000,0.00000000,0.14342624,2.17000008,-0.27761838,-0.16281453,-0.34733376,0.00000000,0.00000000
-0.31426597,-2.17000008,-0.35514385,-0.42741573,-1.07932711,0.00000000,0.00000000,0.12287403,2.16988611,-0.31371248,-0.22980186,-0.32624912,0.00000000,0.00000000
-0.34002417,-2.17000008,-0.36938977,-0.45715794,-1.11219001,0.00000000,0.00000000,0.09455651,2.16776681,-0.35021910,-0.30834132,-0.30515882,0.00000000,0.00000000
-0.37046662,-2.17000008,-0.38541940,-0.48899046,-1.14394665,0.00000000,0.00000000,0.05585494,2.15602326,-0.38595939,-0.39908698,-0.28443757,0.00000000,0.00000000
-0.40559334,-2.17000008,-0.40352952,-0.52208221,-1.17725563,0.00000000,0.00000000,0.00393224,2.12411094,-0.41920716,-0.50223440,-0.26638719,0.00000000,0.00000000
-0.44526103,-2.17000008,-0.42409256,-0.55526984,-1.21148920,0.00000000,0.00000000,-0.06384502,2.06798601,-0.44769409,-0.61732346,-0.24316189,0.00000000,0.00000000
-0.48916754,-2.17000008,-0.44753098,-0.58717084,-1.24108517,0.00000000,0.00000000,-0.14933379,1.98727870,-0.46880975,-0.74296808,-0.22861026,0.00000000,0.00000000
-0.53680593,-2.17000008,-0.47424567,-0.61639851,-1.27000690,0.00000000,0.00000000,-0.25307867,1.88307190,-0.47996286,-0.87674338,-0.21657847,0.00000000,0.00000000
-0.58740479,-2.17000008,-0.50451350,-0.64180267,-1.29880786,0.00000000,0.00000000,-0.37396577,1.75818133,-0.47895747,-1.01533997,-0.20453940,0.00000000,0.00000000
-0.63986427,-2.16968346,-0.53836203,-0.66269767,-1.32414794,0.00000000,0.00000000,-0.50915492,1.61721385,-0.46426439,-1.15489757,-0.19416776,0.00000000,0.00000000
-0.69275689,-2.16455078,-0.57544827,-0.67904729,-1.35388756,0.00000000,0.00000000,-0.65435791,1.46626472,-0.43515503,-1.29143310,-0.18836404,0.00000000,0.00000000
-0.74441534,-2.14438677,-0.61499542,-0.69148773,-1.38455081,0.00000000,0.00000000,-0.80446213,1.31222880,-0.39169291,-1.42130435,-0.18503571,0.00000000,0.00000000
-0.79303491,-2.10746217,-0.65582514,-0.70108449,-1.40937543,0.00000000,0.00000000,-0.95433033,1.16195083,-0.33459121,-1.54157877,-0.17691694,0.00000000,0.00000000
-0.83651668,-2.05722594,-0.69633740,-0.70898443,-1.43266106,0.00000000,0.00000000,-1.09949076,1.02144623,-0.26496148,-1.65019059,-0.16937609,0.00000000,0.00000000
-0.87097359,-1.99757361,-0.73412585,-0.71535397,-1.44394219,0.00000000,0.00000000,-1.23648512,0.89520872,-0.18397358,-1.74583590,-0.16197285,0.00000000,0.00000000
-0.89127070,-1.93038893,-0.76683438,-0.71680176,-1.45722413,0.00000000,0.00000000,-1.36304474,0.78545934,-0.09273449,-1.82760441,-0.15531422,0.00000000,0.00000000
-0.89825535,-1.85659742,-0.79433709,-0.70913368,-1.47140694,0.00000000,0.00000000,-1.47895658,0.69103253,0.00682371,-1.89514077,-0.14445125,0.00000000,0.00000000
-0.89669955,-1.78239846,-0.81624228,-0.69531661,-1.48494315,0.00000000,0.00000000,-1.58693206,0.60734773,0.11083126,-1.95005929,-0.13588120,0.00000000,0.00000000
-0.89072269,-1.71284711,-0.83220994,-0.67912340,-1.49731314,0.00000000,0.00000000,-1.69041753,0.52936167,0.21514319,-1.99597931,-0.12905481,0.00000000,0.00000000
-0.88252556,-1.64918745,-0.84241599,-0.66181701,-1.50951171,0.00000000,0.00000000,-1.79112220,0.45411617,0.31732374,-2.03622437,-0.12522973,0.00000000,0.00000000
-0.87301135,-1.59104526,-0.84723765,-0.64358097,-1.52505195,0.00000000,0.00000000,-1.88915467,0.38076481,0.41640314,-2.07257175,-0.12565215,0.00000000,0.00000000
-0.86256665,-1.53786862,-0.84711623,-0.62451500,-1.53852069,0.00000000,0.00000000,-1.98394203,0.30955833,0.51203692,-2.10567284,-0.12430214,0.00000000,0.00000000
-0.85149300,-1.48930299,-0.84253836,-0.60492986,-1.55799735,0.00000000,0.00000000,-2.07470465,0.24110460,0.60410041,-2.13572693,-0.11519913,0.00000000,0.00000000
-0.84008628,-1.44511700,-0.83401072,-0.58526218,-1.57851648,0.00000000,0.00000000,-2.16067600,0.17609164,0.69252181,-2.16275525,-0.11043665,0.00000000,0.00000000
-0.82869917,-1.40504742,-0.82206345,-0.56600064,-1.59524953,0.00000000,0.00000000,-2.24119329,0.11518162,0.77723539,-2.18670368,-0.11021022,0.00000000,0.00000000
-0.81780249,-1.36872661,-0.80725598,-0.54765809,-1.60989487,0.00000000,0.00000000,-2.31575203,0.05896347,0.85816020,-2.20749378,-0.11061671,0.00000000,0.00000000
-0.80795932,-1.33567894,-0.79015905,-0.53075182,-1.63649416,0.00000000,0.00000000,-2.38404679,0.00793858,0.93519044,-2.22500563,-0.11156713,0.00000000,0.00000000
-0.79976189,-1.30536544,-0.77132434,-0.51578611,-1.66074419,0.00000000,0.00000000,-2.44596219,-0.03752234,1.00820422,-2.23907948,-0.11268727,0.00000000,0.00000000
-0.79376054,-1.27726984,-0.75124729,-0.50322121,-1.67981100,0.00000000,0.00000000,-2.50152636,-0.07725319,1.07707298,-2.24954247,-0.11509342,0.00000000,0.00000000
-0.79037428,-1.25100386,-0.73032135,-0.49341545,-1.70092320,0.00000000,0.00000000,-2.55087018,-0.11135328,1.14166296,-2.25622368,-0.11534954,0.00000000,0.00000000
-0.78979462,-1.22639632,-0.70879167,-0.48656961,-1.72407722,0.00000000,0.00000000,-2.59422183,-0.14020909,1.20183480,-2.25927424,-0.12380403,0.00000000,0.00000000
-0.79193580,-1.20352292,-0.68673724,-0.48271924,-1.74222004,0.00000000,0.00000000,-2.63192725,-0.16448301,1.25745142,-2.25995922,-0.13174321,0.00000000,0.00000000
-0.79647768,-1.18263698,-0.66409969,-0.48177588,-1.75638735,0.00000000,0.00000000,-2.66444921,-0.18506536,1.30839133,-2.25999975,-0.13877822,0.00000000,0.00000000
-0.80296332,-1.16402936,-0.64073938,-0.48357749,-1.76954651,0.00000000,0.00000000,-2.69233179,-0.20296845,1.35455787,-2.25999975,-0.14579971,0.00000000,0.00000000
-0.81088299,-1.14789748,-0.61648124,-0.48792031,-1.78501105,0.00000000,0.00000000,-2.71615028,-0.21917389,1.39588833,-2.25999975,-0.15417889,0.00000000,0.00000000
-0.81972134,-1.13427353,-0.59113699,-0.49457255,-1.79502523,0.00000000,0.00000000,-2.73647976,-0.23448999,1.43237352,-2.25999975,-0.16937026,0.00000000,0.00000000
-0.82898825,-1.12299931,-0.56451833,-0.50328559,-1.80496764,0.00000000,0.00000000,-2.75387597,-0.24945967,1.46408522,-2.25999975,-0.18209003,0.00000000,0.00000000
-0.83824414,-1.11372221,-0.53644913,-0.51381564,-1.81344080,0.00000000,0.00000000,-2.76884222,-0.26431936,1.49120510,-2.25999975,-0.19597565,0.00000000,0.00000000
-0.84711641,-1.10590911,-0.50677687,-0.52594995,-1.82253015,0.00000000,0.00000000,-2.78178477,-0.27900779,1.51404619,-2.25999975,-0.21214198,0.00000000,0.00000000
-0.85532242,-1.09887648,-0.47539178,-0.53951341,-1.82766771,0.00000000,0.00000000,-2.79294991,-0.29322705,1.53307021,-2.25999975,-0.23267101,0.00000000,0.00000000
-0.86271936,-1.09182382,-0.44226161,-0.55433816,-1.82318425,0.00000000,0.00000000,-2.80237031,-0.30653483,1.54888713,-2.25999975,-0.25307155,0.00000000,0.00000000
-0.86935019,-1.08387589,-0.40746126,-0.57022679,-1.82001936,0.00000000,0.00000000,-2.80988383,-0.31844035,1.56221831,-2.25999975,-0.27260274,0.00000000,0.00000000
-0.87542558,-1.07417226,-0.37116116,-0.58695483,-1.82384586,0.00000000,0.00000000,-2.81529188,-0.32850724,1.57381570,-2.25999975,-0.28611702,0.00000000,0.00000000
-0.88123518,-1.06201112,-0.33357179,-0.60431832,-1.82997942,0.00000000,0.00000000,-2.81860685,-0.33647138,1.58435333,-2.25999975,-0.29910073,0.00000000,0.00000000
-0.88707507,-1.04697633,-0.29489636,-0.62219220,-1.84167552,0.00000000,0.00000000,-2.82021403,-0.34233031,1.59432495,-2.25999975,-0.31413460,0.00000000,0.00000000
-0.89322132,-1.02898300,-0.25531828,-0.64055723,-1.85268188,0.00000000,0.00000000,-2.82083035,-0.34633917,1.60399795,-2.25999975,-0.33357874,0.00000000,0.00000000
-0.89988923,-1.00825357,-0.21498561,-0.65949684,-1.86408341,0.00000000,0.00000000,-2.82127428,-0.34889910,1.61344457,-2.25999975,-0.35954511,0.00000000,0.00000000
-0.90721112,-0.98525012,-0.17400843,-0.67917967,-1.87514019,0.00000000,0.00000000,-2.82223511,-0.35041934,1.62262428,-2.25999975,-0.38756979,0.00000000,0.00000000
-0.91529399,-0.96056587,-0.13250683,-0.69983286,-1.88589978,0.00000000,0.00000000,-2.82414913,-0.35123247,1.63145316,-2.25999975,-0.41176471,0.00000000,0.00000000
-0.92431891,-0.93477988,-0.09068754,-0.72167575,-1.89633536,0.00000000,0.00000000,-2.82715583,-0.35157710,1.63982749,-2.25999975,-0.44177759,0.00000000,0.00000000
-0.93458533,-0.90833753,-0.04888082,-0.74483567,-1.90915120,0.00000000,0.00000000,-2.83113003,-0.35163447,1.64761329,-2.25999975,-0.47286144,0.00000000,0.00000000
-0.94643700,-0.88154161,-0.00748280,-0.76932198,-1.92524040,0.00000000,0.00000000,-2.83577299,-0.35157877,1.65462947,-2.25999975,-0.49884483,0.00000000,0.00000000
-0.96016401,-0.85460794,0.03312639,-0.79504895,-1.94136465,0.00000000,0.00000000,-2.84071422,-0.35160476,1.66065753,-2.25999975,-0.52541584,0.00000000,0.00000000
-0.97606331,-0.82765210,0.07253686,-0.82182080,-1.94852448,0.00000000,0.00000000,-2.84560966,-0.35192066,1.66555679,-2.25999975,-0.54866624,0.00000000,0.00000000
-0.99439144,-0.80069023,0.11035234,-0.84934157,-1.95256257,0.00000000,0.00000000,-2.85018682,-0.35270098,1.66926956,-2.25999975,-0.57023531,0.00000000,0.00000000
-1.01532602,-0.77361131,0.14622794,-0.87720597,-1.95610523,0.00000000,0.00000000,-2.85428023,-0.35405988,1.67180347,-2.25999975,-0.59197068,0.00000000,0.00000000
-1.03896451,-0.74617320,0.17987585,-0.90490723,-1.95555997,0.00000000,0.00000000,-2.85783672,-0.35606077,1.67322803,-2.25999975,-0.60886693,0.00000000,0.00000000
-1.06533968,-0.71803433,0.21104909,-0.93186677,-1.95308316,0.00000000,0.00000000,-2.86087894,-0.35873678,1.67367291,-2.25999975,-0.62300843,0.00000000,0.00000000
-1.09444380,-0.68877345,0.23950854,-0.95744663,-1.95116413,0.00000000,0.00000000,-2.86346483,-0.36208245,1.67332208,-2.25999975,-0.63756561,0.00000000,0.00000000
-1.12625921,-0.65786326,0.26497024,-0.98091894,-1.94751453,0.00000000,0.00000000,-2.86566591,-0.36602145,1.67239666,-2.25999975,-0.65677500,0.00000000,0.00000000
-1.16077411,-0.62464702,0.28705117,-1.00143647,-1.94453025,0.00000000,0.00000000,-2.86755776,-0.37038466,1.67112577,-2.25999975,-0.67143476,0.00000000,0.00000000
-1.19795263,-0.58842373,0.30526623,-1.01809955,-1.94508517,0.00000000,0.00000000,-2.86922455,-0.37491864,1.66971934,-2.25999975,-0.69602191,0.00000000,0.00000000
-1.23765767,-0.54867607,0.31910753,-1.03015614,-1.94877303,0.00000000,0.00000000,-2.87079811,-0.37932822,1.66834247,-2.25999975,-0.72252017,0.00000000,0.00000000
-1.27954972,-0.50535917,0.32823363,-1.03727138,-1.95425344,0.00000000,0.00000000,-2.87250328,-0.38334715,1.66708982,-2.25999975,-0.74731135,0.00000000,0.00000000
-1.32300699,-0.45907116,0.33274323,-1.03973234,-1.95473289,0.00000000,0.00000000,-2.87465048,-0.38682908,1.66596985,-2.25999975,-0.77226436,0.00000000,0.00000000
-1.36715424,-0.41098645,0.33339638,-1.03848243,-1.95899212,0.00000000,0.00000000,-2.87753296,-0.38981757,1.66491199,-2.25999975,-0.79606956,0.00000000,0.00000000
-1.41105115,-0.36254966,0.33155584,-1.03491938,-1.96651828,0.00000000,0.00000000,-2.88125181,-0.39249003,1.66378975,-2.25999975,-0.81718236,0.00000000,0.00000000
-1.45394015,-0.31505635,0.32880211,-1.03048134,-1.97645497,0.00000000,0.00000000,-2.88554096,-0.39491764,1.66246951,-2.25999975,-0.83157134,0.00000000,0.00000000
-1.49539065,-0.26932356,0.32641947,-1.02618027,-1.98720837,0.00000000,0.00000000,-2.88969517,-0.39680400,1.66089213,-2.25997543,-0.83965653,0.00000000,0.00000000
-1.53525877,-0.22557956,0.32501683,-1.02230203,-2.00021362,0.00000000,0.00000000,-2.89268875,-0.39747101,1.65912616,-2.25958848,-0.84633881,0.00000000,0.00000000
-1.57353151,-0.18356390,0.32453719,-1.01845419,-2.01572657,0.00000000,0.00000000,-2.89344287,-0.39613834,1.65731394,-2.25817418,-0.85183752,0.00000000,0.00000000
-1.61021972,-0.14274588,0.32470787,-1.01396942,-2.03157091,0.00000000,0.00000000,-2.89110613,-0.39228445,1.65556216,-2.25606203,-0.86040443,0.00000000,0.00000000
-1.64533472,-0.10253387,0.32538608,-1.00821900,-2.04764009,0.00000000,0.00000000,-2.88528776,-0.38591266,1.65379322,-2.25412846,-0.87124145,0.00000000,0.00000000
-1.67896736,-0.06238136,0.32677847,-1.00079525,-2.05660772,0.00000000,0.00000000,-2.87617087,-0.37763879,1.65167046,-2.25288391,-0.88306528,0.00000000,0.00000000
-1.71157682,-0.02200232,0.32990459,-0.99192351,-2.06937599,0.00000000,0.00000000,-2.86438370,-0.36837581,1.64874530,-2.25245309,-0.89741135,0.00000000,0.00000000
-1.74400747,0.01834845,0.33607584,-0.98245537,-2.07684112,0.00000000,0.00000000,-2.85078669,-0.35902137,1.64460635,-2.25275397,-0.91016591,0.00000000,0.00000000
-1.77710879,0.05778512,0.34605479,-0.97346836,-2.08547282,0.00000000,0.00000000,-2.83612061,-0.35032046,1.63898611,-2.25365520,-0.91140240,0.00000000,0.00000000
-1.81134057,0.09508160,0.35985059,-0.96582413,-2.09713387,0.00000000,0.00000000,-2.82070827,-0.34273025,1.63182187,-2.25507498,-0.91294533,0.00000000,0.00000000
-1.84662557,0.12902158,0.37685984,-0.95995271,-2.11231494,0.00000000,0.00000000,-2.80435038,-0.33630246,1.62324297,-2.25695920,-0.91415167,0.00000000,0.00000000
-1.88220823,0.15825424,0.39592254,-0.95593542,-2.13052964,0.00000000,0.00000000,-2.78669047,-0.33078352,1.61343122,-2.25879693,-0.90206343,0.00000000,0.00000000
-1.91674972,0.18098181,0.41543788,-0.95382762,-2.14606285,0.00000000,0.00000000,-2.76777601,-0.32597402,1.60239136,-2.25976801,-0.88375354,0.00000000,0.00000000
-1.94884908,0.19507489,0.43381670,-0.95402062,-2.16102242,0.00000000,0.00000000,-2.74832344,-0.32216075,1.58988726,-2.25998688,-0.86772084,0.00000000,0.00000000
-1.97813118,0.19893558,0.45048881,-0.95753336,-2.17176127,0.00000000,0.00000000,-2.72928357,-0.32005346,1.57572603,-2.25999975,-0.85173863,0.00000000,0.00000000
-2.00558114,0.19209744,0.46606216,-0.96586168,-2.18781185,0.00000000,0.00000000,-2.71140313,-0.32038537,1.56002104,-2.25999975,-0.83645916,0.00000000,0.00000000
-2.03262234,0.17538808,0.48151967,-0.98006088,-2.20556688,0.00000000,0.00000000,-2.69526243,-0.32344598,1.54321444,-2.25999975,-0.82310688,0.00000000,0.00000000
-2.05922008,0.15234494,0.49753681,-0.99841988,-2.22597671,0.00000000,0.00000000,-2.68144178,-0.32873061,1.52594876,-2.25999975,-0.80997235,0.00000000,0.00000000
-2.08324361,0.12884232,0.51395559,-1.01644492,-2.24544191,0.00000000,0.00000000,-2.67069125,-0.33491564,1.50897765,-2.25999975,-0.80075580,0.00000000,0.00000000
-2.10316396,0.10654242,0.52925301,-1.03315699,-2.26709580,0.00000000,0.00000000,-2.66378903,-0.34051940,1.49311638,-2.25995970,-0.80019325,0.00000000,0.00000000
-2.11793756,0.08602060,0.54175156,-1.04916191,-2.28873396,0.00000000,0.00000000,-2.66052508,-0.34474555,1.47904694,-2.25926232,-0.79732382,0.00000000,0.00000000
-2.12624812,0.06795728,0.54893273,-1.06388128,-2.31246877,0.00000000,0.00000000,-2.65945673,-0.34749421,1.46710515,-2.25594306,-0.79452235,0.00000000,0.00000000
-2.12724376,0.05243813,0.54829520,-1.07705605,-2.33481717,0.00000000,0.00000000,-2.65908933,-0.34880090,1.45721412,-2.24830937,-0.79435116,0.00000000,0.00000000
-2.12118745,0.03956174,0.53939939,-1.09010637,-2.35344458,0.00000000,0.00000000,-2.65872097,-0.34853292,1.44896448,-2.23652959,-0.78552550,0.00000000,0.00000000
-2.10889268,0.02974753,0.52332008,-1.10568535,-2.36730385,0.00000000,0.00000000,-2.65836787,-0.34654307,1.44169128,-2.22101998,-0.78111422,0.00000000,0.00000000
-2.09118271,0.02355174,0.50151092,-1.12670696,-2.38201737,0.00000000,0.00000000,-2.65844417,-0.34286165,1.43460417,-2.20181227,-0.78110343,0.00000000,0.00000000
-2.06861830,0.02194386,0.47549275,-1.15515101,-2.40007353,0.00000000,0.00000000,-2.65940380,-0.33766824,1.42698503,-2.17887807,-0.78263646,0.00000000,0.00000000
-2.04187322,0.02460441,0.44592029,-1.19216096,-2.41582847,0.00000000,0.00000000,-2.66138172,-0.33114955,1.41832292,-2.15247154,-0.78539717,0.00000000,0.00000000
-2.01207972,0.02832923,0.41144842,-1.23637640,-2.42715287,0.00000000,0.00000000,-2.66401649,-0.32341650,1.40834451,-2.12330627,-0.79060751,0.00000000,0.00000000
-1.97933495,0.03242794,0.37062460,-1.27988720,-2.43756413,0.00000000,0.00000000,-2.66652441,-0.31447980,1.39704227,-2.09248567,-0.79786611,0.00000000,0.00000000
-1.94351816,0.03746701,0.32455364,-1.31878114,-2.44319844,0.00000000,0.00000000,-2.66792560,-0.30423105,1.38477159,-2.06130052,-0.80673075,0.00000000,0.00000000
-1.90474176,0.04277697,0.27474672,-1.35275888,-2.44529939,0.00000000,0.00000000,-2.66717076,-0.29250270,1.37222004,-2.03102064,-0.81513190,0.00000000,0.00000000
-1.86313391,0.04758857,0.22323704,-1.38160336,-2.45196223,0.00000000,0.00000000,-2.66341996,-0.27914685,1.36013305,-2.00255156,-0.82333297,0.00000000,0.00000000
-1.81909049,0.05095869,0.17231852,-1.40520597,-2.45865178,0.00000000,0.00000000,-2.65647364,-0.26413420,1.34890878,-1.97603500,-0.82637101,0.00000000,0.00000000
-1.77347159,0.05176660,0.12446717,-1.42385292,-2.46584082,0.00000000,0.00000000,-2.64682174,-0.24748869,1.33853674,-1.95080781,-0.83081782,0.00000000,0.00000000
-1.72742093,0.04905464,0.08240023,-1.43814385,-2.47137475,0.00000000,0.00000000,-2.63518190,-0.22906724,1.32895350,-1.92576516,-0.83288974,0.00000000,0.00000000
-1.68182003,0.04204496,0.04852883,-1.44878805,-2.47663164,0.00000000,0.00000000,-2.62191033,-0.20839940,1.32032299,-1.89985478,-0.82873112,0.00000000,0.00000000
-1.63679171,0.02985398,0.02402681,-1.45644844,-2.48754048,0.00000000,0.00000000,-2.60672855,-0.18475929,1.31296360,-1.87241244,-0.82105559,0.00000000,0.00000000
-1.59178388,0.01153548,0.00827620,-1.46161067,-2.49790883,0.00000000,0.00000000,-2.58889198,-0.15746789,1.30707264,-1.84319174,-0.81857896,0.00000000,0.00000000
-1.54608154,-0.01312765,-0.00085962,-1.46432209,-2.50499105,0.00000000,0.00000000,-2.56780648,-0.12629868,1.30232573,-1.81209135,-0.81792611,0.00000000,0.00000000
-1.49922085,-0.04278461,-0.00598965,-1.46392393,-2.50736547,0.00000000,0.00000000,-2.54341984,-0.09167659,1.29775667,-1.77885902,-0.82345593,0.00000000,0.00000000
-1.45120120,-0.07501075,-0.00965653,-1.45934093,-2.50664949,0.00000000,0.00000000,-2.51575637,-0.05454451,1.29230320,-1.74298370,-0.83625323,0.00000000,0.00000000
-1.40244067,-0.10806066,-0.01447686,-1.45011365,-2.50731087,0.00000000,0.00000000,-2.48444223,-0.01626003,1.28535128,-1.70368481,-0.85316461,0.00000000,0.00000000
-1.35331798,-0.14290930,-0.02148089,-1.43777955,-2.50551677,0.00000000,0.00000000,-2.44846487,0.02154209,1.27696288,-1.66028273,-0.87146950,0.00000000,0.00000000
-1.30400860,-0.18238617,-0.03028670,-1.42522395,-2.50290918,0.00000000,0.00000000,-2.40619349,0.05710087,1.26776981,-1.61261761,-0.89198941,0.00000000,0.00000000
-1.25480115,-0.22923264,-0.04082270,-1.41493165,-2.50220132,0.00000000,0.00000000,-2.35589123,0.08918378,1.25876164,-1.56103361,-0.91056883,0.00000000,0.00000000
-1.20648634,-0.28476113,-0.05460532,-1.40716743,-2.49752069,0.00000000,0.00000000,-2.29607272,0.11714010,1.25102484,-1.50616145,-0.92572176,0.00000000,0.00000000
-1.15949655,-0.34942773,-0.07261214,-1.40009701,-2.48932958,0.00000000,0.00000000,-2.22587180,0.14035875,1.24534488,-1.44851470,-0.93938577,0.00000000,0.00000000
-1.11388004,-0.42407528,-0.09487916,-1.39117324,-2.47740149,0.00000000,0.00000000,-2.14516354,0.15779658,1.24185228,-1.38857996,-0.95687848,0.00000000,0.00000000
-1.06940985,-0.51021427,-0.12081587,-1.37858737,-2.46949673,0.00000000,0.00000000,-2.05464935,0.16808678,1.23999441,-1.32661307,-0.97640407,0.00000000,0.00000000
-1.02562606,-0.60936511,-0.14929433,-1.36192751,-2.46152830,0.00000000,0.00000000,-1.95576966,0.16997026,1.23882234,-1.26231742,-0.99481529,0.00000000,0.00000000
-0.98209774,-0.72236532,-0.17888100,-1.34195960,-2.45454121,0.00000000,0.00000000,-1.85071647,0.16255802,1.23719287,-1.19460487,-1.01225626,0.00000000,0.00000000
-0.93924636,-0.84916091,-0.20861641,-1.32030487,-2.45027137,0.00000000,0.00000000,-1.74249101,0.14553249,1.23392940,-1.12148654,-1.02570784,0.00000000,0.00000000
-0.89845544,-0.98915333,-0.23807324,-1.29901218,-2.44453692,0.00000000,0.00000000,-1.63549113,0.11992076,1.22805583,-1.03991270,-1.04330325,0.00000000,0.00000000
-0.86006647,-1.14066947,-0.26582783,-1.27933884,-2.44188380,0.00000000,0.00000000,-1.53778684,0.08982492,1.21905041,-0.94581151,-1.05772185,0.00000000,0.00000000
-0.82247722,-1.30011094,-0.28938276,-1.26028121,-2.43512678,0.00000000,0.00000000,-1.46060240,0.06269095,1.20716333,-0.83526593,-1.06585670,0.00000000,0.00000000
-0.78502077,-1.46073020,-0.30789173,-1.23740506,-2.42473722,0.00000000,0.00000000,-1.41003549,0.04525604,1.19330788,-0.70686305,-1.06957722,0.00000000,0.00000000
-0.74875152,-1.61233985,-0.32285234,-1.20403266,-2.41696596,0.00000000,0.00000000,-1.38278747,0.04183608,1.17899466,-0.56473923,-1.07400644,0.00000000,0.00000000
-0.71356499,-1.74410129,-0.33566424,-1.15618086,-2.41189861,0.00000000,0.00000000,-1.36511552,0.05670110,1.16717410,-0.41809320,-1.07915723,0.00000000,0.00000000
-0.68072045,-1.85223794,-0.34774947,-1.09898615,-2.40628171,0.00000000,0.00000000,-1.34370017,0.09353441,1.15984881,-0.27322578,-1.08697510,0.00000000,0.00000000
-0.65201759,-1.94192278,-0.35934052,-1.04000533,-2.40125251,0.00000000,0.00000000,-1.31219792,0.15004496,1.15629303,-0.13271755,-1.09644651,0.00000000,0.00000000
-0.62795401,-2.01745248,-0.37007242,-0.98275882,-2.40061522,0.00000000,0.00000000,-1.26674259,0.22329375,1.15521252,0.00224950,-1.11069715,0.00000000,0.00000000
-0.60616499,-2.07959533,-0.37875286,-0.92727721,-2.39571857,0.00000000,0.00000000,-1.20433402,0.31255460,1.15533018,0.13081010,-1.12378466,0.00000000,0.00000000
-0.58341628,-2.12659454,-0.38446462,-0.87176758,-2.38862944,0.00000000,0.00000000,-1.12415767,0.41819352,1.15502179,0.25202882,-1.13376641,0.00000000,0.00000000
-0.55782712,-2.15578175,-0.38738924,-0.81419021,-2.38196731,0.00000000,0.00000000,-1.02790391,0.53989863,1.15250015,0.36449155,-1.14576221,0.00000000,0.00000000
-0.52939320,-2.16756248,-0.38859102,-0.75316328,-2.38139462,0.00000000,0.00000000,-0.91924989,0.67582035,1.14623880,0.46634084,-1.15453565,0.00000000,0.00000000
-0.49957344,-2.16987133,-0.38947093,-0.68814713,-2.37581110,0.00000000,0.00000000,-0.80320579,0.82273650,1.13523459,0.55570793,-1.16723347,0.00000000,0.00000000
-0.47015122,-2.16999435,-0.39112350,-0.61928642,-2.37180448,0.00000000,0.00000000,-0.68538588,0.97662097,1.11905444,0.63108623,-1.18039560,0.00000000,0.00000000
-0.44191083,-2.16970825,-0.39384472,-0.54724020,-2.36604404,0.00000000,0.00000000,-0.57132101,1.13326311,1.09774959,0.69148666,-1.19302189,0.00000000,0.00000000
-0.41470197,-2.16624403,-0.39722568,-0.47358578,-2.36045575,0.00000000,0.00000000,-0.46581215,1.28837454,1.07184088,0.73635942,-1.20759940,0.00000000,0.00000000
-0.38779140,-2.15445113,-0.40048456,-0.40086851,-2.35308146,0.00000000,0.00000000,-0.37237555,1.43757141,1.04232419,0.76559091,-1.22007620,0.00000000,0.00000000
-0.35975984,-2.13828373,-0.40262410,-0.33257055,-2.34857702,0.00000000,0.00000000,-0.29278591,1.57667065,1.01058996,0.77969998,-1.23206949,0.00000000,0.00000000
-0.32836992,-2.12511897,-0.40271032,-0.27111387,-2.34189034,0.00000000,0.00000000,-0.22675163,1.70199168,0.97833896,0.78000957,-1.24065840,0.00000000,0.00000000
-0.28990912,-2.11534190,-0.40029109,-0.21365872,-2.33466887,0.00000000,0.00000000,-0.17274663,1.81051934,0.94728297,0.76802731,-1.25009763,0.00000000,0.00000000
-0.24532595,-2.11030102,-0.39563957,-0.16078475,-2.33385539,0.00000000,0.00000000,-0.12914173,1.89962876,0.91892153,0.74470770,-1.26151299,0.00000000,0.00000000
-0.19718058,-2.11054158,-0.38918579,-0.11379188,-2.32866764,0.00000000,0.00000000,-0.09402089,1.96729493,0.89445788,0.71096992,-1.27411783,0.00000000,0.00000000
-0.14742683,-2.11498213,-0.38129508,-0.07269528,-2.32913494,0.00000000,0.00000000,-0.06508497,2.01260495,0.87462926,0.66820002,-1.28646612,0.00000000,0.00000000
-0.09828824,-2.12275672,-0.37232131,-0.03725966,-2.33474183,0.00000000,0.00000000,-0.03949021,2.03611541,0.85968107,0.61853278,-1.29972410,0.00000000,0.00000000
-0.05305661,-2.13337660,-0.36259308,-0.00745854,-2.34111309,0.00000000,0.00000000,-0.01398215,2.04021883,0.84934956,0.56494254,-1.30751443,0.00000000,0.00000000
-0.01517895,-2.14563227,-0.35233802,0.01685568,-2.34113884,0.00000000,0.00000000,0.01328701,2.02934003,0.84256923,0.51049572,-1.30682945,0.00000000,0.00000000
0.01273094,-2.15729403,-0.34166431,0.03624975,-2.34384274,0.00000000,0.00000000,0.04223472,2.00918984,0.83773631,0.45771277,-1.30779672,0.00000000,0.00000000
0.02944932,-2.16566324,-0.33060956,0.05173748,-2.34413886,0.00000000,0.00000000,0.07161271,1.98532176,0.83333492,0.40821907,-1.30898523,0.00000000,0.00000000
0.03545431,-2.16924906,-0.31921041,0.06471470,-2.34506440,0.00000000,0.00000000,0.09988420,1.96220255,0.82830691,0.36280313,-1.31385934,0.00000000,0.00000000
0.03281301,-2.16996050,-0.30755746,0.07666761,-2.34924603,0.00000000,0.00000000,0.12569423,1.94281173,0.82210255,0.32160476,-1.32142484,0.00000000,0.00000000
0.02445288,-2.17000008,-0.29581296,0.08867556,-2.35111713,0.00000000,0.00000000,0.14800614,1.92878509,0.81454641,0.28435558,-1.32642639,0.00000000,0.00000000
0.01324378,-2.17000008,-0.28419444,0.10106385,-2.35386825,0.00000000,0.00000000,0.16607970,1.92093563,0.80566293,0.25064781,-1.33317423,0.00000000,0.00000000
0.00148639,-2.17000008,-0.27294576,0.11344210,-2.35843945,0.00000000,0.00000000,0.17940307,1.91969347,0.79555959,0.22011369,-1.34000194,0.00000000,0.00000000
-0.00917264,-2.17000008,-0.26230872,0.12500286,-2.35963321,0.00000000,0.00000000,0.18766642,1.92523396,0.78438622,0.19247256,-1.34317732,0.00000000,0.00000000
-0.01767225,-2.17000008,-0.25249556,0.13486715,-2.35555506,0.00000000,0.00000000,0.19079119,1.93743372,0.77232814,0.16750567,-1.34333205,0.00000000,0.00000000
-0.02348175,-2.17000008,-0.24366385,0.14232720,-2.35015249,0.00000000,0.00000000,0.18898526,1.95581257,0.75960183,0.14502810,-1.34569740,0.00000000,0.00000000
-0.02654906,-2.17000008,-0.23589806,0.14696214,-2.35024810,0.00000000,0.00000000,0.18277423,1.97947168,0.74644607,0.12486815,-1.35088885,0.00000000,0.00000000
-0.02720201,-2.17000008,-0.22920555,0.14868277,-2.34942031,0.00000000,0.00000000,0.17297709,2.00703359,0.73310661,0.10683917,-1.34848285,0.00000000,0.00000000
-0.02601772,-2.17000008,-0.22352883,0.14775597,-2.34944391,0.00000000,0.00000000,0.16065000,2.03663540,0.71982008,0.09070559,-1.34642291,0.00000000,0.00000000
-0.02372081,-2.17000008,-0.21876910,0.14478853,-2.34636164,0.00000000,0.00000000,0.14705400,2.06601572,0.70680028,0.07616516,-1.34134102,0.00000000,0.00000000
-0.02113057,-2.17000008,-0.21481004,0.14061172,-2.34075356,0.00000000,0.00000000,0.13365127,2.09272885,0.69422776,0.06289660,-1.34008896,0.00000000,0.00000000
-0.01907968,-2.17000008,-0.21154025,0.13605253,-2.33632088,0.00000000,0.00000000,0.12198113,2.11459470,0.68223721,0.05069713,-1.34310460,0.00000000,0.00000000
-0.01827554,-2.17000008,-0.20887360,0.13168050,-2.33677936,0.00000000,0.00000000,0.11336288,2.13034797,0.67090535,0.03965633,-1.34416819,0.00000000,0.00000000
-0.01917004,-2.17000008,-0.20676044,0.12767139,-2.33465886,0.00000000,0.00000000,0.10860999,2.14001322,0.66025752,0.03019549,-1.34676778,0.00000000,0.00000000
-0.02190809,-2.17000008,-0.20518588,0.12385774,-2.33341980,0.00000000,0.00000000,0.10794778,2.14471960,0.65029180,0.02291817,-1.35006404,0.00000000,0.00000000
-0.02632815,-2.17000008,-0.20416045,0.11988617,-2.33243155,0.00000000,0.00000000,0.11106488,2.14617920,0.64100099,0.01838171,-1.34920514,0.00000000,0.00000000
-0.03199628,-2.17000008,-0.20370904,0.11537825,-2.33800459,0.00000000,0.00000000,0.11719934,2.14619637,0.63238180,0.01693184,-1.34716916,0.00000000,0.00000000
-0.03831905,-2.17000008,-0.20385736,0.11004829,-2.34568715,0.00000000,0.00000000,0.12529306,2.14634228,0.62443447,0.01867761,-1.34616148,0.00000000,0.00000000
-0.04472627,-2.17000008,-0.20461750,0.10377467,-2.35556483,0.00000000,0.00000000,0.13422976,2.14780354,0.61715788,0.02359139,-1.34511781,0.00000000,0.00000000
-0.05080921,-2.17000008,-0.20597965,0.09662845,-2.36820602,0.00000000,0.00000000,0.14303745,2.15125227,0.61054695,0.03157983,-1.34403980,0.00000000,0.00000000
-0.05632612,-2.17000008,-0.20791604,0.08886546,-2.37807631,0.00000000,0.00000000,0.15095210,2.15662003,0.60459435,0.04239422,-1.33814907,0.00000000,0.00000000
-0.06111302,-2.17000008,-0.21039173,0.08089460,-2.38398433,0.00000000,0.00000000,0.15738206,2.16283989,0.59929639,0.05544420,-1.33321810,0.00000000,0.00000000
-0.06500940,-2.17000008,-0.21337228,0.07323920,-2.38847947,0.00000000,0.00000000,0.16192168,2.16775060,0.59466869,0.06968876,-1.32964540,0.00000000,0.00000000
-0.06786030,-2.17000008,-0.21682532,0.06648888,-2.39046574,0.00000000,0.00000000,0.16448265,2.16967344,0.59076726,0.08370619,-1.32485414,0.00000000,0.00000000
-0.06956694,-2.17000008,-0.22072186,0.06120054,-2.39284778,0.00000000,0.00000000,0.16537203,2.16998482,0.58769792,0.09596153,-1.32225895,0.00000000,0.00000000
-0.07011657,-2.17000008,-0.22503994,0.05775019,-2.39773893,0.00000000,0.00000000,0.16512360,2.17000008,0.58559144,0.10518496,-1.32244134,0.00000000,0.00000000
-0.06955107,-2.17000008,-0.22976862,0.05623908,-2.39827299,0.00000000,0.00000000,0.16425455,2.17000008,0.58456171,0.11058676,-1.32312000,0.00000000,0.00000000
-0.06794993,-2.17000008,-0.23490775,0.05649121,-2.39533687,0.00000000,0.00000000,0.16319515,2.17000008,0.58468074,0.11189168,-1.32148910,0.00000000,0.00000000
-0.06548277,-2.17000008,-0.24046431,0.05812478,-2.38617992,0.00000000,0.00000000,0.16238007,2.17000008,0.58597559,0.10931854,-1.31970108,0.00000000,0.00000000
-0.06244764,-2.17000008,-0.24644880,0.06066150,-2.38067222,0.00000000,0.00000000,0.16228949,2.17000008,0.58843219,0.10351796,-1.30824125,0.00000000,0.00000000
-0.05923267,-2.17000008,-0.25287399,0.06360718,-2.37859344,0.00000000,0.00000000,0.16333485,2.16991854,0.59199476,0.09547084,-1.29859674,0.00000000,0.00000000
-0.05624902,-2.17000008,-0.25975516,0.06647395,-2.37042308,0.00000000,0.00000000,0.16572037,2.16862011,0.59657234,0.08637079,-1.29356754,0.00000000,0.00000000
-0.05389791,-2.17000008,-0.26710901,0.06880217,-2.35984683,0.00000000,0.00000000,0.16947243,2.16382408,0.60206252,0.07744066,-1.29025471,0.00000000,0.00000000
-0.05256275,-2.17000008,-0.27495155,0.07020317,-2.34942913,0.00000000,0.00000000,0.17457794,2.15616441,0.60837990,0.06972811,-1.28552115,0.00000000,0.00000000
-0.05259046,-2.17000008,-0.28329590,0.07034822,-2.34157157,0.00000000,0.00000000,0.18097469,2.14767551,0.61545873,0.06409256,-1.28208339,0.00000000,0.00000000
-0.05423468,-2.17000008,-0.29215223,0.06894168,-2.33503866,0.00000000,0.00000000,0.18844298,2.14029408,0.62324220,0.06128412,-1.27361441,0.00000000,0.00000000
-0.05758582,-2.17000008,-0.30152801,0.06576668,-2.32261014,0.00000000,0.00000000,0.19661558,2.13561916,0.63167983,0.06193184,-1.26119232,0.00000000,0.00000000
-0.06252537,-2.17000008,-0.31142822,0.06079079,-2.31130457,0.00000000,0.00000000,0.20510648,2.13462138,0.64072973,0.06644679,-1.24794805,0.00000000,0.00000000
-0.06871269,-2.17000008,-0.32185522,0.05422468,-2.30307412,0.00000000,0.00000000,0.21357121,2.13747025,0.65035665,0.07492608,-1.23110497,0.00000000,0.00000000
-0.07562520,-2.17000008,-0.33280814,0.04645505,-2.29479003,0.00000000,0.00000000,0.22163509,2.14358926,0.66052544,0.08709794,-1.22022009,0.00000000,0.00000000
-0.08268601,-2.17000008,-0.34427989,0.03789253,-2.29040337,0.00000000,0.00000000,0.22884265,2.15177798,0.67119610,0.10231579,-1.19865847,0.00000000,0.00000000
-0.08949827,-2.17000008,-0.35625243,0.02888016,-2.27943444,0.00000000,0.00000000,0.23476198,2.16026020,0.68233049,0.11961683,-1.17730498,0.00000000,0.00000000
-0.09597740,-2.17000008,-0.36869574,0.01973616,-2.26573634,0.00000000,0.00000000,0.23917916,2.16668034,0.69391489,0.13782324,-1.15569544,0.00000000,0.00000000
-0.10197947,-2.17000008,-0.38157621,0.01087211,-2.24821687,0.00000000,0.00000000,0.24224223,2.16943741,0.70600295,0.15559806,-1.13405907,0.00000000,0.00000000
-0.10720549,-2.17000008,-0.39486110,0.00286398,-2.23235202,0.00000000,0.00000000,0.24439746,2.16997099,0.71874028,0.17142847,-1.11841094,0.00000000,0.00000000
-0.11127156,-2.16995215,-0.40852162,-0.00372811,-2.21957350,0.00000000,0.00000000,0.24600953,2.16997528,0.73230636,0.18384635,-1.10262334,0.00000000,0.00000000
-0.11391395,-2.16915751,-0.42253500,-0.00875720,-2.20116925,0.00000000,0.00000000,0.24801651,2.16954708,0.74688601,0.19227001,-1.08513474,0.00000000,0.00000000
-0.11531922,-2.16580820,-0.43688488,-0.01278681,-2.17707229,0.00000000,0.00000000,0.25212041,2.16741776,0.76254278,0.19766718,-1.06945395,0.00000000,0.00000000
-0.11620366,-2.15940499,-0.45155969,-0.01688818,-2.15109277,0.00000000,0.00000000,0.25768930,2.16138220,0.77890980,0.20122302,-1.05292475,0.00000000,0.00000000
-0.11731084,-2.15125227,-0.46654874,-0.02202441,-2.12228990,0.00000000,0.00000000,0.26355886,2.14988923,0.79562521,0.20336771,-1.03591979,0.00000000,0.00000000
-0.11891837,-2.14209294,-0.48183781,-0.02843187,-2.09187841,0.00000000,0.00000000,0.26728934,2.13520837,0.81206912,0.20440124,-1.02249730,0.00000000,0.00000000
-0.12114158,-2.13228273,-0.49740633,-0.03609559,-2.06383920,0.00000000,0.00000000,0.26787940,2.11857629,0.82799429,0.20409437,-1.01441836,0.00000000,0.00000000
-0.12388912,-2.12206531,-0.51322359,-0.04488245,-2.03643179,0.00000000,0.00000000,0.26545319,2.10107565,0.84330672,0.20266740,-1.00990677,0.00000000,0.00000000
-0.12681961,-2.11163425,-0.52924699,-0.05456023,-2.00352144,0.00000000,0.00000000,0.26108763,2.08443546,0.85792178,0.20123085,-1.00667763,0.00000000,0.00000000
-0.12948401,-2.10120654,-0.54542267,-0.06487051,-1.96978247,0.00000000,0.00000000,0.25580883,2.07004738,0.87176979,0.20080447,-1.00553763,0.00000000,0.00000000
-0.13140009,-2.09096384,-0.56169009,-0.07551305,-1.93282712,0.00000000,0.00000000,0.25015891,2.05889082,0.88476992,0.20205669,-1.00536799,0.00000000,0.00000000
-0.13208291,-2.08094478,-0.57798779,-0.08610321,-1.90284216,0.00000000,0.00000000,0.24432732,2.05172062,0.89682353,0.20545354,-1.00234866,0.00000000,0.00000000
-0.13113619,-2.07098317,-0.59426558,-0.09619270,-1.87654567,0.00000000,0.00000000,0.23838107,2.04909253,0.90782660,0.21138760,-1.00127041,0.00000000,0.00000000
-0.12833616,-2.06076646,-0.61049390,-0.10535258,-1.85108793,0.00000000,0.00000000,0.23258641,2.05126143,0.91770339,0.22026318,-0.99994773,0.00000000,0.00000000
-0.12361534,-2.04997039,-0.62666619,-0.11325880,-1.82350588,0.00000000,0.00000000,0.22754711,2.05803037,0.92643136,0.23245206,-1.00208330,0.00000000,0.00000000
-0.11720857,-2.03811646,-0.64281440,-0.11964828,-1.79072690,0.00000000,0.00000000,0.22406307,2.06877947,0.93402755,0.24818051,-1.00506198,0.00000000,0.00000000
-0.10942705,-2.02510762,-0.65897447,-0.12451652,-1.76073706,0.00000000,0.00000000,0.22300486,2.08262062,0.94053757,0.26756018,-1.00277519,0.00000000,0.00000000
-0.10060125,-2.01169300,-0.67515576,-0.12831505,-1.73289859,0.00000000,0.00000000,0.22536923,2.09845996,0.94605571,0.29070196,-1.00021362,0.00000000,0.00000000
-0.09110086,-1.99935472,-0.69133550,-0.13186589,-1.70795751,0.00000000,0.00000000,0.23215353,2.11489129,0.95074934,0.31765720,-0.99990523,0.00000000,0.00000000
-0.08106203,-1.98951399,-0.70747149,-0.13587192,-1.68224299,0.00000000,0.00000000,0.24314728,2.13046980,0.95469850,0.34794477,-1.00358295,0.00000000,0.00000000
-0.07047696,-1.98267186,-0.72355062,-0.14058173,-1.66108871,0.00000000,0.00000000,0.25578022,2.14449358,0.95761573,0.38025233,-1.00544167,0.00000000,0.00000000
-0.05989521,-1.97877383,-0.73961997,-0.14625731,-1.64314115,0.00000000,0.00000000,0.26729032,2.15659475,0.95912379,0.41325489,-1.00711679,0.00000000,0.00000000
-0.05020616,-1.97800076,-0.75573361,-0.15344645,-1.62050521,0.00000000,0.00000000,0.27727628,2.16532850,0.95937318,0.44620755,-1.01492000,0.00000000,0.00000000
-0.04177807,-1.98064113,-0.77189672,-0.16255336,-1.60211468,0.00000000,0.00000000,0.28698379,2.16917706,0.95924121,0.47824311,-1.02073741,0.00000000,0.00000000
-0.03424954,-1.98666549,-0.78807020,-0.17352785,-1.58281529,0.00000000,0.00000000,0.29773900,2.16995621,0.96010238,0.50783575,-1.03119981,0.00000000,0.00000000
-0.02705965,-1.99568939,-0.80420941,-0.18605728,-1.55548012,0.00000000,0.00000000,0.31015053,2.17000008,0.96320164,0.53325790,-1.04539144,0.00000000,0.00000000
-0.01995105,-2.00712657,-0.82029378,-0.19985250,-1.53236306,0.00000000,0.00000000,0.32415530,2.17000008,0.96921808,0.55313760,-1.05963540,0.00000000,0.00000000
-0.01281522,-2.02042675,-0.83629966,-0.21467677,-1.50914741,0.00000000,0.00000000,0.33954805,2.17000008,0.97836530,0.56658041,-1.07332242,0.00000000,0.00000000
-0.00515806,-2.03486180,-0.85217595,-0.23000847,-1.48944485,0.00000000,0.00000000,0.35528472,2.16999626,0.99030793,0.57274711,-1.08521843,0.00000000,0.00000000
0.00390250,-2.04941654,-0.86785996,-0.24500346,-1.46857679,0.00000000,0.00000000,0.36796826,2.16984272,1.00398314,0.57008189,-1.08998537,0.00000000,0.00000000
0.01472264,-2.06289744,-0.88336587,-0.25896120,-1.44666576,0.00000000,0.00000000,0.37336230,2.16824484,1.01788414,0.55728972,-1.09038925,0.00000000,0.00000000
0.02681356,-2.07417679,-0.89880514,-0.27158487,-1.42746532,0.00000000,0.00000000,0.37124291,2.16429305,1.03048730,0.53777099,-1.09229839,0.00000000,0.00000000
0.03995989,-2.08232498,-0.91426867,-0.28257841,-1.40472555,0.00000000,0.00000000,0.36028755,2.16198516,1.03988767,0.51722258,-1.09679842,0.00000000,0.00000000
0.05367170,-2.08688116,-0.92984366,-0.29198378,-1.38158190,0.00000000,0.00000000,0.34213704,2.16224241,1.04625154,0.49838030,-1.10345221,0.00000000,0.00000000
0.06688658,-2.08782697,-0.94563562,-0.30026790,-1.36397076,0.00000000,0.00000000,0.31927130,2.16433668,1.05034447,0.48232049,-1.11035407,0.00000000,0.00000000
0.07832905,-2.08558726,-0.96171743,-0.30817726,-1.34846425,0.00000000,0.00000000,0.29308712,2.16720653,1.05270076,0.46935311,-1.11808026,0.00000000,0.00000000
0.08679328,-2.08112955,-0.97807372,-0.31666195,-1.32924986,0.00000000,0.00000000,0.26463401,2.16930723,1.05392575,0.45920137,-1.12314665,0.00000000,0.00000000
0.09122332,-2.07568479,-0.99461937,-0.32670346,-1.30794287,0.00000000,0.00000000,0.23604296,2.16921830,1.05505002,0.45143166,-1.12387896,0.00000000,0.00000000
0.09053104,-2.07027864,-1.01128352,-0.33922890,-1.29947031,0.00000000,0.00000000,0.21136993,2.16560507,1.05736959,0.44587734,-1.12286592,0.00000000,0.00000000
0.08420323,-2.06549263,-1.02797890,-0.35473782,-1.28655982,0.00000000,0.00000000,0.19204907,2.15769219,1.06079364,0.44159010,-1.11577296,0.00000000,0.00000000
0.07367034,-2.06178904,-1.04439199,-0.37272093,-1.27859497,0.00000000,0.00000000,0.17575474,2.14828587,1.06391084,0.43661371,-1.10906434,0.00000000,0.00000000
0.06101653,-2.05958319,-1.06010795,-0.39224571,-1.26422751,0.00000000,0.00000000,0.16074133,2.13728213,1.06628728,0.42891335,-1.10773063,0.00000000,0.00000000
0.04741079,-2.05892086,-1.07485640,-0.41258228,-1.24785864,0.00000000,0.00000000,0.14671226,2.12368536,1.06792712,0.41775131,-1.09913933,0.00000000,0.00000000
0.03302487,-2.05944490,-1.08855259,-0.43326402,-1.23572958,0.00000000,0.00000000,0.13311683,2.10775590,1.06855667,0.40301645,-1.08998621,0.00000000,0.00000000
0.01763771,-2.06058478,-1.10120940,-0.45394540,-1.21904767,0.00000000,0.00000000,0.11822845,2.09085298,1.06759346,0.38449222,-1.08942699,0.00000000,0.00000000
0.00117196,-2.06195235,-1.11279261,-0.47432691,-1.20645452,0.00000000,0.00000000,0.10038164,2.07421088,1.06459677,0.36206490,-1.08898401,0.00000000,0.00000000
-0.01668489,-2.06329060,-1.12327135,-0.49425358,-1.18910980,0.00000000,0.00000000,0.07887617,2.05911279,1.05935180,0.33614090,-1.08710408,0.00000000,0.00000000
-0.03643519,-2.06430864,-1.13265336,-0.51360404,-1.17073834,0.00000000,0.00000000,0.05396445,2.04743075,1.05175149,0.30781299,-1.08190453,0.00000000,0.00000000
-0.05850688,-2.06470990,-1.14095247,-0.53213358,-1.14957595,0.00000000,0.00000000,0.02666762,2.04125667,1.04181433,0.27870342,-1.07945192,0.00000000,0.00000000
-0.08311088,-2.06439090,-1.14812553,-0.54946089,-1.13600624,0.00000000,0.00000000,-0.00140656,2.04210806,1.02974689,0.25065309,-1.07420504,0.00000000,0.00000000
-0.11028105,-2.06369042,-1.15401411,-0.56524950,-1.11877763,0.00000000,0.00000000,-0.02826595,2.05019617,1.01596177,0.22536074,-1.07313156,0.00000000,0.00000000
-0.13989508,-2.06348038,-1.15830600,-0.57939726,-1.09794831,0.00000000,0.00000000,-0.05172710,2.06396437,1.00104225,0.20404245,-1.07214224,0.00000000,0.00000000
-0.17140189,-2.06499410,-1.16052377,-0.59195429,-1.07826793,0.00000000,0.00000000,-0.06975540,2.07994342,0.98566324,0.18707122,-1.06717384,0.00000000,0.00000000
-0.20350973,-2.06947708,-1.16007447,-0.60282493,-1.05325234,0.00000000,0.00000000,-0.08140378,2.09348369,0.97042745,0.17363231,-1.06435430,0.00000000,0.00000000
-0.23411706,-2.07776451,-1.15638483,-0.61145234,-1.03227890,0.00000000,0.00000000,-0.08761667,2.10055041,0.95567042,0.16191821,-1.06023979,0.00000000,0.00000000
-0.26067322,-2.08989906,-1.14910293,-0.61673290,-1.01297271,0.00000000,0.00000000,-0.09028929,2.09912086,0.94145507,0.15015806,-1.05790722,0.00000000,0.00000000
-0.28113508,-2.10447836,-1.13848162,-0.61721677,-0.99686164,0.00000000,0.00000000,-0.09030597,2.08948016,0.92771411,0.13777420,-1.05639660,0.00000000,0.00000000
-0.29436475,-2.11746454,-1.12584412,-0.61101228,-0.98313725,0.00000000,0.00000000,-0.08706329,2.07330322,0.91437584,0.12535803,-1.05607378,0.00000000,0.00000000
-0.30059606,-2.12525415,-1.11261189,-0.59763139,-0.96921253,0.00000000,0.00000000,-0.07981253,2.05229616,0.90139705,0.11359610,-1.05790997,0.00000000,0.00000000
-0.30209914,-2.12979960,-1.09867740,-0.58092284,-0.95913792,0.00000000,0.00000000,-0.06893676,2.02804542,0.88871253,0.10263709,-1.06139827,0.00000000,0.00000000
-0.30082262,-2.13096046,-1.08452749,-0.56443679,-0.95036262,0.00000000,0.00000000,-0.05591710,2.00228620,0.87622392,0.09220278,-1.07126403,0.00000000,0.00000000
-0.29496363,-2.12864161,-1.06992018,-0.54818642,-0.94023240,0.00000000,0.00000000,-0.04184383,1.97688413,0.86386657,0.08225745,-1.08609247,0.00000000,0.00000000
-0.28345597,-2.12402868,-1.05428565,-0.53127676,-0.93583095,0.00000000,0.00000000,-0.02650659,1.95405579,0.85162997,0.07351556,-1.09404826,0.00000000,0.00000000
-0.26593342,-2.11781836,-1.03729141,-0.51137006,-0.93072689,0.00000000,0.00000000,-0.00853777,1.93644536,0.83953464,0.06744091,-1.10173035,0.00000000,0.00000000
-0.24284972,-2.10744405,-1.01962960,-0.48582426,-0.91871971,0.00000000,0.00000000,0.01309725,1.92624044,0.82759517,0.06526348,-1.11157382,0.00000000,0.00000000
-0.21717931,-2.09468508,-1.00121725,-0.45628494,-0.90792912,0.00000000,0.00000000,0.03911626,1.92496300,0.81580925,0.06790634,-1.12362194,0.00000000,0.00000000
-0.19332515,-2.08223867,-0.98202676,-0.42595476,-0.90239048,0.00000000,0.00000000,0.07089248,1.93349338,0.80417788,0.07639211,-1.12877285,0.00000000,0.00000000
-0.17581491,-2.07247090,-0.96224684,-0.39802858,-0.89817774,0.00000000,0.00000000,0.10989827,1.94869304,0.79280847,0.09011032,-1.13200557,0.00000000,0.00000000
-0.16489342,-2.06604338,-0.94187480,-0.37306550,-0.88059604,0.00000000,0.00000000,0.15531226,1.96385908,0.78184724,0.10588180,-1.13774323,0.00000000,0.00000000
-0.15661117,-2.06200719,-0.92067522,-0.34914517,-0.87076062,0.00000000,0.00000000,0.20421036,1.97771192,0.77114660,0.12197944,-1.14632893,0.00000000,0.00000000
-0.14688429,-2.05941534,-0.89841151,-0.32439184,-0.85784000,0.00000000,0.00000000,0.25331292,1.99277532,0.76034039,0.13823679,-1.15383995,0.00000000,0.00000000
-0.13350065,-2.05771208,-0.87504268,-0.29796487,-0.84672236,0.00000000,0.00000000,0.29967180,2.01022673,0.74910659,0.15403405,-1.15522003,0.00000000,0.00000000
-0.11711285,-2.05706096,-0.85078812,-0.27052706,-0.83951926,0.00000000,0.00000000,0.34266642,2.02834153,0.73744816,0.16855150,-1.15701008,0.00000000,0.00000000
-0.10025413,-2.05787182,-0.82604957,-0.24360649,-0.83094168,0.00000000,0.00000000,0.38298678,2.04393768,0.72557843,0.18086924,-1.15539217,0.00000000,0.00000000
-0.08527741,-2.05983496,-0.80126977,-0.21832564,-0.82538772,0.00000000,0.00000000,0.41868761,2.05678988,0.71333408,0.19012226,-1.14604986,0.00000000,0.00000000
-0.07389843,-2.06238413,-0.77681231,-0.19537371,-0.81900734,0.00000000,0.00000000,0.44917825,2.06772971,0.70058155,0.19638245,-1.13214159,0.00000000,0.00000000
-0.06712325,-2.06533194,-0.75290072,-0.17524539,-0.81851470,0.00000000,0.00000000,0.47461948,2.07760906,0.68721318,0.20004228,-1.12164533,0.00000000,0.00000000
-0.06539606,-2.06913590,-0.72963506,-0.15844570,-0.81785202,0.00000000,0.00000000,0.49445242,2.08710909,0.67304236,0.20119023,-1.11576903,0.00000000,0.00000000
-0.06881361,-2.07482195,-0.70704103,-0.14558384,-0.81944960,0.00000000,0.00000000,0.50743407,2.09701014,0.65780306,0.19986533,-1.10358572,0.00000000,0.00000000
-0.07807389,-2.08342695,-0.68517441,-0.13750677,-0.81741685,0.00000000,0.00000000,0.51202959,2.10871100,0.64117342,0.19659881,-1.09236443,0.00000000,0.00000000
-0.09265652,-2.09500313,-0.66405493,-0.13425507,-0.81599271,0.00000000,0.00000000,0.50720471,2.12320852,0.62295014,0.19227305,-1.08070934,0.00000000,0.00000000
-0.10834209,-2.10807824,-0.64351976,-0.13421184,-0.81878573,0.00000000,0.00000000,0.49333790,2.13974071,0.60326368,0.18764283,-1.06924212,0.00000000,0.00000000
-0.12702146,-2.12082028,-0.62377566,-0.13809119,-0.82116425,0.00000000,0.00000000,0.47180006,2.15463400,0.58259094,0.18230380,-1.06155634,0.00000000,0.00000000
-0.14689155,-2.13291812,-0.60468137,-0.14530930,-0.82242274,0.00000000,0.00000000,0.44498038,2.16470766,0.56147319,0.17602032,-1.05795634,0.00000000,0.00000000
-0.16558361,-2.14510632,-0.58597451,-0.15524751,-0.82712233,0.00000000,0.00000000,0.41793135,2.16905165,0.54054701,0.16963449,-1.04498172,0.00000000,0.00000000
-0.18240252,-2.15670466,-0.56754082,-0.16716036,-0.83663511,0.00000000,0.00000000,0.39518452,2.16994905,0.52029848,0.16395698,-1.03134060,0.00000000,0.00000000
-0.19667734,-2.16528797,-0.54933769,-0.17942147,-0.84361970,0.00000000,0.00000000,0.37752804,2.17000008,0.50085115,0.15879124,-1.01819694,0.00000000,0.00000000
-0.20821074,-2.16914940,-0.53140789,-0.19020011,-0.84629565,0.00000000,0.00000000,0.36319560,2.17000008,0.48208964,0.15338151,-1.00254822,0.00000000,0.00000000
-0.21798868,-2.16995430,-0.51394683,-0.19795167,-0.84800673,0.00000000,0.00000000,0.34974620,2.17000008,0.46380985,0.14706768,-0.98394406,0.00000000,0.00000000
-0.22722922,-2.17000008,-0.49715832,-0.20178284,-0.84590286,0.00000000,0.00000000,0.33597359,2.17000008,0.44585499,0.13991767,-0.96574068,0.00000000,0.00000000
-0.23625764,-2.17000008,-0.48106769,-0.20176201,-0.83947814,0.00000000,0.00000000,0.32294196,2.17000008,0.42819843,0.13288835,-0.94100857,0.00000000,0.00000000
-0.24529620,-2.17000008,-0.46562546,-0.19877099,-0.83279544,0.00000000,0.00000000,0.31202707,2.17000008,0.41083345,0.12707177,-0.90538484,0.00000000,0.00000000
-0.25447175,-2.17000008,-0.45074454,-0.19398294,-0.82088131,0.00000000,0.00000000,0.30357465,2.17000008,0.39370269,0.12318937,-0.86738944,0.00000000,0.00000000
-0.26331592,-2.17000008,-0.43626356,-0.18858077,-0.81040728,0.00000000,0.00000000,0.29728311,2.17000008,0.37673301,0.12154418,-0.82696134,0.00000000,0.00000000
-0.27076223,-2.17000008,-0.42197084,-0.18365405,-0.80504906,0.00000000,0.00000000,0.29265830,2.17000008,0.35986489,0.12205636,-0.78281373,0.00000000,0.00000000
-0.27572080,-2.17000008,-0.40771559,-0.17982830,-0.79265231,0.00000000,0.00000000,0.28897637,2.17000008,0.34304056,0.12432761,-0.73971230,0.00000000,0.00000000
-0.27742955,-2.17000008,-0.39344224,-0.17734964,-0.78515089,0.00000000,0.00000000,0.28547588,2.17000008,0.32620481,0.12778646,-0.69549537,0.00000000,0.00000000
-0.27577606,-2.17000008,-0.37919733,-0.17628710,-0.77978051,0.00000000,0.00000000,0.28160310,2.17000008,0.30930820,0.13189696,-0.65321845,0.00000000,0.00000000
-0.27136865,-2.17000008,-0.36510700,-0.17664862,-0.77940410,0.00000000,0.00000000,0.27710962,2.17000008,0.29230550,0.13631019,-0.61116499,0.00000000,0.00000000
-0.26523057,-2.17000008,-0.35132751,-0.17843646,-0.77274251,0.00000000,0.00000000,0.27199012,2.17000008,0.27515438,0.14085881,-0.56851143,0.00000000,0.00000000
-0.25833282,-2.17000008,-0.33799496,-0.18165176,-0.76672620,0.00000000,0.00000000,0.26635239,2.17000008,0.25781372,0.14542209,-0.52333504,0.00000000,0.00000000
-0.25125206,-2.17000008,-0.32519716,-0.18626495,-0.76592010,0.00000000,0.00000000,0.26033962,2.17000008,0.24024430,0.14980321,-0.48368803,0.00000000,0.00000000
-0.24415627,-2.17000008,-0.31297678,-0.19216405,-0.76316506,0.00000000,0.00000000,0.25410542,2.17000008,0.22240710,0.15373705,-0.45011771,0.00000000,0.00000000
-0.23707949,-2.17000008,-0.30136138,-0.19911174,-0.76050305,0.00000000,0.00000000,0.24779698,2.17000008,0.20425856,0.15700112,-0.42160228,0.00000000,0.00000000
-0.23015215,-2.17000008,-0.29038569,-0.20675796,-0.75284868,0.00000000,0.00000000,0.24154344,2.17000008,0.18574673,0.15949398,-0.39611045,0.00000000,0.00000000
-0.22360882,-2.17000008,-0.28009030,-0.21469270,-0.74398041,0.00000000,0.00000000,0.23545572,2.17000008,0.16681084,0.16122434,-0.38007998,0.00000000,0.00000000
-0.21768397,-2.17000008,-0.27050897,-0.22250105,-0.73858809,0.00000000,0.00000000,0.22963473,2.17000008,0.14738393,0.16224882,-0.36742577,0.00000000,0.00000000
-0.21254873,-2.17000008,-0.26166153,-0.22980158,-0.72769356,0.00000000,0.00000000,0.22418281,2.17000008,0.12739664,0.16260913,-0.35209006,0.00000000,0.00000000
-0.20832387,-2.17000008,-0.25355691,-0.23626415,-0.71406370,0.00000000,0.00000000,0.21920742,2.17000008,0.10677891,0.16230266,-0.34044012,0.00000000,0.00000000
-0.20512266,-2.17000008,-0.24620008,-0.24161766,-0.69763023,0.00000000,0.00000000,0.21481280,2.17000008,0.08545922,0.16128497,-0.33077791,0.00000000,0.00000000
-0.20307407,-2.17000008,-0.23959632,-0.24565631,-0.67569393,0.00000000,0.00000000,0.21109027,2.17000008,0.06336335,0.15947612,-0.32359233,0.00000000,0.00000000
-0.20230895,-2.17000008,-0.23374957,-0.24824639,-0.65129513,0.00000000,0.00000000,0.20811041,2.17000008,0.04041329,0.15675274,-0.31758726,0.00000000,0.00000000
-0.20293838,-2.17000008,-0.22865865,-0.24933749,-0.62735099,0.00000000,0.00000000,0.20592295,2.17000008,0.01652568,0.15293422,-0.31156713,0.00000000,0.00000000
-0.20506066,-2.17000008,-0.22431515,-0.24897510,-0.60449624,0.00000000,0.00000000,0.20457517,2.17000008,-0.00838839,0.14777192,-0.29876193,0.00000000,0.00000000
-0.20879516,-2.17000008,-0.22070646,-0.24729744,-0.58105332,0.00000000,0.00000000,0.20414229,2.17000008,-0.03442116,0.14093708,-0.29192084,0.00000000,0.00000000
-0.21430771,-2.17000008,-0.21781921,-0.24451935,-0.55362678,0.00000000,0.00000000,0.20474716,2.17000008,-0.06166567,0.13200349,-0.28544539,0.00000000,0.00000000
-0.22182542,-2.17000008,-0.21564205,-0.24091637,-0.52070034,0.00000000,0.00000000,0.20654754,2.17000008,-0.09021737,0.12042849,-0.27630031,0.00000000,0.00000000
-0.23164394,-2.17000008,-0.21416742,-0.23681602,-0.49303105,0.00000000,0.00000000,0.20967656,2.17000008,-0.12018038,0.10554010,-0.26714945,0.00000000,0.00000000
-0.24411304,-2.17000008,-0.21339196,-0.23257801,-0.46803209,0.00000000,0.00000000,0.21414535,2.17000008,-0.15167306,0.08653297,-0.26166287,0.00000000,0.00000000
-0.25959232,-2.17000008,-0.21331482,-0.22855745,-0.44539270,0.00000000,0.00000000,0.21974362,2.17000008,-0.18482591,0.06247871,-0.25514659,0.00000000,0.00000000
-0.27840281,-2.17000008,-0.21393478,-0.22507288,-0.42280874,0.00000000,0.00000000,0.22598137,2.17000008,-0.21976718,0.03235824,-0.24966791,0.00000000,0.00000000
-0.30080119,-2.17000008,-0.21524750,-0.22240081,-0.40094841,0.00000000,0.00000000,0.23207983,2.17000008,-0.25659561,-0.00488833,-0.25293499,0.00000000,0.00000000
-0.32696399,-2.17000008,-0.21724282,-0.22078155,-0.38450119,0.00000000,0.00000000,0.23697110,2.17000008,-0.29534042,-0.05030922,-0.26017615,0.00000000,0.00000000
-0.35695642,-2.17000008,-0.21990265,-0.22040737,-0.36798030,0.00000000,0.00000000,0.23927340,2.17000008,-0.33590618,-0.10488607,-0.26892543,0.00000000,0.00000000
-0.39069697,-2.17000008,-0.22319894,-0.22139053,-0.34834823,0.00000000,0.00000000,0.23726128,2.17000008,-0.37799895,-0.16946390,-0.28066140,0.00000000,0.00000000
-0.42794695,-2.17000008,-0.22709180,-0.22373463,-0.33395499,0.00000000,0.00000000,0.22887483,2.17000008,-0.42103803,-0.24465685,-0.28573632,0.00000000,0.00000000
-0.46833703,-2.17000008,-0.23152828,-0.22732088,-0.30891156,0.00000000,0.00000000,0.21178491,2.16968322,-0.46406618,-0.33072799,-0.29530102,0.00000000,0.00000000
-0.51142222,-2.17000008,-0.23644453,-0.23189487,-0.28050226,0.00000000,0.00000000,0.18351245,2.16451073,-0.50568098,-0.42747435,-0.30568546,0.00000000,0.00000000
-0.55669886,-2.17000008,-0.24176665,-0.23703308,-0.25911260,0.00000000,0.00000000,0.14163746,2.14367533,-0.54400337,-0.53419167,-0.31333804,0.00000000,0.00000000
-0.60355538,-2.16996622,-0.24740677,-0.24215223,-0.23926906,0.00000000,0.00000000,0.08414206,2.10347795,-0.57672220,-0.64970422,-0.32205305,0.00000000,0.00000000
-0.65126300,-2.16928887,-0.25325507,-0.24665469,-0.22507823,0.00000000,0.00000000,0.00976610,2.04465437,-0.60129517,-0.77233094,-0.33708581,0.00000000,0.00000000
-0.69904810,-2.16498280,-0.25917602,-0.25010303,-0.20153204,0.00000000,0.00000000,-0.08177261,1.96859896,-0.61528623,-0.89987665,-0.35056773,0.00000000,0.00000000
-0.74616241,-2.15223312,-0.26500654,-0.25226071,-0.17827572,0.00000000,0.00000000,-0.18974808,1.87723458,-0.61669457,-1.02975202,-0.36302716,0.00000000,0.00000000
-0.79195011,-2.12944603,-0.27055782,-0.25307059,-0.15192792,0.00000000,0.00000000,-0.31247205,1.77304351,-0.60415822,-1.15917003,-0.37424907,0.00000000,0.00000000
-0.83577877,-2.09696913,-0.27559692,-0.25270590,-0.12942334,0.00000000,0.00000000,-0.44731858,1.65915477,-0.57701778,-1.28533578,-0.38643420,0.00000000,0.00000000
-0.87675303,-2.05591154,-0.27979761,-0.25164860,-0.10919154,0.00000000,0.00000000,-0.59082282,1.53934896,-0.53527451,-1.40561271,-0.38562998,0.00000000,0.00000000
-0.91308004,-2.00858784,-0.28263003,-0.25082290,-0.08918989,0.00000000,0.00000000,-0.73900092,1.41775572,-0.47947693,-1.51767528,-0.37720156,0.00000000,0.00000000
-0.94053841,-1.95615160,-0.28323227,-0.24947533,-0.07377929,0.00000000,0.00000000,-0.88783848,1.29831553,-0.41058508,-1.61960351,-0.36856925,0.00000000,0.00000000
-0.95455348,-1.89534640,-0.28088242,-0.24328022,-0.05971376,0.00000000,0.00000000,-1.03381503,1.18423557,-0.32991683,-1.70989132,-0.35747048,0.00000000,0.00000000
-0.95770371,-1.82813716,-0.27578318,-0.23294957,-0.04902036,0.00000000,0.00000000,-1.17441261,1.07756329,-0.23923308,-1.78747988,-0.34623015,0.00000000,0.00000000
-0.95380819,-1.75778210,-0.26831314,-0.22085837,-0.03585171,0.00000000,0.00000000,-1.30854726,0.97903907,-0.14087245,-1.85193646,-0.33056924,0.00000000,0.00000000
-0.94583410,-1.68745327,-0.25875577,-0.20921762,-0.02504402,0.00000000,0.00000000,-1.43651307,0.88798541,-0.03756048,-1.90383697,-0.32001278,0.00000000,0.00000000
-0.93609327,-1.61973536,-0.24735712,-0.19975369,-0.01730534,0.00000000,0.00000000,-1.55935407,0.80269951,0.06811833,-1.94483936,-0.30653346,0.00000000,0.00000000
-0.92607790,-1.55616570,-0.23431437,-0.19352883,-0.00894531,0.00000000,0.00000000,-1.67808437,0.72124219,0.17418617,-1.97723401,-0.30037975,0.00000000,0.00000000
-0.91659540,-1.49744534,-0.21976653,-0.19113345,0.00587985,0.00000000,0.00000000,-1.79325438,0.64206231,0.27935952,-2.00335073,-0.29774296,0.00000000,0.00000000
-0.90798217,-1.44369709,-0.20379524,-0.19284405,0.01532794,0.00000000,0.00000000,-1.90492535,0.56423014,0.38285276,-2.02519107,-0.29610950,0.00000000,0.00000000
-0.90032184,-1.39465559,-0.18643863,-0.19872408,0.02143287,0.00000000,0.00000000,-2.01282024,0.48740163,0.48413989,-2.04431415,-0.29783219,0.00000000,0.00000000
-0.89363128,-1.34977508,-0.16771273,-0.20866859,0.02939433,0.00000000,0.00000000,-2.11648273,0.41168383,0.58278811,-2.06186104,-0.29765669,0.00000000,0.00000000
-0.88797474,-1.30832362,-0.14762941,-0.22242528,0.03718387,0.00000000,0.00000000,-2.21541286,0.33751339,0.67836344,-2.07859683,-0.29700175,0.00000000,0.00000000
-0.88348740,-1.26949406,-0.12620458,-0.23963645,0.04703356,0.00000000,0.00000000,-2.30914950,0.26556006,0.77040732,-2.09494495,-0.29934454,0.00000000,0.00000000
-0.88036603,-1.23250008,-0.10346550,-0.25991964,0.05372208,0.00000000,0.00000000,-2.39730072,0.19662803,0.85847604,-2.11104202,-0.30401188,0.00000000,0.00000000
-0.87888169,-1.19663489,-0.07946882,-0.28294799,0.05585857,0.00000000,0.00000000,-2.47953343,0.13154882,0.94220269,-2.12681007,-0.31069589,0.00000000,0.00000000
-0.87941545,-1.16131377,-0.05433058,-0.30849987,0.05884182,0.00000000,0.00000000,-2.55556035,0.07108062,1.02132845,-2.14203072,-0.31700286,0.00000000,0.00000000
-0.88247341,-1.12612605,-0.02825451,-0.33647558,0.06078127,0.00000000,0.00000000,-2.62514281,0.01582144,1.09568548,-2.15642452,-0.32322997,0.00000000,0.00000000
-0.88865143,-1.09088016,-0.00154407,-0.36688450,0.06071750,0.00000000,0.00000000,-2.68809462,-0.03386287,1.16515768,-2.16972733,-0.33300757,0.00000000,0.00000000
-0.89856541,-1.05558121,0.02540603,-0.39979583,0.06276628,0.00000000,0.00000000,-2.74428415,-0.07788923,1.22964847,-2.18174720,-0.34535429,0.00000000,0.00000000
-0.91277248,-1.02034843,0.05213710,-0.43526316,0.05792861,0.00000000,0.00000000,-2.79365039,-0.11647039,1.28907537,-2.19238496,-0.35560122,0.00000000,0.00000000
-0.93170321,-0.98531950,0.07816836,-0.47325200,0.05136201,0.00000000,0.00000000,-2.83622980,-0.15006982,1.34338200,-2.20160913,-0.36508742,0.00000000,0.00000000
-0.95561290,-0.95057875,0.10304622,-0.51359445,0.04935556,0.00000000,0.00000000,-2.87219906,-0.17929938,1.39255726,-2.20940447,-0.37417999,0.00000000,0.00000000
-0.98455876,-0.91610545,0.12638997,-0.55596817,0.04916924,0.00000000,0.00000000,-2.90190935,-0.20478815,1.43665326,-2.21572042,-0.38682267,0.00000000,0.00000000
-1.01840293,-0.88172263,0.14792426,-0.59989327,0.05377364,0.00000000,0.00000000,-2.92587566,-0.22706771,1.47580040,-2.22046328,-0.39414030,0.00000000,0.00000000
-1.05683315,-0.84708792,0.16749720,-0.64476275,0.05310960,0.00000000,0.00000000,-2.94474673,-0.24652189,1.51020908,-2.22351885,-0.39663020,0.00000000,0.00000000
-1.09937942,-0.81176859,0.18509433,-0.68992335,0.05484281,0.00000000,0.00000000,-2.95929599,-0.26342872,1.54014075,-2.22477889,-0.40752035,0.00000000,0.00000000
-1.14542186,-0.77536267,0.20085868,-0.73477310,0.05521263,0.00000000,0.00000000,-2.97043490,-0.27806148,1.56585765,-2.22414351,-0.41577998,0.00000000,0.00000000
-1.19422972,-0.73756284,0.21507762,-0.77880794,0.05335663,0.00000000,0.00000000,-2.97914219,-0.29076022,1.58758652,-2.22155809,-0.42060080,0.00000000,0.00000000
-1.24507117,-0.69808751,0.22808176,-0.82155108,0.05227317,0.00000000,0.00000000,-2.98627472,-0.30190992,1.60552716,-2.21709704,-0.42358312,0.00000000,0.00000000
-1.29735708,-0.65655845,0.24006099,-0.86241114,0.05198285,0.00000000,0.00000000,-2.99238253,-0.31185469,1.61989141,-2.21103311,-0.43230188,0.00000000,0.00000000
-1.35072589,-0.61249703,0.25089145,-0.90061980,0.05278237,0.00000000,0.00000000,-2.99768138,-0.32083359,1.63093472,-2.20378947,-0.44283232,0.00000000,0.00000000
-1.40500867,-0.56551397,0.26008707,-0.93535799,0.04866287,0.00000000,0.00000000,-3.00217199,-0.32898584,1.63895559,-2.19579768,-0.45355621,0.00000000,0.00000000
-1.46009994,-0.51555854,0.26690757,-0.96599454,0.04859894,0.00000000,0.00000000,-3.00576282,-0.33639699,1.64427745,-2.18737221,-0.46042648,0.00000000,0.00000000
-1.51581991,-0.46302089,0.27054924,-0.99224883,0.04095583,0.00000000,0.00000000,-3.00830746,-0.34312809,1.64723849,-2.17870331,-0.46569288,0.00000000,0.00000000
-1.57183933,-0.40863833,0.27028909,-1.01418245,0.03647341,0.00000000,0.00000000,-3.00964689,-0.34920797,1.64820051,-2.16993451,-0.46933812,0.00000000,0.00000000
-1.62766588,-0.35330570,0.26554772,-1.03207576,0.03105338,0.00000000,0.00000000,-3.00997972,-0.35460725,1.64757299,-2.16122055,-0.47039428,0.00000000,0.00000000
-1.68265641,-0.29790467,0.25591853,-1.04629588,0.02478663,0.00000000,0.00000000,-3.00999999,-0.35921633,1.64583993,-2.15272212,-0.46878693,0.00000000,0.00000000
-1.73605192,-0.24320592,0.24120571,-1.05722857,0.01458512,0.00000000,0.00000000,-3.00999999,-0.36284330,1.64355922,-2.14457011,-0.46123222,0.00000000,0.00000000
-1.78704774,-0.18985215,0.22149047,-1.06528699,0.00785726,0.00000000,0.00000000,-3.00999999,-0.36525694,1.64130604,-2.13683772,-0.45201814,0.00000000,0.00000000
-1.83490515,-0.13838293,0.19728287,-1.07096398,-0.00010293,0.00000000,0.00000000,-3.00999999,-0.36628735,1.63953900,-2.12947512,-0.44495621,0.00000000,0.00000000
-1.87911010,-0.08921544,0.16970792,-1.07484341,-0.00627040,0.00000000,0.00000000,-3.00999999,-0.36594495,1.63844609,-2.12225151,-0.44437686,0.00000000,0.00000000
-1.91952670,-0.04257588,0.14046150,-1.07751000,-0.01429879,0.00000000,0.00000000,-3.00999999,-0.36446378,1.63789952,-2.11487556,-0.44016090,0.00000000,0.00000000
-1.95639980,0.00146441,0.11132225,-1.07940912,-0.01855661,0.00000000,0.00000000,-3.00999999,-0.36218286,1.63761652,-2.10729527,-0.43179327,0.00000000,0.00000000
-1.99012733,0.04275272,0.08345491,-1.08080018,-0.01729698,0.00000000,0.00000000,-3.00999999,-0.35932395,1.63741696,-2.09984732,-0.42226875,0.00000000,0.00000000
-2.02098799,0.08092475,0.05712494,-1.08182418,-0.00943603,0.00000000,0.00000000,-3.00999999,-0.35583767,1.63738060,-2.09303021,-0.40980622,0.00000000,0.00000000
-2.04905105,0.11563762,0.03199152,-1.08254766,0.00392468,0.00000000,0.00000000,-3.00998425,-0.35143667,1.63781178,-2.08720016,-0.39989817,0.00000000,0.00000000
-2.07425427,0.14691474,0.00756338,-1.08287120,0.01390640,0.00000000,0.00000000,-3.00967383,-0.34580752,1.63902414,-2.08248782,-0.39465925,0.00000000,0.00000000
-2.09658241,0.17535207,-0.01645782,-1.08235705,0.02521812,0.00000000,0.00000000,-3.00777650,-0.33891428,1.64099216,-2.07887101,-0.37993264,0.00000000,0.00000000
-2.11632586,0.20212319,-0.03989390,-1.08020091,0.03344635,0.00000000,0.00000000,-3.00253916,-0.33122525,1.64312327,-2.07624531,-0.36711794,0.00000000,0.00000000
-2.13431191,0.22873281,-0.06189631,-1.07541621,0.03883628,0.00000000,0.00000000,-2.99430919,-0.32365727,1.64429379,-2.07441735,-0.35850316,0.00000000,0.00000000
-2.15186119,0.25656691,-0.08108231,-1.06714296,0.04241747,0.00000000,0.00000000,-2.98448968,-0.31719342,1.64318049,-2.07325101,-0.35427448,0.00000000,0.00000000
-2.17016029,0.28621522,-0.09629472,-1.05503500,0.04772142,0.00000000,0.00000000,-2.97411799,-0.31246653,1.63878727,-2.07296181,-0.35019556,0.00000000,0.00000000
-2.18947530,0.31695449,-0.10737909,-1.03952372,0.04923588,0.00000000,0.00000000,-2.96332097,-0.30951452,1.63091409,-2.07418108,-0.33987612,0.00000000,0.00000000
-2.20894599,0.34686348,-0.11520218,-1.02181005,0.04795032,0.00000000,0.00000000,-2.95139551,-0.30777073,1.62025821,-2.07766080,-0.32963264,0.00000000,0.00000000
-2.22714090,0.37332770,-0.12093966,-1.00367308,0.04700898,0.00000000,0.00000000,-2.93738627,-0.30632719,1.60804391,-2.08383155,-0.32865027,0.00000000,0.00000000
-2.24306440,0.39389411,-0.12520325,-0.98697895,0.04626803,0.00000000,0.00000000,-2.92062688,-0.30431506,1.59540915,-2.09260416,-0.32301146,0.00000000,0.00000000
-2.25673771,0.40720484,-0.12778591,-0.97314304,0.04709809,0.00000000,0.00000000,-2.90107393,-0.30121329,1.58286977,-2.10338354,-0.31897637,0.00000000,0.00000000
-2.26899934,0.41334444,-0.12802845,-0.96302176,0.05087529,0.00000000,0.00000000,-2.87946010,-0.29700711,1.57015193,-2.11509490,-0.31443727,0.00000000,0.00000000
-2.28113770,0.41364035,-0.12513769,-0.95695835,0.05246182,0.00000000,0.00000000,-2.85702991,-0.29211822,1.55649102,-2.12635064,-0.32018304,0.00000000,0.00000000
-2.29437590,0.41015819,-0.11844195,-0.95470458,0.05392550,0.00000000,0.00000000,-2.83506918,-0.28716946,1.54108417,-2.13573146,-0.32485566,0.00000000,0.00000000
-2.30934286,0.40510818,-0.10765048,-0.95547378,0.05136739,0.00000000,0.00000000,-2.81455946,-0.28268334,1.52344298,-2.14205623,-0.33278191,0.00000000,0.00000000
-2.32581091,0.40046343,-0.09305583,-0.95823246,0.05518118,0.00000000,0.00000000,-2.79610658,-0.27881935,1.50354040,-2.14455676,-0.33944339,0.00000000,0.00000000
-2.34255171,0.39747909,-0.07565413,-0.96221459,0.05497548,0.00000000,0.00000000,-2.77997422,-0.27529219,1.48182070,-2.14295101,-0.35026813,0.00000000,0.00000000
-2.35731697,0.39624512,-0.05720792,-0.96739906,0.05186767,0.00000000,0.00000000,-2.76606226,-0.27151054,1.45915067,-2.13737607,-0.36146304,0.00000000,0.00000000
-2.36710739,0.39578339,-0.04015509,-0.97456902,0.04224844,0.00000000,0.00000000,-2.75405145,-0.26679176,1.43660843,-2.12808824,-0.37165034,0.00000000,0.00000000
-2.36900926,0.39463434,-0.02695176,-0.98492277,0.03395960,0.00000000,0.00000000,-2.74369597,-0.26058564,1.41504407,-2.11522126,-0.38251847,0.00000000,0.00000000
-2.36110544,0.39181158,-0.01929083,-0.99925250,0.02499276,0.00000000,0.00000000,-2.73489070,-0.25271717,1.39457917,-2.09893513,-0.39400294,0.00000000,0.00000000
-2.34305406,0.38738716,-0.01763075,-1.01735318,0.01586922,0.00000000,0.00000000,-2.72738385,-0.24349272,1.37449396,-2.07984519,-0.41013274,0.00000000,0.00000000
-2.31624770,0.38230696,-0.02106804,-1.03814185,0.01053799,0.00000000,0.00000000,-2.72072482,-0.23352729,1.35356236,-2.05897880,-0.42362207,0.00000000,0.00000000
-2.28327274,0.37763301,-0.02769337,-1.06035113,0.00812255,0.00000000,0.00000000,-2.71466351,-0.22346066,1.33041406,-2.03716612,-0.43923604,0.00000000,0.00000000
-2.24698949,0.37405592,-0.03522943,-1.08299422,0.00424554,0.00000000,0.00000000,-2.70934939,-0.21363376,1.30386448,-2.01460576,-0.45542035,0.00000000,0.00000000
-2.20960712,0.37150031,-0.04177658,-1.10568821,0.00502164,0.00000000,0.00000000,-2.70495224,-0.20383833,1.27330756,-1.99105060,-0.47292444,0.00000000,0.00000000
-2.17222977,0.36894727,-0.04631421,-1.12873375,0.00029094,0.00000000,0.00000000,-2.70107031,-0.19330728,1.23896766,-1.96638691,-0.49358186,0.00000000,0.00000000
-2.13519764,0.36473957,-0.04845958,-1.15277219,-0.00655745,0.00000000,0.00000000,-2.69639993,-0.18102783,1.20190513,-1.94115067,-0.51680768,0.00000000,0.00000000
-2.09858537,0.35724661,-0.04809573,-1.17813230,-0.01739357,0.00000000,0.00000000,-2.68900537,-0.16614304,1.16376579,-1.91648042,-0.53464168,0.00000000,0.00000000
-2.06223941,0.34508231,-0.04529160,-1.20464671,-0.03439913,0.00000000,0.00000000,-2.67690611,-0.14807184,1.12642837,-1.89353895,-0.54594296,0.00000000,0.00000000
-2.02553415,0.32692778,-0.04052199,-1.23197293,-0.04556162,0.00000000,0.00000000,-2.65867519,-0.12625721,1.09161735,-1.87267625,-0.55407184,0.00000000,0.00000000
-1.98744762,0.30144310,-0.03475622,-1.25989997,-0.05593570,0.00000000,0.00000000,-2.63380718,-0.09988800,1.06047320,-1.85291672,-0.56576902,0.00000000,0.00000000
-1.94700861,0.26749232,-0.02923972,-1.28836024,-0.06744378,0.00000000,0.00000000,-2.60265398,-0.06807683,1.03312457,-1.83249414,-0.57395363,0.00000000,0.00000000
-1.90364969,0.22462957,-0.02517888,-1.31717193,-0.07365707,0.00000000,0.00000000,-2.56615019,-0.03033291,1.00852573,-1.80983412,-0.57427299,0.00000000,0.00000000
-1.85722411,0.17355490,-0.02356705,-1.34571695,-0.07519243,0.00000000,0.00000000,-2.52567840,0.01324092,0.98472619,-1.78391922,-0.57727098,0.00000000,0.00000000
-1.80801284,0.11654317,-0.02517143,-1.37257183,-0.07784174,0.00000000,0.00000000,-2.48217678,0.06201711,0.95986617,-1.75445354,-0.57862502,0.00000000,0.00000000
-1.75675023,0.05713024,-0.03051294,-1.39558697,-0.08569711,0.00000000,0.00000000,-2.43498182,0.11489103,0.93321109,-1.72191000,-0.58223814,0.00000000,0.00000000
-1.70429111,-0.00300384,-0.03940152,-1.41381371,-0.09066571,0.00000000,0.00000000,-2.38278675,0.17053610,0.90489620,-1.68673491,-0.58924872,0.00000000,0.00000000
-1.65121460,-0.06477755,-0.05127122,-1.42793739,-0.09420185,0.00000000,0.00000000,-2.32436848,0.22742422,0.87547982,-1.64915371,-0.59405702,0.00000000,0.00000000
-1.59787476,-0.13030919,-0.06598091,-1.43936086,-0.09815136,0.00000000,0.00000000,-2.25845551,0.28387013,0.84595001,-1.60935152,-0.59305334,0.00000000,0.00000000
-1.54465497,-0.20180057,-0.08388074,-1.44940770,-0.10445873,0.00000000,0.00000000,-2.18382835,0.33821484,0.81757838,-1.56753039,-0.58910060,0.00000000,0.00000000
-1.49197865,-0.28135312,-0.10515027,-1.45909321,-0.11276308,0.00000000,0.00000000,-2.09980130,0.38881677,0.79143000,-1.52387738,-0.58799851,0.00000000,0.00000000
-1.43994582,-0.37081888,-0.12918769,-1.46875083,-0.11654314,0.00000000,0.00000000,-2.00647974,0.43390647,0.76804227,-1.47849548,-0.58355534,0.00000000,0.00000000
-1.38791382,-0.47163451,-0.15449235,-1.47775650,-0.12493772,0.00000000,0.00000000,-1.90465856,0.47163495,0.74742371,-1.43140805,-0.58082813,0.00000000,0.00000000
-1.33471072,-0.58475375,-0.17936803,-1.48475158,-0.13325378,0.00000000,0.00000000,-1.79566872,0.50013047,0.72909379,-1.38259280,-0.57456684,0.00000000,0.00000000
-1.27923238,-0.71028382,-0.20250864,-1.48810792,-0.14504083,0.00000000,0.00000000,-1.68126369,0.51766235,0.71212232,-1.33191359,-0.57276583,0.00000000,0.00000000
-1.22115517,-0.84744549,-0.22321977,-1.48677468,-0.15126403,0.00000000,0.00000000,-1.56344807,0.52301967,0.69527227,-1.27889180,-0.57201523,0.00000000,0.00000000
-1.16150093,-0.99489778,-0.24150001,-1.48069322,-0.15313369,0.00000000,0.00000000,-1.44436729,0.51577747,0.67713791,-1.22251236,-0.57304221,0.00000000,0.00000000
-1.10219300,-1.15113294,-0.25753617,-1.47076070,-0.15592188,0.00000000,0.00000000,-1.32633829,0.49685529,0.65626293,-1.16092682,-0.57254171,0.00000000,0.00000000
-1.04472756,-1.31452382,-0.27090093,-1.45832837,-0.15432273,0.00000000,0.00000000,-1.21191061,0.47068498,0.63151437,-1.09089267,-0.57431328,0.00000000,0.00000000
-0.98833060,-1.48240292,-0.27980345,-1.44395971,-0.15521231,0.00000000,0.00000000,-1.10418594,0.44900423,0.60278261,-1.00783050,-0.57893825,0.00000000,0.00000000
-0.92889154,-1.64857447,-0.28111345,-1.42509687,-0.15097708,0.00000000,0.00000000,-1.00550020,0.44881299,0.57162148,-0.90801090,-0.58169234,0.00000000,0.00000000
-0.86256433,-1.80103159,-0.27338088,-1.39530993,-0.14543083,0.00000000,0.00000000,-0.91223305,0.48145473,0.54157972,-0.79220325,-0.59445035,0.00000000,0.00000000
-0.79061532,-1.92745376,-0.25941777,-1.35160983,-0.14076382,0.00000000,0.00000000,-0.81587034,0.54794902,0.51697719,-0.66765267,-0.60221446,0.00000000,0.00000000
-0.71882087,-2.02564645,-0.24396530,-1.30020332,-0.13659336,0.00000000,0.00000000,-0.71059352,0.63995588,0.49981025,-0.54400563,-0.60442483,0.00000000,0.00000000
-0.65115821,-2.09740925,-0.22972161,-1.24543369,-0.13188940,0.00000000,0.00000000,-0.59628886,0.74699634,0.48937216,-0.42822587,-0.60439706,0.00000000,0.00000000
-0.58934861,-2.14335346,-0.21791318,-1.18791604,-0.12260840,0.00000000,0.00000000,-0.47587308,0.86269391,0.48414680,-0.32276794,-0.60466319,0.00000000,0.00000000
-0.53455555,-2.16479301,-0.20985371,-1.12679744,-0.11553477,0.00000000,0.00000000,-0.35311136,0.98499322,0.48283443,-0.22686990,-0.60448390,0.00000000,0.00000000
-0.48756352,-2.16970730,-0.20694926,-1.06082690,-0.10460688,0.00000000,0.00000000,-0.23224175,1.11387885,0.48434123,-0.13865942,-0.61026978,0.00000000,0.00000000
-0.44851047,-2.17000008,-0.20983715,-0.98903215,-0.09079487,0.00000000,0.00000000,-0.11803501,1.24915385,0.48749748,-0.05673551,-0.62092578,0.00000000,0.00000000
-0.41695330,-2.17000008,-0.21804827,-0.91112429,-0.07699351,0.00000000,0.00000000,-0.01543980,1.38939452,0.49105263,0.01934081,-0.62750298,0.00000000,0.00000000
-0.39191282,-2.16988444,-0.23034012,-0.82793504,-0.05790091,0.00000000,0.00000000,0.07094757,1.53153539,0.49384969,0.08901661,-0.63379508,0.00000000,0.00000000
-0.37172723,-2.16796207,-0.24498759,-0.74201018,-0.03685930,0.00000000,0.00000000,0.13763054,1.67084432,0.49499458,0.15092660,-0.64297605,0.00000000,0.00000000
-0.35304660,-2.16001129,-0.25961959,-0.65733045,-0.01324037,0.00000000,0.00000000,0.18323906,1.80171752,0.49402189,0.20351531,-0.65867227,0.00000000,0.00000000
-0.33111709,-2.14691138,-0.27157140,-0.57819080,0.00475902,0.00000000,0.00000000,0.20909876,1.91860759,0.49100259,0.24562117,-0.66566050,0.00000000,0.00000000
-0.30260986,-2.13538980,-0.27925801,-0.50680727,0.02777202,0.00000000,0.00000000,0.21878146,2.01666808,0.48647985,0.27668175,-0.67516166,0.00000000,0.00000000
-0.26483646,-2.12594008,-0.28235671,-0.43979523,0.05672953,0.00000000,0.00000000,0.21646266,2.09193516,0.48121426,0.29644090,-0.68580645,0.00000000,0.00000000
-0.22191003,-2.12052655,-0.28239310,-0.37828436,0.09230580,0.00000000,0.00000000,0.20622766,2.14121199,0.47602600,0.30477145,-0.69474632,0.00000000,0.00000000
-0.17959833,-2.12036061,-0.28103063,-0.32425395,0.13015689,0.00000000,0.00000000,0.19244474,2.16436744,0.47172534,0.30199105,-0.70194733,0.00000000,0.00000000
-0.14126542,-2.12439871,-0.27917379,-0.27784836,0.16290672,0.00000000,0.00000000,0.17915054,2.16964245,0.46892989,0.28885016,-0.71130097,0.00000000,0.00000000
-0.10793098,-2.13091421,-0.27712551,-0.23832330,0.19422023,0.00000000,0.00000000,0.16925430,2.16904712,0.46789497,0.26657671,-0.72285956,0.00000000,0.00000000
-0.07975953,-2.13840914,-0.27496663,-0.20489234,0.22782098,0.00000000,0.00000000,0.16439161,2.16250849,0.46845487,0.23748179,-0.72971022,0.00000000,0.00000000
-0.05723549,-2.14599991,-0.27279228,-0.17721191,0.25973698,0.00000000,0.00000000,0.16483259,2.14398813,0.47005972,0.20534901,-0.73751485,0.00000000,0.00000000
-0.04115150,-2.15322876,-0.27072653,-0.15528171,0.29481277,0.00000000,0.00000000,0.16948290,2.11847138,0.47198647,0.17464885,-0.74574399,0.00000000,0.00000000
-0.03195732,-2.15966320,-0.26885661,-0.13907203,0.33133829,0.00000000,0.00000000,0.17644712,2.09485245,0.47362161,0.14929236,-0.75431365,0.00000000,0.00000000
-0.02955045,-2.16479564,-0.26721820,-0.12840044,0.37169155,0.00000000,0.00000000,0.18396696,2.07973361,0.47460628,0.13204397,-0.75988489,0.00000000,0.00000000
-0.03355950,-2.16816258,-0.26582769,-0.12304400,0.41428390,0.00000000,0.00000000,0.19102235,2.07662797,0.47481665,0.12441978,-0.76182812,0.00000000,0.00000000
-0.04316797,-2.16965842,-0.26468214,-0.12270979,0.45321658,0.00000000,0.00000000,0.19705357,2.08573723,0.47426462,0.12652239,-0.76553804,0.00000000,0.00000000
-0.05657834,-2.16998148,-0.26372984,-0.12671454,0.49852523,0.00000000,0.00000000,0.20132646,2.10427809,0.47300979,0.13697496,-0.76923221,0.00000000,0.00000000
-0.07114454,-2.17000008,-0.26286581,-0.13383119,0.53860867,0.00000000,0.00000000,0.20289184,2.12744951,0.47113523,0.15331091,-0.77072281,0.00000000,0.00000000
-0.08442685,-2.17000008,-0.26197782,-0.14260314,0.58170170,0.00000000,0.00000000,0.20138986,2.14950705,0.46879882,0.17269474,-0.77192467,0.00000000,0.00000000
-0.09492895,-2.17000008,-0.26099500,-0.15163128,0.61775512,0.00000000,0.00000000,0.19757830,2.16436338,0.46630082,0.19232377,-0.77354324,0.00000000,0.00000000
-0.10177292,-2.17000008,-0.25989082,-0.15944743,0.65115464,0.00000000,0.00000000,0.19272590,2.16932869,0.46407059,0.20931546,-0.76889682,0.00000000,0.00000000
-0.10428659,-2.17000008,-0.25866613,-0.16457184,0.67268902,0.00000000,0.00000000,0.18770082,2.16997290,0.46254811,0.22085595,-0.76439852,0.00000000,0.00000000
-0.10231282,-2.17000008,-0.25736111,-0.16606942,0.69531685,0.00000000,0.00000000,0.18286458,2.17000008,0.46205372,0.22495212,-0.75832534,0.00000000,0.00000000
-0.09656858,-2.17000008,-0.25607097,-0.16392724,0.71738505,0.00000000,0.00000000,0.17861666,2.17000008,0.46276334,0.22090203,-0.75390613,0.00000000,0.00000000
-0.08838201,-2.17000008,-0.25492379,-0.15888549,0.73580527,0.00000000,0.00000000,0.17554098,2.17000008,0.46471128,0.20925462,-0.75265414,0.00000000,0.00000000
-0.07915448,-2.17000008,-0.25404292,-0.15201148,0.75133961,0.00000000,0.00000000,0.17408289,2.16987228,0.46778184,0.19156165,-0.75345880,0.00000000,0.00000000
-0.07015925,-2.17000008,-0.25353414,-0.14442252,0.76419699,0.00000000,0.00000000,0.17438133,2.16781044,0.47174242,0.17004463,-0.75511444,0.00000000,0.00000000
-0.06255288,-2.17000008,-0.25348714,-0.13715158,0.77582020,0.00000000,0.00000000,0.17641647,2.15983152,0.47633237,0.14711678,-0.75358510,0.00000000,0.00000000
-0.05722309,-2.17000008,-0.25396883,-0.13095027,0.78434271,0.00000000,0.00000000,0.18017085,2.14596820,0.48134863,0.12481225,-0.75982654,0.00000000,0.00000000
-0.05462197,-2.17000008,-0.25501516,-0.12620550,0.78634512,0.00000000,0.00000000,0.18559898,2.12900829,0.48666349,0.10452744,-0.76783580,0.00000000,0.00000000
-0.05481497,-2.17000008,-0.25663492,-0.12305052,0.78862494,0.00000000,0.00000000,0.19255650,2.11155677,0.49220163,0.08711178,-0.77594417,0.00000000,0.00000000
-0.05760207,-2.17000008,-0.25881732,-0.12150740,0.78539848,0.00000000,0.00000000,0.20078544,2.09563088,0.49791923,0.07305319,-0.78162616,0.00000000,0.00000000
-0.06254736,-2.17000008,-0.26153404,-0.12156832,0.78998148,0.00000000,0.00000000,0.20991035,2.08282948,0.50379270,0.06263317,-0.78980207,0.00000000,0.00000000
-0.06900058,-2.17000008,-0.26474047,-0.12323377,0.79260224,0.00000000,0.00000000,0.21944973,2.07440400,0.50981104,0.05603611,-0.79445660,0.00000000,0.00000000
-0.07619832,-2.17000008,-0.26838276,-0.12650298,0.79978234,0.00000000,0.00000000,0.22885664,2.07124305,0.51597029,0.05337824,-0.79900098,0.00000000,0.00000000
-0.08337979,-2.17000008,-0.27240896,-0.13128211,0.79901165,0.00000000,0.00000000,0.23757149,2.07374334,0.52227122,0.05462537,-0.80984604,0.00000000,0.00000000
-0.08986516,-2.17000008,-0.27677903,-0.13726893,0.79751998,0.00000000,0.00000000,0.24508677,2.08163095,0.52871883,0.05946548,-0.82262051,0.00000000,0.00000000
-0.09512940,-2.17000008,-0.28147304,-0.14394146,0.79839760,0.00000000,0.00000000,0.25101268,2.09391952,0.53532469,0.06726372,-0.83737636,0.00000000,0.00000000
-0.09885626,-2.17000008,-0.28649619,-0.15064979,0.80234981,0.00000000,0.00000000,0.25509804,2.10908818,0.54210812,0.07715032,-0.85635573,0.00000000,0.00000000
-0.10095568,-2.17000008,-0.29187950,-0.15674882,0.80310243,0.00000000,0.00000000,0.25720176,2.12537098,0.54909670,0.08818139,-0.87863302,0.00000000,0.00000000
