isaac-sim2real/sage/motion_files/wr75s/amass/0-Eyes_Japan_Dataset_hamada_walk-26-exhausted-hamada_poses_idx56.txt
l_joint1,l_joint2,l_joint3,l_joint4,l_joint5,l_joint6,l_joint7,r_joint1,r_joint2,r_joint3,r_joint4,r_joint5,r_joint6,r_joint7
-1.61693752,-0.82008618,0.36339948,-0.19589853,-0.07223148,0.00000000,0.00000000,-1.15151477,0.92953873,0.13246386,-0.39908007,0.09772405,0.00000000,0.00000000
-1.61511207,-0.82106286,0.36315039,-0.19512407,-0.08237516,0.00000000,0.00000000,-1.15040362,0.92970967,0.13270825,-0.39945811,0.10784181,0.00000000,0.00000000
-1.61157775,-0.82277864,0.36267447,-0.19352497,-0.09527625,0.00000000,0.00000000,-1.14824688,0.93033272,0.13316809,-0.40008301,0.12155578,0.00000000,0.00000000
-1.60635459,-0.82526648,0.36196607,-0.19112445,-0.10951833,0.00000000,0.00000000,-1.14505959,0.93155199,0.13379641,-0.40091202,0.13786381,0.00000000,0.00000000
-1.59951460,-0.82860541,0.36099494,-0.18792994,-0.12688693,0.00000000,0.00000000,-1.14086163,0.93335015,0.13457429,-0.40194294,0.15203115,0.00000000,0.00000000
-1.59116387,-0.83281678,0.35971618,-0.18387720,-0.14168611,0.00000000,0.00000000,-1.13566148,0.93566781,0.13552870,-0.40317333,0.16537526,0.00000000,0.00000000
-1.58143473,-0.83804917,0.35807875,-0.17897029,-0.15478751,0.00000000,0.00000000,-1.12947893,0.93829530,0.13668528,-0.40466598,0.17939068,0.00000000,0.00000000
-1.57046711,-0.84442526,0.35604203,-0.17321776,-0.16953017,0.00000000,0.00000000,-1.12234569,0.94104403,0.13805024,-0.40648586,0.19710065,0.00000000,0.00000000
-1.55839026,-0.85192871,0.35359159,-0.16659749,-0.18252605,0.00000000,0.00000000,-1.11430299,0.94390672,0.13959672,-0.40862289,0.21454926,0.00000000,0.00000000
-1.54534268,-0.86048591,0.35072610,-0.15907057,-0.19747217,0.00000000,0.00000000,-1.10539711,0.94692153,0.14128682,-0.41103476,0.23017776,0.00000000,0.00000000
-1.53148305,-0.86998892,0.34744993,-0.15057875,-0.20880525,0.00000000,0.00000000,-1.09566903,0.95010394,0.14310366,-0.41367310,0.24209636,0.00000000,0.00000000
-1.51698911,-0.88030624,0.34377354,-0.14105988,-0.22463423,0.00000000,0.00000000,-1.08515477,0.95345587,0.14505136,-0.41649374,0.24986476,0.00000000,0.00000000
-1.50202894,-0.89124453,0.33972806,-0.13045318,-0.24554667,0.00000000,0.00000000,-1.07389176,0.95701534,0.14713465,-0.41944730,0.25553942,0.00000000,0.00000000
-1.48674309,-0.90265816,0.33536935,-0.11876006,-0.26568279,0.00000000,0.00000000,-1.06192994,0.96075684,0.14934076,-0.42251402,0.26235673,0.00000000,0.00000000
-1.47125328,-0.91449833,0.33076817,-0.10605892,-0.28896502,0.00000000,0.00000000,-1.04933083,0.96456826,0.15164474,-0.42569619,0.27453965,0.00000000,0.00000000
-1.45565283,-0.92671013,0.32600883,-0.09247224,-0.30875459,0.00000000,0.00000000,-1.03615582,0.96840364,0.15401946,-0.42894116,0.28492931,0.00000000,0.00000000
-1.44000316,-0.93918312,0.32118535,-0.07814007,-0.32796043,0.00000000,0.00000000,-1.02246130,0.97231424,0.15644546,-0.43216252,0.29741791,0.00000000,0.00000000
-1.42437232,-0.95177060,0.31638777,-0.06316224,-0.34759375,0.00000000,0.00000000,-1.00830674,0.97633410,0.15891132,-0.43527812,0.31201395,0.00000000,0.00000000
-1.40884292,-0.96432692,0.31169957,-0.04759837,-0.37301117,0.00000000,0.00000000,-0.99376160,0.98041356,0.16140871,-0.43822601,0.32661241,0.00000000,0.00000000
-1.39349794,-0.97677433,0.30719846,-0.03154714,-0.39879906,0.00000000,0.00000000,-0.97890991,0.98442584,0.16391647,-0.44097438,0.33898488,0.00000000,0.00000000
-1.37840796,-0.98912954,0.30295753,-0.01517344,-0.42286456,0.00000000,0.00000000,-0.96385306,0.98820543,0.16637367,-0.44352713,0.34987471,0.00000000,0.00000000
-1.36363363,-1.00140214,0.29904422,0.00137640,-0.44742438,0.00000000,0.00000000,-0.94869953,0.99165148,0.16867803,-0.44590300,0.35819176,0.00000000,0.00000000
-1.34923947,-1.01343668,0.29551917,0.01806317,-0.46925399,0.00000000,0.00000000,-0.93354452,0.99481255,0.17074151,-0.44807580,0.36220032,0.00000000,0.00000000
-1.33531654,-1.02503300,0.29243624,0.03490842,-0.49180305,0.00000000,0.00000000,-0.91847628,0.99769682,0.17249757,-0.45002866,0.36724353,0.00000000,0.00000000
-1.32194173,-1.03613365,0.28984103,0.05186448,-0.50967187,0.00000000,0.00000000,-0.90359318,1.00021338,0.17385244,-0.45179170,0.37102711,0.00000000,0.00000000
-1.30911958,-1.04680490,0.28776339,0.06877254,-0.52504367,0.00000000,0.00000000,-0.88898736,1.00234354,0.17468379,-0.45339555,0.36655653,0.00000000,0.00000000
-1.29680562,-1.05718982,0.28621522,0.08541235,-0.53450030,0.00000000,0.00000000,-0.87473255,1.00412023,0.17486678,-0.45489505,0.36513945,0.00000000,0.00000000
-1.28493416,-1.06740642,0.28518978,0.10157797,-0.53910464,0.00000000,0.00000000,-0.86087698,1.00562453,0.17430916,-0.45635343,0.35783985,0.00000000,0.00000000
-1.27341080,-1.07742620,0.28465676,0.11712317,-0.54383576,0.00000000,0.00000000,-0.84743088,1.00708520,0.17299029,-0.45775610,0.35346150,0.00000000,0.00000000
-1.26211774,-1.08712304,0.28456065,0.13196015,-0.55458915,0.00000000,0.00000000,-0.83437639,1.00876689,0.17097482,-0.45895565,0.34487474,0.00000000,0.00000000
-1.25093448,-1.09633267,0.28482655,0.14607525,-0.56307435,0.00000000,0.00000000,-0.82167113,1.01084173,0.16840202,-0.45979336,0.33068597,0.00000000,0.00000000
-1.23982871,-1.10485649,0.28539610,0.15955758,-0.57511044,0.00000000,0.00000000,-0.80931026,1.01320326,0.16541182,-0.46024272,0.32207671,0.00000000,0.00000000
-1.22889185,-1.11254191,0.28625405,0.17254531,-0.58049375,0.00000000,0.00000000,-0.79734176,1.01544988,0.16208598,-0.46043286,0.31153542,0.00000000,0.00000000
-1.21828353,-1.11931598,0.28741685,0.18515415,-0.58521181,0.00000000,0.00000000,-0.78583932,1.01697183,0.15846623,-0.46057960,0.30256346,0.00000000,0.00000000
-1.20814669,-1.12516654,0.28889841,0.19745186,-0.58964431,0.00000000,0.00000000,-0.77485830,1.01717985,0.15458800,-0.46082330,0.29614562,0.00000000,0.00000000
-1.19851577,-1.13013327,0.29066473,0.20943813,-0.59824669,0.00000000,0.00000000,-0.76436764,1.01588476,0.15049703,-0.46113050,0.29006860,0.00000000,0.00000000
-1.18930948,-1.13427436,0.29262459,0.22104385,-0.60711330,0.00000000,0.00000000,-0.75428528,1.01336253,0.14621036,-0.46139556,0.28408858,0.00000000,0.00000000
-1.18040407,-1.13765550,0.29465839,0.23218186,-0.61333501,0.00000000,0.00000000,-0.74452001,1.01009417,0.14171280,-0.46161631,0.27211905,0.00000000,0.00000000
-1.17168629,-1.14029145,0.29664251,0.24280912,-0.62143421,0.00000000,0.00000000,-0.73500764,1.00651860,0.13697600,-0.46187556,0.25736260,0.00000000,0.00000000
-1.16302192,-1.14232206,0.29844221,0.25281623,-0.62418950,0.00000000,0.00000000,-0.72568160,1.00307178,0.13194883,-0.46226478,0.24156767,0.00000000,0.00000000
-1.15426350,-1.14405394,0.29991707,0.26200381,-0.63034123,0.00000000,0.00000000,-0.71644980,1.00021541,0.12657557,-0.46286243,0.22780770,0.00000000,0.00000000
-1.14527452,-1.14586854,0.30093563,0.27014929,-0.62823910,0.00000000,0.00000000,-0.70719498,0.99842930,0.12082303,-0.46367803,0.21982759,0.00000000,0.00000000
-1.13595259,-1.14803922,0.30138630,0.27710670,-0.62183517,0.00000000,0.00000000,-0.69780517,0.99809861,0.11471403,-0.46463072,0.21256055,0.00000000,0.00000000
-1.12624395,-1.15058315,0.30117837,0.28286216,-0.61847693,0.00000000,0.00000000,-0.68821031,0.99931854,0.10835802,-0.46557391,0.20456080,0.00000000,0.00000000
-1.11615574,-1.15325749,0.30024654,0.28753990,-0.61553562,0.00000000,0.00000000,-0.67841023,1.00176430,0.10192407,-0.46637449,0.19243322,0.00000000,0.00000000
-1.10575604,-1.15558720,0.29855964,0.29141405,-0.61868310,0.00000000,0.00000000,-0.66847342,1.00476170,0.09560613,-0.46696508,0.18499731,0.00000000,0.00000000
-1.09514070,-1.15703821,0.29611090,0.29481867,-0.62273335,0.00000000,0.00000000,-0.65851176,1.00752187,0.08956412,-0.46737713,0.17597708,0.00000000,0.00000000
-1.08443248,-1.15717590,0.29292226,0.29805967,-0.62699360,0.00000000,0.00000000,-0.64862186,1.00932109,0.08390559,-0.46775478,0.16736527,0.00000000,0.00000000
-1.07371628,-1.15591002,0.28901404,0.30125079,-0.62664616,0.00000000,0.00000000,-0.63879251,1.00980890,0.07869720,-0.46821904,0.15835334,0.00000000,0.00000000
-1.06301200,-1.15344048,0.28437153,0.30430400,-0.62872255,0.00000000,0.00000000,-0.62892991,1.00906277,0.07396501,-0.46875229,0.14844970,0.00000000,0.00000000
-1.05232203,-1.15004647,0.27896264,0.30705595,-0.62392491,0.00000000,0.00000000,-0.61893594,1.00731611,0.06969492,-0.46926421,0.13709469,0.00000000,0.00000000
-1.04166853,-1.14602840,0.27276570,0.30935937,-0.62298274,0.00000000,0.00000000,-0.60873234,1.00479102,0.06583750,-0.46962208,0.13221572,0.00000000,0.00000000
-1.03106403,-1.14186144,0.26576623,0.31099916,-0.62579626,0.00000000,0.00000000,-0.59818143,1.00180435,0.06235912,-0.46968248,0.12370271,0.00000000,0.00000000
-1.02050817,-1.13795578,0.25793168,0.31178856,-0.63085926,0.00000000,0.00000000,-0.58711016,0.99871916,0.05928737,-0.46931091,0.11795466,0.00000000,0.00000000
-1.00999737,-1.13427794,0.24918653,0.31174389,-0.63853955,0.00000000,0.00000000,-0.57541329,0.99576312,0.05670959,-0.46841982,0.11088876,0.00000000,0.00000000
-0.99952030,-1.13052440,0.23942819,0.31100702,-0.64636958,0.00000000,0.00000000,-0.56303954,0.99293071,0.05475637,-0.46699157,0.10797592,0.00000000,0.00000000
-0.98905396,-1.12643766,0.22855090,0.30970195,-0.65800977,0.00000000,0.00000000,-0.54990888,0.99006552,0.05361066,-0.46508136,0.09965464,0.00000000,0.00000000
-0.97854912,-1.12189364,0.21643354,0.30788109,-0.66672939,0.00000000,0.00000000,-0.53587216,0.98710001,0.05351375,-0.46274936,0.09588271,0.00000000,0.00000000
-0.96793741,-1.11700284,0.20296030,0.30545399,-0.67857903,0.00000000,0.00000000,-0.52071691,0.98401332,0.05474807,-0.45996666,0.09180868,0.00000000,0.00000000
-0.95713830,-1.11194479,0.18801372,0.30226910,-0.68317300,0.00000000,0.00000000,-0.50423521,0.98086095,0.05759765,-0.45659965,0.09181178,0.00000000,0.00000000
-0.94603705,-1.10701442,0.17145178,0.29810479,-0.69060946,0.00000000,0.00000000,-0.48620522,0.97794384,0.06236196,-0.45247227,0.09496495,0.00000000,0.00000000
-0.93452030,-1.10275340,0.15314889,0.29261267,-0.69945997,0.00000000,0.00000000,-0.46634787,0.97564626,0.06938099,-0.44735560,0.09121784,0.00000000,0.00000000
-0.92244142,-1.09973955,0.13296840,0.28544581,-0.71096313,0.00000000,0.00000000,-0.44440773,0.97457743,0.07899216,-0.44087988,0.08544364,0.00000000,0.00000000
-0.90955818,-1.09877908,0.11074924,0.27611503,-0.72152030,0.00000000,0.00000000,-0.42016098,0.97572207,0.09152726,-0.43249691,0.07740000,0.00000000,0.00000000
-0.89554477,-1.10114789,0.08634955,0.26387024,-0.73207366,0.00000000,0.00000000,-0.39336735,0.98056340,0.10732594,-0.42144087,0.07151654,0.00000000,0.00000000
-0.88005161,-1.10828424,0.05969496,0.24788512,-0.74609107,0.00000000,0.00000000,-0.36377934,0.99106181,0.12676489,-0.40667042,0.06523244,0.00000000,0.00000000
-0.86275971,-1.12164569,0.03082340,0.22740602,-0.76167732,0.00000000,0.00000000,-0.33115506,1.00933027,0.15026487,-0.38702703,0.05209032,0.00000000,0.00000000
-0.84339386,-1.14264083,-0.00010170,0.20188271,-0.78262061,0.00000000,0.00000000,-0.29533222,1.03729463,0.17821598,-0.36150634,0.04290452,0.00000000,0.00000000
-0.82171887,-1.17229772,-0.03278383,0.17103811,-0.80174059,0.00000000,0.00000000,-0.25647306,1.07584918,0.21084633,-0.32945427,0.03619364,0.00000000,0.00000000
-0.79749537,-1.21074939,-0.06681142,0.13497297,-0.82900155,0.00000000,0.00000000,-0.21536042,1.12437451,0.24812241,-0.29066581,0.02915997,0.00000000,0.00000000
-0.77041632,-1.25695002,-0.10170450,0.09432597,-0.85420215,0.00000000,0.00000000,-0.17349109,1.18141377,0.28975043,-0.24540636,0.02473179,0.00000000,0.00000000
-0.74020702,-1.30915475,-0.13693990,0.05008155,-0.88694984,0.00000000,0.00000000,-0.13285552,1.24534130,0.33522514,-0.19435242,0.01446271,0.00000000,0.00000000
-0.70687240,-1.36548352,-0.17198887,0.00329588,-0.91981167,0.00000000,0.00000000,-0.09559231,1.31474662,0.38386962,-0.13849300,0.00579433,0.00000000,0.00000000
-0.67096210,-1.42419732,-0.20638287,-0.04505353,-0.95216733,0.00000000,0.00000000,-0.06366182,1.38860559,0.43487135,-0.07898216,0.00076413,0.00000000,0.00000000
-0.63357246,-1.48383009,-0.23978017,-0.09417340,-0.97913027,0.00000000,0.00000000,-0.03873846,1.46607983,0.48733532,-0.01696995,-0.00750368,0.00000000,0.00000000
-0.59606785,-1.54359066,-0.27197468,-0.14366533,-0.99780166,0.00000000,0.00000000,-0.02202445,1.54639351,0.54035825,0.04644829,-0.01679050,0.00000000,0.00000000
-0.55969763,-1.60335159,-0.30284396,-0.19345118,-1.01198268,0.00000000,0.00000000,-0.01398403,1.62862289,0.59311366,0.11017179,-0.02736597,0.00000000,0.00000000
-0.52562946,-1.66303432,-0.33232531,-0.24332187,-1.01890945,0.00000000,0.00000000,-0.01431056,1.71113980,0.64495212,0.17281955,-0.03698250,0.00000000,0.00000000
-0.49506369,-1.72226000,-0.36042234,-0.29270843,-1.02587581,0.00000000,0.00000000,-0.02215994,1.79113734,0.69550979,0.23251244,-0.04709095,0.00000000,0.00000000
-0.46910387,-1.78037214,-0.38719800,-0.34081540,-1.03734422,0.00000000,0.00000000,-0.03628046,1.86474776,0.74480021,0.28707653,-0.06480819,0.00000000,0.00000000
-0.44867250,-1.83644783,-0.41276953,-0.38679680,-1.05645609,0.00000000,0.00000000,-0.05521881,1.92802083,0.79317117,0.33466303,-0.08392367,0.00000000,0.00000000
-0.43409324,-1.88986015,-0.43717700,-0.43008605,-1.07182956,0.00000000,0.00000000,-0.07784677,1.97838199,0.84103489,0.37432766,-0.10983547,0.00000000,0.00000000
-0.42495355,-1.94065952,-0.46028873,-0.47055185,-1.08203745,0.00000000,0.00000000,-0.10354168,2.01517892,0.88862967,0.40605140,-0.13348150,0.00000000,0.00000000
-0.42030078,-1.98930550,-0.48183671,-0.50829482,-1.08810914,0.00000000,0.00000000,-0.13179524,2.03924632,0.93598956,0.43045682,-0.15656623,0.00000000,0.00000000
-0.41941369,-2.03589630,-0.50170368,-0.54330748,-1.08539426,0.00000000,0.00000000,-0.16156338,2.05247831,0.98300964,0.44876695,-0.17859231,0.00000000,0.00000000
-0.42255026,-2.07889414,-0.52034461,-0.57496494,-1.08493900,0.00000000,0.00000000,-0.19106671,2.05741644,1.02950132,0.46274185,-0.20088592,0.00000000,0.00000000
-0.42958060,-2.11466956,-0.53852189,-0.60184044,-1.08153152,0.00000000,0.00000000,-0.21854299,2.05649567,1.07522094,0.47410658,-0.22145614,0.00000000,0.00000000
-0.43898144,-2.14107466,-0.55641031,-0.62368977,-1.07996380,0.00000000,0.00000000,-0.24283522,2.05148768,1.11992300,0.48406556,-0.24022324,0.00000000,0.00000000
-0.44966814,-2.15867186,-0.57379824,-0.64150876,-1.07841682,0.00000000,0.00000000,-0.26332295,2.04373670,1.16333377,0.49341470,-0.25776386,0.00000000,0.00000000
-0.45970824,-2.16766143,-0.59026420,-0.65461427,-1.08355153,0.00000000,0.00000000,-0.27996096,2.03450370,1.20508730,0.50269103,-0.27891904,0.00000000,0.00000000
-0.46535519,-2.16986585,-0.60514522,-0.66030926,-1.09059465,0.00000000,0.00000000,-0.29325220,2.02508903,1.24471772,0.51226562,-0.29506794,0.00000000,0.00000000
-0.46518737,-2.17000008,-0.61849207,-0.65687960,-1.09633374,0.00000000,0.00000000,-0.30391556,2.01659846,1.28177643,0.52239007,-0.31034195,0.00000000,0.00000000
-0.46001324,-2.17000008,-0.63065827,-0.64468718,-1.10134029,0.00000000,0.00000000,-0.31260759,2.01005936,1.31583953,0.53336537,-0.32695094,0.00000000,0.00000000
-0.44828320,-2.17000008,-0.64176488,-0.62281841,-1.10637510,0.00000000,0.00000000,-0.31965679,2.00642443,1.34653640,0.54566157,-0.34415302,0.00000000,0.00000000
-0.42671806,-2.17000008,-0.65072811,-0.59159464,-1.10764802,0.00000000,0.00000000,-0.32533908,2.00620842,1.37364888,0.55964363,-0.35993439,0.00000000,0.00000000
-0.39680380,-2.17000008,-0.65716082,-0.55550623,-1.10618806,0.00000000,0.00000000,-0.32928500,2.00920367,1.39724195,0.57583511,-0.37202978,0.00000000,0.00000000
-0.35909906,-2.16991830,-0.66079509,-0.51823658,-1.10858905,0.00000000,0.00000000,-0.33061925,2.01411748,1.41774261,0.59465605,-0.37636736,0.00000000,0.00000000
-0.31423992,-2.16859889,-0.66190410,-0.48125929,-1.10761571,0.00000000,0.00000000,-0.32791463,2.01945567,1.43561852,0.61666703,-0.38092375,0.00000000,0.00000000
-0.26372176,-2.16350675,-0.66101414,-0.44447500,-1.10676289,0.00000000,0.00000000,-0.31900939,2.02481413,1.45092463,0.64304101,-0.39159045,0.00000000,0.00000000
-0.21502389,-2.15493751,-0.65970689,-0.40953165,-1.10309100,0.00000000,0.00000000,-0.30239305,2.02947378,1.46373081,0.67412943,-0.39628503,0.00000000,0.00000000
-0.17163803,-2.14554572,-0.65833837,-0.37827155,-1.09787655,0.00000000,0.00000000,-0.27890778,2.03322983,1.47376144,0.70861346,-0.40536821,0.00000000,0.00000000
-0.13111939,-2.13782430,-0.65605533,-0.35079312,-1.09025514,0.00000000,0.00000000,-0.25088367,2.03591800,1.48070145,0.74416441,-0.41456506,0.00000000,0.00000000
-0.09135013,-2.13334465,-0.65224510,-0.32686600,-1.08226430,0.00000000,0.00000000,-0.22080916,2.03684521,1.48456073,0.77833498,-0.42470589,0.00000000,0.00000000
-0.05195262,-2.13282013,-0.64677346,-0.30652145,-1.07112849,0.00000000,0.00000000,-0.19104788,2.03521895,1.48553860,0.80893451,-0.44020927,0.00000000,0.00000000
-0.01335763,-2.13608336,-0.63977665,-0.28973529,-1.06502199,0.00000000,0.00000000,-0.16382003,2.03059745,1.48384690,0.83424622,-0.45471823,0.00000000,0.00000000
0.02322243,-2.14227319,-0.63158154,-0.27643272,-1.06101620,0.00000000,0.00000000,-0.14046846,2.02347732,1.47952545,0.85373336,-0.47078019,0.00000000,0.00000000
0.05546624,-2.15001535,-0.62269026,-0.26659143,-1.06241918,0.00000000,0.00000000,-0.12079900,2.01570773,1.47229970,0.86854059,-0.48580751,0.00000000,0.00000000
0.08040609,-2.15777969,-0.61366558,-0.26021853,-1.06940305,0.00000000,0.00000000,-0.10258499,2.00988817,1.46173906,0.88164449,-0.50428915,0.00000000,0.00000000
0.09581918,-2.16445827,-0.60490423,-0.25728759,-1.07634199,0.00000000,0.00000000,-0.08338007,2.00898170,1.44707131,0.89627606,-0.52472627,0.00000000,0.00000000
0.10092332,-2.16873884,-0.59664512,-0.25717515,-1.08296382,0.00000000,0.00000000,-0.06289341,2.01462317,1.42780674,0.91272700,-0.53535622,0.00000000,0.00000000
0.09641832,-2.16992521,-0.58906579,-0.25809741,-1.08740890,0.00000000,0.00000000,-0.04191988,2.02534819,1.40495181,0.92803580,-0.54318684,0.00000000,0.00000000
0.08406048,-2.17000008,-0.58228773,-0.25752193,-1.09022343,0.00000000,0.00000000,-0.02157024,2.03919458,1.37980652,0.93849301,-0.54542822,0.00000000,0.00000000
0.06667072,-2.16999960,-0.57623351,-0.25296238,-1.09551954,0.00000000,0.00000000,-0.00269954,2.05479431,1.35332263,0.94151473,-0.54843646,0.00000000,0.00000000
0.04743334,-2.16984987,-0.57058012,-0.24319853,-1.10322094,0.00000000,0.00000000,0.01440354,2.07102990,1.32606149,0.93598145,-0.54875350,0.00000000,0.00000000
0.02864217,-2.16752529,-0.56498009,-0.22866876,-1.11930966,0.00000000,0.00000000,0.02997647,2.08663011,1.29806840,0.92198539,-0.55017483,0.00000000,0.00000000
0.01134840,-2.15887332,-0.55919832,-0.21087445,-1.13156319,0.00000000,0.00000000,0.04426664,2.10073638,1.26856923,0.90039486,-0.55168289,0.00000000,0.00000000
-0.00418014,-2.14472175,-0.55312657,-0.19166145,-1.14373147,0.00000000,0.00000000,0.05743282,2.11318135,1.23641312,0.87246817,-0.55572426,0.00000000,0.00000000
-0.01778636,-2.12848163,-0.54670328,-0.17288156,-1.15638459,0.00000000,0.00000000,0.07003603,2.12421083,1.20090055,0.83967501,-0.56110275,0.00000000,0.00000000
-0.02902894,-2.11331701,-0.53988010,-0.15600179,-1.16877770,0.00000000,0.00000000,0.08291580,2.13385081,1.16214752,0.80319428,-0.56396502,0.00000000,0.00000000
-0.03714465,-2.10195446,-0.53260499,-0.14220169,-1.17811418,0.00000000,0.00000000,0.09544047,2.14204597,1.12048078,0.76307029,-0.56884009,0.00000000,0.00000000
-0.04203739,-2.09601259,-0.52491581,-0.13252220,-1.18644631,0.00000000,0.00000000,0.10586600,2.14876986,1.07629633,0.71890038,-0.57903200,0.00000000,0.00000000
-0.04451261,-2.09598374,-0.51692563,-0.12777410,-1.19918501,0.00000000,0.00000000,0.11365858,2.15310144,1.03079069,0.67091483,-0.58329546,0.00000000,0.00000000
-0.04613772,-2.10182214,-0.50877321,-0.12866026,-1.21529984,0.00000000,0.00000000,0.11981817,2.15523076,0.98506314,0.62061298,-0.58357507,0.00000000,0.00000000
-0.04869658,-2.11251807,-0.50061232,-0.13536453,-1.23046386,0.00000000,0.00000000,0.12645522,2.15636277,0.93997371,0.57011527,-0.58629370,0.00000000,0.00000000
-0.05359708,-2.12607884,-0.49259484,-0.14741586,-1.24680340,0.00000000,0.00000000,0.13546166,2.15561390,0.89665729,0.52096301,-0.59075564,0.00000000,0.00000000
-0.06159422,-2.14043903,-0.48483858,-0.16415100,-1.26066518,0.00000000,0.00000000,0.14773716,2.15157843,0.85590416,0.47534263,-0.59452951,0.00000000,0.00000000
-0.07244045,-2.15317988,-0.47741932,-0.18443874,-1.27130651,0.00000000,0.00000000,0.16133378,2.14953566,0.81621873,0.43636921,-0.60299617,0.00000000,0.00000000
-0.08614779,-2.16292191,-0.47040540,-0.20762889,-1.28328097,0.00000000,0.00000000,0.17319818,2.14982200,0.77698094,0.40318018,-0.61353302,0.00000000,0.00000000
-0.10324136,-2.16846943,-0.46394557,-0.23282862,-1.29445136,0.00000000,0.00000000,0.18174779,2.15175939,0.73803121,0.37451321,-0.61526418,0.00000000,0.00000000
-0.12343323,-2.16991091,-0.45818165,-0.25804445,-1.30691588,0.00000000,0.00000000,0.18714336,2.15421629,0.69950402,0.34949893,-0.62046176,0.00000000,0.00000000
-0.14648558,-2.17000008,-0.45332101,-0.28096265,-1.32284188,0.00000000,0.00000000,0.18971696,2.15643239,0.66150695,0.32757780,-0.62103629,0.00000000,0.00000000
-0.17284609,-2.17000008,-0.44968289,-0.29940465,-1.33300257,0.00000000,0.00000000,0.18962449,2.15862775,0.62399822,0.30876386,-0.61993748,0.00000000,0.00000000
-0.20215912,-2.17000008,-0.44748762,-0.31063265,-1.34522223,0.00000000,0.00000000,0.18686642,2.16068459,0.58699554,0.29311469,-0.62166560,0.00000000,0.00000000
-0.23256762,-2.16996861,-0.44652852,-0.31274179,-1.35839748,0.00000000,0.00000000,0.18072455,2.16186428,0.55051196,0.28033864,-0.62385714,0.00000000,0.00000000
-0.26158303,-2.16945481,-0.44591379,-0.30811962,-1.36680961,0.00000000,0.00000000,0.17051968,2.16210175,0.51451886,0.27056739,-0.63050514,0.00000000,0.00000000
-0.28711551,-2.16738486,-0.44466168,-0.30098715,-1.38054335,0.00000000,0.00000000,0.15696792,2.16247630,0.47911102,0.26492700,-0.63767308,0.00000000,0.00000000
-0.30764741,-2.16380167,-0.44204336,-0.29447660,-1.39413118,0.00000000,0.00000000,0.14191757,2.16397858,0.44459838,0.26469240,-0.64679402,0.00000000,0.00000000
-0.32120302,-2.16032624,-0.43745288,-0.28995234,-1.40806603,0.00000000,0.00000000,0.12825029,2.16664410,0.41157472,0.27061594,-0.65516382,0.00000000,0.00000000
-0.32577908,-2.15861559,-0.43038189,-0.28801444,-1.42325151,0.00000000,0.00000000,0.11925912,2.16915011,0.38083342,0.28249055,-0.66010046,0.00000000,0.00000000
-0.31970599,-2.15931535,-0.42044559,-0.28860408,-1.43949676,0.00000000,0.00000000,0.11772713,2.16994810,0.35323563,0.29875880,-0.67041975,0.00000000,0.00000000
-0.30275369,-2.16249585,-0.40755850,-0.29087466,-1.45119488,0.00000000,0.00000000,0.12595259,2.17000008,0.32967687,0.31672984,-0.67832643,0.00000000,0.00000000
-0.27614129,-2.16673136,-0.39213377,-0.29171374,-1.46227765,0.00000000,0.00000000,0.14483134,2.17000008,0.31079215,0.33327141,-0.69116461,0.00000000,0.00000000
-0.24092613,-2.16932631,-0.37489092,-0.28588250,-1.47503281,0.00000000,0.00000000,0.17277487,2.17000008,0.29661721,0.34537748,-0.70427835,0.00000000,0.00000000
-0.19942774,-2.16996193,-0.35669190,-0.27090749,-1.48844743,0.00000000,0.00000000,0.20655453,2.17000008,0.28660902,0.35098499,-0.72156435,0.00000000,0.00000000
-0.15423337,-2.17000008,-0.33814877,-0.24812049,-1.49820459,0.00000000,0.00000000,0.24352148,2.17000008,0.28005600,0.34946924,-0.73488259,0.00000000,0.00000000
-0.10990559,-2.16996479,-0.32009524,-0.21963175,-1.51340342,0.00000000,0.00000000,0.28261438,2.16999912,0.27635530,0.34161854,-0.75044346,0.00000000,0.00000000
-0.06842827,-2.16947389,-0.30279052,-0.18888220,-1.53393090,0.00000000,0.00000000,0.32365051,2.16994858,0.27494064,0.32963243,-0.75959802,0.00000000,0.00000000
-0.02995397,-2.16848731,-0.28614554,-0.15996321,-1.55499601,0.00000000,0.00000000,0.36615992,2.16932034,0.27513665,0.31673151,-0.76836735,0.00000000,0.00000000
0.00161970,-2.16865015,-0.27048859,-0.13596013,-1.57138205,0.00000000,0.00000000,0.40865341,2.16752577,0.27613476,0.30609909,-0.78084165,0.00000000,0.00000000
0.02149494,-2.16893387,-0.25622323,-0.11779913,-1.58802414,0.00000000,0.00000000,0.44918349,2.16598177,0.27725548,0.29936549,-0.79626077,0.00000000,0.00000000
0.02908274,-2.16859937,-0.24332373,-0.10550386,-1.60279393,0.00000000,0.00000000,0.48590896,2.16568637,0.27800250,0.29697880,-0.80968970,0.00000000,0.00000000
0.02530084,-2.16776681,-0.23166297,-0.09876323,-1.60858452,0.00000000,0.00000000,0.51727045,2.16664553,0.27801308,0.29892600,-0.82560503,0.00000000,0.00000000
0.01080239,-2.16556430,-0.22120441,-0.09637202,-1.60899079,0.00000000,0.00000000,0.54228032,2.16825438,0.27707481,0.30489671,-0.84586465,0.00000000,0.00000000
-0.01304716,-2.16356802,-0.21188179,-0.09843781,-1.60888791,0.00000000,0.00000000,0.56039214,2.16957712,0.27509061,0.31427079,-0.86635762,0.00000000,0.00000000
-0.04355155,-2.16552544,-0.20354040,-0.10650475,-1.60521495,0.00000000,0.00000000,0.57147622,2.16997457,0.27208766,0.32591930,-0.88783938,0.00000000,0.00000000
-0.07942406,-2.16813517,-0.19619520,-0.11824808,-1.60448849,0.00000000,0.00000000,0.57554388,2.17000008,0.26815408,0.33833867,-0.91254926,0.00000000,0.00000000
-0.11853343,-2.16959095,-0.18977457,-0.13204099,-1.60282087,0.00000000,0.00000000,0.57244426,2.17000008,0.26333091,0.35018918,-0.93464482,0.00000000,0.00000000
-0.15920725,-2.16997623,-0.18419062,-0.14733738,-1.59963739,0.00000000,0.00000000,0.56195998,2.17000008,0.25760669,0.36051995,-0.95680404,0.00000000,0.00000000
-0.20071690,-2.17000008,-0.17940886,-0.16375276,-1.59587073,0.00000000,0.00000000,0.54403895,2.17000008,0.25098374,0.36863759,-0.98316836,0.00000000,0.00000000
-0.24259697,-2.17000008,-0.17540669,-0.18081449,-1.58789277,0.00000000,0.00000000,0.51902348,2.17000008,0.24355492,0.37391359,-1.00276959,0.00000000,0.00000000
-0.28454581,-2.17000008,-0.17215838,-0.19807465,-1.58452415,0.00000000,0.00000000,0.48773640,2.17000008,0.23552954,0.37575376,-1.02698457,0.00000000,0.00000000
-0.32642245,-2.17000008,-0.16962995,-0.21526253,-1.58370316,0.00000000,0.00000000,0.45131889,2.17000008,0.22720315,0.37360933,-1.04865146,0.00000000,0.00000000
-0.36798051,-2.17000008,-0.16774788,-0.23226489,-1.58195055,0.00000000,0.00000000,0.41094962,2.17000008,0.21889767,0.36700249,-1.06441176,0.00000000,0.00000000
-0.40863347,-2.17000008,-0.16637577,-0.24901374,-1.58001232,0.00000000,0.00000000,0.36766386,2.17000008,0.21089195,0.35567030,-1.07846177,0.00000000,0.00000000
-0.44744998,-2.17000008,-0.16532966,-0.26515424,-1.57934296,0.00000000,0.00000000,0.32276955,2.17000008,0.20345195,0.33980364,-1.08902502,0.00000000,0.00000000
-0.48349318,-2.17000008,-0.16443078,-0.27992466,-1.58047450,0.00000000,0.00000000,0.27866662,2.17000008,0.19696182,0.32023689,-1.09964263,0.00000000,0.00000000
-0.51618105,-2.17000008,-0.16353562,-0.29265133,-1.57752955,0.00000000,0.00000000,0.23844975,2.17000008,0.19187605,0.29816157,-1.11415744,0.00000000,0.00000000
-0.54496843,-2.17000008,-0.16246784,-0.30320174,-1.57444668,0.00000000,0.00000000,0.20437241,2.17000008,0.18848301,0.27463168,-1.12488019,0.00000000,0.00000000
-0.56885713,-2.17000008,-0.16095464,-0.31185150,-1.56802309,0.00000000,0.00000000,0.17704956,2.17000008,0.18676826,0.25061569,-1.13746178,0.00000000,0.00000000
-0.58661151,-2.17000008,-0.15868740,-0.31898263,-1.55691195,0.00000000,0.00000000,0.15592715,2.17000008,0.18649335,0.22747004,-1.14776528,0.00000000,0.00000000
-0.59721380,-2.17000008,-0.15541229,-0.32497120,-1.55200136,0.00000000,0.00000000,0.13998295,2.17000008,0.18732598,0.20698532,-1.16705894,0.00000000,0.00000000
-0.59990382,-2.17000008,-0.15093488,-0.33006385,-1.54494417,0.00000000,0.00000000,0.12878031,2.17000008,0.18905392,0.19009975,-1.18652964,0.00000000,0.00000000
-0.59429920,-2.17000008,-0.14513892,-0.33446810,-1.53790319,0.00000000,0.00000000,0.12261930,2.17000008,0.19160001,0.17700316,-1.20588315,0.00000000,0.00000000
-0.58045638,-2.17000008,-0.13799742,-0.33842149,-1.52473545,0.00000000,0.00000000,0.12218700,2.17000008,0.19496100,0.16759670,-1.22495079,0.00000000,0.00000000
-0.55883449,-2.17000008,-0.12957011,-0.34212849,-1.51237583,0.00000000,0.00000000,0.12821114,2.17000008,0.19916604,0.16162729,-1.24572337,0.00000000,0.00000000
-0.53033710,-2.17000008,-0.12002315,-0.34557167,-1.49526322,0.00000000,0.00000000,0.14094341,2.17000008,0.20421074,0.15871473,-1.26404703,0.00000000,0.00000000
-0.49620247,-2.17000008,-0.10961203,-0.34838271,-1.47689939,0.00000000,0.00000000,0.15997641,2.17000008,0.21002714,0.15841062,-1.27972615,0.00000000,0.00000000
-0.45782131,-2.17000008,-0.09863825,-0.34990236,-1.46210122,0.00000000,0.00000000,0.18468629,2.17000008,0.21652262,0.16023302,-1.29636335,0.00000000,0.00000000
-0.41661948,-2.17000008,-0.08742154,-0.34932023,-1.44942117,0.00000000,0.00000000,0.21456829,2.17000008,0.22361059,0.16369277,-1.30786693,0.00000000,0.00000000
-0.37375197,-2.17000008,-0.07623579,-0.34579977,-1.43559670,0.00000000,0.00000000,0.24920334,2.17000008,0.23120902,0.16838625,-1.31617403,0.00000000,0.00000000
-0.32971349,-2.17000008,-0.06522967,-0.33854696,-1.42094684,0.00000000,0.00000000,0.28797853,2.17000008,0.23921826,0.17410409,-1.32662678,0.00000000,0.00000000
-0.28452024,-2.17000008,-0.05446232,-0.32691300,-1.40597010,0.00000000,0.00000000,0.32982650,2.17000008,0.24749637,0.18076350,-1.33518004,0.00000000,0.00000000
-0.23860081,-2.17000008,-0.04406403,-0.31056869,-1.39643335,0.00000000,0.00000000,0.37315926,2.17000008,0.25585425,0.18828666,-1.34253287,0.00000000,0.00000000
-0.19393380,-2.17000008,-0.03441184,-0.28963074,-1.38998389,0.00000000,0.00000000,0.41616237,2.17000008,0.26409185,0.19641891,-1.34694541,0.00000000,0.00000000
-0.15374540,-2.17000008,-0.02602662,-0.26484665,-1.38627446,0.00000000,0.00000000,0.45771033,2.17000008,0.27209136,0.20469345,-1.35189450,0.00000000,0.00000000
-0.12070995,-2.16996765,-0.01926511,-0.23776323,-1.38000357,0.00000000,0.00000000,0.49754626,2.17000008,0.27980629,0.21285643,-1.35689330,0.00000000,0.00000000
-0.09563453,-2.16943717,-0.01413940,-0.21054864,-1.37428069,0.00000000,0.00000000,0.53526443,2.17000008,0.28714013,0.22100674,-1.36060786,0.00000000,0.00000000
-0.07807999,-2.16735220,-0.01044693,-0.18561721,-1.36874413,0.00000000,0.00000000,0.56980747,2.17000008,0.29390931,0.22931126,-1.36513340,0.00000000,0.00000000
-0.06677944,-2.16465020,-0.00790115,-0.16544518,-1.36729217,0.00000000,0.00000000,0.59973216,2.17000008,0.29988283,0.23781838,-1.36140263,0.00000000,0.00000000
-0.05914224,-2.16406369,-0.00613090,-0.15145466,-1.36618984,0.00000000,0.00000000,0.62359393,2.17000008,0.30481786,0.24654000,-1.36164749,0.00000000,0.00000000
-0.05526101,-2.16432071,-0.00508429,-0.14211529,-1.36395228,0.00000000,0.00000000,0.64019185,2.17000008,0.30849060,0.25545728,-1.36184502,0.00000000,0.00000000
-0.05652793,-2.16404176,-0.00485386,-0.13629116,-1.36433911,0.00000000,0.00000000,0.64856005,2.17000008,0.31069550,0.26454690,-1.36286068,0.00000000,0.00000000
-0.06353940,-2.16495442,-0.00548836,-0.13514549,-1.36268890,0.00000000,0.00000000,0.64792967,2.17000008,0.31125951,0.27368748,-1.36382544,0.00000000,0.00000000
-0.07746515,-2.16738653,-0.00711154,-0.13929009,-1.36344028,0.00000000,0.00000000,0.63798207,2.17000008,0.31012386,0.28239262,-1.36913693,0.00000000,0.00000000
-0.09813593,-2.16925931,-0.00974361,-0.14731207,-1.36390102,0.00000000,0.00000000,0.61900836,2.17000008,0.30736604,0.28998640,-1.36983478,0.00000000,0.00000000
-0.12443521,-2.16989899,-0.01332541,-0.15832284,-1.36489749,0.00000000,0.00000000,0.59175527,2.17000008,0.30315804,0.29592708,-1.37009537,0.00000000,0.00000000
-0.15520662,-2.16999555,-0.01777812,-0.17195514,-1.36867452,0.00000000,0.00000000,0.55740249,2.17000008,0.29777104,0.29980293,-1.36080945,0.00000000,0.00000000
-0.18926170,-2.17000008,-0.02299132,-0.18761672,-1.36722457,0.00000000,0.00000000,0.51760352,2.17000008,0.29158792,0.30123547,-1.35680461,0.00000000,0.00000000
-0.22563855,-2.17000008,-0.02884359,-0.20423341,-1.37004614,0.00000000,0.00000000,0.47424498,2.17000008,0.28505462,0.29983154,-1.35172415,0.00000000,0.00000000
-0.26384085,-2.17000008,-0.03523291,-0.22056323,-1.37436903,0.00000000,0.00000000,0.42886889,2.17000008,0.27856526,0.29516628,-1.34720254,0.00000000,0.00000000
-0.30379090,-2.17000008,-0.04208924,-0.23564576,-1.37509298,0.00000000,0.00000000,0.38224009,2.17000008,0.27237505,0.28681466,-1.33213317,0.00000000,0.00000000
-0.34512722,-2.17000008,-0.04929535,-0.24911386,-1.38226640,0.00000000,0.00000000,0.33448428,2.17000008,0.26661962,0.27437577,-1.31803763,0.00000000,0.00000000
-0.38679340,-2.17000008,-0.05663963,-0.26105571,-1.38438833,0.00000000,0.00000000,0.28575635,2.17000008,0.26139662,0.25763622,-1.30392885,0.00000000,0.00000000
-0.42772388,-2.17000008,-0.06392557,-0.27147427,-1.39686084,0.00000000,0.00000000,0.23740172,2.17000008,0.25686917,0.23719396,-1.28298378,0.00000000,0.00000000
-0.46730193,-2.17000008,-0.07104223,-0.27998936,-1.40843570,0.00000000,0.00000000,0.19272034,2.17000008,0.25335494,0.21455906,-1.26558948,0.00000000,0.00000000
-0.50525594,-2.17000008,-0.07793090,-0.28642514,-1.41982615,0.00000000,0.00000000,0.15498592,2.17000008,0.25109783,0.19156381,-1.24989676,0.00000000,0.00000000
-0.54079551,-2.17000008,-0.08444915,-0.29107961,-1.43275166,0.00000000,0.00000000,0.12489472,2.16999412,0.25000387,0.16995373,-1.23978543,0.00000000,0.00000000
-0.57244384,-2.17000008,-0.09035162,-0.29439607,-1.44187069,0.00000000,0.00000000,0.10118624,2.16991496,0.24977258,0.15124243,-1.23457050,0.00000000,0.00000000
-0.59851170,-2.17000008,-0.09535294,-0.29694557,-1.44435883,0.00000000,0.00000000,0.08294938,2.16979313,0.25017649,0.13678661,-1.23492754,0.00000000,0.00000000
-0.61750668,-2.17000008,-0.09917408,-0.29957375,-1.44974959,0.00000000,0.00000000,0.07111358,2.16991520,0.25118795,0.12790745,-1.23667336,0.00000000,0.00000000
-0.62826216,-2.17000008,-0.10156059,-0.30303684,-1.45523691,0.00000000,0.00000000,0.06798182,2.16999435,0.25295305,0.12460315,-1.23331010,0.00000000,0.00000000
-0.62992996,-2.17000008,-0.10229979,-0.30778983,-1.46373022,0.00000000,0.00000000,0.07508775,2.17000008,0.25559020,0.12610611,-1.23320210,0.00000000,0.00000000
-0.62214243,-2.17000008,-0.10125849,-0.31397006,-1.46870208,0.00000000,0.00000000,0.09224636,2.17000008,0.25910431,0.13171297,-1.22920299,0.00000000,0.00000000
-0.60524118,-2.17000008,-0.09842969,-0.32142171,-1.47161508,0.00000000,0.00000000,0.11819431,2.17000008,0.26344106,0.14073862,-1.22753632,0.00000000,0.00000000
-0.58027112,-2.17000008,-0.09395742,-0.32965463,-1.47317278,0.00000000,0.00000000,0.15125760,2.17000008,0.26852855,0.15229696,-1.22363245,0.00000000,0.00000000
-0.54868770,-2.17000008,-0.08810902,-0.33785498,-1.47089636,0.00000000,0.00000000,0.18976223,2.17000008,0.27429020,0.16534059,-1.21507025,0.00000000,0.00000000
-0.51208359,-2.17000008,-0.08123147,-0.34500641,-1.46913791,0.00000000,0.00000000,0.23240024,2.17000008,0.28065923,0.17888761,-1.20570230,0.00000000,0.00000000
-0.47199073,-2.17000008,-0.07370706,-0.35003158,-1.46593857,0.00000000,0.00000000,0.27829155,2.17000008,0.28757337,0.19217788,-1.19307244,0.00000000,0.00000000
-0.42957750,-2.17000008,-0.06587806,-0.35197473,-1.46429884,0.00000000,0.00000000,0.32667607,2.17000008,0.29493392,0.20481186,-1.18527162,0.00000000,0.00000000
-0.38548869,-2.17000008,-0.05798450,-0.35013729,-1.46717250,0.00000000,0.00000000,0.37654540,2.17000008,0.30256227,0.21681084,-1.18086123,0.00000000,0.00000000
-0.34024745,-2.17000008,-0.05021871,-0.34417012,-1.46874869,0.00000000,0.00000000,0.42643195,2.17000008,0.31018627,0.22844261,-1.17085731,0.00000000,0.00000000
-0.29499209,-2.17000008,-0.04286368,-0.33409175,-1.47228217,0.00000000,0.00000000,0.47449523,2.17000008,0.31748292,0.23979357,-1.16476011,0.00000000,0.00000000
-0.25176093,-2.17000008,-0.03633180,-0.32027373,-1.47787368,0.00000000,0.00000000,0.51878059,2.17000008,0.32413822,0.25045142,-1.16444492,0.00000000,0.00000000
-0.21315578,-2.17000008,-0.03108922,-0.30330426,-1.48615265,0.00000000,0.00000000,0.55767035,2.17000008,0.32988292,0.25977519,-1.15724266,0.00000000,0.00000000
-0.18118471,-2.17000008,-0.02745667,-0.28377515,-1.49226403,0.00000000,0.00000000,0.59009886,2.17000008,0.33448300,0.26741886,-1.15270889,0.00000000,0.00000000
-0.15654148,-2.17000008,-0.02549300,-0.26227435,-1.48769593,0.00000000,0.00000000,0.61507624,2.17000008,0.33768189,0.27338374,-1.15164781,0.00000000,0.00000000
-0.13909218,-2.16992474,-0.02508571,-0.23966645,-1.48385787,0.00000000,0.00000000,0.63139451,2.17000008,0.33918619,0.27779558,-1.14955032,0.00000000,0.00000000
-0.12826580,-2.16882896,-0.02601090,-0.21743105,-1.48180246,0.00000000,0.00000000,0.63788521,2.17000008,0.33873025,0.28077769,-1.14909112,0.00000000,0.00000000
-0.12207307,-2.16600108,-0.02781962,-0.19712912,-1.47593760,0.00000000,0.00000000,0.63397741,2.17000008,0.33620065,0.28229851,-1.15067089,0.00000000,0.00000000
-0.11738756,-2.16427851,-0.02995593,-0.17958255,-1.47425175,0.00000000,0.00000000,0.61973041,2.17000008,0.33163348,0.28230813,-1.15519536,0.00000000,0.00000000
-0.11395050,-2.16345143,-0.03230598,-0.16418630,-1.47407401,0.00000000,0.00000000,0.59563506,2.17000008,0.32514679,0.28104624,-1.16041887,0.00000000,0.00000000
-0.11210340,-2.16352582,-0.03488130,-0.15240216,-1.47154129,0.00000000,0.00000000,0.56255716,2.17000008,0.31695279,0.27885467,-1.16169596,0.00000000,0.00000000
-0.11383875,-2.16541195,-0.03786851,-0.14655586,-1.47310221,0.00000000,0.00000000,0.52195626,2.17000008,0.30740428,0.27598593,-1.16347671,0.00000000,0.00000000
-0.12059325,-2.16784620,-0.04141221,-0.14633554,-1.46695662,0.00000000,0.00000000,0.47619134,2.17000008,0.29698822,0.27282825,-1.17297900,0.00000000,0.00000000
-0.13347612,-2.16950655,-0.04563909,-0.15041421,-1.46133411,0.00000000,0.00000000,0.42818689,2.17000008,0.28623629,0.27014038,-1.17952192,0.00000000,0.00000000
-0.15334749,-2.16997099,-0.05064961,-0.15729704,-1.45920169,0.00000000,0.00000000,0.38045126,2.17000008,0.27563673,0.26844800,-1.17700112,0.00000000,0.00000000
-0.18019979,-2.17000008,-0.05643649,-0.16569631,-1.45533490,0.00000000,0.00000000,0.33466074,2.17000008,0.26561901,0.26759809,-1.17266548,0.00000000,0.00000000
-0.21348520,-2.17000008,-0.06291541,-0.17457937,-1.45419443,0.00000000,0.00000000,0.29170498,2.17000008,0.25653720,0.26691735,-1.16432250,0.00000000,0.00000000
-0.25253353,-2.17000008,-0.06997354,-0.18322451,-1.46107233,0.00000000,0.00000000,0.25185490,2.17000008,0.24865466,0.26556319,-1.15321720,0.00000000,0.00000000
-0.29637781,-2.17000008,-0.07745477,-0.19130325,-1.46999097,0.00000000,0.00000000,0.21489751,2.17000008,0.24213836,0.26276311,-1.14231014,0.00000000,0.00000000
-0.34342217,-2.17000008,-0.08512826,-0.19880296,-1.47010767,0.00000000,0.00000000,0.18025756,2.17000008,0.23705293,0.25799069,-1.13336504,0.00000000,0.00000000
-0.39139342,-2.17000008,-0.09269056,-0.20577422,-1.46889412,0.00000000,0.00000000,0.14756598,2.17000008,0.23340529,0.25141147,-1.12163818,0.00000000,0.00000000
-0.43775353,-2.17000008,-0.09981966,-0.21194774,-1.46833634,0.00000000,0.00000000,0.11826601,2.17000008,0.23133609,0.24462466,-1.10904336,0.00000000,0.00000000
-0.48051754,-2.17000008,-0.10626331,-0.21688497,-1.46882999,0.00000000,0.00000000,0.09576748,2.17000008,0.23122726,0.23868448,-1.09603024,0.00000000,0.00000000
-0.51835316,-2.17000008,-0.11183691,-0.22057201,-1.47088873,0.00000000,0.00000000,0.08133300,2.17000008,0.23320100,0.23148824,-1.08515167,0.00000000,0.00000000
-0.55003226,-2.17000008,-0.11636683,-0.22329831,-1.47390151,0.00000000,0.00000000,0.07372850,2.17000008,0.23677529,0.22476642,-1.07762039,0.00000000,0.00000000
-0.57451624,-2.17000008,-0.11970830,-0.22545452,-1.47485173,0.00000000,0.00000000,0.07137592,2.17000008,0.24149843,0.21931764,-1.06712103,0.00000000,0.00000000
-0.59106523,-2.17000008,-0.12176317,-0.22757719,-1.47297263,0.00000000,0.00000000,0.07327443,2.17000008,0.24708425,0.21500342,-1.05790174,0.00000000,0.00000000
-0.59915799,-2.17000008,-0.12246692,-0.23033729,-1.47061181,0.00000000,0.00000000,0.07908737,2.17000008,0.25335816,0.21231094,-1.04826212,0.00000000,0.00000000
-0.59841251,-2.17000008,-0.12178431,-0.23396839,-1.46875107,0.00000000,0.00000000,0.08817941,2.17000008,0.26023275,0.21055096,-1.03776145,0.00000000,0.00000000
-0.58862621,-2.17000008,-0.11971617,-0.23823792,-1.46521676,0.00000000,0.00000000,0.10184688,2.17000008,0.26782274,0.21095473,-1.02985394,0.00000000,0.00000000
-0.56988722,-2.17000008,-0.11630033,-0.24297144,-1.46132100,0.00000000,0.00000000,0.12181463,2.17000008,0.27629578,0.21373780,-1.01438510,0.00000000,0.00000000
-0.54296917,-2.17000008,-0.11166311,-0.24809986,-1.45361233,0.00000000,0.00000000,0.14692834,2.17000008,0.28548658,0.21793495,-0.99276674,0.00000000,0.00000000
-0.50949258,-2.17000008,-0.10605645,-0.25334263,-1.44229734,0.00000000,0.00000000,0.17501698,2.17000008,0.29506752,0.22319426,-0.97605276,0.00000000,0.00000000
-0.47177234,-2.17000008,-0.09984516,-0.25819191,-1.44048262,0.00000000,0.00000000,0.20446111,2.17000008,0.30475670,0.22939427,-0.95797288,0.00000000,0.00000000
-0.43222928,-2.17000008,-0.09342568,-0.26202667,-1.44772971,0.00000000,0.00000000,0.23420201,2.17000008,0.31432766,0.23637527,-0.93906838,0.00000000,0.00000000
-0.39285687,-2.17000008,-0.08714856,-0.26420262,-1.45380211,0.00000000,0.00000000,0.26321915,2.17000008,0.32352203,0.24403821,-0.92562693,0.00000000,0.00000000
-0.35498929,-2.17000008,-0.08127329,-0.26419905,-1.46578026,0.00000000,0.00000000,0.29025432,2.17000008,0.33200964,0.25230822,-0.90434825,0.00000000,0.00000000
-0.31904283,-2.17000008,-0.07591788,-0.26163691,-1.47571850,0.00000000,0.00000000,0.31393892,2.17000008,0.33944854,0.26082394,-0.88476861,0.00000000,0.00000000
-0.28460363,-2.17000008,-0.07106377,-0.25627813,-1.47436965,0.00000000,0.00000000,0.33287537,2.17000008,0.34552944,0.26887622,-0.86198074,0.00000000,0.00000000
-0.25100672,-2.17000008,-0.06663259,-0.24799643,-1.47431064,0.00000000,0.00000000,0.34579641,2.17000008,0.35002410,0.27546349,-0.84230351,0.00000000,0.00000000
-0.21825355,-2.17000008,-0.06260625,-0.23671117,-1.47464347,0.00000000,0.00000000,0.35198829,2.17000008,0.35289967,0.27912658,-0.82593793,0.00000000,0.00000000
-0.18830283,-2.17000008,-0.05919052,-0.22241440,-1.47283673,0.00000000,0.00000000,0.35230929,2.17000008,0.35448244,0.27823114,-0.80938476,0.00000000,0.00000000
-0.16430467,-2.17000008,-0.05668981,-0.20535924,-1.47298849,0.00000000,0.00000000,0.34937331,2.17000008,0.35540310,0.27169347,-0.79505295,0.00000000,0.00000000
-0.14771867,-2.17000008,-0.05513132,-0.18659002,-1.47671449,0.00000000,0.00000000,0.34586921,2.17000008,0.35622936,0.25936857,-0.78286797,0.00000000,0.00000000
-0.13791358,-2.17000008,-0.05427116,-0.16803755,-1.47961545,0.00000000,0.00000000,0.34325585,2.16997695,0.35722417,0.24206723,-0.77695036,0.00000000,0.00000000
-0.13400935,-2.17000008,-0.05387730,-0.15166734,-1.48337162,0.00000000,0.00000000,0.34170771,2.16957092,0.35835239,0.22149163,-0.77025616,0.00000000,0.00000000
-0.13586739,-2.17000008,-0.05385168,-0.13833438,-1.48486555,0.00000000,0.00000000,0.34054044,2.16764665,0.35941100,0.19982043,-0.76981914,0.00000000,0.00000000
-0.14383295,-2.17000008,-0.05419622,-0.12778242,-1.48716366,0.00000000,0.00000000,0.33868337,2.16389322,0.36017695,0.17919572,-0.77248269,0.00000000,0.00000000
-0.15811768,-2.16999984,-0.05492887,-0.11979706,-1.48409986,0.00000000,0.00000000,0.33513823,2.16054583,0.36049208,0.16151747,-0.77365333,0.00000000,0.00000000
-0.17818202,-2.16997433,-0.05601735,-0.11404095,-1.48602474,0.00000000,0.00000000,0.32912976,2.15931654,0.36029395,0.14788060,-0.77927125,0.00000000,0.00000000
-0.20311585,-2.16958046,-0.05741094,-0.10997006,-1.48996842,0.00000000,0.00000000,0.32015538,2.16046619,0.35959157,0.13859469,-0.78789073,0.00000000,0.00000000
-0.23196571,-2.16807580,-0.05905451,-0.10722579,-1.49763155,0.00000000,0.00000000,0.30811757,2.16364264,0.35844159,0.13362093,-0.80047613,0.00000000,0.00000000
-0.26348376,-2.16531992,-0.06086554,-0.10548066,-1.50669968,0.00000000,0.00000000,0.29346699,2.16738272,0.35696942,0.13230933,-0.81281507,0.00000000,0.00000000
-0.29616106,-2.16135406,-0.06273694,-0.10434668,-1.51917589,0.00000000,0.00000000,0.27715191,2.16948605,0.35535914,0.13330138,-0.82560873,0.00000000,0.00000000
-0.32878068,-2.15645766,-0.06457837,-0.10362048,-1.53479326,0.00000000,0.00000000,0.25996795,2.16997147,0.35375282,0.13545161,-0.83887130,0.00000000,0.00000000
-0.36042237,-2.15110517,-0.06631781,-0.10330277,-1.55207288,0.00000000,0.00000000,0.24257860,2.17000008,0.35223913,0.13815138,-0.85634565,0.00000000,0.00000000
-0.39018285,-2.14590168,-0.06788462,-0.10356277,-1.57190871,0.00000000,0.00000000,0.22553955,2.17000008,0.35085580,0.14121296,-0.87242430,0.00000000,0.00000000
-0.41708523,-2.14141369,-0.06920664,-0.10463117,-1.58904183,0.00000000,0.00000000,0.20911545,2.17000008,0.34959283,0.14442588,-0.89270312,0.00000000,0.00000000
-0.44039777,-2.13808537,-0.07022996,-0.10675985,-1.60447836,0.00000000,0.00000000,0.19395512,2.17000008,0.34846908,0.14744110,-0.91257775,0.00000000,0.00000000
-0.45996052,-2.13636518,-0.07093654,-0.11029011,-1.61772358,0.00000000,0.00000000,0.18219604,2.17000008,0.34763440,0.14981715,-0.93029672,0.00000000,0.00000000
-0.47614890,-2.13668871,-0.07134379,-0.11562640,-1.62871647,0.00000000,0.00000000,0.17407629,2.17000008,0.34706879,0.15064000,-0.95135999,0.00000000,0.00000000
-0.48963505,-2.13942790,-0.07149084,-0.12317859,-1.64287663,0.00000000,0.00000000,0.16817525,2.17000008,0.34663162,0.14843711,-0.97640693,0.00000000,0.00000000
-0.50104213,-2.14441800,-0.07141984,-0.13308795,-1.65511048,0.00000000,0.00000000,0.16372608,2.17000008,0.34620756,0.14286694,-0.99735302,0.00000000,0.00000000
-0.51072705,-2.15089536,-0.07116033,-0.14522725,-1.65965557,0.00000000,0.00000000,0.16147456,2.17000008,0.34580448,0.13463694,-1.01785553,0.00000000,0.00000000
-0.51869965,-2.15777707,-0.07071808,-0.15935329,-1.66537368,0.00000000,0.00000000,0.16302608,2.17000008,0.34545675,0.12591666,-1.03706431,0.00000000,0.00000000
-0.52466601,-2.16393471,-0.07006884,-0.17525294,-1.67344093,0.00000000,0.00000000,0.16880517,2.17000008,0.34508038,0.11956980,-1.05748463,0.00000000,0.00000000
-0.52822590,-2.16813517,-0.06916620,-0.19273280,-1.67635047,0.00000000,0.00000000,0.17676917,2.17000008,0.34448338,0.11687329,-1.07999587,0.00000000,0.00000000
-0.52896553,-2.16972280,-0.06794773,-0.21140064,-1.68791187,0.00000000,0.00000000,0.18670210,2.17000008,0.34369007,0.11780027,-1.10612571,0.00000000,0.00000000
-0.52656561,-2.16998672,-0.06634848,-0.23054297,-1.70518351,0.00000000,0.00000000,0.19906481,2.17000008,0.34281081,0.12157390,-1.13519216,0.00000000,0.00000000
-0.52083135,-2.17000008,-0.06430411,-0.24932683,-1.72280037,0.00000000,0.00000000,0.21398321,2.17000008,0.34194180,0.12709928,-1.16380274,0.00000000,0.00000000
-0.51160502,-2.17000008,-0.06174589,-0.26694351,-1.73949313,0.00000000,0.00000000,0.23147029,2.17000008,0.34116405,0.13339473,-1.18853676,0.00000000,0.00000000
-0.49883682,-2.17000008,-0.05862295,-0.28252482,-1.75741875,0.00000000,0.00000000,0.25134626,2.17000008,0.34053063,0.13972169,-1.21371233,0.00000000,0.00000000
-0.48244873,-2.17000008,-0.05488900,-0.29520631,-1.77553833,0.00000000,0.00000000,0.27332005,2.17000008,0.34006676,0.14562494,-1.23332262,0.00000000,0.00000000
-0.46225938,-2.17000008,-0.05050426,-0.30421752,-1.79112720,0.00000000,0.00000000,0.29701823,2.17000008,0.33977017,0.15098847,-1.24639130,0.00000000,0.00000000
-0.43818015,-2.17000008,-0.04547840,-0.30894232,-1.80847466,0.00000000,0.00000000,0.32196653,2.17000008,0.33960715,0.15601434,-1.26181006,0.00000000,0.00000000
-0.41034335,-2.17000008,-0.03988800,-0.30897957,-1.82346499,0.00000000,0.00000000,0.34773815,2.17000008,0.33952677,0.16108558,-1.27672923,0.00000000,0.00000000
-0.37903434,-2.17000008,-0.03385715,-0.30413744,-1.84302735,0.00000000,0.00000000,0.37390938,2.17000008,0.33945915,0.16665541,-1.28705633,0.00000000,0.00000000
-0.34449735,-2.17000008,-0.02751263,-0.29440725,-1.86406565,0.00000000,0.00000000,0.39996582,2.17000008,0.33931622,0.17308933,-1.29609513,0.00000000,0.00000000
-0.30678603,-2.17000008,-0.02095115,-0.27990723,-1.88330197,0.00000000,0.00000000,0.42512867,2.17000008,0.33898917,0.18047573,-1.30261052,0.00000000,0.00000000
-0.26611015,-2.17000008,-0.01428431,-0.26093826,-1.90190411,0.00000000,0.00000000,0.44834793,2.17000008,0.33835083,0.18848753,-1.30672359,0.00000000,0.00000000
-0.22388628,-2.16994238,-0.00777402,-0.23816495,-1.92347419,0.00000000,0.00000000,0.46881554,2.17000008,0.33730370,0.19642489,-1.31007564,0.00000000,0.00000000
-0.18307184,-2.16905284,-0.00184827,-0.21309663,-1.93551493,0.00000000,0.00000000,0.48651934,2.17000008,0.33582595,0.20359819,-1.31765914,0.00000000,0.00000000
-0.14648029,-2.16596675,0.00314870,-0.18870579,-1.94701076,0.00000000,0.00000000,0.50206220,2.17000008,0.33394054,0.20970686,-1.32584763,0.00000000,0.00000000
-0.11602749,-2.16019726,0.00706557,-0.16725919,-1.95176363,0.00000000,0.00000000,0.51575500,2.17000008,0.33162260,0.21482266,-1.33488357,0.00000000,0.00000000
-0.09273154,-2.15088940,0.00990937,-0.14786473,-1.94947672,0.00000000,0.00000000,0.52711731,2.17000008,0.32876629,0.21912538,-1.34513378,0.00000000,0.00000000
-0.07379595,-2.14247823,0.01204262,-0.13253982,-1.94678688,0.00000000,0.00000000,0.53510684,2.17000008,0.32523292,0.22255385,-1.35405052,0.00000000,0.00000000
-0.05812127,-2.13678169,0.01361646,-0.12225958,-1.94371986,0.00000000,0.00000000,0.53864920,2.17000008,0.32089609,0.22491285,-1.36123657,0.00000000,0.00000000
-0.04583643,-2.13373280,0.01464519,-0.11694345,-1.94598544,0.00000000,0.00000000,0.53688627,2.17000008,0.31566128,0.22613269,-1.36364782,0.00000000,0.00000000
-0.03752810,-2.13349319,0.01509302,-0.11653532,-1.95104897,0.00000000,0.00000000,0.52932101,2.17000008,0.30948132,0.22639169,-1.36605501,0.00000000,0.00000000
-0.03443091,-2.13641477,0.01485253,-0.12093924,-1.95677161,0.00000000,0.00000000,0.51584697,2.17000008,0.30234641,0.22615767,-1.36814821,0.00000000,0.00000000
-0.03855688,-2.14225888,0.01372409,-0.12954777,-1.96091771,0.00000000,0.00000000,0.49656507,2.17000008,0.29425374,0.22627218,-1.36956406,0.00000000,0.00000000
-0.05226335,-2.14936972,0.01144606,-0.14110598,-1.96130693,0.00000000,0.00000000,0.47188976,2.17000008,0.28524408,0.22761138,-1.36730754,0.00000000,0.00000000
-0.07496416,-2.15816545,0.00797971,-0.15623251,-1.96296906,0.00000000,0.00000000,0.44299167,2.17000008,0.27550271,0.23037948,-1.36723125,0.00000000,0.00000000
-0.10568365,-2.16561580,0.00335382,-0.17318404,-1.96387386,0.00000000,0.00000000,0.41139436,2.17000008,0.26527634,0.23463862,-1.36733758,0.00000000,0.00000000
-0.14358653,-2.16917753,-0.00236781,-0.18987533,-1.96186900,0.00000000,0.00000000,0.37832898,2.17000008,0.25481638,0.24022600,-1.36504447,0.00000000,0.00000000
-0.18732518,-2.16995478,-0.00902529,-0.20501576,-1.96260798,0.00000000,0.00000000,0.34459144,2.17000008,0.24439190,0.24638535,-1.36113036,0.00000000,0.00000000
-0.23532121,-2.17000008,-0.01639355,-0.21800670,-1.97255051,0.00000000,0.00000000,0.31067717,2.17000008,0.23428540,0.25183704,-1.36033165,0.00000000,0.00000000
-0.28616816,-2.17000008,-0.02424395,-0.22870967,-1.97792816,0.00000000,0.00000000,0.27674755,2.17000008,0.22474197,0.25517306,-1.34975672,0.00000000,0.00000000
-0.33846018,-2.17000008,-0.03233132,-0.23727924,-1.98264778,0.00000000,0.00000000,0.24252692,2.17000008,0.21591291,0.25517389,-1.33236599,0.00000000,0.00000000
-0.39028183,-2.17000008,-0.04032628,-0.24410589,-1.98560321,0.00000000,0.00000000,0.20740792,2.17000008,0.20783924,0.25098085,-1.31395698,0.00000000,0.00000000
-0.43929353,-2.17000008,-0.04783297,-0.24962130,-1.99103069,0.00000000,0.00000000,0.17101988,2.17000008,0.20051733,0.24239670,-1.29857039,0.00000000,0.00000000
-0.48370647,-2.17000008,-0.05452931,-0.25421727,-2.00331616,0.00000000,0.00000000,0.13548990,2.17000008,0.19419551,0.23083265,-1.28165054,0.00000000,0.00000000
-0.52283746,-2.17000008,-0.06024403,-0.25835583,-2.01554322,0.00000000,0.00000000,0.10536003,2.17000008,0.18935312,0.21872213,-1.26454425,0.00000000,0.00000000
-0.55648667,-2.17000008,-0.06488836,-0.26238924,-2.02390051,0.00000000,0.00000000,0.08132285,2.17000008,0.18595248,0.20551534,-1.24450576,0.00000000,0.00000000
-0.58410704,-2.17000008,-0.06835113,-0.26634440,-2.02968311,0.00000000,0.00000000,0.06276081,2.17000008,0.18374641,0.19218445,-1.22426653,0.00000000,0.00000000
-0.60489601,-2.17000008,-0.07049908,-0.27023470,-2.03799534,0.00000000,0.00000000,0.04936203,2.17000008,0.18256697,0.17983700,-1.20513916,0.00000000,0.00000000
-0.61811692,-2.17000008,-0.07121462,-0.27422047,-2.04046059,0.00000000,0.00000000,0.04078680,2.17000008,0.18227632,0.16915016,-1.18594360,0.00000000,0.00000000
-0.62327045,-2.17000008,-0.07042375,-0.27855048,-2.04222679,0.00000000,0.00000000,0.03683889,2.17000008,0.18275583,0.16129366,-1.16531575,0.00000000,0.00000000
-0.62012726,-2.17000008,-0.06809437,-0.28344890,-2.04216409,0.00000000,0.00000000,0.03786070,2.16993260,0.18397686,0.15670498,-1.13965023,0.00000000,0.00000000
-0.60870224,-2.17000008,-0.06423596,-0.28918236,-2.04036999,0.00000000,0.00000000,0.04475874,2.16903114,0.18601693,0.15452331,-1.10831678,0.00000000,0.00000000
-0.58929789,-2.17000008,-0.05892054,-0.29591072,-2.03889632,0.00000000,0.00000000,0.05917292,2.16764307,0.18904696,0.15400791,-1.07990301,0.00000000,0.00000000
-0.56254548,-2.17000008,-0.05230539,-0.30320638,-2.04653335,0.00000000,0.00000000,0.08222841,2.16903114,0.19312373,0.15705408,-1.04741955,0.00000000,0.00000000
-0.52946693,-2.17000008,-0.04463731,-0.31011850,-2.05336618,0.00000000,0.00000000,0.11129558,2.16993284,0.19800757,0.16150382,-1.01257527,0.00000000,0.00000000
-0.49157917,-2.17000008,-0.03625125,-0.31569108,-2.06642532,0.00000000,0.00000000,0.14424580,2.17000008,0.20344609,0.16647056,-0.97886652,0.00000000,0.00000000
-0.45085371,-2.17000008,-0.02756833,-0.31897593,-2.08270955,0.00000000,0.00000000,0.18019319,2.17000008,0.20930073,0.17148201,-0.94495308,0.00000000,0.00000000
-0.40949172,-2.17000008,-0.01906533,-0.31894141,-2.09570980,0.00000000,0.00000000,0.21881126,2.17000008,0.21549439,0.17591575,-0.91501474,0.00000000,0.00000000
-0.36928621,-2.17000008,-0.01115503,-0.31460923,-2.10985255,0.00000000,0.00000000,0.25998640,2.17000008,0.22195716,0.17963749,-0.89034337,0.00000000,0.00000000
-0.33112574,-2.17000008,-0.00408366,-0.30525163,-2.11775970,0.00000000,0.00000000,0.30341974,2.17000008,0.22858799,0.18294986,-0.86757559,0.00000000,0.00000000
-0.29502732,-2.17000008,0.00207410,-0.29054704,-2.11967754,0.00000000,0.00000000,0.34828341,2.17000008,0.23521927,0.18645503,-0.84242970,0.00000000,0.00000000
-0.26035595,-2.17000008,0.00738586,-0.27051246,-2.12147593,0.00000000,0.00000000,0.39294782,2.17000008,0.24159594,0.19078650,-0.82454681,0.00000000,0.00000000
-0.22625101,-2.17000008,0.01199201,-0.24548480,-2.11807418,0.00000000,0.00000000,0.43520576,2.17000008,0.24741744,0.19619575,-0.80615318,0.00000000,0.00000000
-0.19298255,-2.16989779,0.01591191,-0.21635383,-2.11779737,0.00000000,0.00000000,0.47319302,2.17000008,0.25244886,0.20229174,-0.79485416,0.00000000,0.00000000
-0.16306327,-2.16830850,0.01892521,-0.18500924,-2.11450171,0.00000000,0.00000000,0.50622523,2.17000008,0.25659099,0.20854867,-0.78285360,0.00000000,0.00000000
-0.13892719,-2.16298008,0.02088426,-0.15464607,-2.11129117,0.00000000,0.00000000,0.53464192,2.17000008,0.25984117,0.21477738,-0.77241886,0.00000000,0.00000000
-0.12012076,-2.15650177,0.02197230,-0.12895651,-2.10950232,0.00000000,0.00000000,0.55840975,2.17000008,0.26215243,0.22092855,-0.76646793,0.00000000,0.00000000
-0.10561587,-2.15148473,0.02242851,-0.10950030,-2.10161948,0.00000000,0.00000000,0.57666802,2.17000008,0.26339322,0.22687729,-0.76069605,0.00000000,0.00000000
-0.09514136,-2.14693999,0.02240294,-0.09501108,-2.08347511,0.00000000,0.00000000,0.58829957,2.17000008,0.26340520,0.23250479,-0.74899119,0.00000000,0.00000000
-0.08573854,-2.14425993,0.02214396,-0.08593485,-2.06780791,0.00000000,0.00000000,0.59237701,2.17000008,0.26205423,0.23770875,-0.73972070,0.00000000,0.00000000
-0.07652592,-2.14496136,0.02171644,-0.08294043,-2.05262733,0.00000000,0.00000000,0.58833712,2.17000008,0.25925088,0.24241711,-0.73276085,0.00000000,0.00000000
-0.06904173,-2.14782643,0.02104179,-0.08502264,-2.03648853,0.00000000,0.00000000,0.57605249,2.17000008,0.25496635,0.24663419,-0.72125375,0.00000000,0.00000000
-0.06604447,-2.15055895,0.01996738,-0.09064189,-2.02046061,0.00000000,0.00000000,0.55585575,2.17000008,0.24924663,0.25042790,-0.71303928,0.00000000,0.00000000
-0.06776444,-2.15566778,0.01843263,-0.10140056,-1.99630904,0.00000000,0.00000000,0.52861679,2.17000008,0.24222045,0.25390708,-0.70299363,0.00000000,0.00000000
-0.07427052,-2.16236091,0.01637263,-0.11667373,-1.97350514,0.00000000,0.00000000,0.49573526,2.17000008,0.23409012,0.25735542,-0.69692117,0.00000000,0.00000000
-0.08653641,-2.16752052,0.01366573,-0.13439026,-1.94754386,0.00000000,0.00000000,0.45892248,2.17000008,0.22512935,0.26112381,-0.70128292,0.00000000,0.00000000
-0.10496156,-2.16960669,0.01022831,-0.15289837,-1.92066777,0.00000000,0.00000000,0.41994551,2.17000008,0.21568871,0.26527262,-0.70234960,0.00000000,0.00000000
-0.12923379,-2.16998053,0.00604641,-0.17083284,-1.89134896,0.00000000,0.00000000,0.38046187,2.17000008,0.20617855,0.26930943,-0.70462650,0.00000000,0.00000000
-0.15885915,-2.17000008,0.00114736,-0.18737169,-1.86596477,0.00000000,0.00000000,0.34174189,2.17000008,0.19699199,0.27238077,-0.70165992,0.00000000,0.00000000
-0.19326802,-2.17000008,-0.00441232,-0.20236111,-1.83878994,0.00000000,0.00000000,0.30446994,2.17000008,0.18843906,0.27352744,-0.69823766,0.00000000,0.00000000
-0.23196398,-2.17000008,-0.01057070,-0.21603303,-1.81564081,0.00000000,0.00000000,0.26863825,2.17000008,0.18069459,0.27198234,-0.70307958,0.00000000,0.00000000
-0.27432957,-2.17000008,-0.01723601,-0.22874218,-1.79335070,0.00000000,0.00000000,0.23371617,2.17000008,0.17380819,0.26727206,-0.71060413,0.00000000,0.00000000
-0.31924298,-2.17000008,-0.02423738,-0.24077547,-1.76931298,0.00000000,0.00000000,0.19881429,2.17000008,0.16771752,0.25924662,-0.71442807,0.00000000,0.00000000
-0.36489961,-2.17000008,-0.03130459,-0.25213015,-1.74131036,0.00000000,0.00000000,0.16337729,2.17000008,0.16234857,0.24816296,-0.71962833,0.00000000,0.00000000
-0.40930215,-2.17000008,-0.03813230,-0.26233894,-1.71341980,0.00000000,0.00000000,0.12866193,2.17000008,0.15782927,0.23484990,-0.72396588,0.00000000,0.00000000
-0.45112592,-2.17000008,-0.04449101,-0.27074689,-1.68063486,0.00000000,0.00000000,0.09755389,2.16999602,0.15446053,0.22066475,-0.72478676,0.00000000,0.00000000
-0.48981827,-2.17000008,-0.05024185,-0.27715138,-1.65472591,0.00000000,0.00000000,0.07220726,2.16994309,0.15239814,0.20749593,-0.72413981,0.00000000,0.00000000
-0.52462786,-2.17000008,-0.05521511,-0.28189966,-1.62781024,0.00000000,0.00000000,0.05381919,2.16985703,0.15165168,0.19686055,-0.71760988,0.00000000,0.00000000
-0.55431396,-2.17000008,-0.05918151,-0.28557456,-1.60039365,0.00000000,0.00000000,0.04239629,2.16988230,0.15213387,0.18756767,-0.70588499,0.00000000,0.00000000
-0.57756406,-2.17000008,-0.06191392,-0.28877610,-1.57820666,0.00000000,0.00000000,0.03552617,2.16984797,0.15348296,0.17899601,-0.69342786,0.00000000,0.00000000
-0.59326756,-2.17000008,-0.06322270,-0.29212344,-1.55512643,0.00000000,0.00000000,0.03302498,2.16993928,0.15558019,0.17282484,-0.68473101,0.00000000,0.00000000
-0.60070366,-2.17000008,-0.06297246,-0.29610062,-1.53229105,0.00000000,0.00000000,0.03679518,2.16999578,0.15860821,0.16865541,-0.66780788,0.00000000,0.00000000
-0.59958339,-2.17000008,-0.06109618,-0.30099389,-1.51822591,0.00000000,0.00000000,0.04966532,2.17000008,0.16285770,0.16600943,-0.65031749,0.00000000,0.00000000
-0.58999443,-2.17000008,-0.05760534,-0.30655825,-1.50486183,0.00000000,0.00000000,0.07201186,2.17000008,0.16833436,0.16558133,-0.62855816,0.00000000,0.00000000
-0.57246435,-2.17000008,-0.05259622,-0.31222311,-1.49816930,0.00000000,0.00000000,0.10236979,2.17000008,0.17487198,0.16604145,-0.60550827,0.00000000,0.00000000
-0.54808688,-2.17000008,-0.04626275,-0.31742212,-1.49356699,0.00000000,0.00000000,0.13932404,2.17000008,0.18228549,0.16645809,-0.58234930,0.00000000,0.00000000
-0.51840150,-2.17000008,-0.03888926,-0.32161129,-1.48795557,0.00000000,0.00000000,0.18151590,2.17000008,0.19037506,0.16669185,-0.55177045,0.00000000,0.00000000
-0.48505756,-2.17000008,-0.03080301,-0.32417661,-1.48699844,0.00000000,0.00000000,0.22755003,2.16999364,0.19892941,0.16670316,-0.52172893,0.00000000,0.00000000
-0.44943967,-2.17000008,-0.02230361,-0.32452890,-1.49051404,0.00000000,0.00000000,0.27622741,2.16987038,0.20775051,0.16668646,-0.49726987,0.00000000,0.00000000
-0.41238135,-2.17000008,-0.01360524,-0.32220545,-1.48945236,0.00000000,0.00000000,0.32639655,2.16913605,0.21664147,0.16708747,-0.47760338,0.00000000,0.00000000
-0.37407595,-2.17000008,-0.00481464,-0.31701112,-1.48702967,0.00000000,0.00000000,0.37666324,2.16742659,0.22537851,0.16852444,-0.45968130,0.00000000,0.00000000
-0.33444029,-2.17000008,0.00400855,-0.30906138,-1.48411882,0.00000000,0.00000000,0.42529628,2.16583562,0.23370591,0.17163759,-0.45028901,0.00000000,0.00000000
-0.29372117,-2.17000008,0.01275631,-0.29868761,-1.48019922,0.00000000,0.00000000,0.47039947,2.16556740,0.24136207,0.17684533,-0.44033426,0.00000000,0.00000000
-0.25321913,-2.17000008,0.02116775,-0.28630364,-1.48063052,0.00000000,0.00000000,0.51032972,2.16677356,0.24813265,0.18410698,-0.42889255,0.00000000,0.00000000
-0.21568099,-2.17000008,0.02878016,-0.27243701,-1.48214078,0.00000000,0.00000000,0.54426229,2.16851521,0.25390399,0.19295408,-0.41302285,0.00000000,0.00000000
-0.18407023,-2.17000008,0.03513879,-0.25774318,-1.48996174,0.00000000,0.00000000,0.57224035,2.16967392,0.25865448,0.20287509,-0.38847294,0.00000000,0.00000000
-0.15972042,-2.17000008,0.04006863,-0.24291089,-1.50423920,0.00000000,0.00000000,0.59433556,2.16998100,0.26236567,0.21353607,-0.36549008,0.00000000,0.00000000
-0.14221328,-2.17000008,0.04366197,-0.22869508,-1.51721120,0.00000000,0.00000000,0.61010551,2.17000008,0.26496002,0.22468905,-0.34306893,0.00000000,0.00000000
-0.13012727,-2.17000008,0.04615339,-0.21600930,-1.52235019,0.00000000,0.00000000,0.61881858,2.17000008,0.26632738,0.23602384,-0.32229185,0.00000000,0.00000000
-0.12217393,-2.17000008,0.04774576,-0.20584278,-1.52333140,0.00000000,0.00000000,0.61985254,2.17000008,0.26637009,0.24724214,-0.30482459,0.00000000,0.00000000
-0.11776161,-2.17000008,0.04853583,-0.19902450,-1.52796447,0.00000000,0.00000000,0.61281633,2.17000008,0.26501802,0.25810331,-0.28528154,0.00000000,0.00000000
-0.11712938,-2.17000008,0.04850548,-0.19600773,-1.53572357,0.00000000,0.00000000,0.59760016,2.17000008,0.26223943,0.26845679,-0.26514834,0.00000000,0.00000000
-0.12110772,-2.17000008,0.04755526,-0.19654401,-1.54274225,0.00000000,0.00000000,0.57457596,2.17000008,0.25807551,0.27828380,-0.24915694,0.00000000,0.00000000
-0.13036910,-2.17000008,0.04559822,-0.19966267,-1.54934907,0.00000000,0.00000000,0.54478329,2.17000008,0.25269023,0.28762212,-0.22602992,0.00000000,0.00000000
-0.14509058,-2.17000008,0.04260696,-0.20435658,-1.55391920,0.00000000,0.00000000,0.50994921,2.17000008,0.24638206,0.29652163,-0.20485185,0.00000000,0.00000000
-0.16525769,-2.17000008,0.03858960,-0.20961159,-1.55931270,0.00000000,0.00000000,0.47210366,2.17000008,0.23953483,0.30487972,-0.18989587,0.00000000,0.00000000
-0.19088139,-2.17000008,0.03356480,-0.21416186,-1.56370461,0.00000000,0.00000000,0.43303964,2.17000008,0.23255551,0.31222215,-0.18226911,0.00000000,0.00000000
-0.22180790,-2.17000008,0.02758521,-0.21681960,-1.57501256,0.00000000,0.00000000,0.39403266,2.17000008,0.22583178,0.31767020,-0.17999257,0.00000000,0.00000000
-0.25749004,-2.17000008,0.02077665,-0.21685593,-1.58688307,0.00000000,0.00000000,0.35587591,2.17000008,0.21970728,0.32009321,-0.18114379,0.00000000,0.00000000
-0.29696542,-2.17000008,0.01333972,-0.21408808,-1.59214544,0.00000000,0.00000000,0.31887472,2.17000008,0.21443246,0.31833053,-0.18130457,0.00000000,0.00000000
-0.33888441,-2.17000008,0.00552782,-0.20879048,-1.59669495,0.00000000,0.00000000,0.28286782,2.17000008,0.21013960,0.31144139,-0.18171993,0.00000000,0.00000000
-0.38144130,-2.17000008,-0.00236530,-0.20152068,-1.60545552,0.00000000,0.00000000,0.24753706,2.17000008,0.20687923,0.29887560,-0.17856573,0.00000000,0.00000000
-0.42245999,-2.17000008,-0.01003574,-0.19288012,-1.61032057,0.00000000,0.00000000,0.21312249,2.17000008,0.20471255,0.28072572,-0.17732497,0.00000000,0.00000000
-0.45995638,-2.16995239,-0.01723959,-0.18327603,-1.61305547,0.00000000,0.00000000,0.18133076,2.16992378,0.20381835,0.25816476,-0.17737231,0.00000000,0.00000000
-0.49282557,-2.16917539,-0.02386071,-0.17310064,-1.60654056,0.00000000,0.00000000,0.15494205,2.16876483,0.20441489,0.23323338,-0.18076517,0.00000000,0.00000000
-0.52053481,-2.16608024,-0.02986361,-0.16304342,-1.59721112,0.00000000,0.00000000,0.13525906,2.16516614,0.20637758,0.20872545,-0.18323745,0.00000000,0.00000000
-0.54254794,-2.16052055,-0.03522756,-0.15401401,-1.58540690,0.00000000,0.00000000,0.12068881,2.16118884,0.20909934,0.18799369,-0.18924710,0.00000000,0.00000000
-0.55826694,-2.15383911,-0.03993453,-0.14692312,-1.56648529,0.00000000,0.00000000,0.10839855,2.15752959,0.21198653,0.17092842,-0.19306563,0.00000000,0.00000000
-0.56718224,-2.14758253,-0.04397308,-0.14261998,-1.54049134,0.00000000,0.00000000,0.09660664,2.15312815,0.21472494,0.15618746,-0.19559313,0.00000000,0.00000000
-0.56880832,-2.14296293,-0.04732420,-0.14183106,-1.51999784,0.00000000,0.00000000,0.08493469,2.14796734,0.21720099,0.14355756,-0.19254138,0.00000000,0.00000000
-0.56273478,-2.14101219,-0.04995782,-0.14530303,-1.49928868,0.00000000,0.00000000,0.07442752,2.14325309,0.21946718,0.13382374,-0.18268894,0.00000000,0.00000000
-0.54901135,-2.14233685,-0.05185724,-0.15372859,-1.47516453,0.00000000,0.00000000,0.06699629,2.14180613,0.22166546,0.12906954,-0.17186396,0.00000000,0.00000000
-0.52861154,-2.14690733,-0.05305976,-0.16763450,-1.44583929,0.00000000,0.00000000,0.06471363,2.14438319,0.22399910,0.13040157,-0.15767434,0.00000000,0.00000000
-0.50329274,-2.15397453,-0.05367103,-0.18725576,-1.40688634,0.00000000,0.00000000,0.06885729,2.14909482,0.22663392,0.13699421,-0.15183952,0.00000000,0.00000000
-0.47501028,-2.16187263,-0.05384826,-0.21229756,-1.36637521,0.00000000,0.00000000,0.07931683,2.15461230,0.22960155,0.14804743,-0.14846928,0.00000000,0.00000000
-0.44571134,-2.16775298,-0.05380526,-0.24170628,-1.32997501,0.00000000,0.00000000,0.09466012,2.16011357,0.23279375,0.16292338,-0.15226673,0.00000000,0.00000000
-0.41719532,-2.16974735,-0.05379677,-0.27393636,-1.28920853,0.00000000,0.00000000,0.11292958,2.16503263,0.23601153,0.18110944,-0.15997830,0.00000000,0.00000000
-0.39084831,-2.16999054,-0.05407780,-0.30726290,-1.25026596,0.00000000,0.00000000,0.13242298,2.16854525,0.23904532,0.20200777,-0.16587599,0.00000000,0.00000000
-0.36777234,-2.17000008,-0.05492574,-0.33950424,-1.22093749,0.00000000,0.00000000,0.15169474,2.16981268,0.24171828,0.22420302,-0.17061602,0.00000000,0.00000000
-0.34877792,-2.17000008,-0.05662352,-0.36830041,-1.19899547,0.00000000,0.00000000,0.17013729,2.16999197,0.24399714,0.24557801,-0.17311573,0.00000000,0.00000000
-0.33413708,-2.17000008,-0.05937625,-0.39161053,-1.17788839,0.00000000,0.00000000,0.18809021,2.17000008,0.24601117,0.26421937,-0.17356679,0.00000000,0.00000000
-0.32338020,-2.17000008,-0.06322175,-0.40768296,-1.15946364,0.00000000,0.00000000,0.20546877,2.17000008,0.24782641,0.27891609,-0.17708661,0.00000000,0.00000000
-0.31545213,-2.17000008,-0.06799936,-0.41518995,-1.13743436,0.00000000,0.00000000,0.22204183,2.17000008,0.24950723,0.28870550,-0.18277739,0.00000000,0.00000000
-0.30911449,-2.17000008,-0.07339955,-0.41333491,-1.11023688,0.00000000,0.00000000,0.23847426,2.17000008,0.25134414,0.29251266,-0.18859628,0.00000000,0.00000000
-0.30333960,-2.17000008,-0.07906389,-0.40189582,-1.08243418,0.00000000,0.00000000,0.25499660,2.17000008,0.25356930,0.28989756,-0.19166663,0.00000000,0.00000000
-0.29832745,-2.17000008,-0.08487912,-0.38116044,-1.05425024,0.00000000,0.00000000,0.27066526,2.17000008,0.25614518,0.28120032,-0.18813530,0.00000000,0.00000000
-0.29549634,-2.16995478,-0.09098081,-0.35224429,-1.02419174,0.00000000,0.00000000,0.28546795,2.17000008,0.25912741,0.26720291,-0.17126118,0.00000000,0.00000000
-0.29570854,-2.16916084,-0.09734404,-0.31756967,-0.98942333,0.00000000,0.00000000,0.30027151,2.17000008,0.26260263,0.24959469,-0.15164335,0.00000000,0.00000000
-0.29891852,-2.16535711,-0.10377094,-0.28063619,-0.95563680,0.00000000,0.00000000,0.31527880,2.17000008,0.26640987,0.23063342,-0.12901835,0.00000000,0.00000000
-0.30462590,-2.15709352,-0.11005162,-0.24473263,-0.92560267,0.00000000,0.00000000,0.33013722,2.16996813,0.27027443,0.21194384,-0.10853638,0.00000000,0.00000000
-0.31194526,-2.14662814,-0.11600193,-0.21211904,-0.89346713,0.00000000,0.00000000,0.34457871,2.16948533,0.27400824,0.19429933,-0.08428031,0.00000000,0.00000000
-0.31973702,-2.13681698,-0.12147173,-0.18423967,-0.85667497,0.00000000,0.00000000,0.35734212,2.16799808,0.27734581,0.17867447,-0.07006897,0.00000000,0.00000000
-0.32696351,-2.12909484,-0.12638623,-0.16162221,-0.82059723,0.00000000,0.00000000,0.36636037,2.16657066,0.27998784,0.16602579,-0.04814903,0.00000000,0.00000000
-0.33283666,-2.12383223,-0.13073815,-0.14406332,-0.78294522,0.00000000,0.00000000,0.37038869,2.16611719,0.28180572,0.15673305,-0.02575428,0.00000000,0.00000000
-0.33682004,-2.12085009,-0.13455330,-0.13097101,-0.75614715,0.00000000,0.00000000,0.36902237,2.16660261,0.28278944,0.15082671,-0.00237636,0.00000000,0.00000000
-0.33876535,-2.11990714,-0.13788193,-0.12176661,-0.73337907,0.00000000,0.00000000,0.36225623,2.16772246,0.28296509,0.14837039,0.01837256,0.00000000,0.00000000
-0.33900237,-2.12068820,-0.14080364,-0.11593217,-0.71181631,0.00000000,0.00000000,0.35038441,2.16900873,0.28238577,0.14939138,0.03628933,0.00000000,0.00000000
-0.33781391,-2.12273002,-0.14339398,-0.11292116,-0.68811011,0.00000000,0.00000000,0.33408216,2.16979194,0.28115579,0.15342294,0.04805655,0.00000000,0.00000000
-0.33535480,-2.12560296,-0.14571543,-0.11232975,-0.67293602,0.00000000,0.00000000,0.31480989,2.16998816,0.27946955,0.15923342,0.06137983,0.00000000,0.00000000
-0.33190081,-2.12899709,-0.14783011,-0.11394602,-0.65660471,0.00000000,0.00000000,0.29416007,2.17000008,0.27752420,0.16568132,0.07059944,0.00000000,0.00000000
-0.32786331,-2.13275218,-0.14980379,-0.11775490,-0.64881784,0.00000000,0.00000000,0.27319306,2.17000008,0.27544212,0.17214260,0.07220984,0.00000000,0.00000000
-0.32400179,-2.13674188,-0.15172511,-0.12389419,-0.64554375,0.00000000,0.00000000,0.25082389,2.17000008,0.27313626,0.17698154,0.07446001,0.00000000,0.00000000
-0.32142308,-2.14125347,-0.15370102,-0.13283789,-0.64298111,0.00000000,0.00000000,0.22554569,2.17000008,0.27047607,0.17747663,0.07559259,0.00000000,0.00000000
-0.32116002,-2.14677215,-0.15583107,-0.14520405,-0.64492458,0.00000000,0.00000000,0.19979301,2.17000008,0.26762676,0.17348154,0.08547486,0.00000000,0.00000000
-0.32397676,-2.15329838,-0.15820225,-0.16132835,-0.64588630,0.00000000,0.00000000,0.17486967,2.17000008,0.26453894,0.16730677,0.09841049,0.00000000,0.00000000
-0.33027110,-2.16001010,-0.16088720,-0.18104786,-0.64072061,0.00000000,0.00000000,0.15122680,2.17000008,0.26113722,0.16039774,0.11536356,0.00000000,0.00000000
-0.34036848,-2.16566753,-0.16396381,-0.20391731,-0.63569188,0.00000000,0.00000000,0.12954290,2.17000008,0.25742254,0.15356967,0.13718772,0.00000000,0.00000000
-0.35462832,-2.16904831,-0.16752131,-0.22928843,-0.63240981,0.00000000,0.00000000,0.11022131,2.17000008,0.25339341,0.14759009,0.15502140,0.00000000,0.00000000
-0.37325954,-2.16994429,-0.17164205,-0.25609660,-0.62424093,0.00000000,0.00000000,0.09318470,2.17000008,0.24905181,0.14258662,0.16859445,0.00000000,0.00000000
-0.39608100,-2.17000008,-0.17634627,-0.28309956,-0.61217475,0.00000000,0.00000000,0.07802946,2.17000008,0.24440783,0.13846010,0.18219355,0.00000000,0.00000000
-0.42232880,-2.17000008,-0.18152589,-0.30923808,-0.59904569,0.00000000,0.00000000,0.06420688,2.17000008,0.23946881,0.13542451,0.19220836,0.00000000,0.00000000
-0.45083094,-2.17000008,-0.18694875,-0.33365619,-0.58521855,0.00000000,0.00000000,0.05129506,2.17000008,0.23425697,0.13394074,0.20398861,0.00000000,0.00000000
-0.47997642,-2.17000008,-0.19223528,-0.35576797,-0.58153403,0.00000000,0.00000000,0.03962030,2.17000008,0.22887944,0.13441126,0.21984211,0.00000000,0.00000000
-0.50775021,-2.17000008,-0.19686884,-0.37524608,-0.58401924,0.00000000,0.00000000,0.03021472,2.17000008,0.22352324,0.13713974,0.23334448,0.00000000,0.00000000
-0.53206748,-2.17000008,-0.20028557,-0.39205369,-0.59140503,0.00000000,0.00000000,0.02441338,2.17000008,0.21841359,0.14241879,0.24292471,0.00000000,0.00000000
-0.55115968,-2.17000008,-0.20198838,-0.40641785,-0.60791206,0.00000000,0.00000000,0.02352699,2.17000008,0.21378596,0.15053004,0.24799849,0.00000000,0.00000000
-0.56367391,-2.17000008,-0.20160635,-0.41867080,-0.62775463,0.00000000,0.00000000,0.02864448,2.17000008,0.20987988,0.16152440,0.24385834,0.00000000,0.00000000
-0.56866848,-2.17000008,-0.19891353,-0.42917213,-0.64688176,0.00000000,0.00000000,0.04107402,2.17000008,0.20699392,0.17497949,0.23793966,0.00000000,0.00000000
-0.56567883,-2.17000008,-0.19387598,-0.43800005,-0.66619480,0.00000000,0.00000000,0.06114207,2.17000008,0.20540205,0.18848073,0.22911684,0.00000000,0.00000000
-0.55484658,-2.17000008,-0.18672247,-0.44454217,-0.68733197,0.00000000,0.00000000,0.08650997,2.17000008,0.20509805,0.19847111,0.22206834,0.00000000,0.00000000
-0.53697824,-2.17000008,-0.17790681,-0.44789532,-0.71205443,0.00000000,0.00000000,0.11681180,2.17000008,0.20594631,0.20811930,0.21016553,0.00000000,0.00000000
-0.51326030,-2.17000008,-0.16796838,-0.44721919,-0.73929816,0.00000000,0.00000000,0.14950243,2.17000008,0.20758770,0.21711463,0.20003350,0.00000000,0.00000000
-0.48503065,-2.17000008,-0.15743764,-0.44191688,-0.77146846,0.00000000,0.00000000,0.18234009,2.17000008,0.20969908,0.22402048,0.18532763,0.00000000,0.00000000
-0.45374855,-2.17000008,-0.14680840,-0.43187067,-0.80875283,0.00000000,0.00000000,0.21470559,2.17000008,0.21210623,0.22855078,0.17325783,0.00000000,0.00000000
-0.42088142,-2.17000008,-0.13651879,-0.41740289,-0.84206057,0.00000000,0.00000000,0.24670434,2.17000008,0.21471269,0.23100923,0.16872889,0.00000000,0.00000000
-0.38731545,-2.17000008,-0.12683542,-0.39884129,-0.87444812,0.00000000,0.00000000,0.27834302,2.17000008,0.21740469,0.23191074,0.16190952,0.00000000,0.00000000
-0.35319567,-2.17000008,-0.11783153,-0.37629965,-0.90756649,0.00000000,0.00000000,0.30932721,2.17000008,0.22003415,0.23167571,0.15797447,0.00000000,0.00000000
-0.31814066,-2.17000008,-0.10945117,-0.34978202,-0.94553787,0.00000000,0.00000000,0.33922181,2.17000008,0.22245285,0.23059557,0.15610506,0.00000000,0.00000000
-0.28167483,-2.17000008,-0.10161506,-0.31933209,-0.97659910,0.00000000,0.00000000,0.36757430,2.17000008,0.22453511,0.22891396,0.15719998,0.00000000,0.00000000
-0.24356526,-2.17000008,-0.09428842,-0.28518128,-1.00326514,0.00000000,0.00000000,0.39384419,2.17000008,0.22616744,0.22684421,0.15768932,0.00000000,0.00000000
-0.20393074,-2.16987300,-0.08746128,-0.24808125,-1.02800381,0.00000000,0.00000000,0.41748354,2.16999960,0.22726288,0.22451627,0.15941802,0.00000000,0.00000000
-0.16436544,-2.16800976,-0.08126752,-0.20952089,-1.05347836,0.00000000,0.00000000,0.43817070,2.16998696,0.22777669,0.22209649,0.15763642,0.00000000,0.00000000
-0.12756459,-2.16295862,-0.07589471,-0.17269242,-1.08508384,0.00000000,0.00000000,0.45599177,2.16987252,0.22769827,0.22006735,0.15692271,0.00000000,0.00000000
-0.09487686,-2.15870023,-0.07129932,-0.14183939,-1.12459731,0.00000000,0.00000000,0.47153279,2.16968250,0.22705562,0.21935260,0.15476878,0.00000000,0.00000000
-0.06859455,-2.15441608,-0.06756386,-0.11620513,-1.16758978,0.00000000,0.00000000,0.48515984,2.16978741,0.22587165,0.22064513,0.15106101,0.00000000,0.00000000
-0.04879670,-2.15025043,-0.06455383,-0.09578183,-1.21355844,0.00000000,0.00000000,0.49648765,2.16995096,0.22411621,0.22398268,0.14304967,0.00000000,0.00000000
-0.03425290,-2.14746594,-0.06206732,-0.08148718,-1.26422846,0.00000000,0.00000000,0.50471878,2.16999722,0.22171639,0.22914597,0.13548882,0.00000000,0.00000000
-0.02430432,-2.14661217,-0.06001012,-0.07373036,-1.31376159,0.00000000,0.00000000,0.50909895,2.17000008,0.21859162,0.23591323,0.13030511,0.00000000,0.00000000
-0.01914731,-2.14799380,-0.05837977,-0.07260271,-1.36307466,0.00000000,0.00000000,0.50909376,2.17000008,0.21467531,0.24411856,0.13218659,0.00000000,0.00000000
-0.01989580,-2.15088773,-0.05725557,-0.07739884,-1.41151297,0.00000000,0.00000000,0.50444895,2.17000008,0.20992795,0.25367355,0.13321103,0.00000000,0.00000000
-0.02776876,-2.15520978,-0.05675627,-0.08778850,-1.45475888,0.00000000,0.00000000,0.49534038,2.17000008,0.20436823,0.26459646,0.13769259,0.00000000,0.00000000
-0.04265482,-2.16300011,-0.05695678,-0.10494362,-1.49632740,0.00000000,0.00000000,0.48231110,2.17000008,0.19810665,0.27659342,0.14357151,0.00000000,0.00000000
-0.06538034,-2.16852236,-0.05801727,-0.12522255,-1.53427505,0.00000000,0.00000000,0.46567562,2.17000008,0.19127932,0.28883481,0.15023632,0.00000000,0.00000000
-0.09446777,-2.16991568,-0.05993912,-0.14615470,-1.56901169,0.00000000,0.00000000,0.44546556,2.17000008,0.18399817,0.30045164,0.15939251,0.00000000,0.00000000
-0.12834182,-2.17000008,-0.06267411,-0.16644052,-1.60068035,0.00000000,0.00000000,0.42186737,2.17000008,0.17640758,0.31067267,0.17021008,0.00000000,0.00000000
-0.16606238,-2.17000008,-0.06616864,-0.18495069,-1.62428999,0.00000000,0.00000000,0.39547309,2.17000008,0.16873573,0.31877863,0.18156135,0.00000000,0.00000000
-0.20676076,-2.17000008,-0.07032263,-0.20097846,-1.64623559,0.00000000,0.00000000,0.36733827,2.17000008,0.16131875,0.32400060,0.19052945,0.00000000,0.00000000
-0.24978180,-2.17000008,-0.07501841,-0.21429101,-1.66935039,0.00000000,0.00000000,0.33879510,2.17000008,0.15455925,0.32557914,0.20462446,0.00000000,0.00000000
-0.29451963,-2.17000008,-0.08012215,-0.22510500,-1.68963051,0.00000000,0.00000000,0.31089854,2.17000008,0.14879796,0.32287338,0.21968850,0.00000000,0.00000000
-0.34017822,-2.17000008,-0.08547286,-0.23392379,-1.70597529,0.00000000,0.00000000,0.28401321,2.17000008,0.14420871,0.31550485,0.23243824,0.00000000,0.00000000
-0.38555670,-2.17000008,-0.09086456,-0.24133737,-1.72662342,0.00000000,0.00000000,0.25756654,2.17000008,0.14073583,0.30340841,0.24698490,0.00000000,0.00000000
-0.42893630,-2.17000008,-0.09603248,-0.24787271,-1.74733734,0.00000000,0.00000000,0.23016816,2.17000008,0.13811247,0.28694585,0.26005632,0.00000000,0.00000000
-0.46851709,-2.17000008,-0.10071559,-0.25373763,-1.76311958,0.00000000,0.00000000,0.20057566,2.17000008,0.13602811,0.26727918,0.27071720,0.00000000,0.00000000
-0.50324225,-2.17000008,-0.10476432,-0.25882962,-1.77342093,0.00000000,0.00000000,0.16982046,2.17000008,0.13447163,0.24687126,0.28473291,0.00000000,0.00000000
-0.53318316,-2.17000008,-0.10817691,-0.26318088,-1.78205931,0.00000000,0.00000000,0.14151692,2.16997242,0.13376649,0.22936657,0.28997886,0.00000000,0.00000000
-0.55869907,-2.17000008,-0.11098091,-0.26718256,-1.79100835,0.00000000,0.00000000,0.11820188,2.16959286,0.13411467,0.21600449,0.29917473,0.00000000,0.00000000
-0.57940614,-2.17000008,-0.11311070,-0.27126041,-1.79785180,0.00000000,0.00000000,0.09871556,2.16886520,0.13528028,0.20456110,0.30748451,0.00000000,0.00000000
-0.59432399,-2.17000008,-0.11442436,-0.27577466,-1.80963969,0.00000000,0.00000000,0.08128277,2.16918278,0.13688171,0.19742188,0.31869096,0.00000000,0.00000000
-0.60227072,-2.17000008,-0.11473969,-0.28085271,-1.82484126,0.00000000,0.00000000,0.06595359,2.16979933,0.13890240,0.19448121,0.32623267,0.00000000,0.00000000
-0.60229105,-2.17000008,-0.11389002,-0.28652060,-1.84138227,0.00000000,0.00000000,0.05404496,2.16998816,0.14154215,0.19410354,0.33875874,0.00000000,0.00000000
-0.59386498,-2.17000008,-0.11175588,-0.29285637,-1.85640836,0.00000000,0.00000000,0.04744991,2.17000008,0.14508972,0.19442940,0.34782568,0.00000000,0.00000000
-0.57691860,-2.17000008,-0.10827886,-0.29988068,-1.87355220,0.00000000,0.00000000,0.04827831,2.17000008,0.14988710,0.19372943,0.36588904,0.00000000,0.00000000
-0.55186486,-2.17000008,-0.10349904,-0.30722904,-1.88890839,0.00000000,0.00000000,0.05949788,2.17000008,0.15628751,0.19362567,0.37801668,0.00000000,0.00000000
-0.51961249,-2.17000008,-0.09757520,-0.31420517,-1.90238404,0.00000000,0.00000000,0.08051017,2.17000008,0.16421592,0.19392093,0.39239341,0.00000000,0.00000000
-0.48161972,-2.17000008,-0.09079586,-0.31996462,-1.91128433,0.00000000,0.00000000,0.10945843,2.17000008,0.17345445,0.19343936,0.40602031,0.00000000,0.00000000
-0.43997905,-2.17000008,-0.08359113,-0.32357827,-1.91931915,0.00000000,0.00000000,0.14483821,2.16999650,0.18377759,0.19146912,0.41798684,0.00000000,0.00000000
-0.39700538,-2.17000008,-0.07645069,-0.32410893,-1.91942036,0.00000000,0.00000000,0.18539634,2.16986179,0.19491306,0.18783593,0.42666775,0.00000000,0.00000000
-0.35473970,-2.17000008,-0.06982490,-0.32079941,-1.92229402,0.00000000,0.00000000,0.23024760,2.16839409,0.20658442,0.18289714,0.43685725,0.00000000,0.00000000
-0.31471425,-2.17000008,-0.06408229,-0.31317690,-1.92537904,0.00000000,0.00000000,0.27862060,2.16351676,0.21853381,0.17739898,0.44504073,0.00000000,0.00000000
-0.27762264,-2.17000008,-0.05943205,-0.30124572,-1.93122458,0.00000000,0.00000000,0.32929379,2.15632343,0.23048589,0.17233831,0.45141500,0.00000000,0.00000000
-0.24319436,-2.17000008,-0.05587644,-0.28535157,-1.94061935,0.00000000,0.00000000,0.38024360,2.14912200,0.24212323,0.16860802,0.45526177,0.00000000,0.00000000
-0.21059391,-2.17000008,-0.05328356,-0.26581028,-1.95255089,0.00000000,0.00000000,0.42886943,2.14348555,0.25312081,0.16662043,0.45828485,0.00000000,0.00000000
-0.17917287,-2.17000008,-0.05150504,-0.24296668,-1.96294188,0.00000000,0.00000000,0.47247210,2.13986301,0.26319358,0.16616216,0.46418029,0.00000000,0.00000000
-0.15114181,-2.17000008,-0.05072100,-0.21784221,-1.97753775,0.00000000,0.00000000,0.50904381,2.13773584,0.27214944,0.16661929,0.46532601,0.00000000,0.00000000
-0.12930767,-2.16998005,-0.05115351,-0.19183682,-1.99356234,0.00000000,0.00000000,0.53815258,2.13673711,0.27992374,0.16771376,0.47004342,0.00000000,0.00000000
-0.11072835,-2.16967893,-0.05229890,-0.16537130,-2.00831199,0.00000000,0.00000000,0.56026495,2.13737273,0.28650358,0.16979107,0.47559264,0.00000000,0.00000000
-0.09895227,-2.16874504,-0.05438361,-0.14124221,-2.02296019,0.00000000,0.00000000,0.57555693,2.13973498,0.29187068,0.17300151,0.48509866,0.00000000,0.00000000
-0.09257889,-2.16765642,-0.05711619,-0.12143514,-2.04068422,0.00000000,0.00000000,0.58380163,2.14334989,0.29599553,0.17720322,0.48620960,0.00000000,0.00000000
-0.08935989,-2.16649747,-0.06018237,-0.10622150,-2.05878782,0.00000000,0.00000000,0.58459932,2.14777803,0.29883784,0.18228279,0.48663625,0.00000000,0.00000000
-0.08903766,-2.16510129,-0.06351390,-0.09539893,-2.07922745,0.00000000,0.00000000,0.57750940,2.15277863,0.30035150,0.18823852,0.48433784,0.00000000,0.00000000
-0.09273431,-2.16280007,-0.06715842,-0.08831720,-2.09562635,0.00000000,0.00000000,0.56229424,2.15812635,0.30051121,0.19513392,0.48357743,0.00000000,0.00000000
-0.10178791,-2.16052246,-0.07120139,-0.08523867,-2.11729217,0.00000000,0.00000000,0.53936797,2.16348457,0.29935947,0.20313135,0.48594010,0.00000000,0.00000000
-0.11582032,-2.16281343,-0.07564721,-0.08878213,-2.14439726,0.00000000,0.00000000,0.50977433,2.16779566,0.29702058,0.21215473,0.48913306,0.00000000,0.00000000
-0.13783407,-2.16625524,-0.08071259,-0.09695352,-2.17767119,0.00000000,0.00000000,0.47492173,2.16964436,0.29370683,0.22144592,0.48886299,0.00000000,0.00000000
-0.16694421,-2.16870880,-0.08639858,-0.10820614,-2.21237111,0.00000000,0.00000000,0.43617848,2.16998219,0.28967807,0.23001695,0.49169374,0.00000000,0.00000000
-0.20103012,-2.16977882,-0.09261290,-0.12172252,-2.24748254,0.00000000,0.00000000,0.39487222,2.17000008,0.28525802,0.23673804,0.49510986,0.00000000,0.00000000
-0.23877987,-2.16998863,-0.09927685,-0.13657583,-2.28963351,0.00000000,0.00000000,0.35238436,2.17000008,0.28083926,0.24048533,0.50018334,0.00000000,0.00000000
-0.27933744,-2.17000008,-0.10631106,-0.15188245,-2.32686687,0.00000000,0.00000000,0.30988094,2.17000008,0.27681497,0.24038821,0.50835854,0.00000000,0.00000000
-0.32188845,-2.17000008,-0.11360860,-0.16710806,-2.36745977,0.00000000,0.00000000,0.26782000,2.17000008,0.27345464,0.23611553,0.51966536,0.00000000,0.00000000
-0.36512387,-2.17000008,-0.12098995,-0.18207417,-2.41060543,0.00000000,0.00000000,0.22585230,2.17000008,0.27084652,0.22788349,0.53401059,0.00000000,0.00000000
-0.40720996,-2.17000008,-0.12820217,-0.19669838,-2.44831610,0.00000000,0.00000000,0.18409023,2.17000008,0.26902792,0.21692364,0.55242699,0.00000000,0.00000000
-0.44644254,-2.17000008,-0.13498965,-0.21088189,-2.48156834,0.00000000,0.00000000,0.14534640,2.17000008,0.26829624,0.20510168,0.56698948,0.00000000,0.00000000
-0.48203823,-2.17000008,-0.14118117,-0.22476101,-2.51499295,0.00000000,0.00000000,0.11424128,2.17000008,0.26914847,0.19312337,0.58770519,0.00000000,0.00000000
-0.51328731,-2.17000008,-0.14662160,-0.23848209,-2.54239392,0.00000000,0.00000000,0.09229457,2.17000008,0.27144483,0.18419407,0.60600144,0.00000000,0.00000000
-0.53899771,-2.17000008,-0.15112373,-0.25172865,-2.57241607,0.00000000,0.00000000,0.07771683,2.17000008,0.27474338,0.17978853,0.61791855,0.00000000,0.00000000
-0.55817288,-2.17000008,-0.15452589,-0.26424119,-2.59842467,0.00000000,0.00000000,0.06878486,2.17000008,0.27874866,0.17928213,0.63411671,0.00000000,0.00000000
-0.57032925,-2.17000008,-0.15672085,-0.27610281,-2.62807250,0.00000000,0.00000000,0.06478494,2.17000008,0.28331637,0.18146566,0.65318155,0.00000000,0.00000000
-0.57545042,-2.17000008,-0.15764977,-0.28764856,-2.65394902,0.00000000,0.00000000,0.06547944,2.17000008,0.28834385,0.18520696,0.67718393,0.00000000,0.00000000
-0.57385021,-2.17000008,-0.15728700,-0.29934683,-2.67866445,0.00000000,0.00000000,0.07109220,2.17000008,0.29378286,0.18945886,0.69793707,0.00000000,0.00000000
-0.56578827,-2.17000008,-0.15560216,-0.31158236,-2.70108986,0.00000000,0.00000000,0.08211508,2.17000008,0.29966819,0.19316980,0.71836460,0.00000000,0.00000000
-0.55130607,-2.17000008,-0.15255843,-0.32442892,-2.72921634,0.00000000,0.00000000,0.09921269,2.17000008,0.30612648,0.19569792,0.73591655,0.00000000,0.00000000
-0.53058177,-2.17000008,-0.14818257,-0.33743531,-2.75081491,0.00000000,0.00000000,0.12174297,2.17000008,0.31323943,0.19611180,0.75268918,0.00000000,0.00000000
-0.50425220,-2.17000008,-0.14263341,-0.34951895,-2.77024746,0.00000000,0.00000000,0.14694174,2.17000008,0.32088503,0.19371526,0.76524496,0.00000000,0.00000000
-0.47354668,-2.17000008,-0.13620530,-0.35959348,-2.79069996,0.00000000,0.00000000,0.17653526,2.17000008,0.32912743,0.19310333,0.77601212,0.00000000,0.00000000
-0.43995842,-2.17000008,-0.12926246,-0.36670426,-2.81035805,0.00000000,0.00000000,0.20952599,2.16998768,0.33785227,0.19455059,0.78122574,0.00000000,0.00000000
-0.40485647,-2.17000008,-0.12215640,-0.37011668,-2.82942200,0.00000000,0.00000000,0.24420264,2.16977620,0.34686902,0.19710189,0.79115731,0.00000000,0.00000000
-0.36923900,-2.17000008,-0.11517140,-0.36929429,-2.84577107,0.00000000,0.00000000,0.27971074,2.16880202,0.35601500,0.20050600,0.80193198,0.00000000,0.00000000
-0.33366719,-2.17000008,-0.10850263,-0.36401483,-2.86224294,0.00000000,0.00000000,0.31518346,2.16685724,0.36508918,0.20473781,0.81814247,0.00000000,0.00000000
-0.29833421,-2.17000008,-0.10225560,-0.35449466,-2.87979317,0.00000000,0.00000000,0.34939343,2.16484666,0.37381780,0.21008514,0.83099872,0.00000000,0.00000000
-0.26326901,-2.17000008,-0.09648874,-0.34124371,-2.87979317,0.00000000,0.00000000,0.38084513,2.16389489,0.38189515,0.21691062,0.84987110,0.00000000,0.00000000
-0.22866783,-2.17000008,-0.09126563,-0.32485557,-2.87979317,0.00000000,0.00000000,0.40789500,2.16468644,0.38901946,0.22535449,0.86964357,0.00000000,0.00000000
-0.19534452,-2.17000008,-0.08671990,-0.30571413,-2.87979317,0.00000000,0.00000000,0.42895535,2.16690373,0.39494327,0.23505276,0.89218402,0.00000000,0.00000000
-0.16545582,-2.17000008,-0.08316159,-0.28424045,-2.87979317,0.00000000,0.00000000,0.44335660,2.16907358,0.39958331,0.24523991,0.91042799,0.00000000,0.00000000
-0.14189817,-2.17000008,-0.08093426,-0.26138139,-2.87979317,0.00000000,0.00000000,0.45184484,2.16988897,0.40306082,0.25513375,0.92781967,0.00000000,0.00000000
-0.12679194,-2.17000008,-0.08014268,-0.23911503,-2.87979317,0.00000000,0.00000000,0.45576030,2.16999578,0.40557313,0.26421663,0.94281256,0.00000000,0.00000000
-0.11813646,-2.17000008,-0.08024820,-0.21953022,-2.87979317,0.00000000,0.00000000,0.45598954,2.17000008,0.40724093,0.27231985,0.96033353,0.00000000,0.00000000
-0.10943712,-2.16999531,-0.08019873,-0.20173490,-2.87979317,0.00000000,0.00000000,0.45295167,2.17000008,0.40813506,0.27941692,0.97848046,0.00000000,0.00000000
-0.10156832,-2.16992521,-0.08002210,-0.18511455,-2.87979317,0.00000000,0.00000000,0.44687170,2.17000008,0.40833470,0.28540131,0.99370819,0.00000000,0.00000000
-0.09393796,-2.16969156,-0.07959213,-0.17103907,-2.87979317,0.00000000,0.00000000,0.43795210,2.17000008,0.40793112,0.29015827,1.00484610,0.00000000,0.00000000
-0.08596644,-2.16925716,-0.07883611,-0.16071697,-2.87979317,0.00000000,0.00000000,0.42628515,2.17000008,0.40698746,0.29365611,1.01101589,0.00000000,0.00000000
-0.07992002,-2.16792369,-0.07804964,-0.15403341,-2.87843847,0.00000000,0.00000000,0.41177365,2.17000008,0.40550196,0.29605582,1.02012908,0.00000000,0.00000000
-0.07866883,-2.16644406,-0.07762158,-0.15070020,-2.86538768,0.00000000,0.00000000,0.39418909,2.17000008,0.40342450,0.29764745,1.02628696,0.00000000,0.00000000
-0.08266759,-2.16820860,-0.07771029,-0.15202393,-2.85533023,0.00000000,0.00000000,0.37392658,2.17000008,0.40084907,0.29847202,1.03402710,0.00000000,0.00000000
-0.09573390,-2.16970134,-0.07880270,-0.15542705,-2.85081744,0.00000000,0.00000000,0.35259169,2.17000008,0.39815897,0.29813117,1.04365396,0.00000000,0.00000000
-0.11773510,-2.16998553,-0.08097368,-0.15669662,-2.84500170,0.00000000,0.00000000,0.33179349,2.17000008,0.39580229,0.29578769,1.05951166,0.00000000,0.00000000
-0.14687091,-2.16998148,-0.08405731,-0.15322857,-2.84959984,0.00000000,0.00000000,0.31244642,2.17000008,0.39412752,0.29049438,1.07738686,0.00000000,0.00000000
-0.18146443,-2.16954350,-0.08782560,-0.14429092,-2.85371661,0.00000000,0.00000000,0.29511416,2.17000008,0.39340770,0.28152189,1.09189665,0.00000000,0.00000000
-0.21946844,-2.16617870,-0.09199079,-0.13060984,-2.85917020,0.00000000,0.00000000,0.28009051,2.17000008,0.39380690,0.26863143,1.09841549,0.00000000,0.00000000
-0.25869536,-2.15600371,-0.09628610,-0.11371621,-2.86765695,0.00000000,0.00000000,0.26703921,2.16995549,0.39526638,0.25235543,1.10287750,0.00000000,0.00000000
-0.29691339,-2.14041233,-0.10050791,-0.09533080,-2.87477231,0.00000000,0.00000000,0.25453579,2.16920781,0.39741808,0.23399466,1.11258173,0.00000000,0.00000000
-0.33206728,-2.12276220,-0.10453622,-0.07704195,-2.87022614,0.00000000,0.00000000,0.24075153,2.16602397,0.39973620,0.21551351,1.12460279,0.00000000,0.00000000
-0.36298737,-2.10522580,-0.10835910,-0.05993229,-2.86979771,0.00000000,0.00000000,0.22540066,2.16036916,0.40187582,0.19926444,1.14350879,0.00000000,0.00000000
-0.38956144,-2.08907175,-0.11203582,-0.04478570,-2.86926556,0.00000000,0.00000000,0.21035531,2.15498471,0.40380788,0.18720572,1.16217840,0.00000000,0.00000000
-0.41234195,-2.07532287,-0.11564243,-0.03237510,-2.86529279,0.00000000,0.00000000,0.19904286,2.14977503,0.40580535,0.17904940,1.18257332,0.00000000,0.00000000
-0.43173268,-2.06488562,-0.11923499,-0.02343338,-2.86231136,0.00000000,0.00000000,0.19408843,2.14233780,0.40811574,0.17272776,1.19932127,0.00000000,0.00000000
-0.44763276,-2.05865645,-0.12284319,-0.01868233,-2.85813260,0.00000000,0.00000000,0.19031760,2.13530850,0.41002339,0.16760708,1.21208990,0.00000000,0.00000000
-0.45988938,-2.05736566,-0.12648068,-0.01877746,-2.85436153,0.00000000,0.00000000,0.18720609,2.12972808,0.41134599,0.16375722,1.21882570,0.00000000,0.00000000
-0.46816486,-2.06133294,-0.13014168,-0.02417073,-2.84826088,0.00000000,0.00000000,0.18476625,2.12557530,0.41202876,0.16095357,1.22580516,0.00000000,0.00000000
-0.47192383,-2.07028246,-0.13379551,-0.03507990,-2.83887839,0.00000000,0.00000000,0.18256338,2.12259674,0.41202185,0.15901552,1.23922360,0.00000000,0.00000000
-0.47109550,-2.08376002,-0.13739227,-0.05180093,-2.83425760,0.00000000,0.00000000,0.18202429,2.12176585,0.41142315,0.15901287,1.25226724,0.00000000,0.00000000
-0.46633765,-2.10066223,-0.14087863,-0.07436981,-2.83245730,0.00000000,0.00000000,0.18445079,2.12244320,0.41038698,0.16086796,1.26150632,0.00000000,0.00000000
-0.45883909,-2.11935258,-0.14421749,-0.10254022,-2.83059072,0.00000000,0.00000000,0.19098352,2.12465835,0.40905210,0.16477858,1.26472020,0.00000000,0.00000000
-0.44989723,-2.13802314,-0.14739834,-0.13594177,-2.82486606,0.00000000,0.00000000,0.20175052,2.12866569,0.40748182,0.17086647,1.27047122,0.00000000,0.00000000
-0.44079584,-2.15449119,-0.15046060,-0.17395413,-2.81953907,0.00000000,0.00000000,0.21630545,2.13446140,0.40569255,0.17906426,1.27434242,0.00000000,0.00000000
-0.43287000,-2.16553831,-0.15353212,-0.21527550,-2.81098366,0.00000000,0.00000000,0.23362777,2.14199114,0.40363914,0.18925317,1.27841818,0.00000000,0.00000000
-0.42717171,-2.16941404,-0.15680578,-0.25776178,-2.80079508,0.00000000,0.00000000,0.25205728,2.15067554,0.40123117,0.20101628,1.27965641,0.00000000,0.00000000
-0.42410606,-2.16997433,-0.16045581,-0.29875615,-2.78506756,0.00000000,0.00000000,0.26991597,2.15926123,0.39841017,0.21371219,1.27936661,0.00000000,0.00000000
-0.42329866,-2.17000008,-0.16454749,-0.33559129,-2.77387857,0.00000000,0.00000000,0.28600237,2.16592550,0.39520711,0.22652297,1.28332651,0.00000000,0.00000000
-0.42373732,-2.17000008,-0.16899891,-0.36610207,-2.76496553,0.00000000,0.00000000,0.29985264,2.16921043,0.39176181,0.23849137,1.28898871,0.00000000,0.00000000
-0.42393291,-2.17000008,-0.17357276,-0.38883275,-2.75828815,0.00000000,0.00000000,0.31157249,2.16995621,0.38828260,0.24862199,1.29672432,0.00000000,0.00000000
-0.42210954,-2.17000008,-0.17788811,-0.40308347,-2.75644755,0.00000000,0.00000000,0.32165575,2.17000008,0.38499400,0.25608429,1.30207741,0.00000000,0.00000000
-0.41636634,-2.17000008,-0.18146029,-0.40887091,-2.75967431,0.00000000,0.00000000,0.33063263,2.17000008,0.38205796,0.26047197,1.31107998,0.00000000,0.00000000
-0.40473381,-2.17000008,-0.18376121,-0.40665877,-2.75743723,0.00000000,0.00000000,0.33862683,2.17000008,0.37951401,0.26183441,1.32064295,0.00000000,0.00000000
-0.38558996,-2.17000008,-0.18435726,-0.39701891,-2.75240850,0.00000000,0.00000000,0.34548244,2.17000008,0.37732488,0.26049322,1.32753313,0.00000000,0.00000000
-0.35798374,-2.17000008,-0.18299606,-0.38056582,-2.74753928,0.00000000,0.00000000,0.35097417,2.17000008,0.37542677,0.25685421,1.33373570,0.00000000,0.00000000
-0.32185104,-2.17000008,-0.17963849,-0.35821903,-2.73391533,0.00000000,0.00000000,0.35523677,2.17000008,0.37380213,0.25135121,1.33894897,0.00000000,0.00000000
-0.27842075,-2.17000008,-0.17451444,-0.33154678,-2.71868372,0.00000000,0.00000000,0.35916707,2.17000008,0.37252656,0.24457680,1.34758127,0.00000000,0.00000000
-0.23039508,-2.17000008,-0.16811477,-0.30285871,-2.70463443,0.00000000,0.00000000,0.36445126,2.17000008,0.37175289,0.23736399,1.35486388,0.00000000,0.00000000
-0.18116175,-2.17000008,-0.16102032,-0.27471915,-2.69064140,0.00000000,0.00000000,0.37273985,2.17000008,0.37161332,0.23039658,1.36511528,0.00000000,0.00000000
-0.13289580,-2.17000008,-0.15357856,-0.24938296,-2.68112087,0.00000000,0.00000000,0.38463143,2.16999292,0.37211382,0.22384347,1.37387156,0.00000000,0.00000000
-0.08592990,-2.17000008,-0.14584786,-0.22848026,-2.67661071,0.00000000,0.00000000,0.39962801,2.16986132,0.37312114,0.21761151,1.38511515,0.00000000,0.00000000
-0.04166325,-2.17000008,-0.13802873,-0.21239106,-2.66840672,0.00000000,0.00000000,0.41672048,2.16913819,0.37442997,0.21182992,1.39160001,0.00000000,0.00000000
-0.00262753,-2.17000008,-0.13047506,-0.19922149,-2.66040707,0.00000000,0.00000000,0.43448803,2.16740274,0.37578008,0.20700181,1.39983463,0.00000000,0.00000000
0.03358976,-2.17000008,-0.12292984,-0.18708526,-2.65603161,0.00000000,0.00000000,0.45141897,2.16514516,0.37694174,0.20333041,1.40714443,0.00000000,0.00000000
0.06550124,-2.17000008,-0.11562194,-0.17566234,-2.64849114,0.00000000,0.00000000,0.46626633,2.16302204,0.37774485,0.20081332,1.41844869,0.00000000,0.00000000
0.09043469,-2.17000008,-0.10889851,-0.16530585,-2.64455724,0.00000000,0.00000000,0.47800812,2.16158199,0.37805587,0.19949642,1.43193579,0.00000000,0.00000000
0.10662493,-2.17000008,-0.10298698,-0.15649100,-2.64404559,0.00000000,0.00000000,0.48554614,2.16132402,0.37772876,0.19947347,1.45003736,0.00000000,0.00000000
0.11267461,-2.17000008,-0.09807815,-0.14995760,-2.64729643,0.00000000,0.00000000,0.48757955,2.16251445,0.37658206,0.20079204,1.46807730,0.00000000,0.00000000
0.10764809,-2.17000008,-0.09432817,-0.14642265,-2.64643264,0.00000000,0.00000000,0.48280662,2.16489458,0.37442720,0.20336844,1.48268104,0.00000000,0.00000000
0.09124271,-2.17000008,-0.09185234,-0.14617556,-2.64506102,0.00000000,0.00000000,0.47023684,2.16759729,0.37112266,0.20693943,1.49367845,0.00000000,0.00000000
0.06390286,-2.17000008,-0.09070412,-0.14937924,-2.64655042,0.00000000,0.00000000,0.44938767,2.16945171,0.36661074,0.21109939,1.51087141,0.00000000,0.00000000
0.02664596,-2.17000008,-0.09087525,-0.15608409,-2.64799929,0.00000000,0.00000000,0.42057866,2.16996765,0.36094949,0.21539116,1.53177500,0.00000000,0.00000000
-0.01938727,-2.17000008,-0.09233686,-0.16568629,-2.65099168,0.00000000,0.00000000,0.38551477,2.17000008,0.35440066,0.21909682,1.55605626,0.00000000,0.00000000
-0.07206341,-2.17000008,-0.09492900,-0.17801608,-2.65602708,0.00000000,0.00000000,0.34701005,2.17000008,0.34744579,0.22085027,1.58307767,0.00000000,0.00000000
-0.12900469,-2.17000008,-0.09844385,-0.19069616,-2.66390300,0.00000000,0.00000000,0.30703494,2.17000008,0.34049833,0.21943042,1.61285555,0.00000000,0.00000000
-0.18853915,-2.17000008,-0.10270462,-0.20192204,-2.66354752,0.00000000,0.00000000,0.26560739,2.17000008,0.33372849,0.21411812,1.64136434,0.00000000,0.00000000
-0.24896780,-2.17000008,-0.10749055,-0.21122283,-2.66552114,0.00000000,0.00000000,0.22154093,2.17000008,0.32714260,0.20462134,1.66920471,0.00000000,0.00000000
-0.30843848,-2.17000008,-0.11253330,-0.21863477,-2.66917086,0.00000000,0.00000000,0.17387614,2.17000008,0.32073066,0.19111441,1.68806636,0.00000000,0.00000000
-0.36576849,-2.17000008,-0.11760940,-0.22466858,-2.67528534,0.00000000,0.00000000,0.12477182,2.17000008,0.31473038,0.17519157,1.70334923,0.00000000,0.00000000
-0.42118004,-2.17000008,-0.12262360,-0.23042737,-2.68261719,0.00000000,0.00000000,0.08078913,2.17000008,0.30973840,0.15942802,1.71580827,0.00000000,0.00000000
-0.47465634,-2.17000008,-0.12743731,-0.23698902,-2.68470025,0.00000000,0.00000000,0.04569481,2.17000008,0.30601197,0.14448005,1.72812128,0.00000000,0.00000000
-0.52424502,-2.17000008,-0.13170503,-0.24427986,-2.68649650,0.00000000,0.00000000,0.01952398,2.17000008,0.30335045,0.13180967,1.73707068,0.00000000,0.00000000
-0.56722158,-2.17000008,-0.13498953,-0.25175270,-2.69250488,0.00000000,0.00000000,0.00098496,2.17000008,0.30149016,0.12196496,1.74509239,0.00000000,0.00000000
-0.60140669,-2.17000008,-0.13690564,-0.25913888,-2.70308232,0.00000000,0.00000000,-0.01104596,2.17000008,0.30024451,0.11498757,1.75571418,0.00000000,0.00000000
-0.62540263,-2.17000008,-0.13715731,-0.26653224,-2.71274066,0.00000000,0.00000000,-0.01686784,2.17000008,0.29950070,0.11179528,1.76334596,0.00000000,0.00000000
-0.63851476,-2.17000008,-0.13552560,-0.27420238,-2.72350454,0.00000000,0.00000000,-0.01602913,2.17000008,0.29923832,0.11280350,1.77071500,0.00000000,0.00000000
