isaac-sim2real/sage/motion_files/wr75s/amass/0-Eyes_Japan_Dataset_kaiwa_turn-02-look around-kaiwa_poses_idx67.txt
l_joint1,l_joint2,l_joint3,l_joint4,l_joint5,l_joint6,l_joint7,r_joint1,r_joint2,r_joint3,r_joint4,r_joint5,r_joint6,r_joint7
-1.65733933,-0.60781789,-0.38133439,-0.35411310,0.07182563,0.00000000,0.00000000,-0.63039052,0.64362293,-0.05624960,-0.12933810,-0.05736934,0.00000000,0.00000000
-1.65728855,-0.60768420,-0.38129038,-0.35391858,0.08715283,0.00000000,0.00000000,-0.63024652,0.64311451,-0.05615875,-0.12947173,-0.06112957,0.00000000,0.00000000
-1.65719211,-0.60744011,-0.38121608,-0.35355392,0.10462962,0.00000000,0.00000000,-0.62999374,0.64225584,-0.05598893,-0.12969649,-0.06813946,0.00000000,0.00000000
-1.65704811,-0.60717165,-0.38112378,-0.35305324,0.12444252,0.00000000,0.00000000,-0.62968659,0.64119691,-0.05575488,-0.12997378,-0.07409977,0.00000000,0.00000000
-1.65685344,-0.60701787,-0.38102248,-0.35245949,0.14158629,0.00000000,0.00000000,-0.62939495,0.64005792,-0.05547652,-0.13027769,-0.07969801,0.00000000,0.00000000
-1.65660489,-0.60708714,-0.38091668,-0.35179457,0.15961118,0.00000000,0.00000000,-0.62917608,0.63894272,-0.05516924,-0.13058339,-0.08478113,0.00000000,0.00000000
-1.65629852,-0.60740989,-0.38080800,-0.35105300,0.17701432,0.00000000,0.00000000,-0.62905717,0.63796419,-0.05483774,-0.13084596,-0.09090026,0.00000000,0.00000000
-1.65592384,-0.60796177,-0.38070035,-0.35022160,0.19719942,0.00000000,0.00000000,-0.62903631,0.63722539,-0.05447762,-0.13100657,-0.10063031,0.00000000,0.00000000
-1.65546238,-0.60871047,-0.38060579,-0.34930137,0.21742070,0.00000000,0.00000000,-0.62909526,0.63678390,-0.05408097,-0.13102359,-0.10356031,0.00000000,0.00000000
-1.65489221,-0.60963899,-0.38054436,-0.34830886,0.23869495,0.00000000,0.00000000,-0.62920845,0.63663769,-0.05363929,-0.13089615,-0.10766453,0.00000000,0.00000000
-1.65419102,-0.61074466,-0.38053954,-0.34726176,0.26261714,0.00000000,0.00000000,-0.62934583,0.63673609,-0.05314286,-0.13066389,-0.11594526,0.00000000,0.00000000
-1.65333915,-0.61203158,-0.38061419,-0.34616575,0.28621382,0.00000000,0.00000000,-0.62947798,0.63700646,-0.05258168,-0.13038637,-0.11939415,0.00000000,0.00000000
-1.65232277,-0.61350459,-0.38078943,-0.34501365,0.31143659,0.00000000,0.00000000,-0.62958509,0.63739651,-0.05194975,-0.13011366,-0.12593862,0.00000000,0.00000000
-1.65113318,-0.61516052,-0.38108411,-0.34379765,0.33621061,0.00000000,0.00000000,-0.62966037,0.63790077,-0.05124757,-0.12986836,-0.12871532,0.00000000,0.00000000
-1.64976311,-0.61698216,-0.38151652,-0.34252355,0.35980794,0.00000000,0.00000000,-0.62969893,0.63853323,-0.05047793,-0.12965533,-0.13215719,0.00000000,0.00000000
-1.64820135,-0.61894399,-0.38210666,-0.34121183,0.37918591,0.00000000,0.00000000,-0.62968415,0.63927585,-0.04964009,-0.12948400,-0.13155152,0.00000000,0.00000000
-1.64643455,-0.62102479,-0.38287792,-0.33988121,0.39937201,0.00000000,0.00000000,-0.62958920,0.64007330,-0.04872911,-0.12937266,-0.12677853,0.00000000,0.00000000
-1.64444995,-0.62321264,-0.38385344,-0.33853170,0.41215470,0.00000000,0.00000000,-0.62938893,0.64087886,-0.04773986,-0.12933366,-0.12211971,0.00000000,0.00000000
-1.64223456,-0.62549418,-0.38505006,-0.33714876,0.42747825,0.00000000,0.00000000,-0.62906253,0.64168990,-0.04666858,-0.12936211,-0.12104876,0.00000000,0.00000000
-1.63976789,-0.62783843,-0.38647574,-0.33572093,0.44250873,0.00000000,0.00000000,-0.62858367,0.64254004,-0.04550995,-0.12943849,-0.11785409,0.00000000,0.00000000
-1.63702595,-0.63019145,-0.38813099,-0.33424953,0.45595247,0.00000000,0.00000000,-0.62791413,0.64346647,-0.04425463,-0.12953962,-0.11385981,0.00000000,0.00000000
-1.63398480,-0.63249284,-0.39001259,-0.33274168,0.46550491,0.00000000,0.00000000,-0.62700868,0.64448553,-0.04289087,-0.12965131,-0.11536740,0.00000000,0.00000000
-1.63062596,-0.63470221,-0.39211503,-0.33120075,0.47274092,0.00000000,0.00000000,-0.62582880,0.64559168,-0.04140804,-0.12977360,-0.11559958,0.00000000,0.00000000
-1.62693417,-0.63681960,-0.39442950,-0.32962346,0.48261416,0.00000000,0.00000000,-0.62435049,0.64677387,-0.03979965,-0.12991080,-0.11122970,0.00000000,0.00000000
-1.62289298,-0.63888711,-0.39694443,-0.32800248,0.48883796,0.00000000,0.00000000,-0.62256610,0.64802849,-0.03806499,-0.13005900,-0.10533521,0.00000000,0.00000000
-1.61848319,-0.64097255,-0.39965191,-0.32633433,0.49524799,0.00000000,0.00000000,-0.62047696,0.64933920,-0.03620819,-0.13021480,-0.09400035,0.00000000,0.00000000
-1.61368275,-0.64314163,-0.40255401,-0.32462648,0.49655086,0.00000000,0.00000000,-0.61808163,0.65066266,-0.03423443,-0.13038996,-0.08430663,0.00000000,0.00000000
-1.60846913,-0.64542228,-0.40566161,-0.32288799,0.49482328,0.00000000,0.00000000,-0.61536801,0.65196544,-0.03214528,-0.13059913,-0.07042130,0.00000000,0.00000000
-1.60282099,-0.64778733,-0.40898657,-0.32110864,0.49056801,0.00000000,0.00000000,-0.61231226,0.65326917,-0.02993677,-0.13083301,-0.05608528,0.00000000,0.00000000
-1.59671605,-0.65018100,-0.41253245,-0.31925431,0.48668253,0.00000000,0.00000000,-0.60888410,0.65463400,-0.02760102,-0.13106181,-0.04936452,0.00000000,0.00000000
-1.59012806,-0.65256613,-0.41629219,-0.31728819,0.47771040,0.00000000,0.00000000,-0.60504985,0.65608954,-0.02512820,-0.13126671,-0.03875683,0.00000000,0.00000000
-1.58302748,-0.65493929,-0.42025310,-0.31518984,0.46100619,0.00000000,0.00000000,-0.60077214,0.65761071,-0.02250657,-0.13145089,-0.03593382,0.00000000,0.00000000
-1.57538581,-0.65730900,-0.42440093,-0.31295046,0.44061574,0.00000000,0.00000000,-0.59600967,0.65916210,-0.01972188,-0.13161798,-0.02989603,0.00000000,0.00000000
-1.56717491,-0.65968126,-0.42872018,-0.31056273,0.41731051,0.00000000,0.00000000,-0.59071946,0.66073567,-0.01675800,-0.13175914,-0.03201221,0.00000000,0.00000000
-1.55836368,-0.66208297,-0.43319321,-0.30802497,0.39302251,0.00000000,0.00000000,-0.58486342,0.66233218,-0.01359905,-0.13186802,-0.03261703,0.00000000,0.00000000
-1.54891884,-0.66458130,-0.43780300,-0.30534506,0.36414492,0.00000000,0.00000000,-0.57841450,0.66393805,-0.01023241,-0.13195471,-0.03459911,0.00000000,0.00000000
-1.53881061,-0.66725719,-0.44253996,-0.30252329,0.33549935,0.00000000,0.00000000,-0.57135570,0.66553330,-0.00664982,-0.13204122,-0.03245494,0.00000000,0.00000000
-1.52801609,-0.67016900,-0.44740543,-0.29953864,0.30633068,0.00000000,0.00000000,-0.56367677,0.66711122,-0.00284701,-0.13215363,-0.02826140,0.00000000,0.00000000
-1.51651609,-0.67334813,-0.45240906,-0.29636142,0.27532798,0.00000000,0.00000000,-0.55536866,0.66868550,0.00117863,-0.13231428,-0.03409341,0.00000000,0.00000000
-1.50428915,-0.67681581,-0.45756161,-0.29297590,0.24189861,0.00000000,0.00000000,-0.54641867,0.67029685,0.00543152,-0.13252430,-0.03713580,0.00000000,0.00000000
-1.49131083,-0.68058085,-0.46287009,-0.28938380,0.20336770,0.00000000,0.00000000,-0.53680485,0.67201227,0.00992121,-0.13275684,-0.03853249,0.00000000,0.00000000
-1.47755492,-0.68462402,-0.46833816,-0.28558892,0.16347082,0.00000000,0.00000000,-0.52649218,0.67389017,0.01466376,-0.13298622,-0.05002690,0.00000000,0.00000000
-1.46299541,-0.68891495,-0.47396827,-0.28158939,0.12136412,0.00000000,0.00000000,-0.51543850,0.67594200,0.01967908,-0.13322702,-0.05197573,0.00000000,0.00000000
-1.44760847,-0.69346470,-0.47975975,-0.27738443,0.07565115,0.00000000,0.00000000,-0.50360996,0.67814392,0.02498505,-0.13353114,-0.05942146,0.00000000,0.00000000
-1.43137050,-0.69836730,-0.48570374,-0.27298334,0.02679275,0.00000000,0.00000000,-0.49099374,0.68049169,0.03059220,-0.13394874,-0.06456468,0.00000000,0.00000000
-1.41425943,-0.70377135,-0.49178225,-0.26839912,-0.01725192,0.00000000,0.00000000,-0.47759393,0.68303490,0.03650457,-0.13450699,-0.07554832,0.00000000,0.00000000
-1.39625728,-0.70982021,-0.49797544,-0.26364073,-0.06019285,0.00000000,0.00000000,-0.46341726,0.68584818,0.04272456,-0.13523199,-0.09111794,0.00000000,0.00000000
-1.37735176,-0.71663827,-0.50426942,-0.25872740,-0.09704451,0.00000000,0.00000000,-0.44846511,0.68897671,0.04925657,-0.13618122,-0.10520952,0.00000000,0.00000000
-1.35753441,-0.72437710,-0.51065338,-0.25371921,-0.13268605,0.00000000,0.00000000,-0.43273562,0.69241011,0.05610679,-0.13744967,-0.11301096,0.00000000,0.00000000
-1.33679926,-0.73324293,-0.51710963,-0.24871814,-0.17272565,0.00000000,0.00000000,-0.41622460,0.69610047,0.06328388,-0.13915576,-0.12313575,0.00000000,0.00000000
-1.31514215,-0.74344993,-0.52360439,-0.24381854,-0.21219780,0.00000000,0.00000000,-0.39891601,0.70000303,0.07080317,-0.14142503,-0.13862908,0.00000000,0.00000000
-1.29255819,-0.75514847,-0.53008175,-0.23903798,-0.25219804,0.00000000,0.00000000,-0.38076979,0.70414114,0.07869259,-0.14436661,-0.14993013,0.00000000,0.00000000
-1.26902485,-0.76841933,-0.53645259,-0.23428987,-0.29553494,0.00000000,0.00000000,-0.36171746,0.70868629,0.08699611,-0.14804152,-0.16368678,0.00000000,0.00000000
-1.24447131,-0.78337169,-0.54257947,-0.22941346,-0.33853802,0.00000000,0.00000000,-0.34166881,0.71399748,0.09577241,-0.15244277,-0.17797276,0.00000000,0.00000000
-1.21874583,-0.80026543,-0.54826868,-0.22421314,-0.37805584,0.00000000,0.00000000,-0.32052344,0.72062021,0.10509059,-0.15748794,-0.19394189,0.00000000,0.00000000
-1.19159567,-0.81959981,-0.55327892,-0.21850206,-0.41819334,0.00000000,0.00000000,-0.29818141,0.72926658,0.11502491,-0.16301087,-0.21350633,0.00000000,0.00000000
-1.16266489,-0.84218228,-0.55734634,-0.21218006,-0.45491472,0.00000000,0.00000000,-0.27455506,0.74083161,0.12564750,-0.16873114,-0.22907682,0.00000000,0.00000000
-1.13151324,-0.86914992,-0.56021833,-0.20532966,-0.49555275,0.00000000,0.00000000,-0.24957576,0.75642866,0.13702370,-0.17421128,-0.24959494,0.00000000,0.00000000
-1.09765971,-0.90182930,-0.56169009,-0.19825228,-0.53049111,0.00000000,0.00000000,-0.22317949,0.77737927,0.14922172,-0.17884037,-0.27227247,0.00000000,0.00000000
-1.06065059,-0.94137806,-0.56163454,-0.19139440,-0.56586647,0.00000000,0.00000000,-0.19527520,0.80511558,0.16234340,-0.18187882,-0.28467011,0.00000000,0.00000000
-1.02012217,-0.98839724,-0.56001276,-0.18521418,-0.59851432,0.00000000,0.00000000,-0.16574053,0.84100115,0.17655522,-0.18256964,-0.29777649,0.00000000,0.00000000
-0.97583687,-1.04284382,-0.55686241,-0.18008904,-0.62879634,0.00000000,0.00000000,-0.13449189,0.88615352,0.19207799,-0.18024857,-0.30967066,0.00000000,0.00000000
-0.92769653,-1.10427904,-0.55227387,-0.17630461,-0.65599072,0.00000000,0.00000000,-0.10159642,0.94130284,0.20912793,-0.17439900,-0.32315961,0.00000000,0.00000000
-0.87577307,-1.17212772,-0.54636908,-0.17408812,-0.68453038,0.00000000,0.00000000,-0.06734764,1.00664032,0.22784868,-0.16465679,-0.33712271,0.00000000,0.00000000
-0.82027519,-1.24561262,-0.53928679,-0.17352666,-0.71043706,0.00000000,0.00000000,-0.03227854,1.08122504,0.24825457,-0.15082844,-0.35588807,0.00000000,0.00000000
-0.76140600,-1.32349682,-0.53116453,-0.17437595,-0.73238736,0.00000000,0.00000000,0.00283730,1.16280508,0.27022004,-0.13295048,-0.37401330,0.00000000,0.00000000
-0.69937575,-1.40442562,-0.52212083,-0.17627977,-0.74770415,0.00000000,0.00000000,0.03695937,1.25008297,0.29356846,-0.11123350,-0.39587751,0.00000000,0.00000000
-0.63453621,-1.48716438,-0.51226896,-0.17896403,-0.76894784,0.00000000,0.00000000,0.06878639,1.34192789,0.31806585,-0.08624376,-0.41582757,0.00000000,0.00000000
-0.56758446,-1.57067263,-0.50174433,-0.18236026,-0.78570318,0.00000000,0.00000000,0.09683921,1.43672121,0.34341055,-0.05893058,-0.43275839,0.00000000,0.00000000
-0.49958760,-1.65373576,-0.49072373,-0.18639334,-0.80208099,0.00000000,0.00000000,0.11966106,1.53253329,0.36925212,-0.03049975,-0.44835365,0.00000000,0.00000000
-0.43182904,-1.73466182,-0.47942269,-0.19071329,-0.81533897,0.00000000,0.00000000,0.13602096,1.62723231,0.39522681,-0.00231996,-0.45868918,0.00000000,0.00000000
-0.36565131,-1.81136024,-0.46807840,-0.19464979,-0.82516068,0.00000000,0.00000000,0.14504944,1.71854413,0.42099905,0.02415464,-0.46357712,0.00000000,0.00000000
-0.30228794,-1.88181925,-0.45691466,-0.19746290,-0.83573252,0.00000000,0.00000000,0.14635704,1.80425930,0.44629869,0.04756831,-0.47303587,0.00000000,0.00000000
-0.24273990,-1.94469488,-0.44610566,-0.19871223,-0.84131342,0.00000000,0.00000000,0.14015791,1.88258159,0.47094446,0.06693094,-0.48028493,0.00000000,0.00000000
-0.18776837,-1.99966335,-0.43575948,-0.19850305,-0.84038645,0.00000000,0.00000000,0.12731531,1.95244682,0.49484813,0.08184117,-0.49276343,0.00000000,0.00000000
-0.13801780,-2.04686594,-0.42595416,-0.19718891,-0.84324658,0.00000000,0.00000000,0.10924189,2.01345682,0.51800424,0.09246193,-0.50131321,0.00000000,0.00000000
-0.09411220,-2.08603191,-0.41678551,-0.19486439,-0.85031033,0.00000000,0.00000000,0.08773104,2.06531930,0.54048073,0.09922545,-0.51016164,0.00000000,0.00000000
-0.05636347,-2.11751699,-0.40829191,-0.19191863,-0.86679339,0.00000000,0.00000000,0.06480794,2.10764027,0.56240475,0.10274156,-0.51958811,0.00000000,0.00000000
-0.02490362,-2.14190578,-0.40049225,-0.18885632,-0.88565582,0.00000000,0.00000000,0.04267548,2.13954210,0.58395922,0.10360114,-0.53244102,0.00000000,0.00000000
-0.00005491,-2.15900135,-0.39347121,-0.18583824,-0.90135878,0.00000000,0.00000000,0.02371310,2.15966320,0.60537136,0.10230321,-0.54577917,0.00000000,0.00000000
0.01719765,-2.16775322,-0.38747439,-0.18209383,-0.91952002,0.00000000,0.00000000,0.01027592,2.16808319,0.62688047,0.09920557,-0.55414802,0.00000000,0.00000000
0.02519316,-2.16987181,-0.38288370,-0.17594244,-0.93064970,0.00000000,0.00000000,0.00421775,2.16860747,0.64866644,0.09474137,-0.56006753,0.00000000,0.00000000
0.02324952,-2.17000008,-0.37988907,-0.16610494,-0.93819255,0.00000000,0.00000000,0.00637700,2.16289973,0.67074823,0.09018187,-0.55693859,0.00000000,0.00000000
0.01194835,-2.16985059,-0.37835050,-0.15309666,-0.94718111,0.00000000,0.00000000,0.01640110,2.15028167,0.69297582,0.08763821,-0.55354476,0.00000000,0.00000000
-0.00671057,-2.16752052,-0.37791413,-0.13808306,-0.95256680,0.00000000,0.00000000,0.03314008,2.13370252,0.71514416,0.08894210,-0.54897451,0.00000000,0.00000000
-0.03010216,-2.15950131,-0.37817219,-0.12293922,-0.96137339,0.00000000,0.00000000,0.05510704,2.11667800,0.73706716,0.09495426,-0.54355836,0.00000000,0.00000000
-0.05532943,-2.14786935,-0.37881514,-0.10915039,-0.96720225,0.00000000,0.00000000,0.08063166,2.10163426,0.75855666,0.10577908,-0.54087037,0.00000000,0.00000000
-0.08010809,-2.13410139,-0.37971964,-0.09679887,-0.96946913,0.00000000,0.00000000,0.10812335,2.09018302,0.77940649,0.12108395,-0.53540081,0.00000000,0.00000000
-0.10573664,-2.11837745,-0.38100550,-0.08610061,-0.97650486,0.00000000,0.00000000,0.13624957,2.08339190,0.79938215,0.14034058,-0.52951920,0.00000000,0.00000000
-0.13315299,-2.10255861,-0.38271573,-0.07797601,-0.98049057,0.00000000,0.00000000,0.16367015,2.08175659,0.81821579,0.16276149,-0.52554929,0.00000000,0.00000000
-0.16185470,-2.08822465,-0.38482392,-0.07277224,-0.98371083,0.00000000,0.00000000,0.18904668,2.08529091,0.83561516,0.18738134,-0.52430469,0.00000000,0.00000000
-0.19111335,-2.07552195,-0.38732234,-0.06998238,-0.98553747,0.00000000,0.00000000,0.21118510,2.09359503,0.85129040,0.21317279,-0.51906472,0.00000000,0.00000000
-0.22037065,-2.06443763,-0.39020500,-0.06910403,-0.99154145,0.00000000,0.00000000,0.22910419,2.10581994,0.86499149,0.23907612,-0.50905621,0.00000000,0.00000000
-0.24908592,-2.05522513,-0.39345017,-0.06984738,-0.99506837,0.00000000,0.00000000,0.24210262,2.12066460,0.87654901,0.26402059,-0.49281037,0.00000000,0.00000000
-0.27665290,-2.04826593,-0.39701921,-0.07203113,-0.99660593,0.00000000,0.00000000,0.24980150,2.13642907,0.88590497,0.28694978,-0.47483951,0.00000000,0.00000000
-0.30237094,-2.04400444,-0.40085596,-0.07553712,-0.99955934,0.00000000,0.00000000,0.25213471,2.15109205,0.89313042,0.30683994,-0.46140766,0.00000000,0.00000000
-0.32541084,-2.04285097,-0.40488568,-0.08024803,-1.01218748,0.00000000,0.00000000,0.24933100,2.16238165,0.89843607,0.32270971,-0.44631299,0.00000000,0.00000000
-0.34479952,-2.04493833,-0.40901726,-0.08590701,-1.01797748,0.00000000,0.00000000,0.24190922,2.16841984,0.90219653,0.33359385,-0.42730191,0.00000000,0.00000000
-0.35947782,-2.04988956,-0.41315112,-0.09199586,-1.02744091,0.00000000,0.00000000,0.23068197,2.16990948,0.90495682,0.33854824,-0.40766138,0.00000000,0.00000000
-0.36854100,-2.05695486,-0.41719213,-0.09785686,-1.03701055,0.00000000,0.00000000,0.21663842,2.17000008,0.90730190,0.33687100,-0.39645126,0.00000000,0.00000000
-0.37156996,-2.06567621,-0.42105886,-0.10312554,-1.05003202,0.00000000,0.00000000,0.20062789,2.16989756,0.90957123,0.32850793,-0.38402721,0.00000000,0.00000000
-0.36879873,-2.07645130,-0.42468527,-0.10807862,-1.05932510,0.00000000,0.00000000,0.18311433,2.16826415,0.91166884,0.31432736,-0.37786436,0.00000000,0.00000000
-0.36095065,-2.08951211,-0.42804295,-0.11301109,-1.06835163,0.00000000,0.00000000,0.16429256,2.16221428,0.91317409,0.29602262,-0.36795837,0.00000000,0.00000000
-0.34863159,-2.10321856,-0.43115562,-0.11707915,-1.08184028,0.00000000,0.00000000,0.14445235,2.15259767,0.91367459,0.27560139,-0.35569555,0.00000000,0.00000000
-0.33208141,-2.11609364,-0.43403298,-0.11936385,-1.09323752,0.00000000,0.00000000,0.12418322,2.14213657,0.91297019,0.25489664,-0.33895144,0.00000000,0.00000000
-0.31159171,-2.12745643,-0.43667969,-0.11943940,-1.10566306,0.00000000,0.00000000,0.10425523,2.13289309,0.91106045,0.23531000,-0.32207766,0.00000000,0.00000000
-0.28761977,-2.13659596,-0.43912607,-0.11696273,-1.11897194,0.00000000,0.00000000,0.08540434,2.12606621,0.90805495,0.21775614,-0.30504534,0.00000000,0.00000000
-0.26095501,-2.14327526,-0.44142374,-0.11197577,-1.12685692,0.00000000,0.00000000,0.06819372,2.12223411,0.90410501,0.20270546,-0.28301808,0.00000000,0.00000000
-0.23300582,-2.14776158,-0.44365916,-0.10500933,-1.13471663,0.00000000,0.00000000,0.05292145,2.12142444,0.89937627,0.19021749,-0.26137900,0.00000000,0.00000000
-0.20541160,-2.15027595,-0.44593892,-0.09669991,-1.14026880,0.00000000,0.00000000,0.03967279,2.12313318,0.89404464,0.18004617,-0.23776941,0.00000000,0.00000000
-0.17961687,-2.15100121,-0.44835687,-0.08769147,-1.14278412,0.00000000,0.00000000,0.02851056,2.12640524,0.88830036,0.17182446,-0.21030863,0.00000000,0.00000000
-0.15675944,-2.15034723,-0.45097819,-0.07872713,-1.14879584,0.00000000,0.00000000,0.01963277,2.12992764,0.88234973,0.16519454,-0.19132692,0.00000000,0.00000000
-0.13768759,-2.14882088,-0.45384377,-0.07053493,-1.14686918,0.00000000,0.00000000,0.01342720,2.13211870,0.87641197,0.15983136,-0.17985702,0.00000000,0.00000000
-0.12305886,-2.14677358,-0.45698199,-0.06367157,-1.14727581,0.00000000,0.00000000,0.01041610,2.13133550,0.87070149,0.15543281,-0.17042407,0.00000000,0.00000000
-0.11331379,-2.14438796,-0.46040982,-0.05848365,-1.15009964,0.00000000,0.00000000,0.01103401,2.12638378,0.86537862,0.15177342,-0.15648304,0.00000000,0.00000000
-0.10852442,-2.14190340,-0.46412635,-0.05518536,-1.14937067,0.00000000,0.00000000,0.01541544,2.11713815,0.86049783,0.14884768,-0.14522822,0.00000000,0.00000000
-0.10842901,-2.13971543,-0.46811467,-0.05393141,-1.15538013,0.00000000,0.00000000,0.02341446,2.10467386,0.85600537,0.14694816,-0.13578410,0.00000000,0.00000000
-0.11263805,-2.13821173,-0.47234991,-0.05480862,-1.16137946,0.00000000,0.00000000,0.03450364,2.09055996,0.85178500,0.14632972,-0.12944794,0.00000000,0.00000000
-0.12076627,-2.13753009,-0.47680414,-0.05776459,-1.16568017,0.00000000,0.00000000,0.04775629,2.07611609,0.84770733,0.14689256,-0.12205796,0.00000000,0.00000000
-0.13231790,-2.13742256,-0.48144218,-0.06250981,-1.17407548,0.00000000,0.00000000,0.06210196,2.06231380,0.84364998,0.14828975,-0.11576334,0.00000000,0.00000000
-0.14645161,-2.13739038,-0.48621064,-0.06850813,-1.18049598,0.00000000,0.00000000,0.07648083,2.04993749,0.83949703,0.15010561,-0.10153501,0.00000000,0.00000000
-0.16195416,-2.13701129,-0.49103010,-0.07512137,-1.18572617,0.00000000,0.00000000,0.08990593,2.03957915,0.83514434,0.15189956,-0.08807534,0.00000000,0.00000000
-0.17746092,-2.13618326,-0.49579802,-0.08180095,-1.18936443,0.00000000,0.00000000,0.10146366,2.03156614,0.83050799,0.15318231,-0.07733560,0.00000000,0.00000000
-0.19170411,-2.13511372,-0.50040132,-0.08817684,-1.19503188,0.00000000,0.00000000,0.11031394,2.02603316,0.82552350,0.15346479,-0.06340992,0.00000000,0.00000000
-0.20361096,-2.13411212,-0.50472867,-0.09401125,-1.19954085,0.00000000,0.00000000,0.11612207,2.02366233,0.82012808,0.15284111,-0.04552506,0.00000000,0.00000000
-0.21227939,-2.13339210,-0.50867957,-0.09911331,-1.20457184,0.00000000,0.00000000,0.11979398,2.02600718,0.81429279,0.15260623,-0.02423404,0.00000000,0.00000000
-0.21693164,-2.13299561,-0.51216823,-0.10329422,-1.21055913,0.00000000,0.00000000,0.12241334,2.03314590,0.80811077,0.15376502,-0.00565704,0.00000000,0.00000000
-0.21705192,-2.13297081,-0.51513010,-0.10648497,-1.21962762,0.00000000,0.00000000,0.12324516,2.04303837,0.80169696,0.15547824,0.00838490,0.00000000,0.00000000
-0.21243000,-2.13347864,-0.51752341,-0.10878219,-1.22690892,0.00000000,0.00000000,0.12274498,2.05422497,0.79520315,0.15741622,0.02144336,0.00000000,0.00000000
-0.20302631,-2.13466740,-0.51932645,-0.11033702,-1.23518550,0.00000000,0.00000000,0.12211831,2.06601095,0.78877765,0.15981396,0.03711096,0.00000000,0.00000000
-0.18888439,-2.13657713,-0.52053493,-0.11128300,-1.24347258,0.00000000,0.00000000,0.12210728,2.07769513,0.78253651,0.16269267,0.04897358,0.00000000,0.00000000
-0.17016082,-2.13916612,-0.52116203,-0.11176263,-1.25591302,0.00000000,0.00000000,0.12312344,2.08856273,0.77657270,0.16593131,0.06458862,0.00000000,0.00000000
-0.14720431,-2.14236903,-0.52123976,-0.11198957,-1.26889908,0.00000000,0.00000000,0.12550338,2.09800720,0.77096665,0.16943201,0.07755199,0.00000000,0.00000000
-0.12059006,-2.14611268,-0.52081877,-0.11227160,-1.27965140,0.00000000,0.00000000,0.12953243,2.10559559,0.76578307,0.17314941,0.08871100,0.00000000,0.00000000
-0.09109513,-2.15026379,-0.51996595,-0.11298048,-1.29088843,0.00000000,0.00000000,0.13531885,2.11110568,0.76105839,0.17703162,0.09564027,0.00000000,0.00000000
-0.05965917,-2.15460467,-0.51876104,-0.11451737,-1.30116737,0.00000000,0.00000000,0.14266787,2.11460257,0.75678074,0.18099113,0.10259664,0.00000000,0.00000000
-0.02734677,-2.15886045,-0.51729071,-0.11729680,-1.30353808,0.00000000,0.00000000,0.15114485,2.11638498,0.75289720,0.18491217,0.11237551,0.00000000,0.00000000
0.00472777,-2.16274548,-0.51564264,-0.12172757,-1.30223536,0.00000000,0.00000000,0.16027589,2.11679387,0.74934334,0.18866478,0.11589472,0.00000000,0.00000000
0.03553755,-2.16600370,-0.51389408,-0.12818056,-1.30039930,0.00000000,0.00000000,0.16964009,2.11612153,0.74605858,0.19211762,0.12146984,0.00000000,0.00000000
0.06428649,-2.16838741,-0.51210433,-0.13692717,-1.30199564,0.00000000,0.00000000,0.17884967,2.11463141,0.74298620,0.19514938,0.12801920,0.00000000,0.00000000
0.09048820,-2.16966248,-0.51031440,-0.14804901,-1.30244219,0.00000000,0.00000000,0.18756442,2.11259580,0.74007374,0.19768234,0.13019970,0.00000000,0.00000000
0.11396101,-2.16998053,-0.50855261,-0.16135734,-1.30140591,0.00000000,0.00000000,0.19558066,2.11027408,0.73728389,0.19972314,0.14212637,0.00000000,0.00000000
0.13473648,-2.17000008,-0.50684255,-0.17641078,-1.30274713,0.00000000,0.00000000,0.20287155,2.10790348,0.73460031,0.20138155,0.15377617,0.00000000,0.00000000
0.15292156,-2.17000008,-0.50520992,-0.19264837,-1.30832839,0.00000000,0.00000000,0.20950033,2.10575414,0.73201388,0.20284991,0.16580372,0.00000000,0.00000000
0.16860098,-2.17000008,-0.50368875,-0.20948781,-1.31561375,0.00000000,0.00000000,0.21552363,2.10414982,0.72950995,0.20435065,0.17177080,0.00000000,0.00000000
0.18182185,-2.17000008,-0.50232846,-0.22632284,-1.32550240,0.00000000,0.00000000,0.22096792,2.10340333,0.72706747,0.20607702,0.18376997,0.00000000,0.00000000
0.19260807,-2.17000008,-0.50119722,-0.24250568,-1.33541286,0.00000000,0.00000000,0.22583084,2.10375524,0.72466111,0.20815602,0.19470710,0.00000000,0.00000000
0.20096710,-2.17000008,-0.50037688,-0.25738698,-1.34539735,0.00000000,0.00000000,0.23007359,2.10535002,0.72226036,0.21063830,0.20990066,0.00000000,0.00000000
0.20691828,-2.17000008,-0.49995011,-0.27037692,-1.35695064,0.00000000,0.00000000,0.23362254,2.10822153,0.71983230,0.21349913,0.22681028,0.00000000,0.00000000
0.21052586,-2.17000008,-0.49998686,-0.28097618,-1.36935186,0.00000000,0.00000000,0.23636149,2.11231637,0.71734124,0.21665378,0.24244602,0.00000000,0.00000000
0.21189792,-2.17000008,-0.50054461,-0.28875524,-1.38688672,0.00000000,0.00000000,0.23815015,2.11752224,0.71475005,0.21998052,0.25360167,0.00000000,0.00000000
0.21116398,-2.17000008,-0.50166261,-0.29339713,-1.40291059,0.00000000,0.00000000,0.23882520,2.12369752,0.71202135,0.22333619,0.25710416,0.00000000,0.00000000
0.20851925,-2.17000008,-0.50333714,-0.29477969,-1.41667557,0.00000000,0.00000000,0.23822188,2.13062644,0.70912683,0.22654781,0.25608683,0.00000000,0.00000000
0.20428558,-2.17000008,-0.50550276,-0.29300743,-1.42732596,0.00000000,0.00000000,0.23622429,2.13795972,0.70606130,0.22941212,0.25301796,0.00000000,0.00000000
0.19884641,-2.17000008,-0.50804955,-0.28839421,-1.44151342,0.00000000,0.00000000,0.23277856,2.14528370,0.70283693,0.23173895,0.24825253,0.00000000,0.00000000
0.19251211,-2.17000008,-0.51086086,-0.28142184,-1.45152974,0.00000000,0.00000000,0.22786574,2.15223908,0.69946843,0.23339890,0.24557638,0.00000000,0.00000000
0.18549271,-2.17000008,-0.51383126,-0.27268070,-1.46111953,0.00000000,0.00000000,0.22149913,2.15852427,0.69597435,0.23431268,0.24198353,0.00000000,0.00000000
0.17796849,-2.17000008,-0.51686376,-0.26281303,-1.47285926,0.00000000,0.00000000,0.21376355,2.16380215,0.69239467,0.23440467,0.24350086,0.00000000,0.00000000
0.17014460,-2.17000008,-0.51986927,-0.25245187,-1.48611069,0.00000000,0.00000000,0.20487574,2.16760015,0.68880844,0.23357007,0.24589914,0.00000000,0.00000000
0.16225356,-2.17000008,-0.52277416,-0.24216011,-1.49631560,0.00000000,0.00000000,0.19522075,2.16951704,0.68533885,0.23166472,0.25372806,0.00000000,0.00000000
0.15452643,-2.17000008,-0.52552897,-0.23238271,-1.50508153,0.00000000,0.00000000,0.18531007,2.16994238,0.68213487,0.22854848,0.25939447,0.00000000,0.00000000
0.14712928,-2.17000008,-0.52811348,-0.22345382,-1.51528025,0.00000000,0.00000000,0.17561841,2.16947031,0.67931598,0.22423086,0.27335772,0.00000000,0.00000000
0.14013621,-2.17000008,-0.53053033,-0.21563493,-1.52511287,0.00000000,0.00000000,0.16646266,2.16741586,0.67693299,0.21897879,0.28194979,0.00000000,0.00000000
0.13360687,-2.17000008,-0.53278822,-0.20912197,-1.53803313,0.00000000,0.00000000,0.15807749,2.16345119,0.67499954,0.21320865,0.28996933,0.00000000,0.00000000
0.12764196,-2.17000008,-0.53489012,-0.20405389,-1.55465305,0.00000000,0.00000000,0.15070106,2.15801716,0.67353076,0.20732491,0.30111986,0.00000000,0.00000000
0.12236795,-2.17000008,-0.53683239,-0.20053093,-1.56748343,0.00000000,0.00000000,0.14456336,2.15161085,0.67254877,0.20165779,0.31400195,0.00000000,0.00000000
0.11789986,-2.17000008,-0.53860807,-0.19861741,-1.58518016,0.00000000,0.00000000,0.13985762,2.14463758,0.67207605,0.19647445,0.32752851,0.00000000,0.00000000
0.11431222,-2.17000008,-0.54021245,-0.19832326,-1.60518670,0.00000000,0.00000000,0.13675757,2.13747382,0.67213368,0.19201368,0.34485283,0.00000000,0.00000000
0.11163412,-2.17000008,-0.54164523,-0.19957422,-1.61976409,0.00000000,0.00000000,0.13544887,2.13046503,0.67274261,0.18850392,0.36046520,0.00000000,0.00000000
0.10987176,-2.17000008,-0.54291070,-0.20219161,-1.63183856,0.00000000,0.00000000,0.13611141,2.12389398,0.67392337,0.18614641,0.37550882,0.00000000,0.00000000
0.10902943,-2.17000008,-0.54401535,-0.20590563,-1.64100945,0.00000000,0.00000000,0.13885543,2.11795998,0.67568904,0.18508467,0.39053276,0.00000000,0.00000000
0.10909446,-2.17000008,-0.54496747,-0.21041113,-1.65110028,0.00000000,0.00000000,0.14366777,2.11279154,0.67803824,0.18538666,0.40335295,0.00000000,0.00000000
0.11000709,-2.17000008,-0.54577518,-0.21543849,-1.66391706,0.00000000,0.00000000,0.15039437,2.10847783,0.68095076,0.18704319,0.42229789,0.00000000,0.00000000
0.11164245,-2.17000008,-0.54644608,-0.22079861,-1.67954326,0.00000000,0.00000000,0.15876138,2.10507464,0.68438911,0.18997137,0.44069478,0.00000000,0.00000000
0.11381248,-2.17000008,-0.54698676,-0.22638676,-1.69737136,0.00000000,0.00000000,0.16842285,2.10258389,0.68830413,0.19401912,0.46313363,0.00000000,0.00000000
0.11627698,-2.17000008,-0.54740423,-0.23216151,-1.71168518,0.00000000,0.00000000,0.17900665,2.10095048,0.69264102,0.19898443,0.48747048,0.00000000,0.00000000
0.11876082,-2.17000008,-0.54770780,-0.23811673,-1.71935880,0.00000000,0.00000000,0.19013467,2.10009384,0.69734019,0.20464896,0.51468366,0.00000000,0.00000000
0.12097426,-2.17000008,-0.54790962,-0.24425322,-1.72941709,0.00000000,0.00000000,0.20141758,2.09993911,0.70233327,0.21080397,0.54445636,0.00000000,0.00000000
0.12261113,-2.17000008,-0.54802799,-0.25055853,-1.73573732,0.00000000,0.00000000,0.21243992,2.10042858,0.70753920,0.21725377,0.57047617,0.00000000,0.00000000
0.12333587,-2.17000008,-0.54809290,-0.25698733,-1.74202776,0.00000000,0.00000000,0.22277905,2.10148859,0.71286613,0.22379807,0.59422863,0.00000000,0.00000000
0.12278692,-2.17000008,-0.54814833,-0.26344022,-1.74367833,0.00000000,0.00000000,0.23202652,2.10302448,0.71821570,0.23022078,0.61826879,0.00000000,0.00000000
0.12063026,-2.17000008,-0.54824758,-0.26973391,-1.74669302,0.00000000,0.00000000,0.23978621,2.10492635,0.72348541,0.23628567,0.64873731,0.00000000,0.00000000
0.11661173,-2.17000008,-0.54844868,-0.27558023,-1.75078523,0.00000000,0.00000000,0.24566603,2.10706091,0.72857350,0.24173187,0.68575311,0.00000000,0.00000000
0.11054171,-2.17000008,-0.54881626,-0.28060061,-1.75448418,0.00000000,0.00000000,0.24928001,2.10925460,0.73338497,0.24627078,0.71919805,0.00000000,0.00000000
0.10227314,-2.17000008,-0.54941976,-0.28436983,-1.76109600,0.00000000,0.00000000,0.25025707,2.11129856,0.73783684,0.24958630,0.74870890,0.00000000,0.00000000
0.09178071,-2.17000008,-0.55031121,-0.28644994,-1.77238846,0.00000000,0.00000000,0.24825573,2.11294389,0.74186593,0.25133777,0.77879733,0.00000000,0.00000000
0.07927936,-2.17000008,-0.55149603,-0.28641248,-1.78136182,0.00000000,0.00000000,0.24300566,2.11393023,0.74543470,0.25120071,0.80645144,0.00000000,0.00000000
0.06521427,-2.17000008,-0.55292696,-0.28388974,-1.78922927,0.00000000,0.00000000,0.23435713,2.11409545,0.74852836,0.24896048,0.83379954,0.00000000,0.00000000
0.05013409,-2.17000008,-0.55451649,-0.27865297,-1.79733694,0.00000000,0.00000000,0.22228113,2.11346698,0.75114828,0.24456762,0.85744250,0.00000000,0.00000000
0.03461243,-2.17000008,-0.55614638,-0.27066198,-1.80552542,0.00000000,0.00000000,0.20688318,2.11215544,0.75332594,0.23809724,0.87653506,0.00000000,0.00000000
0.01922603,-2.17000008,-0.55767328,-0.26009434,-1.81214488,0.00000000,0.00000000,0.18855360,2.11016607,0.75516021,0.22971731,0.89888084,0.00000000,0.00000000
0.00452313,-2.16999197,-0.55893725,-0.24738865,-1.81903338,0.00000000,0.00000000,0.16802944,2.10739112,0.75681871,0.21971029,0.91786098,0.00000000,0.00000000
-0.00905090,-2.16983795,-0.55978245,-0.23325211,-1.82503653,0.00000000,0.00000000,0.14625858,2.10375690,0.75850040,0.20848909,0.93585426,0.00000000,0.00000000
-0.02119648,-2.16895723,-0.56008691,-0.21852152,-1.82813144,0.00000000,0.00000000,0.12419518,2.09932065,0.76039541,0.19655190,0.95269084,0.00000000,0.00000000
-0.03173094,-2.16672349,-0.55978721,-0.20391740,-1.83546889,0.00000000,0.00000000,0.10263675,2.09426069,0.76266319,0.18439215,0.96980166,0.00000000,0.00000000
-0.04054445,-2.16354346,-0.55888116,-0.18989898,-1.84192359,0.00000000,0.00000000,0.08214942,2.08886242,0.76542372,0.17243916,0.98136932,0.00000000,0.00000000
-0.04757658,-2.16000056,-0.55740869,-0.17671642,-1.84591639,0.00000000,0.00000000,0.06307735,2.08353591,0.76875716,0.16105641,0.98905456,0.00000000,0.00000000
-0.05280178,-2.15645504,-0.55542976,-0.16451244,-1.85464382,0.00000000,0.00000000,0.04558513,2.07878399,0.77271247,0.15054359,0.99036264,0.00000000,0.00000000
-0.05621845,-2.15315151,-0.55301207,-0.15337771,-1.86859024,0.00000000,0.00000000,0.02970859,2.07511711,0.77732050,0.14112943,0.99743158,0.00000000,0.00000000
-0.05785765,-2.15027785,-0.55022460,-0.14338182,-1.88707399,0.00000000,0.00000000,0.01542178,2.07300115,0.78260529,0.13299678,1.00229418,0.00000000,0.00000000
-0.05781241,-2.14800382,-0.54713619,-0.13460529,-1.90873098,0.00000000,0.00000000,0.00273908,2.07281852,0.78859377,0.12633193,1.01148474,0.00000000,0.00000000
-0.05625804,-2.14649606,-0.54381442,-0.12716244,-1.92886257,0.00000000,0.00000000,-0.00820222,2.07482481,0.79532230,0.12135851,1.02076733,0.00000000,0.00000000
-0.05344193,-2.14589620,-0.54032356,-0.12119810,-1.94638789,0.00000000,0.00000000,-0.01712695,2.07911825,0.80283791,0.11833535,1.02576005,0.00000000,0.00000000
-0.04964903,-2.14628839,-0.53672135,-0.11686072,-1.95365489,0.00000000,0.00000000,-0.02366401,2.08560872,0.81119627,0.11752389,1.02571750,0.00000000,0.00000000
-0.04516530,-2.14767313,-0.53305584,-0.11427101,-1.95655441,0.00000000,0.00000000,-0.02741293,2.09399414,0.82045841,0.11914672,1.02350080,0.00000000,0.00000000
-0.04025830,-2.14996910,-0.52936339,-0.11350612,-1.96391177,0.00000000,0.00000000,-0.02801190,2.10377431,0.83068603,0.12336138,1.01748574,0.00000000,0.00000000
-0.03517127,-2.15302515,-0.52566755,-0.11459877,-1.97375011,0.00000000,0.00000000,-0.02519206,2.11431122,0.84193659,0.13025874,1.00711715,0.00000000,0.00000000
-0.03011029,-2.15662193,-0.52197951,-0.11753310,-1.98237777,0.00000000,0.00000000,-0.01880829,2.12489700,0.85425866,0.13986708,0.99533421,0.00000000,0.00000000
-0.02521603,-2.16046309,-0.51829797,-0.12222948,-1.99317622,0.00000000,0.00000000,-0.00884770,2.13478088,0.86769259,0.15214594,0.98640484,0.00000000,0.00000000
-0.02053942,-2.16417336,-0.51460952,-0.12853503,-2.00484061,0.00000000,0.00000000,0.00457223,2.14319348,0.88227123,0.16698287,0.97953266,0.00000000,0.00000000
-0.01604557,-2.16730380,-0.51089084,-0.13622740,-2.01616168,0.00000000,0.00000000,0.02120712,2.14941001,0.89801687,0.18420576,0.97544563,0.00000000,0.00000000
-0.01165095,-2.16929770,-0.50711602,-0.14500181,-2.03231835,0.00000000,0.00000000,0.04070128,2.15280890,0.91493529,0.20359766,0.97323710,0.00000000,0.00000000
-0.00727373,-2.16992569,-0.50326955,-0.15440388,-2.04989552,0.00000000,0.00000000,0.06259271,2.15289164,0.93300897,0.22488791,0.96773970,0.00000000,0.00000000
-0.00287597,-2.16999769,-0.49935886,-0.16378376,-2.06997228,0.00000000,0.00000000,0.08618454,2.14931560,0.95217389,0.24769078,0.96769744,0.00000000,0.00000000
0.00149343,-2.17000008,-0.49541697,-0.17238966,-2.09110808,0.00000000,0.00000000,0.11036173,2.14207697,0.97227132,0.27148658,0.97036356,0.00000000,0.00000000
0.00560558,-2.17000008,-0.49150068,-0.17955117,-2.10697770,0.00000000,0.00000000,0.13451393,2.13215089,0.99303412,0.29619068,0.97162062,0.00000000,0.00000000
0.00882461,-2.17000008,-0.48769182,-0.18496878,-2.11929250,0.00000000,0.00000000,0.15899876,2.12203407,1.01400638,0.32215914,0.97709674,0.00000000,0.00000000
0.01011746,-2.17000008,-0.48409608,-0.18870305,-2.13264418,0.00000000,0.00000000,0.18178609,2.11336756,1.03454781,0.34755334,0.98038054,0.00000000,0.00000000
0.00888779,-2.17000008,-0.48079190,-0.19061080,-2.14613628,0.00000000,0.00000000,0.20005903,2.10449386,1.05446839,0.36913583,0.98621821,0.00000000,0.00000000
0.00513801,-2.17000008,-0.47780609,-0.19039319,-2.16334891,0.00000000,0.00000000,0.21295141,2.09509492,1.07359195,0.38586533,0.99411047,0.00000000,0.00000000
-0.00107625,-2.17000008,-0.47514552,-0.18805794,-2.18246436,0.00000000,0.00000000,0.22068961,2.08634615,1.09161210,0.39824137,0.99924213,0.00000000,0.00000000
-0.01080057,-2.17000008,-0.47286257,-0.18472382,-2.19596648,0.00000000,0.00000000,0.22375184,2.07926393,1.10828745,0.40704843,1.00415659,0.00000000,0.00000000
-0.02464443,-2.17000008,-0.47103763,-0.18049988,-2.20905113,0.00000000,0.00000000,0.22285131,2.07460403,1.12346637,0.41320249,1.01394820,0.00000000,0.00000000
-0.04087267,-2.16992664,-0.46963131,-0.17355762,-2.21346664,0.00000000,0.00000000,0.21865427,2.07303953,1.13702226,0.41759139,1.02463484,0.00000000,0.00000000
-0.05762388,-2.16876984,-0.46838757,-0.16450183,-2.21020699,0.00000000,0.00000000,0.21161096,2.07525301,1.14880967,0.42096016,1.03479302,0.00000000,0.00000000
-0.07375769,-2.16460323,-0.46710604,-0.15465736,-2.20867705,0.00000000,0.00000000,0.20178252,2.08152699,1.15873516,0.42364976,1.04896021,0.00000000,0.00000000
-0.08828812,-2.15804124,-0.46569282,-0.14466624,-2.21182656,0.00000000,0.00000000,0.18891953,2.09160089,1.16679633,0.42557922,1.06939518,0.00000000,0.00000000
-0.10078682,-2.15008450,-0.46415150,-0.13489488,-2.21099687,0.00000000,0.00000000,0.17271154,2.10471439,1.17309844,0.42639920,1.09445274,0.00000000,0.00000000
-0.11157428,-2.14128399,-0.46256074,-0.12573300,-2.21025944,0.00000000,0.00000000,0.15303834,2.11963534,1.17787552,0.42566311,1.11043823,0.00000000,0.00000000
-0.12134840,-2.13204432,-0.46102434,-0.11756048,-2.20501399,0.00000000,0.00000000,0.13007720,2.13478160,1.18147588,0.42296433,1.13022053,0.00000000,0.00000000
-0.13099220,-2.12281394,-0.45964539,-0.11078264,-2.20098519,0.00000000,0.00000000,0.10434061,2.14850402,1.18430448,0.41808966,1.14837396,0.00000000,0.00000000
-0.14105742,-2.11414170,-0.45849082,-0.10571784,-2.19884515,0.00000000,0.00000000,0.07663669,2.15941286,1.18674207,0.41114590,1.16460729,0.00000000,0.00000000
-0.15153439,-2.10639310,-0.45758855,-0.10240000,-2.20118642,0.00000000,0.00000000,0.04806670,2.16643858,1.18914175,0.40260854,1.18195570,0.00000000,0.00000000
-0.16193873,-2.09965014,-0.45693675,-0.10056523,-2.20317936,0.00000000,0.00000000,0.02001974,2.16937494,1.19192398,0.39322627,1.20309472,0.00000000,0.00000000
-0.17148668,-2.09380245,-0.45651317,-0.09975372,-2.20621586,0.00000000,0.00000000,-0.00598647,2.16996670,1.19559336,0.38387534,1.22691822,0.00000000,0.00000000
-0.17953990,-2.08892202,-0.45629275,-0.09963585,-2.20978475,0.00000000,0.00000000,-0.02863685,2.16997385,1.20048571,0.37557557,1.25002754,0.00000000,0.00000000
-0.18591402,-2.08538222,-0.45626274,-0.10017154,-2.21506310,0.00000000,0.00000000,-0.04708764,2.16955590,1.20651984,0.36950871,1.27846181,0.00000000,0.00000000
-0.19057044,-2.08359146,-0.45641232,-0.10139123,-2.21573710,0.00000000,0.00000000,-0.06113818,2.16798091,1.21324623,0.36674535,1.30204952,0.00000000,0.00000000
-0.19350561,-2.08376098,-0.45673034,-0.10324634,-2.21991348,0.00000000,0.00000000,-0.07119033,2.16547871,1.22013330,0.36785519,1.32910049,0.00000000,0.00000000
-0.19478889,-2.08577347,-0.45721015,-0.10555834,-2.22002387,0.00000000,0.00000000,-0.07797372,2.16299820,1.22679389,0.37281290,1.35837591,0.00000000,0.00000000
-0.19441211,-2.08943987,-0.45783737,-0.10811547,-2.22391152,0.00000000,0.00000000,-0.08223058,2.16130066,1.23296440,0.38131410,1.38415301,0.00000000,0.00000000
-0.19228072,-2.09469485,-0.45858747,-0.11078555,-2.21857095,0.00000000,0.00000000,-0.08447333,2.16078806,1.23844635,0.39310211,1.40806222,0.00000000,0.00000000
-0.18828447,-2.10140705,-0.45943695,-0.11344590,-2.21247387,0.00000000,0.00000000,-0.08494219,2.16155481,1.24309540,0.40805212,1.43395531,0.00000000,0.00000000
-0.18244259,-2.10916948,-0.46038043,-0.11591215,-2.20045424,0.00000000,0.00000000,-0.08371346,2.16341066,1.24681354,0.42610040,1.45760882,0.00000000,0.00000000
-0.17502488,-2.11745238,-0.46143508,-0.11805610,-2.17995620,0.00000000,0.00000000,-0.08085608,2.16590405,1.24953580,0.44712278,1.48160386,0.00000000,0.00000000
-0.16640659,-2.12589455,-0.46262434,-0.11993313,-2.16179490,0.00000000,0.00000000,-0.07659258,2.16826749,1.25125432,0.47076878,1.50958025,0.00000000,0.00000000
-0.15695249,-2.13428283,-0.46396977,-0.12174825,-2.14411807,0.00000000,0.00000000,-0.07131156,2.16963601,1.25216508,0.49629766,1.53729582,0.00000000,0.00000000
-0.14721720,-2.14241862,-0.46550605,-0.12380539,-2.12435102,0.00000000,0.00000000,-0.06545044,2.16997910,1.25274742,0.52261710,1.56739175,0.00000000,0.00000000
-0.13782570,-2.15006113,-0.46727324,-0.12636992,-2.10275197,0.00000000,0.00000000,-0.05955888,2.17000008,1.25348949,0.54853851,1.59573734,0.00000000,0.00000000
-0.12924537,-2.15688014,-0.46930403,-0.12954101,-2.07612777,0.00000000,0.00000000,-0.05434394,2.17000008,1.25463521,0.57297313,1.62390983,0.00000000,0.00000000
-0.12183053,-2.16258907,-0.47162291,-0.13334595,-2.05396509,0.00000000,0.00000000,-0.05049966,2.17000008,1.25622094,0.59501457,1.65536582,0.00000000,0.00000000
-0.11587357,-2.16689777,-0.47424975,-0.13778476,-2.03482294,0.00000000,0.00000000,-0.04853354,2.17000008,1.25827742,0.61391521,1.68510270,0.00000000,0.00000000
-0.11152489,-2.16933131,-0.47720113,-0.14272085,-2.01139665,0.00000000,0.00000000,-0.04872847,2.17000008,1.26097667,0.62903374,1.71035254,0.00000000,0.00000000
-0.10876674,-2.16996098,-0.48049429,-0.14779931,-1.99477661,0.00000000,0.00000000,-0.05117787,2.17000008,1.26462543,0.63984561,1.73369277,0.00000000,0.00000000
-0.10752423,-2.17000008,-0.48415053,-0.15254225,-1.98268425,0.00000000,0.00000000,-0.05583156,2.17000008,1.26951432,0.64602280,1.75729430,0.00000000,0.00000000
-0.10773511,-2.16996765,-0.48818427,-0.15654817,-1.96723866,0.00000000,0.00000000,-0.06255297,2.17000008,1.27569783,0.64751452,1.77535009,0.00000000,0.00000000
-0.10945770,-2.16942954,-0.49259073,-0.15976219,-1.95395553,0.00000000,0.00000000,-0.07117975,2.17000008,1.28289235,0.64453685,1.78476191,0.00000000,0.00000000
-0.11293305,-2.16713500,-0.49734908,-0.16252391,-1.93349600,0.00000000,0.00000000,-0.08155461,2.16999507,1.29058123,0.63747084,1.79110670,0.00000000,0.00000000
-0.11834797,-2.16253161,-0.50242937,-0.16518874,-1.91145873,0.00000000,0.00000000,-0.09351718,2.16986632,1.29818475,0.62676489,1.80299807,0.00000000,0.00000000
-0.12560250,-2.15617275,-0.50778466,-0.16790357,-1.89129841,0.00000000,0.00000000,-0.10688688,2.16876364,1.30508888,0.61293316,1.81459165,0.00000000,0.00000000
-0.13441142,-2.14876938,-0.51335102,-0.17072842,-1.87067127,0.00000000,0.00000000,-0.12140255,2.16533899,1.31070900,0.59656096,1.82244551,0.00000000,0.00000000
-0.14448120,-2.14091420,-0.51906371,-0.17373633,-1.85095775,0.00000000,0.00000000,-0.13666919,2.16017103,1.31469059,0.57820976,1.83006692,0.00000000,0.00000000
-0.15535389,-2.13302016,-0.52484965,-0.17693341,-1.83037317,0.00000000,0.00000000,-0.15226179,2.15436506,1.31694627,0.55831665,1.83866763,0.00000000,0.00000000
-0.16637297,-2.12539482,-0.53062081,-0.18026239,-1.80842626,0.00000000,0.00000000,-0.16775618,2.14862490,1.31756139,0.53721672,1.84948409,0.00000000,0.00000000
-0.17687701,-2.11845660,-0.53627902,-0.18373059,-1.78357613,0.00000000,0.00000000,-0.18265966,2.14338493,1.31671333,0.51523566,1.86045682,0.00000000,0.00000000
-0.18643920,-2.11271691,-0.54174030,-0.18745938,-1.75781119,0.00000000,0.00000000,-0.19637175,2.13903213,1.31459939,0.49282521,1.87188172,0.00000000,0.00000000
-0.19492175,-2.10844970,-0.54695815,-0.19154932,-1.73137856,0.00000000,0.00000000,-0.20842086,2.13615060,1.31134939,0.47057220,1.88042426,0.00000000,0.00000000
-0.20213872,-2.10582566,-0.55188322,-0.19606574,-1.70551693,0.00000000,0.00000000,-0.21909194,2.13531184,1.30704594,0.44881564,1.88702595,0.00000000,0.00000000
-0.20781730,-2.10502434,-0.55645108,-0.20107628,-1.67840159,0.00000000,0.00000000,-0.22891800,2.13643742,1.30192494,0.42777973,1.88919258,0.00000000,0.00000000
-0.21188806,-2.10617971,-0.56061113,-0.20666979,-1.65343654,0.00000000,0.00000000,-0.23773101,2.13894629,1.29637361,0.40808785,1.88299656,0.00000000,0.00000000
-0.21452633,-2.10938168,-0.56433177,-0.21293853,-1.62567711,0.00000000,0.00000000,-0.24480161,2.14246082,1.29072380,0.39068857,1.87728894,0.00000000,0.00000000
-0.21589051,-2.11457229,-0.56758225,-0.21986097,-1.60472476,0.00000000,0.00000000,-0.24960285,2.14686751,1.28518975,0.37635106,1.86701310,0.00000000,0.00000000
-0.21594684,-2.12146330,-0.57032186,-0.22724164,-1.58197701,0.00000000,0.00000000,-0.25198844,2.15200949,1.27993143,0.36547503,1.85716331,0.00000000,0.00000000
-0.21460021,-2.12953329,-0.57251668,-0.23477527,-1.56799197,0.00000000,0.00000000,-0.25196022,2.15749168,1.27510548,0.35818586,1.84774733,0.00000000,0.00000000
-0.21183428,-2.13817191,-0.57414818,-0.24217571,-1.56299639,0.00000000,0.00000000,-0.24946709,2.16267681,1.27087462,0.35448122,1.83720362,0.00000000,0.00000000
-0.20763209,-2.14687920,-0.57519203,-0.24926975,-1.55928743,0.00000000,0.00000000,-0.24437992,2.16683888,1.26738191,0.35430688,1.82004511,0.00000000,0.00000000
-0.20186737,-2.15524244,-0.57560986,-0.25597239,-1.55884504,0.00000000,0.00000000,-0.23656240,2.16928911,1.26475310,0.35753116,1.80504179,0.00000000,0.00000000
-0.19442441,-2.16258931,-0.57539344,-0.26216665,-1.55282485,0.00000000,0.00000000,-0.22607177,2.16993380,1.26313865,0.36377916,1.78151643,0.00000000,0.00000000
-0.18544610,-2.16768503,-0.57460833,-0.26772097,-1.55128169,0.00000000,0.00000000,-0.21326400,2.16966057,1.26263690,0.37243167,1.75758040,0.00000000,0.00000000
-0.17518719,-2.16965055,-0.57334572,-0.27256635,-1.55074906,0.00000000,0.00000000,-0.19854006,2.16817641,1.26308215,0.38298792,1.73202920,0.00000000,0.00000000
-0.16375786,-2.16998315,-0.57167977,-0.27662259,-1.54445696,0.00000000,0.00000000,-0.18221593,2.16504741,1.26414037,0.39507183,1.70164227,0.00000000,0.00000000
-0.15187110,-2.17000008,-0.56980288,-0.27989215,-1.53647482,0.00000000,0.00000000,-0.16456223,2.16083765,1.26545656,0.40828434,1.67190886,0.00000000,0.00000000
-0.14057425,-2.17000008,-0.56792575,-0.28274754,-1.53294444,0.00000000,0.00000000,-0.14641510,2.15568829,1.26687181,0.42173207,1.64002216,0.00000000,0.00000000
-0.13078450,-2.17000008,-0.56627381,-0.28533089,-1.53478587,0.00000000,0.00000000,-0.12866604,2.14981508,1.26822925,0.43458894,1.60738826,0.00000000,0.00000000
-0.12278044,-2.17000008,-0.56503785,-0.28719369,-1.53368163,0.00000000,0.00000000,-0.11162151,2.14412570,1.26924658,0.44661838,1.57516086,0.00000000,0.00000000
-0.11636417,-2.17000008,-0.56427521,-0.28804365,-1.53492379,0.00000000,0.00000000,-0.09569018,2.13906407,1.26974833,0.45752949,1.54800045,0.00000000,0.00000000
-0.11140747,-2.17000008,-0.56401485,-0.28778172,-1.53320432,0.00000000,0.00000000,-0.08122683,2.13477516,1.26964617,0.46708289,1.52098274,0.00000000,0.00000000
-0.10782526,-2.17000008,-0.56426746,-0.28641260,-1.53752589,0.00000000,0.00000000,-0.06844460,2.13136744,1.26888037,0.47519463,1.49602151,0.00000000,0.00000000
-0.10544026,-2.17000008,-0.56499249,-0.28408113,-1.54500246,0.00000000,0.00000000,-0.05742759,2.12902427,1.26738000,0.48193839,1.46624279,0.00000000,0.00000000
-0.10401941,-2.17000008,-0.56611145,-0.28105715,-1.54504323,0.00000000,0.00000000,-0.04815165,2.12799549,1.26505470,0.48749021,1.43658078,0.00000000,0.00000000
-0.10335635,-2.17000008,-0.56754118,-0.27765691,-1.54685032,0.00000000,0.00000000,-0.04055835,2.12846637,1.26182568,0.49201018,1.40996039,0.00000000,0.00000000
-0.10329936,-2.17000008,-0.56921077,-0.27419081,-1.54494488,0.00000000,0.00000000,-0.03460297,2.13044119,1.25765991,0.49555954,1.38362277,0.00000000,0.00000000
-0.10371793,-2.17000008,-0.57105517,-0.27097785,-1.54305232,0.00000000,0.00000000,-0.03022641,2.13369656,1.25259459,0.49809411,1.35676014,0.00000000,0.00000000
-0.10446628,-2.17000008,-0.57300752,-0.26833376,-1.54055524,0.00000000,0.00000000,-0.02732388,2.13779640,1.24673522,0.49949452,1.32584751,0.00000000,0.00000000
-0.10539560,-2.17000008,-0.57501048,-0.26650769,-1.53885281,0.00000000,0.00000000,-0.02575563,2.14218068,1.24022985,0.49961293,1.29475248,0.00000000,0.00000000
-0.10640896,-2.17000008,-0.57703239,-0.26564968,-1.53567648,0.00000000,0.00000000,-0.02535782,2.14628363,1.23323452,0.49833521,1.26582503,0.00000000,0.00000000
-0.10750380,-2.17000008,-0.57907015,-0.26584238,-1.52982903,0.00000000,0.00000000,-0.02593676,2.14963078,1.22588587,0.49563670,1.23962235,0.00000000,0.00000000
-0.10876776,-2.17000008,-0.58114535,-0.26712629,-1.52546036,0.00000000,0.00000000,-0.02728588,2.15185642,1.21829426,0.49157876,1.21517146,0.00000000,0.00000000
-0.11032763,-2.17000008,-0.58329630,-0.26948220,-1.52126276,0.00000000,0.00000000,-0.02924846,2.15265226,1.21055019,0.48623911,1.19446397,0.00000000,0.00000000
-0.11227961,-2.17000008,-0.58556449,-0.27282152,-1.51758361,0.00000000,0.00000000,-0.03177403,2.15174222,1.20272720,0.47964615,1.17805195,0.00000000,0.00000000
-0.11465394,-2.17000008,-0.58797872,-0.27702123,-1.51345479,0.00000000,0.00000000,-0.03489791,2.14897180,1.19486237,0.47179613,1.15773654,0.00000000,0.00000000
-0.11742423,-2.17000008,-0.59054917,-0.28194860,-1.50890601,0.00000000,0.00000000,-0.03866555,2.14443278,1.18693316,0.46273506,1.14254057,0.00000000,0.00000000
-0.12050817,-2.17000008,-0.59327292,-0.28742066,-1.50081992,0.00000000,0.00000000,-0.04306702,2.13845849,1.17887080,0.45261335,1.12748337,0.00000000,0.00000000
-0.12375025,-2.17000008,-0.59613603,-0.29316360,-1.48604238,0.00000000,0.00000000,-0.04798898,2.13147187,1.17060435,0.44167796,1.11286855,0.00000000,0.00000000
-0.12695281,-2.17000008,-0.59910500,-0.29889861,-1.46430421,0.00000000,0.00000000,-0.05318519,2.12389660,1.16208816,0.43023846,1.10058367,0.00000000,0.00000000
-0.12991795,-2.17000008,-0.60210931,-0.30451784,-1.44555354,0.00000000,0.00000000,-0.05833190,2.11616278,1.15329254,0.41861066,1.08874619,0.00000000,0.00000000
-0.13243043,-2.17000008,-0.60504699,-0.31010199,-1.42697895,0.00000000,0.00000000,-0.06314033,2.10864925,1.14420450,0.40703049,1.06868982,0.00000000,0.00000000
-0.13430987,-2.17000008,-0.60783339,-0.31576979,-1.41303575,0.00000000,0.00000000,-0.06741549,2.10153651,1.13485336,0.39558873,1.05647492,0.00000000,0.00000000
-0.13557172,-2.17000008,-0.61042923,-0.32166716,-1.39070392,0.00000000,0.00000000,-0.07109455,2.09474039,1.12531435,0.38420898,1.04926813,0.00000000,0.00000000
-0.13641779,-2.17000008,-0.61282307,-0.32792678,-1.37013817,0.00000000,0.00000000,-0.07408977,2.08817363,1.11566591,0.37281671,1.04568624,0.00000000,0.00000000
-0.13688895,-2.17000008,-0.61499834,-0.33437175,-1.34810877,0.00000000,0.00000000,-0.07597543,2.08218288,1.10593379,0.36162144,1.04369390,0.00000000,0.00000000
-0.13672914,-2.17000008,-0.61693537,-0.34036723,-1.33323717,0.00000000,0.00000000,-0.07684763,2.07701731,1.09611452,0.35047561,1.04422069,0.00000000,0.00000000
-0.13567463,-2.17000008,-0.61862576,-0.34516215,-1.31908894,0.00000000,0.00000000,-0.07762211,2.07255125,1.08620524,0.33864856,1.05206192,0.00000000,0.00000000
-0.13374853,-2.17000008,-0.62011355,-0.34809467,-1.30221248,0.00000000,0.00000000,-0.07660187,2.06964469,1.07629037,0.32725766,1.06240642,0.00000000,0.00000000
-0.13109176,-2.17000008,-0.62138569,-0.34890151,-1.28103232,0.00000000,0.00000000,-0.07200973,2.06764197,1.06673717,0.31729871,1.07229364,0.00000000,0.00000000
-0.12804446,-2.17000008,-0.62241369,-0.34769833,-1.26471353,0.00000000,0.00000000,-0.06450702,2.06510496,1.05779779,0.30823350,1.08113396,0.00000000,0.00000000
-0.12489913,-2.17000008,-0.62313634,-0.34482437,-1.24770415,0.00000000,0.00000000,-0.05494067,2.06132388,1.04956734,0.29967394,1.08880568,0.00000000,0.00000000
-0.12144461,-2.17000008,-0.62339306,-0.34067205,-1.23289692,0.00000000,0.00000000,-0.04349636,2.05640197,1.04207134,0.29193515,1.10004759,0.00000000,0.00000000
-0.11723165,-2.17000008,-0.62303042,-0.33553022,-1.21940649,0.00000000,0.00000000,-0.03017801,2.05077600,1.03530562,0.28555378,1.11336792,0.00000000,0.00000000
-0.11197773,-2.17000008,-0.62196952,-0.32967082,-1.21811354,0.00000000,0.00000000,-0.01550267,2.04452205,1.02927363,0.28056890,1.12183571,0.00000000,0.00000000
-0.10571115,-2.17000008,-0.62022430,-0.32333693,-1.21287751,0.00000000,0.00000000,-0.00021151,2.03733397,1.02400708,0.27655560,1.13074744,0.00000000,0.00000000
-0.09878159,-2.17000008,-0.61792147,-0.31661034,-1.21312523,0.00000000,0.00000000,0.01534948,2.02930808,1.01950622,0.27329785,1.13887107,0.00000000,0.00000000
-0.09169807,-2.17000008,-0.61524785,-0.30944300,-1.21555007,0.00000000,0.00000000,0.03095012,2.02099848,1.01571071,0.27079794,1.14226508,0.00000000,0.00000000
-0.08497351,-2.17000008,-0.61238462,-0.30178869,-1.22330284,0.00000000,0.00000000,0.04626640,2.01312113,1.01251924,0.26911506,1.15317929,0.00000000,0.00000000
-0.07905426,-2.17000008,-0.60946923,-0.29370818,-1.23636067,0.00000000,0.00000000,0.06098127,2.00636029,1.00981688,0.26835641,1.16273904,0.00000000,0.00000000
-0.07427199,-2.17000008,-0.60658139,-0.28538772,-1.24952507,0.00000000,0.00000000,0.07488916,2.00120735,1.00750256,0.26866636,1.16593492,0.00000000,0.00000000
-0.07078610,-2.17000008,-0.60374010,-0.27708834,-1.26915646,0.00000000,0.00000000,0.08789012,1.99791539,1.00549376,0.27018353,1.16613305,0.00000000,0.00000000
-0.06857703,-2.17000008,-0.60091692,-0.26906848,-1.29026771,0.00000000,0.00000000,0.09990188,1.99660373,1.00370860,0.27300158,1.16554606,0.00000000,0.00000000
-0.06754348,-2.17000008,-0.59806871,-0.26151773,-1.31003666,0.00000000,0.00000000,0.11079539,1.99736810,1.00204945,0.27715969,1.16592455,0.00000000,0.00000000
-0.06761766,-2.17000008,-0.59516895,-0.25452328,-1.32817078,0.00000000,0.00000000,0.12039053,2.00029755,1.00040042,0.28265011,1.16828108,0.00000000,0.00000000
-0.06879041,-2.17000008,-0.59221268,-0.24809133,-1.34532273,0.00000000,0.00000000,0.12843192,2.00543118,0.99863124,0.28940228,1.17413294,0.00000000,0.00000000
-0.07105657,-2.16999555,-0.58919781,-0.24222186,-1.36347377,0.00000000,0.00000000,0.13442373,2.01271820,0.99658364,0.29719359,1.17690253,0.00000000,0.00000000
-0.07437699,-2.16991186,-0.58610511,-0.23700380,-1.38504553,0.00000000,0.00000000,0.13768144,2.02218986,0.99405062,0.30572370,1.18263268,0.00000000,0.00000000
-0.07869586,-2.16945720,-0.58289200,-0.23266667,-1.41112018,0.00000000,0.00000000,0.13841173,2.03422308,0.99085575,0.31507263,1.18931675,0.00000000,0.00000000
-0.08396072,-2.16847348,-0.57950234,-0.22952643,-1.43447995,0.00000000,0.00000000,0.13773414,2.04884434,0.98697400,0.32520005,1.19578588,0.00000000,0.00000000
-0.08997045,-2.16756511,-0.57586890,-0.22779503,-1.44929206,0.00000000,0.00000000,0.13564160,2.06539679,0.98237395,0.33503538,1.20590341,0.00000000,0.00000000
-0.09612822,-2.16726255,-0.57190138,-0.22737986,-1.46069896,0.00000000,0.00000000,0.13206324,2.08271790,0.97711325,0.34339005,1.22094142,0.00000000,0.00000000
-0.10173283,-2.16788864,-0.56751275,-0.22805446,-1.47019684,0.00000000,0.00000000,0.12748469,2.09907365,0.97142738,0.34939942,1.23532867,0.00000000,0.00000000
-0.10605143,-2.16917801,-0.56265867,-0.22931919,-1.48519444,0.00000000,0.00000000,0.12261008,2.11256790,0.96562487,0.35248902,1.24393833,0.00000000,0.00000000
-0.10811754,-2.16986656,-0.55737931,-0.22994888,-1.50314200,0.00000000,0.00000000,0.11830102,2.12164736,0.95999128,0.35246480,1.24468803,0.00000000,0.00000000
-0.10776761,-2.16999340,-0.55183697,-0.22888801,-1.52282596,0.00000000,0.00000000,0.11511816,2.12557769,0.95465171,0.34938970,1.25046074,0.00000000,0.00000000
-0.10581117,-2.17000008,-0.54622936,-0.22595282,-1.54083610,0.00000000,0.00000000,0.11295396,2.12458944,0.94950759,0.34338728,1.24852073,0.00000000,0.00000000
-0.10301469,-2.17000008,-0.54070038,-0.22130132,-1.55800200,0.00000000,0.00000000,0.11122523,2.11949444,0.94433492,0.33456919,1.24673831,0.00000000,0.00000000
-0.09979011,-2.17000008,-0.53536689,-0.21493739,-1.57279480,0.00000000,0.00000000,0.10924807,2.11137772,0.93888932,0.32312405,1.24330759,0.00000000,0.00000000
-0.09684493,-2.17000008,-0.53040743,-0.20675695,-1.59192550,0.00000000,0.00000000,0.10646344,2.10151577,0.93294936,0.30942541,1.23962986,0.00000000,0.00000000
-0.09571755,-2.17000008,-0.52602196,-0.19739546,-1.60901058,0.00000000,0.00000000,0.10251746,2.09130073,0.92633808,0.29405195,1.23852789,0.00000000,0.00000000
-0.09722086,-2.17000008,-0.52222961,-0.18794213,-1.62248445,0.00000000,0.00000000,0.09723783,2.08203006,0.91894460,0.27768892,1.24352086,0.00000000,0.00000000
-0.10103091,-2.17000008,-0.51897794,-0.17861070,-1.63259029,0.00000000,0.00000000,0.09057618,2.07481384,0.91072220,0.26105884,1.24645710,0.00000000,0.00000000
-0.10662225,-2.16997266,-0.51621044,-0.16944528,-1.63978314,0.00000000,0.00000000,0.08257966,2.07063937,0.90166730,0.24493408,1.24836469,0.00000000,0.00000000
-0.11339679,-2.16954350,-0.51384085,-0.16079326,-1.64287591,0.00000000,0.00000000,0.07336700,2.07034302,0.89181232,0.23009011,1.25156033,0.00000000,0.00000000
-0.12068865,-2.16802526,-0.51178533,-0.15302265,-1.65116727,0.00000000,0.00000000,0.06307471,2.07441020,0.88123178,0.21715082,1.25424421,0.00000000,0.00000000
-0.12803730,-2.16569519,-0.51001227,-0.14629592,-1.65719688,0.00000000,0.00000000,0.05184073,2.08278036,0.87004542,0.20645384,1.25524950,0.00000000,0.00000000
-0.13534527,-2.16285205,-0.50855011,-0.14057668,-1.65833604,0.00000000,0.00000000,0.03989830,2.09483695,0.85841286,0.19806942,1.26202524,0.00000000,0.00000000
-0.14277320,-2.15965748,-0.50744975,-0.13583872,-1.65905964,0.00000000,0.00000000,0.02767476,2.10953689,0.84651959,0.19190358,1.26984143,0.00000000,0.00000000
-0.15047131,-2.15644455,-0.50674522,-0.13216476,-1.65929043,0.00000000,0.00000000,0.01576214,2.12557793,0.83455986,0.18777668,1.27553010,0.00000000,0.00000000
-0.15833057,-2.15364647,-0.50643903,-0.12963434,-1.65955007,0.00000000,0.00000000,0.00478574,2.14149499,0.82272351,0.18544383,1.28678489,0.00000000,0.00000000
-0.16594230,-2.15162015,-0.50650775,-0.12820691,-1.65530109,0.00000000,0.00000000,-0.00466117,2.15555215,0.81120682,0.18456134,1.30146003,0.00000000,0.00000000
-0.17276172,-2.15052009,-0.50692016,-0.12770180,-1.65213990,0.00000000,0.00000000,-0.01194535,2.16533232,0.80026561,0.18452395,1.31608605,0.00000000,0.00000000
-0.17829932,-2.15014982,-0.50765723,-0.12778431,-1.64969206,0.00000000,0.00000000,-0.01633353,2.16925335,0.79028851,0.18410407,1.32923591,0.00000000,0.00000000
-0.18221362,-2.14992738,-0.50872058,-0.12798606,-1.64775193,0.00000000,0.00000000,-0.01713219,2.16996241,0.78175634,0.18148081,1.34063113,0.00000000,0.00000000
-0.18428047,-2.14935732,-0.51011467,-0.12794177,-1.65213656,0.00000000,0.00000000,-0.01394518,2.17000008,0.77498883,0.17531654,1.35308540,0.00000000,0.00000000
-0.18434173,-2.14845967,-0.51182860,-0.12759067,-1.65148139,0.00000000,0.00000000,-0.00681005,2.16990972,0.76994413,0.16579315,1.37019277,0.00000000,0.00000000
-0.18232100,-2.14773512,-0.51383978,-0.12715453,-1.65681219,0.00000000,0.00000000,0.00382995,2.16849637,0.76625842,0.15467806,1.38424218,0.00000000,0.00000000
-0.17828007,-2.14769554,-0.51613545,-0.12690449,-1.66168106,0.00000000,0.00000000,0.01725170,2.16359854,0.76347250,0.14433353,1.39582253,0.00000000,0.00000000
-0.17246783,-2.14836144,-0.51873493,-0.12691393,-1.67148578,0.00000000,0.00000000,0.03263668,2.15674520,0.76125747,0.13639958,1.40297103,0.00000000,0.00000000
-0.16534592,-2.14948535,-0.52168185,-0.12719271,-1.68492818,0.00000000,0.00000000,0.04924974,2.15022302,0.75943476,0.13156478,1.40999949,0.00000000,0.00000000
-0.15757631,-2.15090370,-0.52502936,-0.12787989,-1.69958794,0.00000000,0.00000000,0.06647156,2.14552569,0.75789291,0.12999722,1.41790485,0.00000000,0.00000000
-0.14990479,-2.15256596,-0.52883011,-0.12923050,-1.71945894,0.00000000,0.00000000,0.08370701,2.14365673,0.75653642,0.13157482,1.42076945,0.00000000,0.00000000
-0.14300191,-2.15445805,-0.53312743,-0.13152359,-1.73937881,0.00000000,0.00000000,0.10029658,2.14504933,0.75527716,0.13583234,1.43021953,0.00000000,0.00000000
-0.13741170,-2.15655065,-0.53795224,-0.13501573,-1.75825298,0.00000000,0.00000000,0.11551093,2.14933109,0.75404727,0.14186344,1.44612789,0.00000000,0.00000000
-0.13362452,-2.15869284,-0.54333174,-0.13990703,-1.77357471,0.00000000,0.00000000,0.12863103,2.15524197,0.75281906,0.14837199,1.45499730,0.00000000,0.00000000
-0.13198867,-2.16046047,-0.54928929,-0.14621507,-1.79018104,0.00000000,0.00000000,0.13907801,2.16114569,0.75159711,0.15406172,1.46881604,0.00000000,0.00000000
-0.13237801,-2.16135883,-0.55581290,-0.15371212,-1.80873966,0.00000000,0.00000000,0.14648367,2.16579604,0.75038624,0.15807976,1.48016322,0.00000000,0.00000000
-0.13421071,-2.16108418,-0.56284112,-0.16200292,-1.82770014,0.00000000,0.00000000,0.15065324,2.16864824,0.74917561,0.16008449,1.49018598,0.00000000,0.00000000
-0.13661200,-2.15922403,-0.57028037,-0.17037848,-1.84645259,0.00000000,0.00000000,0.15152949,2.16976452,0.74796081,0.15996471,1.50072849,0.00000000,0.00000000
-0.13898289,-2.15641117,-0.57799023,-0.17863184,-1.86199260,0.00000000,0.00000000,0.14917107,2.16981912,0.74675012,0.15768781,1.50905192,0.00000000,0.00000000
-0.14160317,-2.15374875,-0.58587086,-0.18715990,-1.88305509,0.00000000,0.00000000,0.14356020,2.16885448,0.74558353,0.15299247,1.51328182,0.00000000,0.00000000
-0.14500634,-2.15186739,-0.59387171,-0.19632746,-1.90220356,0.00000000,0.00000000,0.13479644,2.16650915,0.74452609,0.14570324,1.51147950,0.00000000,0.00000000
-0.14934069,-2.15066719,-0.60195357,-0.20613249,-1.91519678,0.00000000,0.00000000,0.12424985,2.16430593,0.74362051,0.13728513,1.51117766,0.00000000,0.00000000
-0.15431306,-2.15002918,-0.61003482,-0.21651530,-1.93055201,0.00000000,0.00000000,0.11418183,2.16391325,0.74295193,0.13002896,1.51784217,0.00000000,0.00000000
-0.15937650,-2.14998078,-0.61799031,-0.22743520,-1.94144404,0.00000000,0.00000000,0.10554915,2.16469860,0.74265063,0.12460118,1.52403760,0.00000000,0.00000000
-0.16409624,-2.15077090,-0.62567788,-0.23897842,-1.95277953,0.00000000,0.00000000,0.09785992,2.16569972,0.74277788,0.12058174,1.53573799,0.00000000,0.00000000
-0.16812664,-2.15251303,-0.63296258,-0.25115287,-1.96403086,0.00000000,0.00000000,0.09106097,2.16640043,0.74339342,0.11765093,1.54695094,0.00000000,0.00000000
-0.17115206,-2.15507293,-0.63972229,-0.26381767,-1.97133744,0.00000000,0.00000000,0.08563486,2.16678691,0.74455249,0.11587831,1.55376482,0.00000000,0.00000000
-0.17286460,-2.15821743,-0.64583784,-0.27676275,-1.98104727,0.00000000,0.00000000,0.08196378,2.16699934,0.74628580,0.11542375,1.56330228,0.00000000,0.00000000
-0.17297451,-2.16167688,-0.65119290,-0.28975639,-1.99052811,0.00000000,0.00000000,0.08033781,2.16710806,0.74861455,0.11644094,1.57401538,0.00000000,0.00000000
-0.17123732,-2.16509914,-0.65568650,-0.30254394,-1.99881542,0.00000000,0.00000000,0.08105443,2.16700101,0.75156331,0.11903483,1.58189821,0.00000000,0.00000000
-0.16753097,-2.16794729,-0.65925866,-0.31483614,-2.00130892,0.00000000,0.00000000,0.08436257,2.16639590,0.75515836,0.12321516,1.59657335,0.00000000,0.00000000
-0.16200830,-2.16956449,-0.66195005,-0.32623389,-2.00302052,0.00000000,0.00000000,0.09029367,2.16497660,0.75941384,0.12886983,1.60772336,0.00000000,0.00000000
-0.15525615,-2.16997480,-0.66397011,-0.33614153,-2.00644684,0.00000000,0.00000000,0.09851477,2.16246128,0.76432019,0.13573080,1.62106991,0.00000000,0.00000000
-0.14816439,-2.17000008,-0.66566181,-0.34384102,-2.00440049,0.00000000,0.00000000,0.10834743,2.15855575,0.76984686,0.14336506,1.63506985,0.00000000,0.00000000
-0.14146844,-2.17000008,-0.66733193,-0.34873939,-2.01007390,0.00000000,0.00000000,0.11896585,2.15301323,0.77595049,0.15128340,1.64917946,0.00000000,0.00000000
-0.13542423,-2.17000008,-0.66910130,-0.35059956,-2.01086330,0.00000000,0.00000000,0.12962423,2.14580536,0.78257769,0.15910697,1.66003191,0.00000000,0.00000000
-0.12980324,-2.17000008,-0.67085588,-0.34967500,-2.00954485,0.00000000,0.00000000,0.13979378,2.13723612,0.78966790,0.16666728,1.67636347,0.00000000,0.00000000
-0.12404676,-2.17000008,-0.67229313,-0.34666690,-2.00603390,0.00000000,0.00000000,0.14916460,2.12786031,0.79716057,0.17396680,1.69604671,0.00000000,0.00000000
-0.11749954,-2.17000008,-0.67304617,-0.34249246,-2.00178909,0.00000000,0.00000000,0.15757641,2.11826849,0.80500811,0.18105796,1.71329606,0.00000000,0.00000000
-0.10967737,-2.17000008,-0.67282653,-0.33800206,-1.99794030,0.00000000,0.00000000,0.16495752,2.10893726,0.81318635,0.18796469,1.73113644,0.00000000,0.00000000
-0.10046028,-2.17000008,-0.67151296,-0.33379173,-1.99505770,0.00000000,0.00000000,0.17126155,2.10022712,0.82169110,0.19467402,1.75316453,0.00000000,0.00000000
-0.09014367,-2.17000008,-0.66916263,-0.33015797,-1.99350703,0.00000000,0.00000000,0.17638756,2.09242535,0.83052433,0.20114218,1.77041471,0.00000000,0.00000000
-0.07937064,-2.17000008,-0.66596609,-0.32716933,-1.98668921,0.00000000,0.00000000,0.18013415,2.08575583,0.83968306,0.20729215,1.78739738,0.00000000,0.00000000
-0.06900053,-2.17000008,-0.66218299,-0.32478479,-1.97917521,0.00000000,0.00000000,0.18221110,2.08035898,0.84915698,0.21301509,1.81014967,0.00000000,0.00000000
-0.05998610,-2.17000008,-0.65808868,-0.32295519,-1.96610725,0.00000000,0.00000000,0.18226442,2.07631707,0.85892493,0.21818955,1.82942152,0.00000000,0.00000000
-0.05319706,-2.17000008,-0.65392590,-0.32164955,-1.94953728,0.00000000,0.00000000,0.17990173,2.07365251,0.86895961,0.22268482,1.84163737,0.00000000,0.00000000
-0.04922770,-2.17000008,-0.64986140,-0.32083690,-1.92911816,0.00000000,0.00000000,0.17475908,2.07228303,0.87924188,0.22636592,1.85682380,0.00000000,0.00000000
-0.04831202,-2.17000008,-0.64596200,-0.32047951,-1.90674853,0.00000000,0.00000000,0.16660663,2.07201672,0.88977724,0.22913358,1.87445319,0.00000000,0.00000000
-0.05036378,-2.17000008,-0.64219838,-0.32054928,-1.88352931,0.00000000,0.00000000,0.15543151,2.07263732,0.90059650,0.23099376,1.89226806,0.00000000,0.00000000
-0.05503915,-2.17000008,-0.63846236,-0.32103243,-1.85880136,0.00000000,0.00000000,0.14148037,2.07402992,0.91174603,0.23213114,1.91259694,0.00000000,0.00000000
-0.06175196,-2.17000008,-0.63458490,-0.32190037,-1.83792555,0.00000000,0.00000000,0.12528463,2.07622147,0.92328089,0.23294312,1.94042349,0.00000000,0.00000000
-0.06971212,-2.17000008,-0.63036174,-0.32305729,-1.82349157,0.00000000,0.00000000,0.10766497,2.07928228,0.93527055,0.23401627,1.96382678,0.00000000,0.00000000
-0.07803661,-2.17000008,-0.62559116,-0.32429266,-1.81172502,0.00000000,0.00000000,0.08966678,2.08319616,0.94780052,0.23605771,1.98740506,0.00000000,0.00000000
-0.08589115,-2.17000008,-0.62011069,-0.32526696,-1.80000830,0.00000000,0.00000000,0.07242096,2.08781576,0.96096134,0.23981403,2.01049423,0.00000000,0.00000000
-0.09258489,-2.17000008,-0.61382127,-0.32551911,-1.78662062,0.00000000,0.00000000,0.05692236,2.09291673,0.97482103,0.24597229,2.03320241,0.00000000,0.00000000
-0.09745643,-2.17000008,-0.60669559,-0.32437190,-1.78140509,0.00000000,0.00000000,0.04370458,2.09835935,0.98937714,0.25504449,2.05728102,0.00000000,0.00000000
-0.09991322,-2.17000008,-0.59885573,-0.32075667,-1.77511716,0.00000000,0.00000000,0.03321171,2.10454488,1.00452793,0.26764870,2.08020496,0.00000000,0.00000000
-0.10098971,-2.17000008,-0.59080613,-0.31399119,-1.76630199,0.00000000,0.00000000,0.02641490,2.11204147,1.02017593,0.28441525,2.10273981,0.00000000,0.00000000
-0.10309300,-2.17000008,-0.58312881,-0.30501488,-1.75837421,0.00000000,0.00000000,0.02298417,2.11994982,1.03629863,0.30436862,2.12560034,0.00000000,0.00000000
-0.10620509,-2.17000008,-0.57585788,-0.29485327,-1.75224078,0.00000000,0.00000000,0.02210584,2.12777495,1.05276632,0.32634482,2.14862823,0.00000000,0.00000000
-0.10964759,-2.17000008,-0.56894404,-0.28358835,-1.75085044,0.00000000,0.00000000,0.02290415,2.13586855,1.06929672,0.34951487,2.17284489,0.00000000,0.00000000
-0.11274972,-2.17000008,-0.56241280,-0.27068427,-1.74627793,0.00000000,0.00000000,0.02375801,2.14414382,1.08558536,0.37261549,2.19816875,0.00000000,0.00000000
-0.11539573,-2.17000008,-0.55630630,-0.25596130,-1.73889172,0.00000000,0.00000000,0.02298811,2.15218425,1.10137129,0.39435282,2.22087741,0.00000000,0.00000000
-0.11834265,-2.17000008,-0.55069453,-0.24001135,-1.73134089,0.00000000,0.00000000,0.01952189,2.15948558,1.11648142,0.41383493,2.23998451,0.00000000,0.00000000
-0.12212463,-2.16999841,-0.54556972,-0.22369075,-1.71822715,0.00000000,0.00000000,0.01291521,2.16535830,1.13086212,0.43054637,2.25633264,0.00000000,0.00000000
-0.12681735,-2.16993046,-0.54085207,-0.20786941,-1.70935452,0.00000000,0.00000000,0.00325872,2.16888905,1.14460576,0.44422531,2.27952528,0.00000000,0.00000000
-0.13220330,-2.16913629,-0.53644258,-0.19328150,-1.69539332,0.00000000,0.00000000,-0.00890996,2.16990495,1.15793228,0.45482406,2.29385948,0.00000000,0.00000000
-0.13789047,-2.16644001,-0.53226149,-0.18034539,-1.67907166,0.00000000,0.00000000,-0.02287240,2.16995573,1.17105198,0.46251991,2.30570602,0.00000000,0.00000000
-0.14345290,-2.16231108,-0.52825958,-0.16917028,-1.65928280,0.00000000,0.00000000,-0.03806505,2.16927528,1.18396938,0.46772653,2.31943655,0.00000000,0.00000000
-0.14850476,-2.15766168,-0.52440715,-0.15970875,-1.64273787,0.00000000,0.00000000,-0.05409788,2.16657233,1.19647527,0.47105962,2.33280897,0.00000000,0.00000000
-0.15275289,-2.15314031,-0.52068901,-0.15186845,-1.62165105,0.00000000,0.00000000,-0.07060398,2.16168427,1.20829928,0.47322521,2.33777189,0.00000000,0.00000000
-0.15605146,-2.14920688,-0.51710427,-0.14556637,-1.60340428,0.00000000,0.00000000,-0.08721660,2.15548730,1.21919072,0.47490677,2.34270430,0.00000000,0.00000000
-0.15841025,-2.14615297,-0.51366472,-0.14073263,-1.58747590,0.00000000,0.00000000,-0.10365098,2.14900255,1.22891533,0.47668371,2.33951163,0.00000000,0.00000000
-0.15999275,-2.14408302,-0.51039439,-0.13728997,-1.58005333,0.00000000,0.00000000,-0.11976662,2.14310169,1.23725128,0.47896442,2.33859539,0.00000000,0.00000000
-0.16113777,-2.14294171,-0.50733018,-0.13516887,-1.57504821,0.00000000,0.00000000,-0.13557670,2.13846421,1.24399304,0.48195148,2.33666658,0.00000000,0.00000000
-0.16233309,-2.14261270,-0.50451618,-0.13435391,-1.56650054,0.00000000,0.00000000,-0.15123443,2.13558149,1.24895203,0.48564190,2.34406662,0.00000000,0.00000000
-0.16410436,-2.14300680,-0.50199205,-0.13490251,-1.55855393,0.00000000,0.00000000,-0.16699755,2.13474560,1.25196564,0.48986211,2.35046124,0.00000000,0.00000000
-0.16688216,-2.14406872,-0.49978191,-0.13691106,-1.55468822,0.00000000,0.00000000,-0.18314646,2.13603187,1.25291479,0.49434775,2.35544515,0.00000000,0.00000000
-0.17092440,-2.14573860,-0.49788818,-0.14046267,-1.55732536,0.00000000,0.00000000,-0.19985798,2.13931489,1.25173652,0.49886218,2.36035466,0.00000000,0.00000000
-0.17627601,-2.14794350,-0.49628764,-0.14559618,-1.55814838,0.00000000,0.00000000,-0.21709137,2.14431143,1.24842238,0.50330091,2.36143255,0.00000000,0.00000000
-0.18271433,-2.15064168,-0.49492395,-0.15229826,-1.55515110,0.00000000,0.00000000,-0.23452647,2.15057755,1.24302709,0.50773591,2.35906243,0.00000000,0.00000000
-0.18967724,-2.15386915,-0.49369785,-0.16050301,-1.55073702,0.00000000,0.00000000,-0.25147539,2.15738177,1.23572278,0.51244313,2.35690713,0.00000000,0.00000000
-0.19625659,-2.15775251,-0.49246278,-0.17009972,-1.53847051,0.00000000,0.00000000,-0.26680163,2.16359448,1.22690380,0.51796269,2.34707761,0.00000000,0.00000000
-0.20147382,-2.16220880,-0.49106082,-0.18087003,-1.52329302,0.00000000,0.00000000,-0.27956182,2.16789198,1.21717501,0.52487195,2.33505940,0.00000000,0.00000000
-0.20468295,-2.16645002,-0.48938596,-0.19237106,-1.50521243,0.00000000,0.00000000,-0.28984827,2.16964960,1.20754397,0.53303343,2.31618762,0.00000000,0.00000000
-0.20564492,-2.16919899,-0.48739696,-0.20402636,-1.48079729,0.00000000,0.00000000,-0.29764912,2.16998196,1.20021915,0.54140800,2.29431939,0.00000000,0.00000000
-0.20446666,-2.16995287,-0.48512238,-0.21511424,-1.45921230,0.00000000,0.00000000,-0.30267039,2.17000008,1.19767094,0.54908484,2.26883841,0.00000000,0.00000000
-0.20141584,-2.17000008,-0.48266125,-0.22462496,-1.44043028,0.00000000,0.00000000,-0.30487862,2.17000008,1.20097876,0.55593699,2.24451804,0.00000000,0.00000000
-0.19675061,-2.17000008,-0.48013797,-0.23151566,-1.42204237,0.00000000,0.00000000,-0.30442366,2.17000008,1.21038818,0.56192392,2.21483803,0.00000000,0.00000000
-0.19060877,-2.17000008,-0.47765011,-0.23501021,-1.40297556,0.00000000,0.00000000,-0.30150470,2.17000008,1.22565806,0.56695360,2.18260407,0.00000000,0.00000000
-0.18294854,-2.17000008,-0.47523305,-0.23477662,-1.38092148,0.00000000,0.00000000,-0.29638621,2.16997743,1.24566031,0.57124132,2.14357400,0.00000000,0.00000000
-0.17369975,-2.17000008,-0.47287300,-0.23098485,-1.35854769,0.00000000,0.00000000,-0.28925115,2.16959548,1.26824689,0.57565767,2.10594130,0.00000000,0.00000000
-0.16304901,-2.17000008,-0.47055876,-0.22421752,-1.33331776,0.00000000,0.00000000,-0.27995464,2.16790366,1.29132152,0.58121186,2.06973362,0.00000000,0.00000000
-0.15145746,-2.17000008,-0.46831933,-0.21513471,-1.30998623,0.00000000,0.00000000,-0.26882640,2.16440964,1.31343365,0.58812928,2.03806162,0.00000000,0.00000000
-0.13959698,-2.17000008,-0.46624985,-0.20411319,-1.29007292,0.00000000,0.00000000,-0.25662014,2.15978408,1.33363962,0.59617060,2.00659180,0.00000000,0.00000000
-0.12812534,-2.17000008,-0.46444717,-0.19149223,-1.26698482,0.00000000,0.00000000,-0.24403529,2.15508699,1.35135686,0.60508525,1.96459007,0.00000000,0.00000000
-0.11759970,-2.16999650,-0.46296754,-0.17786640,-1.24916947,0.00000000,0.00000000,-0.23162274,2.15123844,1.36617625,0.61466551,1.92929327,0.00000000,0.00000000
-0.10857227,-2.16991162,-0.46184278,-0.16408199,-1.23553181,0.00000000,0.00000000,-0.21984081,2.14896154,1.37774765,0.62469012,1.89750302,0.00000000,0.00000000
-0.10160203,-2.16923451,-0.46109655,-0.15107934,-1.22801685,0.00000000,0.00000000,-0.20914292,2.14874363,1.38577580,0.63485336,1.86810446,0.00000000,0.00000000
-0.09721121,-2.16728377,-0.46075413,-0.13968806,-1.22094989,0.00000000,0.00000000,-0.20004050,2.15072680,1.39006317,0.64470315,1.83830857,0.00000000,0.00000000
-0.09587248,-2.16469502,-0.46084881,-0.13048629,-1.21595860,0.00000000,0.00000000,-0.19305521,2.15461946,1.39056122,0.65365207,1.81516242,0.00000000,0.00000000
-0.09799615,-2.16230464,-0.46141544,-0.12385023,-1.20714033,0.00000000,0.00000000,-0.18859421,2.15971160,1.38738692,0.66106743,1.79817748,0.00000000,0.00000000
-0.10382748,-2.16074991,-0.46247363,-0.12006360,-1.20418859,0.00000000,0.00000000,-0.18690281,2.16492295,1.38082612,0.66634667,1.78947616,0.00000000,0.00000000
-0.11333664,-2.16058612,-0.46401814,-0.11933431,-1.19763899,0.00000000,0.00000000,-0.18799652,2.16866398,1.37144256,0.66895092,1.78080606,0.00000000,0.00000000
-0.12607338,-2.16202021,-0.46601680,-0.12161602,-1.19026661,0.00000000,0.00000000,-0.19147572,2.16986895,1.36040521,0.66839552,1.77772522,0.00000000,0.00000000
-0.14109643,-2.16459298,-0.46841323,-0.12641504,-1.18497515,0.00000000,0.00000000,-0.19638026,2.16999626,1.34969985,0.66430032,1.76707065,0.00000000,0.00000000
-0.15719862,-2.16733932,-0.47113290,-0.13292882,-1.18233144,0.00000000,0.00000000,-0.20141736,2.17000008,1.34161448,0.65655196,1.75403011,0.00000000,0.00000000
-0.17328793,-2.16922212,-0.47409183,-0.14037636,-1.18236423,0.00000000,0.00000000,-0.20552105,2.17000008,1.33776903,0.64533848,1.73269176,0.00000000,0.00000000
-0.18863671,-2.16948533,-0.47721225,-0.14810634,-1.17378926,0.00000000,0.00000000,-0.20832391,2.17000008,1.33849263,0.63098317,1.71250987,0.00000000,0.00000000
-0.20265593,-2.16883993,-0.48036501,-0.15609574,-1.16457546,0.00000000,0.00000000,-0.21020360,2.16995931,1.34254730,0.61404151,1.69559526,0.00000000,0.00000000
-0.21437792,-2.16920376,-0.48328927,-0.16534212,-1.16162598,0.00000000,0.00000000,-0.21183437,2.16932511,1.34737742,0.59561712,1.68635070,0.00000000,0.00000000
-0.22292972,-2.16981268,-0.48586702,-0.17490782,-1.15598953,0.00000000,0.00000000,-0.21374074,2.16715479,1.35115230,0.57666284,1.67781162,0.00000000,0.00000000
-0.22779864,-2.16998911,-0.48812521,-0.18253252,-1.15764523,0.00000000,0.00000000,-0.21597576,2.16432786,1.35294318,0.55804348,1.66876900,0.00000000,0.00000000
-0.22916174,-2.17000008,-0.49010858,-0.18702129,-1.15865254,0.00000000,0.00000000,-0.21824306,2.16223407,1.35239041,0.54054219,1.66301072,0.00000000,0.00000000
-0.22737458,-2.17000008,-0.49187031,-0.18788724,-1.16323411,0.00000000,0.00000000,-0.22021079,2.16156888,1.34950852,0.52470291,1.66293156,0.00000000,0.00000000
-0.22270024,-2.16999602,-0.49345729,-0.18514426,-1.17237329,0.00000000,0.00000000,-0.22159214,2.16238618,1.34449303,0.51086104,1.65951419,0.00000000,0.00000000
-0.21536790,-2.16987276,-0.49491066,-0.17924395,-1.18481266,0.00000000,0.00000000,-0.22208045,2.16435933,1.33760202,0.49924168,1.65721357,0.00000000,0.00000000
-0.20578019,-2.16869473,-0.49627090,-0.17108631,-1.19641197,0.00000000,0.00000000,-0.22127669,2.16688728,1.32912803,0.49001962,1.65638983,0.00000000,0.00000000
-0.19457829,-2.16498733,-0.49757430,-0.16194919,-1.20227265,0.00000000,0.00000000,-0.21870655,2.16899204,1.31947005,0.48325664,1.65911114,0.00000000,0.00000000
-0.18235642,-2.15935874,-0.49888664,-0.15263778,-1.20648098,0.00000000,0.00000000,-0.21393298,2.16984892,1.30927753,0.47873116,1.66866195,0.00000000,0.00000000
-0.16954403,-2.15210438,-0.50030464,-0.14327908,-1.21458542,0.00000000,0.00000000,-0.20661782,2.16999292,1.29942012,0.47593603,1.67612672,0.00000000,0.00000000
-0.15646237,-2.14307451,-0.50191921,-0.13382098,-1.22740400,0.00000000,0.00000000,-0.19655012,2.17000008,1.29061472,0.47435072,1.67903399,0.00000000,0.00000000
-0.14336894,-2.13243508,-0.50379699,-0.12434433,-1.24391079,0.00000000,0.00000000,-0.18368936,2.16999626,1.28309405,0.47367796,1.67969072,0.00000000,0.00000000
-0.13045619,-2.12074351,-0.50598067,-0.11510823,-1.26039934,0.00000000,0.00000000,-0.16824031,2.16991210,1.27651286,0.47390673,1.68028569,0.00000000,0.00000000
-0.11790795,-2.10882950,-0.50850064,-0.10651634,-1.27407002,0.00000000,0.00000000,-0.15068759,2.16931891,1.27010727,0.47522259,1.68164527,0.00000000,0.00000000
-0.10598756,-2.09758377,-0.51138717,-0.09904937,-1.28790164,0.00000000,0.00000000,-0.13169749,2.16773868,1.26304555,0.47781086,1.68999505,0.00000000,0.00000000
-0.09510577,-2.08782244,-0.51467574,-0.09321860,-1.30209172,0.00000000,0.00000000,-0.11191840,2.16587591,1.25473976,0.48169616,1.69770932,0.00000000,0.00000000
-0.08584370,-2.08019519,-0.51840532,-0.08951015,-1.31285477,0.00000000,0.00000000,-0.09185261,2.16460156,1.24487090,0.48676664,1.70340133,0.00000000,0.00000000
-0.07877538,-2.07487488,-0.52261430,-0.08813568,-1.32625532,0.00000000,0.00000000,-0.07187663,2.16439676,1.23327446,0.49284598,1.70889795,0.00000000,0.00000000
-0.07427820,-2.07160211,-0.52733409,-0.08897545,-1.33526683,0.00000000,0.00000000,-0.05241321,2.16529369,1.21988285,0.49964449,1.71224785,0.00000000,0.00000000
-0.07210045,-2.07001090,-0.53256428,-0.09163518,-1.34369171,0.00000000,0.00000000,-0.03406969,2.16674352,1.20475388,0.50669414,1.71586561,0.00000000,0.00000000
-0.07091124,-2.07020521,-0.53822803,-0.09561074,-1.35588336,0.00000000,0.00000000,-0.01729503,2.16802597,1.18808770,0.51361108,1.71681142,0.00000000,0.00000000
-0.07054209,-2.07309175,-0.54425865,-0.10119212,-1.36406958,0.00000000,0.00000000,-0.00204698,2.16905975,1.17017424,0.52028620,1.71721160,0.00000000,0.00000000
-0.07178102,-2.07823038,-0.55066115,-0.10833629,-1.37360334,0.00000000,0.00000000,0.01197384,2.16977692,1.15157211,0.52635950,1.71342695,0.00000000,0.00000000
-0.07480757,-2.08490634,-0.55741656,-0.11667316,-1.38561904,0.00000000,0.00000000,0.02490749,2.16998672,1.13316071,0.53076982,1.70693827,0.00000000,0.00000000
-0.07895071,-2.09250641,-0.56445515,-0.12560812,-1.40314615,0.00000000,0.00000000,0.03666502,2.17000008,1.11590338,0.53199220,1.70678222,0.00000000,0.00000000
-0.08345248,-2.10044003,-0.57169616,-0.13455446,-1.42673278,0.00000000,0.00000000,0.04721224,2.17000008,1.10059726,0.52863163,1.70750785,0.00000000,0.00000000
-0.08786993,-2.10821891,-0.57907122,-0.14311406,-1.44375408,0.00000000,0.00000000,0.05676966,2.17000008,1.08772540,0.51986492,1.71376145,0.00000000,0.00000000
-0.09216670,-2.11546087,-0.58653492,-0.15110093,-1.46572638,0.00000000,0.00000000,0.06556311,2.16996479,1.07735038,0.50548261,1.71991873,0.00000000,0.00000000
-0.09664673,-2.12193918,-0.59406286,-0.15853362,-1.49096203,0.00000000,0.00000000,0.07354493,2.16939640,1.06909359,0.48579973,1.73068547,0.00000000,0.00000000
-0.10173537,-2.12765789,-0.60163271,-0.16559578,-1.50907540,0.00000000,0.00000000,0.08033841,2.16721463,1.06205487,0.46183100,1.73907650,0.00000000,0.00000000
-0.10768632,-2.13283420,-0.60919994,-0.17252174,-1.53124535,0.00000000,0.00000000,0.08532306,2.16351271,1.05494237,0.43538085,1.75002038,0.00000000,0.00000000
-0.11432615,-2.13757920,-0.61669159,-0.17934045,-1.54355264,0.00000000,0.00000000,0.08815170,2.15893579,1.04694712,0.40813842,1.76249683,0.00000000,0.00000000
-0.12130178,-2.14180589,-0.62403029,-0.18590452,-1.55940700,0.00000000,0.00000000,0.08869432,2.15353441,1.03795028,0.38083699,1.77434456,0.00000000,0.00000000
-0.12829858,-2.14543056,-0.63114250,-0.19206227,-1.57422054,0.00000000,0.00000000,0.08718552,2.14761209,1.02808189,0.35401037,1.78415227,0.00000000,0.00000000
-0.13493840,-2.14840126,-0.63794869,-0.19764799,-1.58272028,0.00000000,0.00000000,0.08420932,2.14182520,1.01750696,0.32845196,1.79404497,0.00000000,0.00000000
-0.14079002,-2.15068388,-0.64436698,-0.20248924,-1.59414911,0.00000000,0.00000000,0.08007675,2.13683867,1.00636339,0.30483422,1.80383003,0.00000000,0.00000000
-0.14550281,-2.15231538,-0.65032184,-0.20648338,-1.60077035,0.00000000,0.00000000,0.07445946,2.13260078,0.99483150,0.28305939,1.81086659,0.00000000,0.00000000
-0.14888531,-2.15343499,-0.65574926,-0.20963839,-1.61507869,0.00000000,0.00000000,0.06754161,2.12879252,0.98316407,0.26294804,1.81515872,0.00000000,0.00000000
-0.15086542,-2.15425348,-0.66059661,-0.21203962,-1.63188565,0.00000000,0.00000000,0.05997734,2.12532163,0.97159743,0.24457067,1.81785023,0.00000000,0.00000000
-0.15142080,-2.15498543,-0.66482037,-0.21379156,-1.64819586,0.00000000,0.00000000,0.05233202,2.12221646,0.96031690,0.22802094,1.82180262,0.00000000,0.00000000
-0.15054530,-2.15582204,-0.66838449,-0.21499310,-1.65836763,0.00000000,0.00000000,0.04503698,2.11952400,0.94947046,0.21336095,1.82532179,0.00000000,0.00000000
-0.14823630,-2.15692115,-0.67126012,-0.21573472,-1.66630065,0.00000000,0.00000000,0.03845133,2.11728239,0.93918157,0.20063220,1.83404160,0.00000000,0.00000000
-0.14450835,-2.15838146,-0.67342794,-0.21609862,-1.67659914,0.00000000,0.00000000,0.03286220,2.11548901,0.92955619,0.18983507,1.84137702,0.00000000,0.00000000
-0.13943085,-2.16021609,-0.67488390,-0.21616305,-1.68829036,0.00000000,0.00000000,0.02849440,2.11409974,0.92068577,0.18092448,1.84499621,0.00000000,0.00000000
-0.13313758,-2.16235113,-0.67564011,-0.21600461,-1.69671035,0.00000000,0.00000000,0.02553448,2.11305118,0.91264886,0.17382759,1.84482682,0.00000000,0.00000000
-0.12578547,-2.16463995,-0.67571986,-0.21568646,-1.70914280,0.00000000,0.00000000,0.02412782,2.11227107,0.90551144,0.16845097,1.83923924,0.00000000,0.00000000
-0.11752418,-2.16685796,-0.67515457,-0.21523963,-1.72384894,0.00000000,0.00000000,0.02436314,2.11166835,0.89932948,0.16467832,1.83939815,0.00000000,0.00000000
-0.10852760,-2.16867542,-0.67398840,-0.21465482,-1.73818851,0.00000000,0.00000000,0.02629256,2.11112666,0.89415085,0.16238768,1.83850992,0.00000000,0.00000000
-0.09903842,-2.16971636,-0.67228514,-0.21387410,-1.75041997,0.00000000,0.00000000,0.02995831,2.11051774,0.89001787,0.16147092,1.84087920,0.00000000,0.00000000
-0.08935622,-2.16998386,-0.67012894,-0.21277291,-1.76237345,0.00000000,0.00000000,0.03535813,2.10970330,0.88696599,0.16181615,1.83938873,0.00000000,0.00000000
-0.07978275,-2.17000008,-0.66761428,-0.21117263,-1.77329707,0.00000000,0.00000000,0.04237826,2.10853577,0.88502103,0.16326788,1.83758152,0.00000000,0.00000000
-0.07060152,-2.17000008,-0.66482973,-0.20892158,-1.78450286,0.00000000,0.00000000,0.05079962,2.10689020,0.88419896,0.16563427,1.83125341,0.00000000,0.00000000
-0.06210209,-2.17000008,-0.66184837,-0.20597760,-1.78887141,0.00000000,0.00000000,0.06037221,2.10470581,0.88450658,0.16873936,1.82599103,0.00000000,0.00000000
-0.05459032,-2.17000008,-0.65872598,-0.20243916,-1.79126918,0.00000000,0.00000000,0.07085909,2.10200095,0.88594061,0.17246366,1.82363439,0.00000000,0.00000000
-0.04835606,-2.17000008,-0.65549964,-0.19852775,-1.79248631,0.00000000,0.00000000,0.08201092,2.09886956,0.88848400,0.17674132,1.81657612,0.00000000,0.00000000
-0.04362841,-2.17000008,-0.65218794,-0.19454679,-1.78935206,0.00000000,0.00000000,0.09353364,2.09547186,0.89210260,0.18153875,1.81338882,0.00000000,0.00000000
-0.04054016,-2.17000008,-0.64879334,-0.19083107,-1.78551745,0.00000000,0.00000000,0.10509375,2.09202766,0.89674675,0.18683647,1.81077433,0.00000000,0.00000000
-0.03910140,-2.17000008,-0.64530295,-0.18768415,-1.78020513,0.00000000,0.00000000,0.11634619,2.08877134,0.90235680,0.19260848,1.79939795,0.00000000,0.00000000
-0.03920756,-2.17000008,-0.64169508,-0.18532635,-1.78060508,0.00000000,0.00000000,0.12698185,2.08586669,0.90887415,0.19880447,1.78196418,0.00000000,0.00000000
-0.04066353,-2.17000008,-0.63794178,-0.18387894,-1.78806913,0.00000000,0.00000000,0.13674200,2.08340311,0.91624272,0.20535721,1.75613475,0.00000000,0.00000000
-0.04321986,-2.17000008,-0.63401175,-0.18337642,-1.79297662,0.00000000,0.00000000,0.14539996,2.08146501,0.92440069,0.21220455,1.72776067,0.00000000,0.00000000
-0.04658708,-2.17000008,-0.62987357,-0.18376148,-1.80207551,0.00000000,0.00000000,0.15271597,2.08020449,0.93326992,0.21929903,1.69327569,0.00000000,0.00000000
-0.05042351,-2.17000008,-0.62549901,-0.18485247,-1.81652820,0.00000000,0.00000000,0.15841798,2.07984662,0.94275200,0.22660872,1.65663028,0.00000000,0.00000000
-0.05434320,-2.17000008,-0.62086713,-0.18633510,-1.83382034,0.00000000,0.00000000,0.16225168,2.08063507,0.95273733,0.23413160,1.61838055,0.00000000,0.00000000
-0.05798717,-2.17000008,-0.61596721,-0.18782175,-1.85471129,0.00000000,0.00000000,0.16404186,2.08276749,0.96311790,0.24191433,1.58344603,0.00000000,0.00000000
-0.06114177,-2.17000008,-0.61080515,-0.18894635,-1.86849713,0.00000000,0.00000000,0.16368207,2.08637691,0.97378850,0.25005037,1.55217731,0.00000000,0.00000000
-0.06383484,-2.17000008,-0.60540998,-0.18942928,-1.88530886,0.00000000,0.00000000,0.16110404,2.09151125,0.98464847,0.25866047,1.52602506,0.00000000,0.00000000
-0.06632204,-2.17000008,-0.59983325,-0.18907551,-1.89959490,0.00000000,0.00000000,0.15629822,2.09806752,0.99561203,0.26787907,1.49982774,0.00000000,0.00000000
-0.06895053,-2.17000008,-0.59413511,-0.18774718,-1.91418946,0.00000000,0.00000000,0.14930499,2.10578537,1.00660837,0.27784827,1.47084546,0.00000000,0.00000000
-0.07201381,-2.17000008,-0.58836603,-0.18536249,-1.92777479,0.00000000,0.00000000,0.14030103,2.11446691,1.01756001,0.28882366,1.44135070,0.00000000,0.00000000
-0.07570076,-2.17000008,-0.58255315,-0.18195571,-1.94355965,0.00000000,0.00000000,0.12994544,2.12417245,1.02838528,0.30130470,1.41362214,0.00000000,0.00000000
-0.08013942,-2.17000008,-0.57669771,-0.17775390,-1.96269608,0.00000000,0.00000000,0.11903119,2.13467884,1.03904712,0.31551552,1.37936604,0.00000000,0.00000000
-0.08541644,-2.16999531,-0.57078195,-0.17314804,-1.98067260,0.00000000,0.00000000,0.10778009,2.14514875,1.04954910,0.33102712,1.34333146,0.00000000,0.00000000
-0.09147339,-2.16992021,-0.56477582,-0.16852000,-2.00174809,0.00000000,0.00000000,0.09644044,2.15459895,1.05993092,0.34741849,1.30732071,0.00000000,0.00000000
-0.09805573,-2.16961122,-0.55864549,-0.16409732,-2.02711487,0.00000000,0.00000000,0.08541691,2.16210318,1.07027268,0.36449113,1.27291048,0.00000000,0.00000000
-0.10481187,-2.16903424,-0.55236530,-0.15993892,-2.05052805,0.00000000,0.00000000,0.07519755,2.16707039,1.08073008,0.38219002,1.24037397,0.00000000,0.00000000
-0.11134331,-2.16824174,-0.54592156,-0.15593767,-2.07594204,0.00000000,0.00000000,0.06655528,2.16942406,1.09173882,0.40036321,1.20147717,0.00000000,0.00000000
-0.11719753,-2.16706729,-0.53931123,-0.15182030,-2.09673548,0.00000000,0.00000000,0.06026055,2.16996765,1.10401702,0.41853192,1.16258574,0.00000000,0.00000000
-0.12201443,-2.16527033,-0.53254288,-0.14731388,-2.11883903,0.00000000,0.00000000,0.05654909,2.17000008,1.11807883,0.43624541,1.12791657,0.00000000,0.00000000
-0.12568291,-2.16277623,-0.52563912,-0.14231813,-2.14279103,0.00000000,0.00000000,0.05515474,2.17000008,1.13393283,0.45346215,1.09519517,0.00000000,0.00000000
-0.12833728,-2.15970039,-0.51863581,-0.13692361,-2.16420627,0.00000000,0.00000000,0.05543548,2.16999102,1.15111589,0.47046691,1.06021559,0.00000000,0.00000000
-0.13030039,-2.15624118,-0.51158100,-0.13133398,-2.18703890,0.00000000,0.00000000,0.05656646,2.16985202,1.16889596,0.48765203,1.02969313,0.00000000,0.00000000
-0.13199879,-2.15255070,-0.50453228,-0.12576193,-2.21293187,0.00000000,0.00000000,0.05777251,2.16939139,1.18646610,0.50538141,1.00031960,0.00000000,0.00000000
-0.13381931,-2.14870954,-0.49754474,-0.12036100,-2.23487592,0.00000000,0.00000000,0.05833315,2.16888905,1.20304394,0.52381510,0.97218996,0.00000000,0.00000000
-0.13603286,-2.14485765,-0.49066046,-0.11527225,-2.25798488,0.00000000,0.00000000,0.05742862,2.16877913,1.21796811,0.54265988,0.94939500,0.00000000,0.00000000
-0.13885981,-2.14134836,-0.48390758,-0.11074191,-2.27817869,0.00000000,0.00000000,0.05413797,2.16915822,1.23081946,0.56110352,0.92737585,0.00000000,0.00000000
-0.14249980,-2.13870835,-0.47730568,-0.10712633,-2.30560923,0.00000000,0.00000000,0.04767624,2.16969228,1.24147749,0.57808274,0.90623522,0.00000000,0.00000000
-0.14683998,-2.13715076,-0.47086501,-0.10455464,-2.33436632,0.00000000,0.00000000,0.03762833,2.16995025,1.25008047,0.59266424,0.88874549,0.00000000,0.00000000
-0.15130614,-2.13629246,-0.46458498,-0.10271863,-2.35091305,0.00000000,0.00000000,0.02401435,2.16999769,1.25702262,0.60420132,0.87171274,0.00000000,0.00000000
-0.15557534,-2.13566327,-0.45847660,-0.10130968,-2.36442590,0.00000000,0.00000000,0.00723544,2.17000008,1.26292467,0.61230403,0.85757226,0.00000000,0.00000000
-0.15971479,-2.13501072,-0.45256048,-0.10019435,-2.37982869,0.00000000,0.00000000,-0.01210945,2.17000008,1.26844740,0.61679834,0.84703642,0.00000000,0.00000000
-0.16383465,-2.13418126,-0.44685164,-0.09926744,-2.39239812,0.00000000,0.00000000,-0.03339558,2.17000008,1.27417111,0.61767596,0.84221423,0.00000000,0.00000000
-0.16794564,-2.13305688,-0.44135681,-0.09842005,-2.39790750,0.00000000,0.00000000,-0.05600728,2.17000008,1.28061092,0.61505824,0.83445644,0.00000000,0.00000000
-0.17205003,-2.13161731,-0.43607926,-0.09762093,-2.40335560,0.00000000,0.00000000,-0.07927782,2.17000008,1.28822112,0.60921800,0.82830709,0.00000000,0.00000000
-0.17627676,-2.12991571,-0.43102667,-0.09693185,-2.40818930,0.00000000,0.00000000,-0.10245833,2.17000008,1.29731035,0.60062551,0.81742460,0.00000000,0.00000000
-0.18090463,-2.12797189,-0.42621368,-0.09643591,-2.41772985,0.00000000,0.00000000,-0.12480741,2.17000008,1.30793297,0.58993268,0.80169570,0.00000000,0.00000000
-0.18622068,-2.12576342,-0.42165402,-0.09617986,-2.42607784,0.00000000,0.00000000,-0.14576043,2.16999459,1.31981242,0.57788569,0.78775972,0.00000000,0.00000000
-0.19236930,-2.12330890,-0.41735029,-0.09617283,-2.43077207,0.00000000,0.00000000,-0.16501856,2.16988063,1.33231544,0.56526285,0.77399850,0.00000000,0.00000000
-0.19925700,-2.12074637,-0.41328743,-0.09640794,-2.43509984,0.00000000,0.00000000,-0.18251528,2.16910410,1.34454167,0.55283177,0.76148283,0.00000000,0.00000000
-0.20653985,-2.11827755,-0.40943375,-0.09684763,-2.43567920,0.00000000,0.00000000,-0.19833280,2.16700864,1.35565615,0.54119420,0.75416064,0.00000000,0.00000000
-0.21376327,-2.11608648,-0.40575069,-0.09743789,-2.44042301,0.00000000,0.00000000,-0.21260121,2.16423607,1.36521411,0.53064239,0.75047666,0.00000000,0.00000000
-0.22051214,-2.11437249,-0.40220004,-0.09817225,-2.44616532,0.00000000,0.00000000,-0.22540753,2.16155577,1.37310719,0.52126312,0.75438750,0.00000000,0.00000000
-0.22646555,-2.11329889,-0.39874819,-0.09906747,-2.44909716,0.00000000,0.00000000,-0.23674433,2.15941429,1.37935245,0.51312912,0.75592965,0.00000000,0.00000000
-0.23140997,-2.11293817,-0.39536855,-0.10012255,-2.45380926,0.00000000,0.00000000,-0.24653521,2.15819740,1.38396204,0.50637656,0.75725645,0.00000000,0.00000000
-0.23525818,-2.11339974,-0.39204034,-0.10139471,-2.46059155,0.00000000,0.00000000,-0.25468734,2.15825820,1.38692427,0.50117421,0.76411915,0.00000000,0.00000000
-0.23802827,-2.11491919,-0.38874596,-0.10304177,-2.46918511,0.00000000,0.00000000,-0.26114529,2.15976596,1.38823903,0.49764752,0.77253014,0.00000000,0.00000000
-0.23981965,-2.11770558,-0.38547400,-0.10522790,-2.47786331,0.00000000,0.00000000,-0.26592749,2.16252136,1.38796759,0.49581009,0.78344929,0.00000000,0.00000000
-0.24078906,-2.12175965,-0.38222346,-0.10801256,-2.48901439,0.00000000,0.00000000,-0.26915094,2.16584516,1.38626099,0.49552622,0.79462558,0.00000000,0.00000000
-0.24107195,-2.12690854,-0.37899846,-0.11135655,-2.50053740,0.00000000,0.00000000,-0.27102226,2.16857123,1.38337600,0.49651259,0.80223852,0.00000000,0.00000000
-0.24072589,-2.13293481,-0.37579954,-0.11519844,-2.50880170,0.00000000,0.00000000,-0.27173364,2.16976094,1.37972355,0.49839053,0.81995040,0.00000000,0.00000000
-0.23972879,-2.13958025,-0.37262028,-0.11946307,-2.51943827,0.00000000,0.00000000,-0.27135992,2.16998768,1.37588537,0.50076765,0.83771831,0.00000000,0.00000000
-0.23799638,-2.14650798,-0.36944753,-0.12403490,-2.52734804,0.00000000,0.00000000,-0.26983428,2.17000008,1.37250733,0.50334311,0.85481542,0.00000000,0.00000000
-0.23539270,-2.15330100,-0.36626232,-0.12874593,-2.54078937,0.00000000,0.00000000,-0.26700807,2.17000008,1.37014472,0.50596380,0.86861616,0.00000000,0.00000000
-0.23173982,-2.15950727,-0.36304060,-0.13339569,-2.55700612,0.00000000,0.00000000,-0.26274255,2.17000008,1.36914968,0.50861025,0.87850988,0.00000000,0.00000000
-0.22686176,-2.16467023,-0.35975754,-0.13778502,-2.57002139,0.00000000,0.00000000,-0.25697961,2.17000008,1.36963820,0.51134616,0.88438708,0.00000000,0.00000000
-0.22069930,-2.16819072,-0.35640326,-0.14167891,-2.58172941,0.00000000,0.00000000,-0.24980099,2.17000008,1.37153351,0.51423955,0.88570738,0.00000000,0.00000000
-0.21343334,-2.16968584,-0.35300237,-0.14475419,-2.58554912,0.00000000,0.00000000,-0.24146202,2.17000008,1.37463856,0.51729387,0.89007246,0.00000000,0.00000000
-0.20549731,-2.16998339,-0.34961742,-0.14663857,-2.58168983,0.00000000,0.00000000,-0.23236841,2.17000008,1.37868345,0.52043074,0.89386141,0.00000000,0.00000000
-0.19744638,-2.17000008,-0.34632984,-0.14707033,-2.58160734,0.00000000,0.00000000,-0.22297780,2.17000008,1.38335824,0.52353299,0.89687872,0.00000000,0.00000000
-0.18982090,-2.17000008,-0.34321862,-0.14600068,-2.57670522,0.00000000,0.00000000,-0.21369334,2.17000008,1.38836312,0.52649391,0.90244931,0.00000000,0.00000000
-0.18309657,-2.17000008,-0.34035274,-0.14355771,-2.57203269,0.00000000,0.00000000,-0.20480311,2.17000008,1.39345253,0.52924407,0.91226983,0.00000000,0.00000000
-0.17767899,-2.17000008,-0.33778849,-0.13998863,-2.57400131,0.00000000,0.00000000,-0.19646984,2.17000008,1.39842689,0.53177226,0.92247456,0.00000000,0.00000000
-0.17388554,-2.17000008,-0.33556536,-0.13563068,-2.57622766,0.00000000,0.00000000,-0.18876818,2.17000008,1.40309429,0.53412318,0.93570793,0.00000000,0.00000000
-0.17190161,-2.17000008,-0.33370176,-0.13087167,-2.58087921,0.00000000,0.00000000,-0.18173829,2.17000008,1.40726280,0.53636104,0.95039880,0.00000000,0.00000000
-0.17174274,-2.17000008,-0.33219445,-0.12609348,-2.58071065,0.00000000,0.00000000,-0.17540634,2.17000008,1.41078126,0.53852576,0.96949846,0.00000000,0.00000000
-0.17325331,-2.17000008,-0.33102295,-0.12162381,-2.58021331,0.00000000,0.00000000,-0.16978036,2.17000008,1.41358244,0.54060465,0.99329996,0.00000000,0.00000000
-0.17614034,-2.17000008,-0.33015561,-0.11770831,-2.57616448,0.00000000,0.00000000,-0.16485976,2.17000008,1.41569483,0.54252249,1.01059330,0.00000000,0.00000000
-0.18002808,-2.17000008,-0.32955694,-0.11450437,-2.57149243,0.00000000,0.00000000,-0.16065150,2.17000008,1.41722202,0.54415506,1.02216065,0.00000000,0.00000000
-0.18450758,-2.16999960,-0.32919145,-0.11209841,-2.57013011,0.00000000,0.00000000,-0.15716599,2.17000008,1.41830230,0.54536802,1.03526473,0.00000000,0.00000000
-0.18918641,-2.16999221,-0.32902604,-0.11053784,-2.57353711,0.00000000,0.00000000,-0.15439785,2.17000008,1.41906238,0.54605854,1.04568422,0.00000000,0.00000000
-0.19372703,-2.16996670,-0.32903135,-0.10984604,-2.57940078,0.00000000,0.00000000,-0.15233785,2.17000008,1.41957593,0.54616433,1.05279124,0.00000000,0.00000000
-0.19786084,-2.16995168,-0.32918173,-0.11001440,-2.58913732,0.00000000,0.00000000,-0.15101156,2.17000008,1.41984630,0.54563922,1.05300200,0.00000000,0.00000000
-0.20138934,-2.16998005,-0.32945481,-0.11098965,-2.60241723,0.00000000,0.00000000,-0.15048303,2.17000008,1.41982079,0.54443860,1.05468655,0.00000000,0.00000000
-0.20419116,-2.16999769,-0.32983145,-0.11267176,-2.61004066,0.00000000,0.00000000,-0.15081002,2.17000008,1.41941786,0.54252881,1.05637169,0.00000000,0.00000000
-0.20622255,-2.17000008,-0.33029604,-0.11491325,-2.61182022,0.00000000,0.00000000,-0.15201314,2.17000008,1.41855550,0.53989220,1.05233228,0.00000000,0.00000000
-0.20752273,-2.17000008,-0.33083910,-0.11751059,-2.60920334,0.00000000,0.00000000,-0.15408161,2.17000008,1.41717172,0.53651351,1.05413973,0.00000000,0.00000000
-0.20821498,-2.17000008,-0.33145994,-0.12021121,-2.60437107,0.00000000,0.00000000,-0.15699545,2.17000008,1.41523874,0.53236055,1.05249035,0.00000000,0.00000000
-0.20850335,-2.17000008,-0.33216715,-0.12275479,-2.59940910,0.00000000,0.00000000,-0.16073593,2.17000008,1.41276050,0.52737719,1.04744446,0.00000000,0.00000000
-0.20865668,-2.17000008,-0.33297646,-0.12491977,-2.59671926,0.00000000,0.00000000,-0.16528824,2.17000008,1.40975511,0.52149230,1.04448152,0.00000000,0.00000000
-0.20895961,-2.17000008,-0.33390602,-0.12654649,-2.59108305,0.00000000,0.00000000,-0.17063563,2.17000008,1.40622878,0.51464534,1.03526783,0.00000000,0.00000000
-0.20963933,-2.17000008,-0.33496982,-0.12753752,-2.58193731,0.00000000,0.00000000,-0.17672274,2.17000008,1.40217221,0.50683486,1.02789342,0.00000000,0.00000000
-0.21080145,-2.17000008,-0.33617213,-0.12785238,-2.56922483,0.00000000,0.00000000,-0.18337473,2.17000008,1.39757931,0.49818003,1.01648676,0.00000000,0.00000000
-0.21241091,-2.17000008,-0.33750597,-0.12748557,-2.55165505,0.00000000,0.00000000,-0.19023284,2.17000008,1.39247918,0.48895931,1.00624585,0.00000000,0.00000000
-0.21431343,-2.17000008,-0.33895722,-0.12642199,-2.53356290,0.00000000,0.00000000,-0.19678168,2.16999817,1.38694298,0.47959220,0.99594039,0.00000000,0.00000000
-0.21627721,-2.17000008,-0.34050983,-0.12461983,-2.51832318,0.00000000,0.00000000,-0.20244834,2.16994095,1.38105273,0.47058654,0.98855680,0.00000000,0.00000000
-0.21804526,-2.16998219,-0.34214905,-0.12207492,-2.50803614,0.00000000,0.00000000,-0.20667362,2.16939068,1.37485135,0.46249542,0.98639268,0.00000000,0.00000000
-0.21937853,-2.16968656,-0.34386212,-0.11890168,-2.50298786,0.00000000,0.00000000,-0.20892636,2.16755962,1.36833584,0.45586801,0.98458040,0.00000000,0.00000000
-0.22006580,-2.16841531,-0.34563965,-0.11528896,-2.50740457,0.00000000,0.00000000,-0.20875123,2.16456032,1.36149764,0.45115194,0.98300689,0.00000000,0.00000000
-0.21989897,-2.16579843,-0.34747806,-0.11135466,-2.50961685,0.00000000,0.00000000,-0.20588222,2.16078448,1.35433602,0.44859761,0.98108345,0.00000000,0.00000000
-0.21865945,-2.16196275,-0.34937954,-0.10710323,-2.51448727,0.00000000,0.00000000,-0.20027900,2.15645814,1.34684134,0.44825777,0.97511631,0.00000000,0.00000000
-0.21620655,-2.15708232,-0.35135442,-0.10251115,-2.51804137,0.00000000,0.00000000,-0.19201498,2.15167689,1.33898902,0.45008317,0.96334499,0.00000000,0.00000000
-0.21255770,-2.15134192,-0.35342315,-0.09761555,-2.52065206,0.00000000,0.00000000,-0.18115138,2.14654183,1.33071959,0.45404059,0.95206428,0.00000000,0.00000000
-0.20784512,-2.14497924,-0.35561273,-0.09251130,-2.52352118,0.00000000,0.00000000,-0.16772743,2.14131880,1.32190609,0.46016848,0.94416970,0.00000000,0.00000000
-0.20220810,-2.13823080,-0.35795170,-0.08729643,-2.51899529,0.00000000,0.00000000,-0.15184385,2.13645482,1.31235039,0.46854416,0.93269485,0.00000000,0.00000000
-0.19572629,-2.13135076,-0.36046740,-0.08207291,-2.51651454,0.00000000,0.00000000,-0.13374455,2.13250709,1.30179727,0.47922182,0.92460191,0.00000000,0.00000000
-0.18847844,-2.12466764,-0.36318868,-0.07699501,-2.51189923,0.00000000,0.00000000,-0.11383238,2.13004136,1.28995574,0.49218860,0.91269183,0.00000000,0.00000000
-0.18066110,-2.11854100,-0.36615121,-0.07226654,-2.51020622,0.00000000,0.00000000,-0.09264237,2.12952995,1.27652323,0.50733358,0.90352511,0.00000000,0.00000000
