isaac-sim2real/sage/motion_files/wr75s/amass/0-Eyes_Japan_Dataset_kaiwa_walk-27-thinking-kaiwa_poses_idx69.txt
l_joint1,l_joint2,l_joint3,l_joint4,l_joint5,l_joint6,l_joint7,r_joint1,r_joint2,r_joint3,r_joint4,r_joint5,r_joint6,r_joint7
-1.36525941,-0.89164507,-0.01783618,-0.07617240,0.03687945,0.00000000,0.00000000,-0.84117109,0.65540648,-0.21031711,-0.03031799,-0.01866981,0.00000000,0.00000000
-1.36520982,-0.89218336,-0.01792754,-0.07629304,0.03920201,0.00000000,0.00000000,-0.84123707,0.65522850,-0.21028662,-0.03024328,-0.03367049,0.00000000,0.00000000
-1.36512899,-0.89301479,-0.01810843,-0.07643676,0.04130010,0.00000000,0.00000000,-0.84135056,0.65504515,-0.21022594,-0.03007988,-0.05027182,0.00000000,0.00000000
-1.36504781,-0.89395595,-0.01838722,-0.07652133,0.04007679,0.00000000,0.00000000,-0.84149379,0.65494460,-0.21013159,-0.02984376,-0.06804724,0.00000000,0.00000000
-1.36500847,-0.89489383,-0.01877477,-0.07649360,0.03904372,0.00000000,0.00000000,-0.84164453,0.65491229,-0.20999800,-0.02957054,-0.08220509,0.00000000,0.00000000
-1.36504519,-0.89575046,-0.01927957,-0.07632823,0.03813228,0.00000000,0.00000000,-0.84177607,0.65491182,-0.20981807,-0.02928714,-0.09381484,0.00000000,0.00000000
-1.36517167,-0.89646190,-0.01990375,-0.07602236,0.03805770,0.00000000,0.00000000,-0.84186018,0.65492702,-0.20958395,-0.02900295,-0.10381337,0.00000000,0.00000000
-1.36538744,-0.89698094,-0.02064506,-0.07558144,0.03772348,0.00000000,0.00000000,-0.84186769,0.65493041,-0.20928746,-0.02871651,-0.11369551,0.00000000,0.00000000
-1.36568475,-0.89729667,-0.02149965,-0.07501569,0.03882487,0.00000000,0.00000000,-0.84177613,0.65486962,-0.20892093,-0.02843709,-0.12053587,0.00000000,0.00000000
-1.36604631,-0.89744860,-0.02246119,-0.07434863,0.03765778,0.00000000,0.00000000,-0.84158069,0.65470868,-0.20847814,-0.02819729,-0.13024034,0.00000000,0.00000000
-1.36644018,-0.89752144,-0.02351973,-0.07361738,0.03295891,0.00000000,0.00000000,-0.84129465,0.65445274,-0.20795423,-0.02803194,-0.13555840,0.00000000,0.00000000
-1.36682272,-0.89762497,-0.02466222,-0.07286750,0.02973913,0.00000000,0.00000000,-0.84094054,0.65414071,-0.20734456,-0.02794765,-0.14037125,0.00000000,0.00000000
-1.36714339,-0.89785874,-0.02587343,-0.07214491,0.02613019,0.00000000,0.00000000,-0.84054077,0.65384066,-0.20664419,-0.02792013,-0.14898756,0.00000000,0.00000000
-1.36734998,-0.89826965,-0.02713761,-0.07146955,0.02244449,0.00000000,0.00000000,-0.84010953,0.65364385,-0.20584704,-0.02791212,-0.16353308,0.00000000,0.00000000
-1.36740065,-0.89885205,-0.02844183,-0.07082822,0.01345807,0.00000000,0.00000000,-0.83964849,0.65362269,-0.20494558,-0.02789846,-0.17627770,0.00000000,0.00000000
-1.36727333,-0.89957809,-0.02977898,-0.07019679,0.00623038,0.00000000,0.00000000,-0.83914691,0.65378773,-0.20393078,-0.02788075,-0.18741199,0.00000000,0.00000000
-1.36696982,-0.90041453,-0.03114858,-0.06955694,-0.00872980,0.00000000,0.00000000,-0.83858138,0.65407842,-0.20279229,-0.02788371,-0.20079176,0.00000000,0.00000000
-1.36650836,-0.90131378,-0.03255463,-0.06889015,-0.02693528,0.00000000,0.00000000,-0.83791804,0.65439373,-0.20151846,-0.02794519,-0.21681808,0.00000000,0.00000000
-1.36590838,-0.90220654,-0.03400186,-0.06817158,-0.04894914,0.00000000,0.00000000,-0.83711904,0.65463561,-0.20009702,-0.02810478,-0.22662611,0.00000000,0.00000000
-1.36517835,-0.90301561,-0.03549223,-0.06737699,-0.06824352,0.00000000,0.00000000,-0.83615196,0.65475786,-0.19851625,-0.02838365,-0.24417904,0.00000000,0.00000000
-1.36430860,-0.90369797,-0.03702365,-0.06650200,-0.08554588,0.00000000,0.00000000,-0.83500290,0.65478826,-0.19676620,-0.02877515,-0.25859922,0.00000000,0.00000000
-1.36327958,-0.90426725,-0.03859175,-0.06557006,-0.09368642,0.00000000,0.00000000,-0.83367759,0.65480262,-0.19483884,-0.02925558,-0.27277178,0.00000000,0.00000000
-1.36207271,-0.90477276,-0.04019313,-0.06461390,-0.10431011,0.00000000,0.00000000,-0.83219188,0.65487087,-0.19272731,-0.02979267,-0.28639567,0.00000000,0.00000000
-1.36067903,-0.90528423,-0.04182740,-0.06365956,-0.11358604,0.00000000,0.00000000,-0.83056664,0.65502286,-0.19042517,-0.03035083,-0.30382341,0.00000000,0.00000000
-1.35910058,-0.90589553,-0.04349697,-0.06272802,-0.13095470,0.00000000,0.00000000,-0.82882702,0.65526068,-0.18792628,-0.03090021,-0.32353264,0.00000000,0.00000000
-1.35734785,-0.90670675,-0.04520655,-0.06184013,-0.13973750,0.00000000,0.00000000,-0.82699883,0.65559137,-0.18522415,-0.03142675,-0.33932677,0.00000000,0.00000000
-1.35544109,-0.90781474,-0.04696308,-0.06102331,-0.14875679,0.00000000,0.00000000,-0.82510328,0.65602106,-0.18231143,-0.03193739,-0.34934163,0.00000000,0.00000000
-1.35341227,-0.90927190,-0.04877586,-0.06029538,-0.15988529,0.00000000,0.00000000,-0.82314759,0.65654135,-0.17917949,-0.03245971,-0.35453928,0.00000000,0.00000000
-1.35130358,-0.91103196,-0.05065626,-0.05963584,-0.17517063,0.00000000,0.00000000,-0.82111776,0.65714967,-0.17581801,-0.03303416,-0.35513577,0.00000000,0.00000000
-1.34916079,-0.91294950,-0.05261596,-0.05897903,-0.19313629,0.00000000,0.00000000,-0.81898254,0.65787643,-0.17221525,-0.03369062,-0.35461187,0.00000000,0.00000000
-1.34703374,-0.91485518,-0.05466737,-0.05824646,-0.20483528,0.00000000,0.00000000,-0.81670249,0.65873313,-0.16835837,-0.03444150,-0.35676569,0.00000000,0.00000000
-1.34497166,-0.91665488,-0.05682272,-0.05740020,-0.21147335,0.00000000,0.00000000,-0.81424075,0.65966076,-0.16423418,-0.03528396,-0.35852283,0.00000000,0.00000000
-1.34299982,-0.91838497,-0.05908910,-0.05648267,-0.21029730,0.00000000,0.00000000,-0.81157392,0.66056228,-0.15983108,-0.03619203,-0.36329606,0.00000000,0.00000000
-1.34111845,-0.92010862,-0.06146881,-0.05555775,-0.20940985,0.00000000,0.00000000,-0.80868345,0.66135287,-0.15513945,-0.03713090,-0.36648068,0.00000000,0.00000000
-1.33931625,-0.92179364,-0.06396263,-0.05464267,-0.20936128,0.00000000,0.00000000,-0.80554807,0.66203028,-0.15015170,-0.03808746,-0.37287390,0.00000000,0.00000000
-1.33757806,-0.92331594,-0.06657147,-0.05371013,-0.20736015,0.00000000,0.00000000,-0.80214846,0.66270590,-0.14486173,-0.03907582,-0.38851100,0.00000000,0.00000000
-1.33589077,-0.92459124,-0.06929729,-0.05274804,-0.21150243,0.00000000,0.00000000,-0.79847598,0.66351593,-0.13926362,-0.04011722,-0.40695477,0.00000000,0.00000000
-1.33425379,-0.92566955,-0.07214470,-0.05179360,-0.22011557,0.00000000,0.00000000,-0.79453099,0.66448706,-0.13335051,-0.04122258,-0.42961752,0.00000000,0.00000000
-1.33268094,-0.92668575,-0.07512120,-0.05090644,-0.22970682,0.00000000,0.00000000,-0.79031354,0.66550988,-0.12711446,-0.04239522,-0.45043296,0.00000000,0.00000000
-1.33119118,-0.92773950,-0.07823522,-0.05012000,-0.23623382,0.00000000,0.00000000,-0.78581822,0.66643530,-0.12054843,-0.04364111,-0.47364083,0.00000000,0.00000000
-1.32979369,-0.92883998,-0.08149359,-0.04942369,-0.24833293,0.00000000,0.00000000,-0.78103578,0.66718554,-0.11364725,-0.04496771,-0.49770543,0.00000000,0.00000000
-1.32848346,-0.92995876,-0.08490083,-0.04879314,-0.25629637,0.00000000,0.00000000,-0.77595872,0.66777599,-0.10640668,-0.04637188,-0.51673788,0.00000000,0.00000000
-1.32724571,-0.93109494,-0.08845994,-0.04822594,-0.26794741,0.00000000,0.00000000,-0.77058333,0.66826028,-0.09882206,-0.04783678,-0.52313900,0.00000000,0.00000000
-1.32606137,-0.93225956,-0.09217357,-0.04773545,-0.27602616,0.00000000,0.00000000,-0.76490611,0.66869092,-0.09088898,-0.04934418,-0.52924174,0.00000000,0.00000000
-1.32490683,-0.93344551,-0.09604417,-0.04733309,-0.27856606,0.00000000,0.00000000,-0.75892156,0.66911858,-0.08260456,-0.05087802,-0.53720891,0.00000000,0.00000000
-1.32375658,-0.93466300,-0.10007396,-0.04704063,-0.27492708,0.00000000,0.00000000,-0.75262475,0.66957539,-0.07396795,-0.05241473,-0.53910470,0.00000000,0.00000000
-1.32259142,-0.93595409,-0.10426621,-0.04689465,-0.27204013,0.00000000,0.00000000,-0.74600941,0.67003995,-0.06497872,-0.05393627,-0.54192656,0.00000000,0.00000000
-1.32140195,-0.93733805,-0.10862569,-0.04691463,-0.26288179,0.00000000,0.00000000,-0.73906261,0.67046225,-0.05563543,-0.05544924,-0.54768813,0.00000000,0.00000000
-1.32017720,-0.93876272,-0.11315700,-0.04706728,-0.25449285,0.00000000,0.00000000,-0.73176700,0.67086071,-0.04593555,-0.05697342,-0.54732108,0.00000000,0.00000000
-1.31889665,-0.94012696,-0.11786333,-0.04727162,-0.24552710,0.00000000,0.00000000,-0.72410530,0.67135406,-0.03587523,-0.05852454,-0.54792720,0.00000000,0.00000000
-1.31753981,-0.94139135,-0.12274770,-0.04747883,-0.24386871,0.00000000,0.00000000,-0.71606261,0.67201561,-0.02545025,-0.06010351,-0.54742479,0.00000000,0.00000000
-1.31609261,-0.94256520,-0.12781452,-0.04766830,-0.24203072,0.00000000,0.00000000,-0.70762622,0.67283940,-0.01465733,-0.06170844,-0.55372745,0.00000000,0.00000000
-1.31454778,-0.94367021,-0.13306992,-0.04782335,-0.24093156,0.00000000,0.00000000,-0.69878650,0.67377490,-0.00349510,-0.06335019,-0.55684024,0.00000000,0.00000000
-1.31289995,-0.94474941,-0.13852102,-0.04793550,-0.23892814,0.00000000,0.00000000,-0.68954223,0.67477763,0.00803494,-0.06503775,-0.55823594,0.00000000,0.00000000
-1.31113970,-0.94587171,-0.14417544,-0.04801257,-0.23383309,0.00000000,0.00000000,-0.67989939,0.67584026,0.01992966,-0.06675588,-0.55881608,0.00000000,0.00000000
-1.30925989,-0.94709915,-0.15004209,-0.04807017,-0.22830664,0.00000000,0.00000000,-0.66985935,0.67696977,0.03218763,-0.06847732,-0.56160915,0.00000000,0.00000000
-1.30725884,-0.94844675,-0.15613168,-0.04811340,-0.22204688,0.00000000,0.00000000,-0.65941089,0.67815453,0.04481095,-0.07018417,-0.56895936,0.00000000,0.00000000
-1.30514002,-0.94991797,-0.16245648,-0.04814659,-0.21603112,0.00000000,0.00000000,-0.64853770,0.67936057,0.05780344,-0.07186767,-0.57463878,0.00000000,0.00000000
-1.30291152,-0.95151883,-0.16903025,-0.04817810,-0.20908639,0.00000000,0.00000000,-0.63722301,0.68054539,0.07116976,-0.07352011,-0.58139759,0.00000000,0.00000000
-1.30058146,-0.95324939,-0.17586753,-0.04821685,-0.20250073,0.00000000,0.00000000,-0.62544823,0.68167567,0.08491658,-0.07512857,-0.58644313,0.00000000,0.00000000
-1.29815209,-0.95509708,-0.18298256,-0.04826955,-0.19950490,0.00000000,0.00000000,-0.61318696,0.68273783,0.09905526,-0.07667038,-0.58863813,0.00000000,0.00000000
-1.29561830,-0.95705658,-0.19038916,-0.04835111,-0.20052756,0.00000000,0.00000000,-0.60040444,0.68370497,0.11360115,-0.07812034,-0.58415031,0.00000000,0.00000000
-1.29296672,-0.95913577,-0.19810057,-0.04848637,-0.20253001,0.00000000,0.00000000,-0.58706391,0.68453956,0.12857136,-0.07945213,-0.58445799,0.00000000,0.00000000
-1.29017317,-0.96131849,-0.20612915,-0.04868552,-0.20128003,0.00000000,0.00000000,-0.57312489,0.68522751,0.14398471,-0.08063593,-0.58566952,0.00000000,0.00000000
-1.28720200,-0.96355152,-0.21448664,-0.04893627,-0.20399228,0.00000000,0.00000000,-0.55854011,0.68577582,0.15986368,-0.08164395,-0.57928479,0.00000000,0.00000000
-1.28400683,-0.96580219,-0.22318383,-0.04922942,-0.19992515,0.00000000,0.00000000,-0.54325789,0.68619376,0.17623563,-0.08245992,-0.57034153,0.00000000,0.00000000
-1.28052628,-0.96806681,-0.23223014,-0.04955989,-0.19579147,0.00000000,0.00000000,-0.52722305,0.68653566,0.19313417,-0.08307236,-0.56259042,0.00000000,0.00000000
-1.27668607,-0.97036105,-0.24163395,-0.04992263,-0.18588322,0.00000000,0.00000000,-0.51037472,0.68688059,0.21059909,-0.08347036,-0.55710912,0.00000000,0.00000000
-1.27240789,-0.97269857,-0.25140402,-0.05031115,-0.17815018,0.00000000,0.00000000,-0.49264538,0.68724495,0.22867399,-0.08364549,-0.55192035,0.00000000,0.00000000
-1.26760721,-0.97508448,-0.26154906,-0.05071513,-0.16663042,0.00000000,0.00000000,-0.47396013,0.68759745,0.24740683,-0.08358950,-0.54965156,0.00000000,0.00000000
-1.26218867,-0.97753167,-0.27207726,-0.05112289,-0.16045167,0.00000000,0.00000000,-0.45423976,0.68789780,0.26684982,-0.08328739,-0.54849553,0.00000000,0.00000000
-1.25604558,-0.98008144,-0.28299591,-0.05153013,-0.15138128,0.00000000,0.00000000,-0.43340465,0.68811297,0.28705871,-0.08271363,-0.55743200,0.00000000,0.00000000
-1.24906051,-0.98281479,-0.29431182,-0.05194442,-0.13667519,0.00000000,0.00000000,-0.41137657,0.68822992,0.30809212,-0.08183549,-0.56670839,0.00000000,0.00000000
-1.24110389,-0.98585665,-0.30603084,-0.05238400,-0.12784044,0.00000000,0.00000000,-0.38808018,0.68827653,0.33001024,-0.08062001,-0.57684594,0.00000000,0.00000000
-1.23203051,-0.98940742,-0.31815732,-0.05288722,-0.12142430,0.00000000,0.00000000,-0.36344755,0.68834496,0.35287330,-0.07903101,-0.58838481,0.00000000,0.00000000
-1.22167516,-0.99377280,-0.33069277,-0.05352922,-0.11317900,0.00000000,0.00000000,-0.33741942,0.68860543,0.37674159,-0.07701108,-0.59226942,0.00000000,0.00000000
-1.20984936,-0.99932253,-0.34363514,-0.05442781,-0.10160835,0.00000000,0.00000000,-0.30993754,0.68931377,0.40167773,-0.07444594,-0.60091120,0.00000000,0.00000000
-1.19634998,-1.00644755,-0.35697928,-0.05572919,-0.08630376,0.00000000,0.00000000,-0.28094381,0.69084865,0.42774615,-0.07113974,-0.61334825,0.00000000,0.00000000
-1.18096924,-1.01556325,-0.37071747,-0.05759755,-0.07525425,0.00000000,0.00000000,-0.25038537,0.69377720,0.45501199,-0.06680056,-0.62240934,0.00000000,0.00000000
-1.16348994,-1.02715468,-0.38483661,-0.06023979,-0.06598411,0.00000000,0.00000000,-0.21822153,0.69890815,0.48353875,-0.06101056,-0.63889128,0.00000000,0.00000000
-1.14368582,-1.04176223,-0.39931580,-0.06391139,-0.05590263,0.00000000,0.00000000,-0.18443185,0.70722836,0.51338166,-0.05322585,-0.65777159,0.00000000,0.00000000
-1.12132764,-1.05983520,-0.41412503,-0.06885269,-0.04841286,0.00000000,0.00000000,-0.14902650,0.71968919,0.54457647,-0.04284984,-0.67695564,0.00000000,0.00000000
-1.09618509,-1.08154953,-0.42922539,-0.07520165,-0.03987179,0.00000000,0.00000000,-0.11207290,0.73692679,0.57712287,-0.02933601,-0.69160098,0.00000000,0.00000000
-1.06804168,-1.10675657,-0.44457072,-0.08295528,-0.03962365,0.00000000,0.00000000,-0.07375122,0.75905329,0.61096519,-0.01223692,-0.70708275,0.00000000,0.00000000
-1.03671920,-1.13507748,-0.46011028,-0.09197260,-0.04396135,0.00000000,0.00000000,-0.03441494,0.78574526,0.64597708,0.00877408,-0.72270685,0.00000000,0.00000000
-1.00208449,-1.16606081,-0.47578862,-0.10199619,-0.05389619,0.00000000,0.00000000,0.00537996,0.81677127,0.68195337,0.03381768,-0.73792398,0.00000000,0.00000000
-0.96405506,-1.19935250,-0.49154496,-0.11271139,-0.06834299,0.00000000,0.00000000,0.04487648,0.85244030,0.71861041,0.06273227,-0.75108051,0.00000000,0.00000000
-0.92263496,-1.23472452,-0.50731987,-0.12380750,-0.08003875,0.00000000,0.00000000,0.08313353,0.89337957,0.75558984,0.09511003,-0.76354605,0.00000000,0.00000000
-0.87796640,-1.27200711,-0.52306628,-0.13502771,-0.09390951,0.00000000,0.00000000,0.11905506,0.94008499,0.79246682,0.13034657,-0.77629179,0.00000000,0.00000000
-0.83037782,-1.31122839,-0.53875369,-0.14630488,-0.10944265,0.00000000,0.00000000,0.15145762,0.99269015,0.82876331,0.16764253,-0.79389185,0.00000000,0.00000000
-0.78036392,-1.35271037,-0.55436158,-0.15783471,-0.12740192,0.00000000,0.00000000,0.17915125,1.05096829,0.86397076,0.20603454,-0.81896037,0.00000000,0.00000000
-0.72846037,-1.39671314,-0.56987441,-0.16983123,-0.14810787,0.00000000,0.00000000,0.20098597,1.11449111,0.89758074,0.24449313,-0.84129256,0.00000000,0.00000000
-0.67530531,-1.44356179,-0.58528203,-0.18261680,-0.17378439,0.00000000,0.00000000,0.21599711,1.18258095,0.92913854,0.28195700,-0.86098695,0.00000000,0.00000000
-0.62153894,-1.49331236,-0.60058278,-0.19637059,-0.19769749,0.00000000,0.00000000,0.22337773,1.25442207,0.95826524,0.31739879,-0.88288987,0.00000000,0.00000000
-0.56792313,-1.54578853,-0.61579835,-0.21120217,-0.22158986,0.00000000,0.00000000,0.22266197,1.32911015,0.98470318,0.34995532,-0.90644413,0.00000000,0.00000000
-0.51531476,-1.60034585,-0.63099051,-0.22701977,-0.23965329,0.00000000,0.00000000,0.21373206,1.40553796,1.00834894,0.37889981,-0.92864925,0.00000000,0.00000000
-0.46470678,-1.65587592,-0.64627749,-0.24358846,-0.25959048,0.00000000,0.00000000,0.19685349,1.48240900,1.02926338,0.40367889,-0.94882941,0.00000000,0.00000000
-0.41712728,-1.71109748,-0.66181237,-0.26069123,-0.27649456,0.00000000,0.00000000,0.17267603,1.55839908,1.04764152,0.42397261,-0.97478843,0.00000000,0.00000000
-0.37339547,-1.76481283,-0.67773712,-0.27817082,-0.29158458,0.00000000,0.00000000,0.14212337,1.63234162,1.06374943,0.43971458,-1.00214279,0.00000000,0.00000000
-0.33401391,-1.81591678,-0.69416988,-0.29584676,-0.30987492,0.00000000,0.00000000,0.10622054,1.70332909,1.07786262,0.45105979,-1.02912164,0.00000000,0.00000000
-0.29932797,-1.86327469,-0.71124047,-0.31346434,-0.32468897,0.00000000,0.00000000,0.06594224,1.77075624,1.09021926,0.45833838,-1.05049431,0.00000000,0.00000000
-0.26972422,-1.90576434,-0.72911674,-0.33078963,-0.34763038,0.00000000,0.00000000,0.02214845,1.83432853,1.10099638,0.46202311,-1.07311833,0.00000000,0.00000000
-0.24557415,-1.94249940,-0.74797064,-0.34773061,-0.36949617,0.00000000,0.00000000,-0.02442257,1.89398062,1.11032033,0.46267185,-1.09361947,0.00000000,0.00000000
-0.22693546,-1.97301292,-0.76789957,-0.36430219,-0.38880017,0.00000000,0.00000000,-0.07313067,1.94967794,1.11831057,0.46084109,-1.11307502,0.00000000,0.00000000
-0.21322320,-1.99730039,-0.78884816,-0.38044113,-0.41573805,0.00000000,0.00000000,-0.12334267,2.00117755,1.12514675,0.45703006,-1.13995028,0.00000000,0.00000000
-0.20311622,-2.01570082,-0.81058985,-0.39584383,-0.44257343,0.00000000,0.00000000,-0.17427863,2.04785442,1.13112617,0.45169866,-1.16164291,0.00000000,0.00000000
-0.19505574,-2.02858734,-0.83284926,-0.41004717,-0.47119558,0.00000000,0.00000000,-0.22480866,2.08869267,1.13667893,0.44536614,-1.18513560,0.00000000,0.00000000
-0.18808098,-2.03626013,-0.85546416,-0.42279151,-0.49274096,0.00000000,0.00000000,-0.27330685,2.12239933,1.14234114,0.43870753,-1.20972717,0.00000000,0.00000000
-0.18220431,-2.03923988,-0.87839586,-0.43433657,-0.51952827,0.00000000,0.00000000,-0.31787381,2.14760137,1.14867055,0.43249840,-1.23001468,0.00000000,0.00000000
-0.17780669,-2.03851271,-0.90156686,-0.44527224,-0.54474843,0.00000000,0.00000000,-0.35698161,2.16296649,1.15615678,0.42732441,-1.24294150,0.00000000,0.00000000
-0.17483740,-2.03544378,-0.92471856,-0.45606828,-0.56997049,0.00000000,0.00000000,-0.38981345,2.16886044,1.16526580,0.42334545,-1.26032948,0.00000000,0.00000000
-0.17286900,-2.03137326,-0.94749087,-0.46689609,-0.59081531,0.00000000,0.00000000,-0.41605645,2.16994190,1.17646861,0.42041329,-1.27605212,0.00000000,0.00000000
-0.17142212,-2.02740860,-0.96952224,-0.47771859,-0.60630500,0.00000000,0.00000000,-0.43562531,2.17000008,1.19005561,0.41842884,-1.29008210,0.00000000,0.00000000
-0.17016794,-2.02453542,-0.99046475,-0.48847890,-0.62047225,0.00000000,0.00000000,-0.44870919,2.17000008,1.20596039,0.41744763,-1.30470991,0.00000000,0.00000000
-0.16875021,-2.02372622,-1.00993478,-0.49909565,-0.63325995,0.00000000,0.00000000,-0.45610219,2.17000008,1.22378361,0.41741118,-1.32039344,0.00000000,0.00000000
-0.16628478,-2.02551508,-1.02754641,-0.50909245,-0.63936841,0.00000000,0.00000000,-0.45899028,2.17000008,1.24299061,0.41807929,-1.33814871,0.00000000,0.00000000
-0.16164421,-2.02968884,-1.04305625,-0.51765710,-0.64715266,0.00000000,0.00000000,-0.45782346,2.17000008,1.26315415,0.41953912,-1.34809542,0.00000000,0.00000000
-0.15406969,-2.03566003,-1.05638611,-0.52409184,-0.65424484,0.00000000,0.00000000,-0.45246577,2.16995883,1.28387439,0.42220786,-1.36021507,0.00000000,0.00000000
-0.14326012,-2.04274368,-1.06758046,-0.52793586,-0.66309118,0.00000000,0.00000000,-0.44276145,2.16929913,1.30465090,0.42657390,-1.37160420,0.00000000,0.00000000
-0.12923022,-2.05029058,-1.07675743,-0.52891481,-0.66938972,0.00000000,0.00000000,-0.42865974,2.16680241,1.32496011,0.43300670,-1.37765253,0.00000000,0.00000000
-0.11218068,-2.05784512,-1.08405149,-0.52693486,-0.67280710,0.00000000,0.00000000,-0.41019148,2.16253352,1.34442854,0.44160026,-1.38665926,0.00000000,0.00000000
-0.09232406,-2.06523132,-1.08955967,-0.52206564,-0.67651981,0.00000000,0.00000000,-0.38744456,2.15702629,1.36287403,0.45218730,-1.38938689,0.00000000,0.00000000
-0.06978340,-2.07253385,-1.09332657,-0.51450300,-0.68217582,0.00000000,0.00000000,-0.36044571,2.15046763,1.38024056,0.46453112,-1.38883233,0.00000000,0.00000000
-0.04454185,-2.07997513,-1.09536517,-0.50448853,-0.69021338,0.00000000,0.00000000,-0.32901448,2.14279985,1.39654136,0.47854975,-1.39045405,0.00000000,0.00000000
-0.01683378,-2.08780098,-1.09574139,-0.49242628,-0.70146805,0.00000000,0.00000000,-0.29263937,2.13450265,1.41164565,0.49465698,-1.39377701,0.00000000,0.00000000
0.01109783,-2.09646034,-1.09475744,-0.47977319,-0.71301794,0.00000000,0.00000000,-0.25096035,2.12741756,1.42500246,0.51376832,-1.39309692,0.00000000,0.00000000
0.03560701,-2.10645509,-1.09288943,-0.46873054,-0.72699618,0.00000000,0.00000000,-0.20570822,2.12269592,1.43614459,0.53591806,-1.38383567,0.00000000,0.00000000
0.05675598,-2.11746407,-1.09031630,-0.45947370,-0.74008095,0.00000000,0.00000000,-0.15926291,2.11975980,1.44509661,0.56088424,-1.37151420,0.00000000,0.00000000
0.07599849,-2.12882137,-1.08710778,-0.45139706,-0.74575543,0.00000000,0.00000000,-0.11191749,2.11816049,1.45194399,0.58928061,-1.35661626,0.00000000,0.00000000
0.09480554,-2.13983393,-1.08332872,-0.44384035,-0.75419462,0.00000000,0.00000000,-0.06442261,2.11885953,1.45625722,0.62088692,-1.34581256,0.00000000,0.00000000
0.11509351,-2.14977193,-1.07898259,-0.43584567,-0.76207680,0.00000000,0.00000000,-0.01954618,2.12275362,1.45752001,0.65386069,-1.33570933,0.00000000,0.00000000
0.13837092,-2.15804744,-1.07407832,-0.42662981,-0.77175289,0.00000000,0.00000000,0.01944817,2.12962651,1.45568740,0.68601555,-1.32375050,0.00000000,0.00000000
0.16343805,-2.16442871,-1.06885815,-0.41681015,-0.78446829,0.00000000,0.00000000,0.05203783,2.13764954,1.45171416,0.71690804,-1.31401300,0.00000000,0.00000000
0.18673766,-2.16850376,-1.06387961,-0.40808880,-0.78725332,0.00000000,0.00000000,0.08033928,2.14398122,1.44731104,0.74756390,-1.30070651,0.00000000,0.00000000
0.20594630,-2.16983342,-1.05981719,-0.40111706,-0.79681087,0.00000000,0.00000000,0.10464590,2.14899969,1.44276130,0.77800298,-1.29376721,0.00000000,0.00000000
0.22061995,-2.16999388,-1.05725670,-0.39534533,-0.79795277,0.00000000,0.00000000,0.12373511,2.15331888,1.43821013,0.80680269,-1.27728713,0.00000000,0.00000000
0.23104289,-2.17000008,-1.05659175,-0.38996446,-0.79961509,0.00000000,0.00000000,0.13654087,2.15650630,1.43434060,0.83173692,-1.26158392,0.00000000,0.00000000
0.23755081,-2.17000008,-1.05802429,-0.38439456,-0.79512382,0.00000000,0.00000000,0.14371002,2.15841150,1.43180037,0.85147029,-1.24747634,0.00000000,0.00000000
0.24039736,-2.17000008,-1.06159437,-0.37837544,-0.79335570,0.00000000,0.00000000,0.14534837,2.15979266,1.43061113,0.86525702,-1.23499775,0.00000000,0.00000000
0.23965181,-2.17000008,-1.06721663,-0.37202373,-0.79041129,0.00000000,0.00000000,0.14044803,2.16136503,1.43053746,0.87228835,-1.21846211,0.00000000,0.00000000
0.23509221,-2.16998601,-1.07473803,-0.36583111,-0.78617996,0.00000000,0.00000000,0.12837319,2.16352081,1.43128490,0.87224996,-1.20976341,0.00000000,0.00000000
0.22617099,-2.16972995,-1.08399796,-0.36058694,-0.78626186,0.00000000,0.00000000,0.10899580,2.16615009,1.43255413,0.86529291,-1.20003688,0.00000000,0.00000000
0.21234600,-2.16835141,-1.09479296,-0.35721859,-0.79094881,0.00000000,0.00000000,0.08229773,2.16849756,1.43404233,0.85175020,-1.18853378,0.00000000,0.00000000
0.19424538,-2.16462708,-1.10681677,-0.35614452,-0.78823185,0.00000000,0.00000000,0.04819211,2.16970873,1.43547058,0.83197796,-1.17282832,0.00000000,0.00000000
0.17371897,-2.15785146,-1.11989582,-0.35693398,-0.78671545,0.00000000,0.00000000,0.00678548,2.16998386,1.43685186,0.80631965,-1.15105689,0.00000000,0.00000000
0.15143226,-2.14870214,-1.13389206,-0.36008525,-0.78441393,0.00000000,0.00000000,-0.03990811,2.17000008,1.43845153,0.77606654,-1.13632059,0.00000000,0.00000000
0.12538052,-2.13948202,-1.14861333,-0.36822298,-0.78658813,0.00000000,0.00000000,-0.08676593,2.17000008,1.44029903,0.74442273,-1.12200725,0.00000000,0.00000000
0.09376486,-2.12939286,-1.16441202,-0.38321167,-0.79054159,0.00000000,0.00000000,-0.13109830,2.17000008,1.44190168,0.71340847,-1.10341847,0.00000000,0.00000000
0.05725814,-2.11826229,-1.18122506,-0.40531772,-0.79574978,0.00000000,0.00000000,-0.17347334,2.17000008,1.44265902,0.68314767,-1.08473670,0.00000000,0.00000000
0.01796259,-2.10774231,-1.19839036,-0.43391106,-0.80282837,0.00000000,0.00000000,-0.21442840,2.17000008,1.44221222,0.65366918,-1.06441438,0.00000000,0.00000000
-0.02090501,-2.09885168,-1.21520615,-0.46687007,-0.80990595,0.00000000,0.00000000,-0.25365645,2.17000008,1.44057202,0.62527853,-1.04929876,0.00000000,0.00000000
-0.05467439,-2.09132910,-1.23109984,-0.50024539,-0.81671256,0.00000000,0.00000000,-0.29114655,2.17000008,1.43789744,0.59788781,-1.03859925,0.00000000,0.00000000
-0.07936330,-2.08765912,-1.24478054,-0.53083616,-0.82375038,0.00000000,0.00000000,-0.32699725,2.17000008,1.43433094,0.57123846,-1.02201831,0.00000000,0.00000000
-0.09842000,-2.08761239,-1.25646985,-0.55928636,-0.82957560,0.00000000,0.00000000,-0.35896453,2.17000008,1.42993486,0.54656053,-1.00689399,0.00000000,0.00000000
-0.11643340,-2.08703399,-1.26777136,-0.58627808,-0.83244759,0.00000000,0.00000000,-0.38419014,2.17000008,1.42464674,0.52553988,-0.99270511,0.00000000,0.00000000
-0.13389893,-2.08581209,-1.27862382,-0.61148733,-0.83033967,0.00000000,0.00000000,-0.40237606,2.17000008,1.41844523,0.50821918,-0.98419911,0.00000000,0.00000000
-0.14985140,-2.08502412,-1.28840685,-0.63419569,-0.82942402,0.00000000,0.00000000,-0.41470209,2.17000008,1.41150701,0.49364048,-0.97080725,0.00000000,0.00000000
-0.16272858,-2.08548164,-1.29648709,-0.65347499,-0.83489394,0.00000000,0.00000000,-0.42221361,2.17000008,1.40420210,0.48089355,-0.95540082,0.00000000,0.00000000
-0.17098063,-2.08795333,-1.30224073,-0.66857225,-0.84271371,0.00000000,0.00000000,-0.42542514,2.17000008,1.39696717,0.46941379,-0.93815619,0.00000000,0.00000000
-0.17363133,-2.09267879,-1.30532777,-0.67898262,-0.84598994,0.00000000,0.00000000,-0.42437184,2.17000008,1.39024329,0.45896241,-0.92120522,0.00000000,0.00000000
-0.17034325,-2.09922838,-1.30577028,-0.68439388,-0.84781468,0.00000000,0.00000000,-0.41853565,2.17000008,1.38457978,0.44963706,-0.90796769,0.00000000,0.00000000
-0.16127424,-2.10706663,-1.30369759,-0.68477982,-0.85211462,0.00000000,0.00000000,-0.40822333,2.17000008,1.38095772,0.44108254,-0.89476371,0.00000000,0.00000000
-0.14706390,-2.11588693,-1.29919720,-0.68051106,-0.86573189,0.00000000,0.00000000,-0.39586908,2.17000008,1.38068175,0.43236002,-0.87989515,0.00000000,0.00000000
-0.12867263,-2.12521148,-1.29246616,-0.67215592,-0.87998831,0.00000000,0.00000000,-0.38177767,2.17000008,1.38431680,0.42499974,-0.86211598,0.00000000,0.00000000
-0.10693707,-2.13418889,-1.28386688,-0.66015393,-0.90070128,0.00000000,0.00000000,-0.36461833,2.17000008,1.39186823,0.42117283,-0.84464020,0.00000000,0.00000000
-0.08218948,-2.14168763,-1.27386308,-0.64459932,-0.92435545,0.00000000,0.00000000,-0.34421447,2.16995502,1.40305805,0.42160255,-0.82586861,0.00000000,0.00000000
-0.05388022,-2.14688063,-1.26275206,-0.62519354,-0.94909215,0.00000000,0.00000000,-0.32133925,2.16912127,1.41707456,0.42628983,-0.81333131,0.00000000,0.00000000
-0.02181520,-2.15000224,-1.25052500,-0.60214871,-0.97001952,0.00000000,0.00000000,-0.29576078,2.16466427,1.43273592,0.43588367,-0.79822052,0.00000000,0.00000000
0.01069339,-2.15235806,-1.23722792,-0.57794446,-0.98899198,0.00000000,0.00000000,-0.26491168,2.15479875,1.44871116,0.45240811,-0.78079081,0.00000000,0.00000000
0.03960616,-2.15462136,-1.22323596,-0.55540031,-1.00993609,0.00000000,0.00000000,-0.22753263,2.14387321,1.46339059,0.47698626,-0.75933993,0.00000000,0.00000000
0.06475034,-2.15704632,-1.20862639,-0.53511363,-1.02646685,0.00000000,0.00000000,-0.18582268,2.13480091,1.47587836,0.50793833,-0.74459720,0.00000000,0.00000000
0.08742827,-2.15993333,-1.19327939,-0.51683617,-1.03625977,0.00000000,0.00000000,-0.14203806,2.12881136,1.48562992,0.54298413,-0.73136145,0.00000000,0.00000000
0.10873313,-2.16328382,-1.17716944,-0.50027454,-1.04911280,0.00000000,0.00000000,-0.09812620,2.12679243,1.49213743,0.57978815,-0.72168905,0.00000000,0.00000000
0.13005644,-2.16663671,-1.16034198,-0.48476046,-1.06047654,0.00000000,0.00000000,-0.05650642,2.12876892,1.49517870,0.61597550,-0.71321541,0.00000000,0.00000000
0.15254213,-2.16905379,-1.14300370,-0.46951282,-1.07109833,0.00000000,0.00000000,-0.02019573,2.13384867,1.49498796,0.64957911,-0.70311123,0.00000000,0.00000000
0.17458265,-2.16988754,-1.12590301,-0.45487469,-1.07816887,0.00000000,0.00000000,0.00977153,2.14019370,1.49243951,0.68056256,-0.69046718,0.00000000,0.00000000
0.19249158,-2.16999578,-1.11025298,-0.44193223,-1.07946670,0.00000000,0.00000000,0.03505282,2.14611745,1.48855603,0.71056080,-0.68264651,0.00000000,0.00000000
0.20455030,-2.17000008,-1.09694457,-0.43069342,-1.08253169,0.00000000,0.00000000,0.05696483,2.15111709,1.48384368,0.74047983,-0.67727095,0.00000000,0.00000000
0.21142519,-2.17000008,-1.08626568,-0.42019641,-1.08113587,0.00000000,0.00000000,0.07574101,2.15507960,1.47858810,0.76993674,-0.67493272,0.00000000,0.00000000
0.21455114,-2.17000008,-1.07802939,-0.40955082,-1.07890880,0.00000000,0.00000000,0.09115808,2.15791512,1.47309816,0.79798096,-0.67247260,0.00000000,0.00000000
0.21521263,-2.16999388,-1.07178473,-0.39838415,-1.07397020,0.00000000,0.00000000,0.10273968,2.15964985,1.46770084,0.82346129,-0.66586608,0.00000000,0.00000000
0.21426685,-2.16986656,-1.06701553,-0.38681281,-1.07024896,0.00000000,0.00000000,0.11006828,2.16034913,1.46276045,0.84527749,-0.66020739,0.00000000,0.00000000
0.21204801,-2.16900516,-1.06325018,-0.37536082,-1.06498408,0.00000000,0.00000000,0.11287767,2.16033435,1.45849180,0.86253196,-0.65298533,0.00000000,0.00000000
0.20847048,-2.16663551,-1.06014049,-0.36474472,-1.06360471,0.00000000,0.00000000,0.11074584,2.16027689,1.45482326,0.87446308,-0.64898932,0.00000000,0.00000000
0.20325905,-2.16332102,-1.05752206,-0.35557008,-1.05981648,0.00000000,0.00000000,0.10314791,2.16077042,1.45161343,0.88046432,-0.64894265,0.00000000,0.00000000
0.19602928,-2.15984750,-1.05537605,-0.34828997,-1.05651474,0.00000000,0.00000000,0.08990375,2.16212869,1.44879854,0.88029420,-0.65297818,0.00000000,0.00000000
0.18637511,-2.15657830,-1.05375874,-0.34321192,-1.05019355,0.00000000,0.00000000,0.07128465,2.16437840,1.44639063,0.87412030,-0.66951305,0.00000000,0.00000000
0.17402442,-2.15341091,-1.05277479,-0.34038034,-1.04278636,0.00000000,0.00000000,0.04764802,2.16709328,1.44454896,0.86221969,-0.68312198,0.00000000,0.00000000
0.15908939,-2.14963388,-1.05257869,-0.33937576,-1.03988755,0.00000000,0.00000000,0.01924760,2.16921759,1.44367564,0.84475219,-0.69458520,0.00000000,0.00000000
0.14220206,-2.14410233,-1.05333972,-0.33934012,-1.03598380,0.00000000,0.00000000,-0.01412768,2.16992235,1.44426596,0.82156825,-0.70554954,0.00000000,0.00000000
0.12457980,-2.13641620,-1.05503559,-0.33941197,-1.03127372,0.00000000,0.00000000,-0.05297993,2.16999769,1.44674146,0.79239261,-0.71419555,0.00000000,0.00000000
0.10664409,-2.12813139,-1.05738246,-0.33992738,-1.01926732,0.00000000,0.00000000,-0.09503975,2.17000008,1.45135081,0.75872761,-0.72759092,0.00000000,0.00000000
0.08515993,-2.12019610,-1.06057191,-0.34316343,-1.00132895,0.00000000,0.00000000,-0.13446335,2.17000008,1.45777082,0.72454387,-0.74091536,0.00000000,0.00000000
0.05718518,-2.11209488,-1.06500137,-0.35092342,-0.98303944,0.00000000,0.00000000,-0.16972016,2.17000008,1.46557724,0.69143105,-0.75882530,0.00000000,0.00000000
0.02322738,-2.10477042,-1.07041752,-0.36349031,-0.96575511,0.00000000,0.00000000,-0.20162077,2.17000008,1.47449863,0.65953720,-0.77961749,0.00000000,0.00000000
-0.01417630,-2.09728098,-1.07667756,-0.37922090,-0.95186526,0.00000000,0.00000000,-0.23123325,2.17000008,1.48381329,0.62882024,-0.79427850,0.00000000,0.00000000
-0.05307637,-2.09027576,-1.08336198,-0.39704624,-0.93960667,0.00000000,0.00000000,-0.25933409,2.17000008,1.49282444,0.59924829,-0.81506008,0.00000000,0.00000000
-0.09069823,-2.08452582,-1.08990049,-0.41568014,-0.92278886,0.00000000,0.00000000,-0.28659025,2.17000008,1.50059104,0.57075471,-0.83466601,0.00000000,0.00000000
-0.12289391,-2.07981515,-1.09573996,-0.43309876,-0.91281259,0.00000000,0.00000000,-0.31238055,2.17000008,1.50637949,0.54389089,-0.85629678,0.00000000,0.00000000
-0.14888668,-2.07477164,-1.10099328,-0.44870922,-0.90261626,0.00000000,0.00000000,-0.33422726,2.17000008,1.51015902,0.52007979,-0.87386024,0.00000000,0.00000000
-0.17141360,-2.06856370,-1.10609841,-0.46347329,-0.89401674,0.00000000,0.00000000,-0.35063663,2.17000008,1.51209450,0.50002521,-0.89084923,0.00000000,0.00000000
-0.19232625,-2.06222606,-1.11093545,-0.47790757,-0.88814592,0.00000000,0.00000000,-0.36199355,2.17000008,1.51214182,0.48328707,-0.90993506,0.00000000,0.00000000
-0.21097995,-2.05690837,-1.11501706,-0.49110064,-0.88021916,0.00000000,0.00000000,-0.36932036,2.17000008,1.51019609,0.46903965,-0.93617463,0.00000000,0.00000000
-0.22622325,-2.05294514,-1.11798024,-0.50203025,-0.87270021,0.00000000,0.00000000,-0.37358373,2.17000008,1.50623965,0.45650169,-0.96621996,0.00000000,0.00000000
-0.23735236,-2.05072522,-1.11949694,-0.51031733,-0.86819875,0.00000000,0.00000000,-0.37544486,2.17000008,1.50034893,0.44512585,-0.99628645,0.00000000,0.00000000
-0.24351594,-2.05078793,-1.11916924,-0.51570356,-0.86413962,0.00000000,0.00000000,-0.37509698,2.17000008,1.49273515,0.43467802,-1.02636182,0.00000000,0.00000000
-0.24389395,-2.05362225,-1.11661386,-0.51798296,-0.85985297,0.00000000,0.00000000,-0.37267825,2.17000008,1.48389673,0.42489049,-1.05184305,0.00000000,0.00000000
-0.23820059,-2.05951142,-1.11158884,-0.51719439,-0.85867786,0.00000000,0.00000000,-0.36807963,2.17000008,1.47498798,0.41553462,-1.07511985,0.00000000,0.00000000
-0.22690013,-2.06821537,-1.10412633,-0.51361233,-0.85720634,0.00000000,0.00000000,-0.35966724,2.17000008,1.46786606,0.40758842,-1.10160387,0.00000000,0.00000000
-0.21083196,-2.07884431,-1.09452081,-0.50749087,-0.85577977,0.00000000,0.00000000,-0.34737131,2.17000008,1.46383274,0.40184119,-1.12603819,0.00000000,0.00000000
-0.19062650,-2.09026766,-1.08313453,-0.49887714,-0.85141999,0.00000000,0.00000000,-0.33260870,2.17000008,1.46321690,0.39843640,-1.14917266,0.00000000,0.00000000
-0.16625044,-2.10142279,-1.07024479,-0.48748088,-0.84717906,0.00000000,0.00000000,-0.31557980,2.16995311,1.46580887,0.39822289,-1.17414546,0.00000000,0.00000000
-0.13704096,-2.11150599,-1.05600119,-0.47279632,-0.84516597,0.00000000,0.00000000,-0.29619527,2.16915059,1.47093821,0.40214649,-1.19484079,0.00000000,0.00000000
-0.10364254,-2.12053823,-1.04055893,-0.45527202,-0.84676278,0.00000000,0.00000000,-0.27408099,2.16554046,1.47754598,0.41112238,-1.20929408,0.00000000,0.00000000
-0.07028221,-2.12949038,-1.02436399,-0.43746707,-0.85109740,0.00000000,0.00000000,-0.24718542,2.15856791,1.48432779,0.42685932,-1.22075057,0.00000000,0.00000000
-0.03999403,-2.13860393,-1.00788224,-0.42122266,-0.85349506,0.00000000,0.00000000,-0.21543689,2.15107584,1.49022174,0.44960168,-1.22708142,0.00000000,0.00000000
-0.01261308,-2.14740872,-0.99129868,-0.40662462,-0.85343266,0.00000000,0.00000000,-0.18063648,2.14471364,1.49477613,0.47800404,-1.23640037,0.00000000,0.00000000
0.01286139,-2.15537715,-0.97468108,-0.39327544,-0.84824103,0.00000000,0.00000000,-0.14413407,2.13973331,1.49786568,0.51048779,-1.24725962,0.00000000,0.00000000
0.03739885,-2.16199422,-0.95807695,-0.38070449,-0.85103065,0.00000000,0.00000000,-0.10680500,2.13622880,1.49940944,0.54554033,-1.25718963,0.00000000,0.00000000
0.06212943,-2.16675425,-0.94148767,-0.36830080,-0.85038376,0.00000000,0.00000000,-0.07012655,2.13477516,1.49915838,0.58148932,-1.27100539,0.00000000,0.00000000
0.08783288,-2.16931319,-0.92495292,-0.35554436,-0.84946561,0.00000000,0.00000000,-0.03728774,2.13760805,1.49618459,0.61607522,-1.28552461,0.00000000,0.00000000
0.11335683,-2.16996050,-0.90883690,-0.34254226,-0.85453480,0.00000000,0.00000000,-0.01085027,2.14516878,1.49031186,0.64752340,-1.29917681,0.00000000,0.00000000
0.13559934,-2.17000008,-0.89382493,-0.33000156,-0.85912311,0.00000000,0.00000000,0.01169246,2.15084457,1.48448145,0.67696875,-1.31802297,0.00000000,0.00000000
0.15245055,-2.17000008,-0.88053232,-0.31793776,-0.86316633,0.00000000,0.00000000,0.03182070,2.15418363,1.47920752,0.70525014,-1.34095252,0.00000000,0.00000000
0.16399409,-2.17000008,-0.86912841,-0.30576625,-0.86091501,0.00000000,0.00000000,0.05007336,2.15628934,1.47432196,0.73254490,-1.36421680,0.00000000,0.00000000
0.17128263,-2.17000008,-0.85948563,-0.29297769,-0.86524558,0.00000000,0.00000000,0.06640355,2.15735888,1.46998715,0.75843143,-1.38213694,0.00000000,0.00000000
0.17525293,-2.16998386,-0.85138267,-0.27952164,-0.87488449,0.00000000,0.00000000,0.08038776,2.15775752,1.46628749,0.78225088,-1.40263319,0.00000000,0.00000000
0.17640959,-2.16971183,-0.84457099,-0.26589796,-0.88487941,0.00000000,0.00000000,0.09151763,2.15804362,1.46320570,0.80335802,-1.42652237,0.00000000,0.00000000
0.17493483,-2.16852069,-0.83881629,-0.25293121,-0.89699435,0.00000000,0.00000000,0.09926660,2.15870547,1.46070898,0.82106191,-1.45055878,0.00000000,0.00000000
0.17079027,-2.16621184,-0.83394915,-0.24148014,-0.90969568,0.00000000,0.00000000,0.10308453,2.15992641,1.45883954,0.83452260,-1.47263408,0.00000000,0.00000000
0.16373202,-2.16352153,-0.82990611,-0.23220789,-0.92163116,0.00000000,0.00000000,0.10229811,2.16168094,1.45762610,0.84279835,-1.49480915,0.00000000,0.00000000
0.15342143,-2.16091228,-0.82672304,-0.22544006,-0.93645239,0.00000000,0.00000000,0.09627330,2.16388202,1.45694983,0.84520739,-1.51304853,0.00000000,0.00000000
0.13963622,-2.15824890,-0.82447863,-0.22117826,-0.95737988,0.00000000,0.00000000,0.08472110,2.16630363,1.45658422,0.84162581,-1.53079438,0.00000000,0.00000000
0.12229366,-2.15524554,-0.82323819,-0.21929039,-0.97166449,0.00000000,0.00000000,0.06771915,2.16845846,1.45632648,0.83237934,-1.54388690,0.00000000,0.00000000
0.10157780,-2.15136623,-0.82305121,-0.21938869,-0.98744661,0.00000000,0.00000000,0.04556953,2.16967869,1.45616210,0.81797010,-1.55071163,0.00000000,0.00000000
0.07813170,-2.14572120,-0.82394707,-0.22070359,-0.99985844,0.00000000,0.00000000,0.01820695,2.16998172,1.45619953,0.79864019,-1.56196952,0.00000000,0.00000000
0.05352870,-2.13796163,-0.82581228,-0.22230284,-1.00925958,0.00000000,0.00000000,-0.01518631,2.17000008,1.45659494,0.77411324,-1.57172489,0.00000000,0.00000000
0.02887353,-2.12972832,-0.82837951,-0.22439940,-1.01626754,0.00000000,0.00000000,-0.05333124,2.17000008,1.45761669,0.74530101,-1.57866633,0.00000000,0.00000000
0.00123527,-2.12279868,-0.83174318,-0.22927982,-1.02121472,0.00000000,0.00000000,-0.09009573,2.17000008,1.45952260,0.71609765,-1.58944869,0.00000000,0.00000000
-0.03123073,-2.11575484,-0.83621275,-0.23761214,-1.02775943,0.00000000,0.00000000,-0.12267797,2.17000008,1.46257830,0.68850338,-1.60837388,0.00000000,0.00000000
-0.06703022,-2.10772872,-0.84171158,-0.24870002,-1.04067671,0.00000000,0.00000000,-0.15168265,2.17000008,1.46708858,0.66247362,-1.62466073,0.00000000,0.00000000
-0.10445462,-2.09910107,-0.84798008,-0.26195964,-1.05058241,0.00000000,0.00000000,-0.17828007,2.17000008,1.47304928,0.63760525,-1.64479709,0.00000000,0.00000000
-0.14215596,-2.09036207,-0.85474634,-0.27671432,-1.06358838,0.00000000,0.00000000,-0.20354933,2.17000008,1.47994053,0.61351365,-1.66338778,0.00000000,0.00000000
-0.17780000,-2.08228612,-0.86156380,-0.29181230,-1.07482576,0.00000000,0.00000000,-0.22831745,2.17000008,1.48690975,0.58989292,-1.68085909,0.00000000,0.00000000
-0.20747618,-2.07584620,-0.86774820,-0.30553797,-1.08780134,0.00000000,0.00000000,-0.25287163,2.17000008,1.49319792,0.56661856,-1.69577658,0.00000000,0.00000000
-0.22930309,-2.07093310,-0.87298930,-0.31693563,-1.09965682,0.00000000,0.00000000,-0.27616650,2.17000008,1.49828768,0.54425657,-1.71635962,0.00000000,0.00000000
-0.24595545,-2.06640625,-0.87770146,-0.32691190,-1.10718620,0.00000000,0.00000000,-0.29593813,2.17000008,1.50192869,0.52404326,-1.73681521,0.00000000,0.00000000
-0.25995600,-2.06212521,-0.88216090,-0.33652857,-1.10939598,0.00000000,0.00000000,-0.31134355,2.17000008,1.50396824,0.50632882,-1.75806451,0.00000000,0.00000000
-0.27211693,-2.05904412,-0.88626534,-0.34616807,-1.11399055,0.00000000,0.00000000,-0.32299367,2.17000008,1.50419307,0.49061298,-1.77417219,0.00000000,0.00000000
-0.28208849,-2.05745268,-0.88985115,-0.35525548,-1.12398672,0.00000000,0.00000000,-0.33165982,2.17000008,1.50237763,0.47633430,-1.79199147,0.00000000,0.00000000
-0.28921068,-2.05703521,-0.89280355,-0.36297497,-1.13391662,0.00000000,0.00000000,-0.33788460,2.17000008,1.49840248,0.46307203,-1.81081843,0.00000000,0.00000000
-0.29301050,-2.05783272,-0.89497894,-0.36895174,-1.14462566,0.00000000,0.00000000,-0.34210068,2.17000008,1.49230635,0.45045990,-1.82116210,0.00000000,0.00000000
-0.29289040,-2.06008911,-0.89618731,-0.37296042,-1.14831769,0.00000000,0.00000000,-0.34465823,2.17000008,1.48427963,0.43817842,-1.82447898,0.00000000,0.00000000
-0.28812569,-2.06403613,-0.89622450,-0.37479395,-1.15092945,0.00000000,0.00000000,-0.34589624,2.17000008,1.47470748,0.42592898,-1.82162941,0.00000000,0.00000000
-0.27820876,-2.06991553,-0.89491898,-0.37443301,-1.14923382,0.00000000,0.00000000,-0.34523079,2.17000008,1.46440780,0.41407570,-1.82487285,0.00000000,0.00000000
-0.26323956,-2.07780910,-0.89222431,-0.37213212,-1.14555264,0.00000000,0.00000000,-0.34043649,2.17000008,1.45479357,0.40438884,-1.83208346,0.00000000,0.00000000
-0.24403974,-2.08740830,-0.88827950,-0.36832556,-1.14040661,0.00000000,0.00000000,-0.33167562,2.17000008,1.44721198,0.39768153,-1.83417225,0.00000000,0.00000000
-0.22171368,-2.09819102,-0.88331181,-0.36345783,-1.13482761,0.00000000,0.00000000,-0.32020736,2.17000008,1.44248092,0.39407256,-1.83656144,0.00000000,0.00000000
-0.19701497,-2.10922265,-0.87757862,-0.35758930,-1.12716460,0.00000000,0.00000000,-0.30608723,2.17000008,1.44110489,0.39395300,-1.83930922,0.00000000,0.00000000
-0.17007662,-2.11952519,-0.87127060,-0.35045004,-1.11629093,0.00000000,0.00000000,-0.28894126,2.17000008,1.44318676,0.39773142,-1.84210253,0.00000000,0.00000000
-0.14041269,-2.12865114,-0.86442310,-0.34174094,-1.10788596,0.00000000,0.00000000,-0.26854238,2.16987991,1.44824302,0.40595174,-1.84163952,0.00000000,0.00000000
-0.10745045,-2.13685679,-0.85696566,-0.33148596,-1.09644556,0.00000000,0.00000000,-0.24487172,2.16801333,1.45527184,0.41935295,-1.84135246,0.00000000,0.00000000
-0.07301363,-2.14488935,-0.84907746,-0.32099476,-1.08893979,0.00000000,0.00000000,-0.21742623,2.16170359,1.46300304,0.43896836,-1.84380221,0.00000000,0.00000000
-0.04185222,-2.15292859,-0.84139383,-0.31260341,-1.08004212,0.00000000,0.00000000,-0.18524811,2.15349197,1.46994627,0.46580285,-1.85039711,0.00000000,0.00000000
-0.01549406,-2.16015100,-0.83427268,-0.30684265,-1.07284296,0.00000000,0.00000000,-0.14924525,2.14651203,1.47509122,0.49905473,-1.85092950,0.00000000,0.00000000
0.00709093,-2.16576576,-0.82772911,-0.30308944,-1.06684768,0.00000000,0.00000000,-0.11104753,2.14166975,1.47805154,0.53682315,-1.85436630,0.00000000,0.00000000
0.02734509,-2.16906643,-0.82171410,-0.30043548,-1.06201577,0.00000000,0.00000000,-0.07177619,2.13905334,1.47867382,0.57720929,-1.86241043,0.00000000,0.00000000
0.04693945,-2.16994524,-0.81622446,-0.29753929,-1.05917466,0.00000000,0.00000000,-0.03296673,2.13892817,1.47675920,0.61816275,-1.87006533,0.00000000,0.00000000
0.06756566,-2.17000008,-0.81129366,-0.29289198,-1.05444300,0.00000000,0.00000000,0.00184931,2.14227057,1.47180331,0.65689188,-1.87319064,0.00000000,0.00000000
0.08914781,-2.17000008,-0.80705035,-0.28611270,-1.04362929,0.00000000,0.00000000,0.02938484,2.14891911,1.46388769,0.69120663,-1.87597883,0.00000000,0.00000000
0.10847896,-2.17000008,-0.80386275,-0.27857256,-1.02944970,0.00000000,0.00000000,0.05232636,2.15457988,1.45530510,0.72260535,-1.87624931,0.00000000,0.00000000
0.12273967,-2.17000008,-0.80206037,-0.27145502,-1.01203501,0.00000000,0.00000000,0.07277654,2.15771103,1.44730008,0.75233531,-1.88035262,0.00000000,0.00000000
0.13179523,-2.17000008,-0.80167115,-0.26478696,-0.99654698,0.00000000,0.00000000,0.09081669,2.15905213,1.44005513,0.78034872,-1.88954127,0.00000000,0.00000000
0.13683774,-2.16996884,-0.80252349,-0.25824425,-0.98481143,0.00000000,0.00000000,0.10586295,2.15938163,1.43367398,0.80601543,-1.90210998,0.00000000,0.00000000
0.13890687,-2.16947007,-0.80439693,-0.25185367,-0.96935904,0.00000000,0.00000000,0.11729752,2.15934610,1.42829490,0.82853663,-1.90561044,0.00000000,0.00000000
0.13865702,-2.16757035,-0.80707824,-0.24597603,-0.96053606,0.00000000,0.00000000,0.12467046,2.15941238,1.42411280,0.84707475,-1.90659785,0.00000000,0.00000000
0.13653095,-2.16438508,-0.81040156,-0.24099575,-0.95011771,0.00000000,0.00000000,0.12749738,2.15970683,1.42138660,0.86065573,-1.90362823,0.00000000,0.00000000
0.13271141,-2.16066957,-0.81428206,-0.23722024,-0.94261891,0.00000000,0.00000000,0.12515485,2.16023207,1.42023134,0.86836731,-1.90155947,0.00000000,0.00000000
0.12702495,-2.15698528,-0.81871682,-0.23494962,-0.93005073,0.00000000,0.00000000,0.11723340,2.16114211,1.42044985,0.86984861,-1.89550281,0.00000000,0.00000000
0.11905832,-2.15360689,-0.82375091,-0.23448248,-0.91695249,0.00000000,0.00000000,0.10372874,2.16260529,1.42164195,0.86536294,-1.89295924,0.00000000,0.00000000
0.10846224,-2.15054107,-0.82943720,-0.23596971,-0.90672237,0.00000000,0.00000000,0.08486205,2.16455507,1.42340040,0.85549027,-1.88933134,0.00000000,0.00000000
0.09516290,-2.14740777,-0.83582658,-0.23925574,-0.90328848,0.00000000,0.00000000,0.06077569,2.16668200,1.42536819,0.84080517,-1.88708150,0.00000000,0.00000000
0.07927461,-2.14348888,-0.84297580,-0.24399130,-0.89979738,0.00000000,0.00000000,0.03108950,2.16855335,1.42716360,0.82154864,-1.88932776,0.00000000,0.00000000
0.06147268,-2.13840294,-0.85084349,-0.24978796,-0.89360309,0.00000000,0.00000000,-0.00545256,2.16968298,1.42838883,0.79733872,-1.88738596,0.00000000,0.00000000
0.04232642,-2.13297606,-0.85925788,-0.25685021,-0.89044297,0.00000000,0.00000000,-0.04822920,2.16998148,1.42888641,0.76876706,-1.88193905,0.00000000,0.00000000
0.01921781,-2.12801504,-0.86837155,-0.26693338,-0.88335621,0.00000000,0.00000000,-0.09082264,2.17000008,1.42898154,0.73983508,-1.88048637,0.00000000,0.00000000
-0.00888322,-2.12283945,-0.87834567,-0.28052229,-0.87959194,0.00000000,0.00000000,-0.12924734,2.17000008,1.42916548,0.71302861,-1.87583506,0.00000000,0.00000000
-0.04031918,-2.11735773,-0.88896787,-0.29705015,-0.87553990,0.00000000,0.00000000,-0.16393054,2.17000008,1.42980862,0.68810779,-1.87386906,0.00000000,0.00000000
-0.07372252,-2.11149287,-0.90002888,-0.31588215,-0.87644398,0.00000000,0.00000000,-0.19603677,2.17000008,1.43110967,0.66440529,-1.86748898,0.00000000,0.00000000
-0.10845696,-2.10551667,-0.91131866,-0.33652288,-0.87105197,0.00000000,0.00000000,-0.22618762,2.17000008,1.43321633,0.64154726,-1.86796451,0.00000000,0.00000000
-0.14155531,-2.10092044,-0.92210758,-0.35757321,-0.85930258,0.00000000,0.00000000,-0.25518242,2.17000008,1.43623340,0.61893773,-1.86392999,0.00000000,0.00000000
-0.16737922,-2.09827042,-0.93141341,-0.37607414,-0.84137505,0.00000000,0.00000000,-0.28423172,2.17000008,1.43991816,0.59571409,-1.85879982,0.00000000,0.00000000
-0.18498795,-2.09681726,-0.93909621,-0.39097527,-0.82296246,0.00000000,0.00000000,-0.31257102,2.17000008,1.44371796,0.57234746,-1.85027981,0.00000000,0.00000000
-0.20026566,-2.09558463,-0.94605207,-0.40446451,-0.80326152,0.00000000,0.00000000,-0.33692691,2.17000008,1.44721794,0.55087799,-1.84341967,0.00000000,0.00000000
-0.21572405,-2.09368515,-0.95273256,-0.41719252,-0.78801173,0.00000000,0.00000000,-0.35586888,2.17000008,1.45020199,0.53207511,-1.83126831,0.00000000,0.00000000
-0.22976656,-2.09128451,-0.95880014,-0.42817312,-0.77186400,0.00000000,0.00000000,-0.36999062,2.17000008,1.45255458,0.51538873,-1.82164884,0.00000000,0.00000000
-0.24123605,-2.08888960,-0.96391147,-0.43682826,-0.76146400,0.00000000,0.00000000,-0.38007173,2.17000008,1.45419812,0.50019437,-1.81034660,0.00000000,0.00000000
-0.24968529,-2.08704352,-0.96782917,-0.44304189,-0.74810994,0.00000000,0.00000000,-0.38648766,2.17000008,1.45507276,0.48619789,-1.79854250,0.00000000,0.00000000
-0.25462523,-2.08630729,-0.97031844,-0.44674423,-0.73449689,0.00000000,0.00000000,-0.38930845,2.17000008,1.45515656,0.47336587,-1.78958929,0.00000000,0.00000000
-0.25545913,-2.08710194,-0.97116637,-0.44781190,-0.72586286,0.00000000,0.00000000,-0.38870177,2.17000008,1.45448148,0.46164152,-1.78061330,0.00000000,0.00000000
-0.25158256,-2.08971834,-0.97019285,-0.44613090,-0.71661693,0.00000000,0.00000000,-0.38474378,2.17000008,1.45324266,0.45104733,-1.77248538,0.00000000,0.00000000
-0.24279124,-2.09428191,-0.96732241,-0.44177452,-0.71087039,0.00000000,0.00000000,-0.37633106,2.17000008,1.45206749,0.44254687,-1.76027942,0.00000000,0.00000000
-0.22956194,-2.10062599,-0.96265912,-0.43506104,-0.70187151,0.00000000,0.00000000,-0.36300895,2.17000008,1.45190334,0.43721780,-1.74537075,0.00000000,0.00000000
-0.21270093,-2.10818768,-0.95645261,-0.42631510,-0.69799709,0.00000000,0.00000000,-0.34668884,2.17000008,1.45342612,0.43481293,-1.73155689,0.00000000,0.00000000
-0.19328612,-2.11637259,-0.94900864,-0.41596133,-0.68673158,0.00000000,0.00000000,-0.32816076,2.17000008,1.45726919,0.43539360,-1.71675229,0.00000000,0.00000000
-0.17163561,-2.12435508,-0.94057614,-0.40397415,-0.67721057,0.00000000,0.00000000,-0.30724344,2.17000008,1.46373725,0.43932185,-1.70716345,0.00000000,0.00000000
-0.14736843,-2.13142538,-0.93129319,-0.39006293,-0.66183686,0.00000000,0.00000000,-0.28379554,2.16993976,1.47260666,0.44697511,-1.70199728,0.00000000,0.00000000
-0.11972381,-2.13749671,-0.92114568,-0.37403309,-0.64693236,0.00000000,0.00000000,-0.25765562,2.16896939,1.48317230,0.45908058,-1.69902742,0.00000000,0.00000000
-0.08962370,-2.14326596,-0.91022533,-0.35678932,-0.63049501,0.00000000,0.00000000,-0.22823463,2.16528749,1.49432623,0.47685072,-1.69344413,0.00000000,0.00000000
-0.06126238,-2.14929247,-0.89909136,-0.34067586,-0.61050189,0.00000000,0.00000000,-0.19475606,2.15966582,1.50451481,0.50134927,-1.68978596,0.00000000,0.00000000
-0.03676695,-2.15499830,-0.88820779,-0.32664919,-0.59436291,0.00000000,0.00000000,-0.15803213,2.15487218,1.51252532,0.53192002,-1.68938708,0.00000000,0.00000000
-0.01541683,-2.15984654,-0.87764663,-0.31434652,-0.58130866,0.00000000,0.00000000,-0.11956239,2.15183282,1.51801383,0.56666315,-1.68509328,0.00000000,0.00000000
0.00414940,-2.16380429,-0.86731172,-0.30326071,-0.56924284,0.00000000,0.00000000,-0.08042040,2.15040469,1.52097607,0.60350931,-1.67725086,0.00000000,0.00000000
0.02348382,-2.16696334,-0.85706353,-0.29281929,-0.55624717,0.00000000,0.00000000,-0.04199766,2.15085006,1.52130055,0.64032292,-1.67113292,0.00000000,0.00000000
0.04448267,-2.16908741,-0.84676731,-0.28215688,-0.54488331,0.00000000,0.00000000,-0.00740161,2.15395975,1.51869965,0.67440450,-1.65871465,0.00000000,0.00000000
0.06762496,-2.16987181,-0.83652550,-0.27075094,-0.53597945,0.00000000,0.00000000,0.01922654,2.16003966,1.51315951,0.70282912,-1.64747119,0.00000000,0.00000000
0.08933782,-2.16999435,-0.82693976,-0.25956085,-0.53420448,0.00000000,0.00000000,0.03908603,2.16605091,1.50640857,0.72605044,-1.63383734,0.00000000,0.00000000
0.10549408,-2.17000008,-0.81867397,-0.24964064,-0.52701974,0.00000000,0.00000000,0.05589204,2.16922188,1.50034821,0.74629551,-1.62721801,0.00000000,0.00000000
0.11550064,-2.17000008,-0.81191134,-0.24080949,-0.51950079,0.00000000,0.00000000,0.07051498,2.16994691,1.49562645,0.76412064,-1.62321901,0.00000000,0.00000000
0.12082389,-2.16997910,-0.80649006,-0.23250470,-0.51470751,0.00000000,0.00000000,0.08235995,2.16983938,1.49230146,0.77931803,-1.62168121,0.00000000,0.00000000
0.12270726,-2.16964221,-0.80218315,-0.22468372,-0.51687908,0.00000000,0.00000000,0.09081243,2.16934180,1.49015963,0.79174042,-1.62301528,0.00000000,0.00000000
0.12173700,-2.16833401,-0.79879475,-0.21779479,-0.52112800,0.00000000,0.00000000,0.09527033,2.16876459,1.48882151,0.80109638,-1.62794292,0.00000000,0.00000000
0.11820386,-2.16611505,-0.79618168,-0.21233201,-0.52333319,0.00000000,0.00000000,0.09505809,2.16844153,1.48800385,0.80678129,-1.63568890,0.00000000,0.00000000
0.11223874,-2.16359210,-0.79427165,-0.20859087,-0.52500254,0.00000000,0.00000000,0.08952805,2.16844153,1.48758960,0.80811828,-1.65038335,0.00000000,0.00000000
0.10378214,-2.16107297,-0.79306012,-0.20667468,-0.52546179,0.00000000,0.00000000,0.07835232,2.16878057,1.48744929,0.80484676,-1.66324735,0.00000000,0.00000000
0.09277142,-2.15845108,-0.79257429,-0.20650598,-0.52790439,0.00000000,0.00000000,0.06181763,2.16936350,1.48747480,0.79738420,-1.67953885,0.00000000,0.00000000
0.07924680,-2.15537095,-0.79284596,-0.20786141,-0.53081787,0.00000000,0.00000000,0.04060584,2.16984701,1.48767436,0.78655326,-1.69546402,0.00000000,0.00000000
0.06322590,-2.15130639,-0.79391521,-0.21043178,-0.53882015,0.00000000,0.00000000,0.01515300,2.16999102,1.48799491,0.77303493,-1.70514882,0.00000000,0.00000000
0.04479468,-2.14569831,-0.79581261,-0.21381564,-0.54185575,0.00000000,0.00000000,-0.01474520,2.17000008,1.48817170,0.75701159,-1.71526599,0.00000000,0.00000000
0.02435984,-2.13860130,-0.79848146,-0.21770750,-0.54396319,0.00000000,0.00000000,-0.04936216,2.17000008,1.48792922,0.73842490,-1.72504842,0.00000000,0.00000000
0.00163979,-2.13119698,-0.80182576,-0.22261578,-0.54242760,0.00000000,0.00000000,-0.08693702,2.17000008,1.48714530,0.71832806,-1.73387682,0.00000000,0.00000000
-0.02568020,-2.12412667,-0.80599183,-0.22977042,-0.53942853,0.00000000,0.00000000,-0.12345809,2.17000008,1.48555410,0.69924790,-1.73955905,0.00000000,0.00000000
-0.05909940,-2.11657310,-0.81118882,-0.23952365,-0.54263753,0.00000000,0.00000000,-0.15700559,2.17000008,1.48292279,0.68241858,-1.74832165,0.00000000,0.00000000
-0.09723393,-2.10825157,-0.81728417,-0.25128162,-0.55361772,0.00000000,0.00000000,-0.18796842,2.17000008,1.47951221,0.66747993,-1.76023805,0.00000000,0.00000000
-0.13763237,-2.09974074,-0.82392484,-0.26433706,-0.56718975,0.00000000,0.00000000,-0.21731785,2.17000008,1.47582543,0.65360272,-1.76967227,0.00000000,0.00000000
-0.17875712,-2.09117818,-0.83087379,-0.27807879,-0.58422625,0.00000000,0.00000000,-0.24582922,2.17000008,1.47222602,0.64005339,-1.77368581,0.00000000,0.00000000
-0.21807441,-2.08313346,-0.83770436,-0.29154277,-0.60188884,0.00000000,0.00000000,-0.27413934,2.17000008,1.46904540,0.62614375,-1.77104104,0.00000000,0.00000000
-0.25018561,-2.07769990,-0.84344906,-0.30324918,-0.61742491,0.00000000,0.00000000,-0.30272081,2.17000008,1.46679306,0.61121535,-1.76695192,0.00000000,0.00000000
-0.27368096,-2.07407761,-0.84797460,-0.31259012,-0.63777012,0.00000000,0.00000000,-0.32970601,2.17000008,1.46580458,0.59617835,-1.76934707,0.00000000,0.00000000
-0.29299852,-2.06985641,-0.85209471,-0.32100984,-0.65510470,0.00000000,0.00000000,-0.35200748,2.17000008,1.46592915,0.58290571,-1.76914489,0.00000000,0.00000000
-0.30989355,-2.06540322,-0.85592681,-0.32961234,-0.67115039,0.00000000,0.00000000,-0.36924487,2.17000008,1.46677196,0.57162452,-1.77085280,0.00000000,0.00000000
-0.32383806,-2.06154370,-0.85922748,-0.33830389,-0.68622148,0.00000000,0.00000000,-0.38237619,2.17000008,1.46797276,0.56173497,-1.77431726,0.00000000,0.00000000
-0.33428082,-2.05838084,-0.86184323,-0.34641030,-0.69759631,0.00000000,0.00000000,-0.39202651,2.17000008,1.46925795,0.55286652,-1.77939725,0.00000000,0.00000000
-0.34066319,-2.05587029,-0.86363876,-0.35309929,-0.70658082,0.00000000,0.00000000,-0.39857090,2.17000008,1.47035205,0.54482192,-1.78681970,0.00000000,0.00000000
-0.34230497,-2.05457091,-0.86436611,-0.35778612,-0.71188116,0.00000000,0.00000000,-0.40230542,2.17000008,1.47098303,0.53744650,-1.79943240,0.00000000,0.00000000
-0.33891580,-2.05572152,-0.86371845,-0.36047676,-0.71088457,0.00000000,0.00000000,-0.40326789,2.17000008,1.47103620,0.53070521,-1.81265771,0.00000000,0.00000000
-0.33051562,-2.06005216,-0.86151272,-0.36130330,-0.71485835,0.00000000,0.00000000,-0.40138984,2.17000008,1.47074175,0.52459431,-1.81963754,0.00000000,0.00000000
-0.31705204,-2.06747580,-0.85769707,-0.36021811,-0.71881986,0.00000000,0.00000000,-0.39694613,2.17000008,1.47074223,0.51894140,-1.82191396,0.00000000,0.00000000
-0.29918036,-2.07741761,-0.85241508,-0.35739720,-0.72909045,0.00000000,0.00000000,-0.38863501,2.17000008,1.47216070,0.51490563,-1.81895959,0.00000000,0.00000000
-0.27832195,-2.08867502,-0.84603286,-0.35309869,-0.73661202,0.00000000,0.00000000,-0.37360790,2.17000008,1.47619498,0.51534808,-1.80801558,0.00000000,0.00000000
-0.25603136,-2.09977961,-0.83898705,-0.34747332,-0.74661165,0.00000000,0.00000000,-0.35472354,2.17000008,1.48302066,0.51942772,-1.79950452,0.00000000,0.00000000
-0.23206171,-2.10979652,-0.83138770,-0.34007999,-0.75916475,0.00000000,0.00000000,-0.33447802,2.17000008,1.49309659,0.52589846,-1.79133868,0.00000000,0.00000000
-0.20535745,-2.11824870,-0.82318109,-0.33034045,-0.76459455,0.00000000,0.00000000,-0.31286377,2.16993475,1.50649571,0.53501612,-1.78120732,0.00000000,0.00000000
-0.17550558,-2.12538481,-0.81432056,-0.31831741,-0.77366740,0.00000000,0.00000000,-0.28838113,2.16897202,1.52288258,0.54833490,-1.76607585,0.00000000,0.00000000
-0.14477271,-2.13226342,-0.80501866,-0.30555764,-0.77781624,0.00000000,0.00000000,-0.25879753,2.16632366,1.54082298,0.56837320,-1.74607778,0.00000000,0.00000000
-0.11699246,-2.13943052,-0.79576224,-0.29397848,-0.78457361,0.00000000,0.00000000,-0.22679381,2.16428685,1.55697715,0.59436345,-1.72369063,0.00000000,0.00000000
-0.09292228,-2.14631987,-0.78677726,-0.28367823,-0.79015136,0.00000000,0.00000000,-0.19353807,2.16322494,1.56987345,0.62505311,-1.70134759,0.00000000,0.00000000
-0.07131108,-2.15224504,-0.77804190,-0.27391556,-0.79882085,0.00000000,0.00000000,-0.15961848,2.16289449,1.57922935,0.65910280,-1.68049812,0.00000000,0.00000000
-0.05043599,-2.15692496,-0.76943099,-0.26403168,-0.80889064,0.00000000,0.00000000,-0.12629183,2.16317558,1.58499384,0.69458121,-1.65745199,0.00000000,0.00000000
-0.02867045,-2.16067648,-0.76077509,-0.25374058,-0.82277924,0.00000000,0.00000000,-0.09437911,2.16424370,1.58705270,0.72987986,-1.63374329,0.00000000,0.00000000
-0.00495078,-2.16413140,-0.75195068,-0.24314825,-0.83875424,0.00000000,0.00000000,-0.06464133,2.16639161,1.58540940,0.76386476,-1.61332285,0.00000000,0.00000000
0.02015792,-2.16735601,-0.74307042,-0.23270904,-0.84787363,0.00000000,0.00000000,-0.03901326,2.16871214,1.58108246,0.79494035,-1.59490156,0.00000000,0.00000000
0.04281365,-2.16941357,-0.73469901,-0.22350162,-0.85747945,0.00000000,0.00000000,-0.01732348,2.16979027,1.57599330,0.82262719,-1.57828772,0.00000000,0.00000000
0.05992472,-2.16996574,-0.72735852,-0.21591471,-0.86701292,0.00000000,0.00000000,0.00280215,2.16998959,1.57153654,0.84780127,-1.56429100,0.00000000,0.00000000
0.07166283,-2.17000008,-0.72119117,-0.20912500,-0.87114602,0.00000000,0.00000000,0.02156754,2.17000008,1.56823182,0.87021679,-1.55471444,0.00000000,0.00000000
0.07914436,-2.17000008,-0.71618265,-0.20218298,-0.87230802,0.00000000,0.00000000,0.03813588,2.17000008,1.56619871,0.88920015,-1.55256629,0.00000000,0.00000000
0.08304100,-2.17000008,-0.71228200,-0.19474244,-0.87673813,0.00000000,0.00000000,0.05148366,2.16999817,1.56537163,0.90410918,-1.54990315,0.00000000,0.00000000
0.08335575,-2.17000008,-0.70942575,-0.18720949,-0.87858409,0.00000000,0.00000000,0.06036459,2.16997218,1.56550348,0.91422635,-1.54580629,0.00000000,0.00000000
0.07990261,-2.17000008,-0.70756918,-0.18021448,-0.87737751,0.00000000,0.00000000,0.06360149,2.16990089,1.56623316,0.91888869,-1.54197848,0.00000000,0.00000000
0.07311989,-2.17000008,-0.70667988,-0.17395894,-0.87091434,0.00000000,0.00000000,0.06049704,2.16988254,1.56722951,0.91775489,-1.53878772,0.00000000,0.00000000
0.06301703,-2.16997433,-0.70676446,-0.16890933,-0.86531311,0.00000000,0.00000000,0.05105860,2.16996050,1.56831980,0.91100746,-1.53704560,0.00000000,0.00000000
0.04894196,-2.16953874,-0.70786268,-0.16573821,-0.86519331,0.00000000,0.00000000,0.03572861,2.16999769,1.56938231,0.89924049,-1.53159475,0.00000000,0.00000000
0.03070161,-2.16761446,-0.70998657,-0.16457735,-0.86809546,0.00000000,0.00000000,0.01489461,2.17000008,1.57015181,0.88309234,-1.52240050,0.00000000,0.00000000
0.00913048,-2.16364384,-0.71305656,-0.16511948,-0.86930990,0.00000000,0.00000000,-0.01115010,2.17000008,1.57021093,0.86307001,-1.51005721,0.00000000,0.00000000
-0.01474266,-2.15811849,-0.71695620,-0.16716798,-0.87071717,0.00000000,0.00000000,-0.04152840,2.17000008,1.56906033,0.83991778,-1.49582732,0.00000000,0.00000000
-0.04059470,-2.15115833,-0.72164345,-0.17070074,-0.87104005,0.00000000,0.00000000,-0.07468301,2.17000008,1.56618631,0.81477749,-1.48094189,0.00000000,0.00000000
-0.06907403,-2.14237714,-0.72717547,-0.17601477,-0.87939715,0.00000000,0.00000000,-0.10945080,2.17000008,1.56116378,0.78858644,-1.46579015,0.00000000,0.00000000
-0.10067846,-2.13189554,-0.73356336,-0.18362221,-0.88359302,0.00000000,0.00000000,-0.14528269,2.17000008,1.55385971,0.76188767,-1.46081054,0.00000000,0.00000000
-0.13514423,-2.12046337,-0.74070907,-0.19394056,-0.88809288,0.00000000,0.00000000,-0.18156701,2.17000008,1.54451525,0.73517579,-1.46413100,0.00000000,0.00000000
-0.17143001,-2.10921264,-0.74840069,-0.20708224,-0.89248455,0.00000000,0.00000000,-0.21711014,2.17000008,1.53377008,0.70913899,-1.46059906,0.00000000,0.00000000
-0.20722406,-2.09944367,-0.75625181,-0.22246526,-0.89919865,0.00000000,0.00000000,-0.25058436,2.17000008,1.52264273,0.68434632,-1.45942998,0.00000000,0.00000000
-0.23844080,-2.09200358,-0.76368225,-0.23832946,-0.91058904,0.00000000,0.00000000,-0.28190827,2.17000008,1.51216638,0.66046333,-1.45829594,0.00000000,0.00000000
-0.26116180,-2.08738470,-0.77012211,-0.25277832,-0.92327034,0.00000000,0.00000000,-0.31165272,2.17000008,1.50303626,0.63674593,-1.45569348,0.00000000,0.00000000
-0.27627552,-2.08385158,-0.77573442,-0.26506397,-0.93833143,0.00000000,0.00000000,-0.33830395,2.17000008,1.49557793,0.61385584,-1.45768309,0.00000000,0.00000000
-0.28820726,-2.07902908,-0.78117836,-0.27565286,-0.95639598,0.00000000,0.00000000,-0.35944039,2.17000008,1.48985159,0.59314066,-1.46266317,0.00000000,0.00000000
-0.29854086,-2.07353544,-0.78649873,-0.28503978,-0.97506982,0.00000000,0.00000000,-0.37469804,2.17000008,1.48570323,0.57473141,-1.46674967,0.00000000,0.00000000
-0.30705777,-2.06908870,-0.79140592,-0.29346561,-0.99799126,0.00000000,0.00000000,-0.38494149,2.17000008,1.48281515,0.55806905,-1.46963167,0.00000000,0.00000000
-0.31359053,-2.06670761,-0.79568452,-0.30105415,-1.02489543,0.00000000,0.00000000,-0.39112362,2.17000008,1.48082256,0.54259437,-1.47636592,0.00000000,0.00000000
-0.31753770,-2.06662893,-0.79915285,-0.30757853,-1.04166615,0.00000000,0.00000000,-0.39405331,2.17000008,1.47944474,0.52783030,-1.49310076,0.00000000,0.00000000
-0.31812742,-2.06875205,-0.80164731,-0.31267929,-1.06027758,0.00000000,0.00000000,-0.39419535,2.17000008,1.47856688,0.51346689,-1.50744903,0.00000000,0.00000000
-0.31473500,-2.07282925,-0.80304158,-0.31602630,-1.07839036,0.00000000,0.00000000,-0.39131725,2.17000008,1.47826457,0.49960107,-1.51691878,0.00000000,0.00000000
-0.30692002,-2.07861352,-0.80324012,-0.31739143,-1.09688926,0.00000000,0.00000000,-0.38478726,2.17000008,1.47868991,0.48667794,-1.52696848,0.00000000,0.00000000
-0.29453292,-2.08583117,-0.80220616,-0.31668299,-1.11533439,0.00000000,0.00000000,-0.37577480,2.17000008,1.48042870,0.47440812,-1.53639889,0.00000000,0.00000000
-0.27784917,-2.09396601,-0.80001420,-0.31390238,-1.13609886,0.00000000,0.00000000,-0.36619344,2.17000008,1.48468685,0.46305755,-1.54380655,0.00000000,0.00000000
-0.25766385,-2.10269928,-0.79680234,-0.30936265,-1.15534830,0.00000000,0.00000000,-0.35410321,2.17000008,1.49088013,0.45610160,-1.55210018,0.00000000,0.00000000
-0.23475097,-2.11160851,-0.79273802,-0.30332834,-1.17123544,0.00000000,0.00000000,-0.33908871,2.17000008,1.49880183,0.45468923,-1.56135237,0.00000000,0.00000000
-0.20922582,-2.12006235,-0.78794873,-0.29571751,-1.19349372,0.00000000,0.00000000,-0.32112440,2.16994834,1.50838733,0.45914084,-1.56691718,0.00000000,0.00000000
-0.18036368,-2.12760854,-0.78245407,-0.28622013,-1.21283972,0.00000000,0.00000000,-0.30017447,2.16904950,1.51917207,0.46969882,-1.57041228,0.00000000,0.00000000
-0.14807996,-2.13445759,-0.77629167,-0.27509835,-1.24121523,0.00000000,0.00000000,-0.27592164,2.16489530,1.53047419,0.48668694,-1.57883966,0.00000000,0.00000000
-0.11581632,-2.14150643,-0.76984751,-0.26432198,-1.26784229,0.00000000,0.00000000,-0.24665149,2.15702152,1.54116905,0.51121497,-1.58820844,0.00000000,0.00000000
-0.08763947,-2.14880419,-0.76366645,-0.25577900,-1.28828907,0.00000000,0.00000000,-0.21203822,2.14979792,1.54956579,0.54324067,-1.59743524,0.00000000,0.00000000
-0.06381921,-2.15575242,-0.75791043,-0.24956234,-1.30707836,0.00000000,0.00000000,-0.17424934,2.14540029,1.55490911,0.58052069,-1.61333740,0.00000000,0.00000000
-0.04307569,-2.16182137,-0.75254148,-0.24509844,-1.33244252,0.00000000,0.00000000,-0.13556100,2.14358449,1.55719101,0.62023628,-1.63038814,0.00000000,0.00000000
-0.02421168,-2.16651106,-0.74751371,-0.24176838,-1.35716033,0.00000000,0.00000000,-0.09735347,2.14378428,1.55657089,0.66014642,-1.65012157,0.00000000,0.00000000
-0.00599678,-2.16923618,-0.74278116,-0.23882891,-1.37664449,0.00000000,0.00000000,-0.06081368,2.14605761,1.55305743,0.69856209,-1.66771638,0.00000000,0.00000000
0.01272809,-2.16995525,-0.73833758,-0.23537335,-1.38778758,0.00000000,0.00000000,-0.02819683,2.15042782,1.54678464,0.73356467,-1.68981111,0.00000000,0.00000000
0.03163736,-2.17000008,-0.73438120,-0.23080920,-1.39257920,0.00000000,0.00000000,-0.00214120,2.15557742,1.53865921,0.76340562,-1.70126271,0.00000000,0.00000000
0.04776659,-2.17000008,-0.73138851,-0.22550334,-1.39229119,0.00000000,0.00000000,0.01788703,2.15934277,1.53018975,0.78857249,-1.71711433,0.00000000,0.00000000
0.05877236,-2.16998601,-0.72968441,-0.21998760,-1.39105260,0.00000000,0.00000000,0.03424355,2.16108727,1.52222621,0.81068170,-1.73816240,0.00000000,0.00000000
0.06495667,-2.16972804,-0.72918928,-0.21446130,-1.38781869,0.00000000,0.00000000,0.04791388,2.16129065,1.51502681,0.83027184,-1.75516725,0.00000000,0.00000000
0.06793808,-2.16832304,-0.72961223,-0.20908237,-1.38665390,0.00000000,0.00000000,0.05880658,2.16050982,1.50875759,0.84706777,-1.77243185,0.00000000,0.00000000
0.06957168,-2.16466379,-0.73066795,-0.20384237,-1.38107240,0.00000000,0.00000000,0.06688344,2.15886283,1.50378847,0.86084992,-1.79345655,0.00000000,0.00000000
0.07076263,-2.15937281,-0.73218560,-0.19897412,-1.37384915,0.00000000,0.00000000,0.07205582,2.15653515,1.50034642,0.87149179,-1.80894327,0.00000000,0.00000000
0.07030533,-2.15463924,-0.73412371,-0.19579957,-1.36656320,0.00000000,0.00000000,0.07293856,2.15513492,1.49765527,0.87838292,-1.81830859,0.00000000,0.00000000
0.06857365,-2.15091705,-0.73643899,-0.19427070,-1.35984683,0.00000000,0.00000000,0.06907767,2.15451121,1.49595582,0.88106573,-1.83171868,0.00000000,0.00000000
0.06611469,-2.14801431,-0.73912060,-0.19405411,-1.34731781,0.00000000,0.00000000,0.06005617,2.15441728,1.49548507,0.87896574,-1.84521520,0.00000000,0.00000000
0.06290238,-2.14576101,-0.74220163,-0.19507670,-1.33487213,0.00000000,0.00000000,0.04554842,2.15497971,1.49613678,0.87160271,-1.85283077,0.00000000,0.00000000
0.05854955,-2.14382100,-0.74575275,-0.19732435,-1.32681751,0.00000000,0.00000000,0.02599917,2.15639305,1.49761939,0.85911351,-1.85328937,0.00000000,0.00000000
0.05253206,-2.14169312,-0.74986088,-0.20073202,-1.31866431,0.00000000,0.00000000,0.00202184,2.15874815,1.49952519,0.84200191,-1.85886753,0.00000000,0.00000000
0.04452360,-2.13889694,-0.75458825,-0.20513919,-1.30658317,0.00000000,0.00000000,-0.02637396,2.16191578,1.50140655,0.82058036,-1.86937034,0.00000000,0.00000000
0.03466604,-2.13500667,-0.75994903,-0.21020760,-1.29450524,0.00000000,0.00000000,-0.05975344,2.16540360,1.50286853,0.79485613,-1.87616289,0.00000000,0.00000000
0.02295545,-2.13041496,-0.76590294,-0.21604110,-1.27995205,0.00000000,0.00000000,-0.09806716,2.16828012,1.50356293,0.76522756,-1.87908089,0.00000000,0.00000000
0.00726643,-2.12659645,-0.77252156,-0.22415581,-1.26772499,0.00000000,0.00000000,-0.13783348,2.16967154,1.50301218,0.73430300,-1.88323462,0.00000000,0.00000000
-0.01512326,-2.12328243,-0.78009140,-0.23563522,-1.26054370,0.00000000,0.00000000,-0.17444053,2.16997957,1.50046325,0.70556885,-1.88626802,0.00000000,0.00000000
-0.04264615,-2.11983871,-0.78849977,-0.24978369,-1.25988317,0.00000000,0.00000000,-0.20721138,2.17000008,1.49592459,0.67979038,-1.88937950,0.00000000,0.00000000
-0.07316469,-2.11613607,-0.79750001,-0.26588485,-1.24665821,0.00000000,0.00000000,-0.23672237,2.17000008,1.49032915,0.65656596,-1.89193439,0.00000000,0.00000000
-0.10532142,-2.11201620,-0.80689532,-0.28323394,-1.23690474,0.00000000,0.00000000,-0.26314324,2.17000008,1.48495054,0.63550031,-1.89816582,0.00000000,0.00000000
-0.13740876,-2.10764456,-0.81638002,-0.30081651,-1.23080873,0.00000000,0.00000000,-0.28688934,2.17000008,1.48072839,0.61595094,-1.90268576,0.00000000,0.00000000
-0.16660264,-2.10379815,-0.82540584,-0.31734657,-1.22457480,0.00000000,0.00000000,-0.30937320,2.17000008,1.47798359,0.59666944,-1.90757775,0.00000000,0.00000000
-0.18937735,-2.10122705,-0.83332098,-0.33138415,-1.22125220,0.00000000,0.00000000,-0.33214843,2.17000008,1.47663474,0.57642043,-1.91338146,0.00000000,0.00000000
-0.20543525,-2.09903336,-0.84014565,-0.34232545,-1.22023022,0.00000000,0.00000000,-0.35393715,2.17000008,1.47639728,0.55589479,-1.91841972,0.00000000,0.00000000
-0.21839190,-2.09508944,-0.84664989,-0.35084367,-1.21392894,0.00000000,0.00000000,-0.37161848,2.17000008,1.47690475,0.53707999,-1.92191505,0.00000000,0.00000000
-0.23076448,-2.08916712,-0.85320151,-0.35803065,-1.21104062,0.00000000,0.00000000,-0.38417622,2.17000008,1.47783816,0.52070481,-1.91920316,0.00000000,0.00000000
-0.24220338,-2.08242369,-0.85955966,-0.36424530,-1.21637058,0.00000000,0.00000000,-0.39220470,2.17000008,1.47889841,0.50652862,-1.92240953,0.00000000,0.00000000
-0.25111794,-2.07610583,-0.86527818,-0.36921889,-1.22658014,0.00000000,0.00000000,-0.39637887,2.17000008,1.47986317,0.49426165,-1.91899812,0.00000000,0.00000000
-0.25624415,-2.07128716,-0.86996919,-0.37267658,-1.24029744,0.00000000,0.00000000,-0.39710504,2.17000008,1.48072314,0.48370355,-1.92080092,0.00000000,0.00000000
-0.25728607,-2.06868172,-0.87343490,-0.37460428,-1.25834441,0.00000000,0.00000000,-0.39470598,2.17000008,1.48165464,0.47460616,-1.91711581,0.00000000,0.00000000
-0.25417447,-2.06840992,-0.87560827,-0.37490922,-1.27013803,0.00000000,0.00000000,-0.38964146,2.17000008,1.48286891,0.46656510,-1.91331553,0.00000000,0.00000000
-0.24652390,-2.07028770,-0.87643212,-0.37333107,-1.28338325,0.00000000,0.00000000,-0.38222361,2.17000008,1.48451066,0.45923847,-1.91202331,0.00000000,0.00000000
-0.23401667,-2.07429218,-0.87584323,-0.36978698,-1.29319239,0.00000000,0.00000000,-0.37195420,2.16999674,1.48674500,0.45281452,-1.91214263,0.00000000,0.00000000
-0.21692362,-2.08056283,-0.87385225,-0.36458325,-1.30293524,0.00000000,0.00000000,-0.35756800,2.16985655,1.48998642,0.44808200,-1.91521800,0.00000000,0.00000000
-0.19610615,-2.08894348,-0.87061864,-0.35820425,-1.31118548,0.00000000,0.00000000,-0.33940169,2.16838193,1.49457574,0.44519070,-1.92304826,0.00000000,0.00000000
-0.17231725,-2.09872293,-0.86638820,-0.35087174,-1.31402445,0.00000000,0.00000000,-0.31922534,2.16459751,1.49959493,0.44408673,-1.92897201,0.00000000,0.00000000
-0.14569348,-2.10893750,-0.86137116,-0.34240934,-1.31332588,0.00000000,0.00000000,-0.29415804,2.16127491,1.50367820,0.44771862,-1.93536258,0.00000000,0.00000000
-0.11550470,-2.11889839,-0.85562831,-0.33233365,-1.31264257,0.00000000,0.00000000,-0.26600602,2.15705514,1.50677240,0.45530775,-1.93433285,0.00000000,0.00000000
-0.08300930,-2.12856579,-0.84939474,-0.32125533,-1.30679810,0.00000000,0.00000000,-0.23553748,2.15034652,1.50916147,0.46654788,-1.93635881,0.00000000,0.00000000
-0.05422880,-2.13848281,-0.84343535,-0.31208751,-1.30122054,0.00000000,0.00000000,-0.19880837,2.14344168,1.51035404,0.48444107,-1.94044113,0.00000000,0.00000000
-0.03124144,-2.14777231,-0.83819866,-0.30551478,-1.29804552,0.00000000,0.00000000,-0.15602568,2.13876271,1.50971329,0.50900024,-1.94032943,0.00000000,0.00000000
-0.01217336,-2.15565038,-0.83360630,-0.30059028,-1.30124497,0.00000000,0.00000000,-0.11015137,2.13648629,1.50709414,0.53815466,-1.93761456,0.00000000,0.00000000
0.00513282,-2.16192794,-0.82945389,-0.29646459,-1.30732429,0.00000000,0.00000000,-0.06377386,2.13660908,1.50232792,0.56968218,-1.94004035,0.00000000,0.00000000
0.02252150,-2.16649842,-0.82555622,-0.29238951,-1.31391847,0.00000000,0.00000000,-0.01919590,2.13979220,1.49501526,0.60148925,-1.94435799,0.00000000,0.00000000
0.04188690,-2.16910720,-0.82174587,-0.28744912,-1.32330608,0.00000000,0.00000000,0.01998875,2.14658308,1.48480082,0.63106334,-1.94845653,0.00000000,0.00000000
0.06347120,-2.16990137,-0.81805694,-0.28137341,-1.33120680,0.00000000,0.00000000,0.05099357,2.15570140,1.47216558,0.65685791,-1.94849992,0.00000000,0.00000000
0.08390972,-2.16999626,-0.81494385,-0.27539283,-1.33757508,0.00000000,0.00000000,0.07545467,2.16355944,1.45882404,0.68021423,-1.94812787,0.00000000,0.00000000
0.09980414,-2.17000008,-0.81295747,-0.27040994,-1.34736407,0.00000000,0.00000000,0.09569120,2.16826582,1.44592547,0.70273119,-1.94477284,0.00000000,0.00000000
0.11044866,-2.17000008,-0.81232530,-0.26623115,-1.35840917,0.00000000,0.00000000,0.11232688,2.16978788,1.43402076,0.72455657,-1.93909669,0.00000000,0.00000000
0.11705521,-2.16998553,-0.81294036,-0.26227239,-1.36975908,0.00000000,0.00000000,0.12497694,2.16999149,1.42337549,0.74499071,-1.93045235,0.00000000,0.00000000
0.12099573,-2.16974139,-0.81457180,-0.25828183,-1.38963163,0.00000000,0.00000000,0.13318041,2.17000008,1.41415775,0.76327872,-1.92094481,0.00000000,0.00000000
0.12313223,-2.16866302,-0.81698465,-0.25446501,-1.41168511,0.00000000,0.00000000,0.13650936,2.17000008,1.40655649,0.77866203,-1.91006899,0.00000000,0.00000000
0.12384053,-2.16649675,-0.82000321,-0.25121996,-1.43820870,0.00000000,0.00000000,0.13449661,2.17000008,1.40073454,0.79015940,-1.89820278,0.00000000,0.00000000
0.12311437,-2.16378284,-0.82354319,-0.24892302,-1.46043897,0.00000000,0.00000000,0.12703472,2.17000008,1.39686048,0.79688519,-1.88840282,0.00000000,0.00000000
0.12069154,-2.16104555,-0.82759798,-0.24787806,-1.47774768,0.00000000,0.00000000,0.11448315,2.17000008,1.39501071,0.79845583,-1.88324785,0.00000000,0.00000000
0.11630835,-2.15838099,-0.83220690,-0.24822173,-1.49140525,0.00000000,0.00000000,0.09742427,2.17000008,1.39518404,0.79499382,-1.87359607,0.00000000,0.00000000
0.10975631,-2.15545630,-0.83744204,-0.24988811,-1.50374138,0.00000000,0.00000000,0.07644712,2.17000008,1.39731383,0.78697073,-1.86413527,0.00000000,0.00000000
0.10063036,-2.15171790,-0.84340876,-0.25277925,-1.51915979,0.00000000,0.00000000,0.05168603,2.17000008,1.40111709,0.77484679,-1.85487580,0.00000000,0.00000000
0.08851907,-2.14655948,-0.85021257,-0.25674528,-1.53387010,0.00000000,0.00000000,0.02263601,2.17000008,1.40610158,0.75880361,-1.84809875,0.00000000,0.00000000
0.07399938,-2.13932681,-0.85786349,-0.26118511,-1.55412436,0.00000000,0.00000000,-0.01167715,2.17000008,1.41182137,0.73866403,-1.83784378,0.00000000,0.00000000
0.05807691,-2.13032031,-0.86622298,-0.26580521,-1.57405639,0.00000000,0.00000000,-0.05090204,2.17000008,1.41803396,0.71485877,-1.82134998,0.00000000,0.00000000
0.03901385,-2.12185955,-0.87520438,-0.27253544,-1.59090042,0.00000000,0.00000000,-0.09026399,2.17000008,1.42453396,0.69044745,-1.80368721,0.00000000,0.00000000
0.01442722,-2.11493659,-0.88493419,-0.28321296,-1.61068022,0.00000000,0.00000000,-0.12519108,2.17000008,1.43077767,0.66860789,-1.78174102,0.00000000,0.00000000
-0.01536107,-2.10899782,-0.89541137,-0.29784518,-1.63023579,0.00000000,0.00000000,-0.15611625,2.17000008,1.43599510,0.64953882,-1.76093614,0.00000000,0.00000000
-0.04877555,-2.10382295,-0.90642834,-0.31564420,-1.65385723,0.00000000,0.00000000,-0.18499814,2.17000008,1.43934965,0.63246882,-1.74562252,0.00000000,0.00000000
-0.08320114,-2.09937668,-0.91760355,-0.33498138,-1.68033826,0.00000000,0.00000000,-0.21312983,2.17000008,1.44025028,0.61680490,-1.73219824,0.00000000,0.00000000
-0.11477242,-2.09586906,-0.92832065,-0.35349369,-1.71013367,0.00000000,0.00000000,-0.24129978,2.17000008,1.43864930,0.60188383,-1.72500622,0.00000000,0.00000000
-0.14040826,-2.09502101,-0.93777150,-0.36995322,-1.74063945,0.00000000,0.00000000,-0.26986852,2.17000008,1.43507528,0.58695930,-1.71379197,0.00000000,0.00000000
-0.16056035,-2.09726763,-0.94582224,-0.38487786,-1.76840007,0.00000000,0.00000000,-0.29740968,2.17000008,1.43036330,0.57226217,-1.70554936,0.00000000,0.00000000
-0.17737153,-2.09974790,-0.95320165,-0.39865747,-1.79042661,0.00000000,0.00000000,-0.32061794,2.17000008,1.42536771,0.55925059,-1.69902432,0.00000000,0.00000000
-0.19239633,-2.10047054,-0.96044421,-0.41150594,-1.81238222,0.00000000,0.00000000,-0.33810276,2.17000008,1.42065525,0.54836631,-1.68897378,0.00000000,0.00000000
-0.20618184,-2.09999228,-0.96746254,-0.42373914,-1.82804537,0.00000000,0.00000000,-0.35063404,2.17000008,1.41642058,0.53891146,-1.67581093,0.00000000,0.00000000
-0.21862848,-2.09963417,-0.97390336,-0.43530890,-1.84736502,0.00000000,0.00000000,-0.35933769,2.17000008,1.41266191,0.53012615,-1.66786933,0.00000000,0.00000000
-0.22840607,-2.09982705,-0.97939759,-0.44503203,-1.86202955,0.00000000,0.00000000,-0.36486202,2.17000008,1.40937471,0.52162784,-1.65716386,0.00000000,0.00000000
-0.23421624,-2.10010147,-0.98377448,-0.45160720,-1.87562585,0.00000000,0.00000000,-0.36736476,2.17000008,1.40666366,0.51332903,-1.65243185,0.00000000,0.00000000
-0.23599404,-2.10082674,-0.98687339,-0.45498100,-1.88420737,0.00000000,0.00000000,-0.36673555,2.17000008,1.40474045,0.50525582,-1.64585793,0.00000000,0.00000000
-0.23368216,-2.10270000,-0.98846680,-0.45539927,-1.89706945,0.00000000,0.00000000,-0.36227694,2.17000008,1.40389132,0.49776882,-1.64286876,0.00000000,0.00000000
-0.22694580,-2.10619140,-0.98834699,-0.45298031,-1.90541446,0.00000000,0.00000000,-0.35352480,2.17000008,1.40463471,0.49111938,-1.64105856,0.00000000,0.00000000
-0.21578157,-2.11125231,-0.98649055,-0.44787115,-1.90532458,0.00000000,0.00000000,-0.34266293,2.17000008,1.40771985,0.48467207,-1.63883042,0.00000000,0.00000000
-0.20081882,-2.11713934,-0.98314679,-0.44029137,-1.89839959,0.00000000,0.00000000,-0.33100846,2.17000008,1.41348433,0.47984630,-1.63586938,0.00000000,0.00000000
-0.18285318,-2.12327576,-0.97857249,-0.43062118,-1.89311039,0.00000000,0.00000000,-0.31657299,2.17000008,1.42182314,0.47955936,-1.63549101,0.00000000,0.00000000
-0.16226546,-2.12882853,-0.97304088,-0.41892070,-1.87781739,0.00000000,0.00000000,-0.29887828,2.17000008,1.43275452,0.48447382,-1.63608241,0.00000000,0.00000000
-0.13857532,-2.13306499,-0.96670467,-0.40483373,-1.86792529,0.00000000,0.00000000,-0.27905834,2.16990113,1.44627845,0.49349296,-1.63528562,0.00000000,0.00000000
-0.11137739,-2.13612771,-0.95957184,-0.38833028,-1.85947549,0.00000000,0.00000000,-0.25756145,2.16836715,1.46215999,0.50581604,-1.63548374,0.00000000,0.00000000
-0.08325055,-2.13922954,-0.95186186,-0.37116304,-1.85074484,0.00000000,0.00000000,-0.23285536,2.16324687,1.47929049,0.52231801,-1.63918746,0.00000000,0.00000000
-0.05855041,-2.14332247,-0.94408000,-0.35586196,-1.84185600,0.00000000,0.00000000,-0.20400248,2.15701509,1.49521267,0.54352975,-1.64644742,0.00000000,0.00000000
-0.03814993,-2.14806843,-0.93649888,-0.34288618,-1.82749689,0.00000000,0.00000000,-0.17204808,2.15259194,1.50848353,0.56785828,-1.65045750,0.00000000,0.00000000
-0.02087317,-2.15283895,-0.92916358,-0.33160657,-1.81356609,0.00000000,0.00000000,-0.13832830,2.14999247,1.51903582,0.59361726,-1.65056384,0.00000000,0.00000000
-0.00511256,-2.15714145,-0.92203188,-0.32118317,-1.79814661,0.00000000,0.00000000,-0.10354897,2.14903641,1.52692831,0.61994374,-1.65288877,0.00000000,0.00000000
0.01107903,-2.16059661,-0.91499639,-0.31060901,-1.78730190,0.00000000,0.00000000,-0.06880557,2.15048504,1.53190935,0.64607799,-1.65698445,0.00000000,0.00000000
0.02930943,-2.16308784,-0.90794963,-0.29910800,-1.77640212,0.00000000,0.00000000,-0.03683912,2.15487194,1.53384554,0.67058223,-1.65719318,0.00000000,0.00000000
0.04888281,-2.16488194,-0.90098989,-0.28708172,-1.75849938,0.00000000,0.00000000,-0.01022877,2.16049600,1.53363764,0.69246429,-1.65454102,0.00000000,0.00000000
0.06642662,-2.16617131,-0.89451641,-0.27609354,-1.74314594,0.00000000,0.00000000,0.01193306,2.16507602,1.53259110,0.71272534,-1.64604938,0.00000000,0.00000000
0.07990340,-2.16673756,-0.88882649,-0.26694256,-1.72679555,0.00000000,0.00000000,0.03097291,2.16808367,1.53125429,0.73218906,-1.64077437,0.00000000,0.00000000
0.08977576,-2.16630816,-0.88394898,-0.25929102,-1.71181262,0.00000000,0.00000000,0.04715051,2.16960430,1.52985668,0.75071698,-1.63152146,0.00000000,0.00000000
0.09730008,-2.16480637,-0.87980258,-0.25254583,-1.69710827,0.00000000,0.00000000,0.06021432,2.16997647,1.52868760,0.76766783,-1.62409568,0.00000000,0.00000000
0.10340041,-2.16232467,-0.87631875,-0.24634843,-1.68237400,0.00000000,0.00000000,0.06986795,2.16996336,1.52801633,0.78225327,-1.61592948,0.00000000,0.00000000
0.10844958,-2.15913510,-0.87346500,-0.24066536,-1.67063868,0.00000000,0.00000000,0.07591151,2.16955376,1.52802944,0.79379416,-1.60394835,0.00000000,0.00000000
0.11228427,-2.15575171,-0.87123644,-0.23581214,-1.66029334,0.00000000,0.00000000,0.07795899,2.16834950,1.52869046,0.80168521,-1.58662784,0.00000000,0.00000000
0.11426658,-2.15283966,-0.86965579,-0.23240276,-1.65387714,0.00000000,0.00000000,0.07523895,2.16716838,1.52965975,0.80530244,-1.56894720,0.00000000,0.00000000
0.11362512,-2.15084195,-0.86877650,-0.23103523,-1.65174651,0.00000000,0.00000000,0.06696873,2.16683149,1.53049886,0.80419844,-1.55443454,0.00000000,0.00000000
0.10989148,-2.14959693,-0.86867458,-0.23190519,-1.64995086,0.00000000,0.00000000,0.05302297,2.16751051,1.53088117,0.79844260,-1.53569019,0.00000000,0.00000000
0.10309804,-2.14832139,-0.86942947,-0.23467089,-1.64874554,0.00000000,0.00000000,0.03389390,2.16872072,1.53072393,0.78855491,-1.52074575,0.00000000,0.00000000
0.09360199,-2.14609194,-0.87109286,-0.23871616,-1.64806235,0.00000000,0.00000000,0.00981197,2.16964221,1.53011990,0.77493358,-1.50320792,0.00000000,0.00000000
0.08193742,-2.14240289,-0.87365043,-0.24347666,-1.65225577,0.00000000,0.00000000,-0.01986092,2.16995597,1.52895594,0.75747836,-1.48913717,0.00000000,0.00000000
0.06892241,-2.13686514,-0.87705302,-0.24832490,-1.65716958,0.00000000,0.00000000,-0.05606649,2.16999769,1.52674830,0.73591965,-1.47779155,0.00000000,0.00000000
0.05421592,-2.12943745,-0.88133067,-0.25339463,-1.66227221,0.00000000,0.00000000,-0.09629177,2.17000008,1.52306139,0.71199226,-1.46239638,0.00000000,0.00000000
0.03514981,-2.12214208,-0.88650018,-0.26089686,-1.67218721,0.00000000,0.00000000,-0.13413143,2.17000008,1.51816189,0.68957412,-1.45193183,0.00000000,0.00000000
0.00998934,-2.11615062,-0.89257127,-0.27242297,-1.68422377,0.00000000,0.00000000,-0.16818672,2.17000008,1.51257586,0.66943783,-1.44226015,0.00000000,0.00000000
-0.02155663,-2.11085653,-0.89960682,-0.28813100,-1.69089270,0.00000000,0.00000000,-0.19965522,2.17000008,1.50653207,0.65088826,-1.42389357,0.00000000,0.00000000
-0.05736420,-2.10647106,-0.90728712,-0.30695009,-1.70269215,0.00000000,0.00000000,-0.22944503,2.17000008,1.50012755,0.63341755,-1.40156078,0.00000000,0.00000000
-0.09467768,-2.10307360,-0.91519946,-0.32719961,-1.71442473,0.00000000,0.00000000,-0.25807858,2.17000008,1.49330032,0.61668169,-1.37824059,0.00000000,0.00000000
-0.13038836,-2.10040927,-0.92289752,-0.34695449,-1.72914553,0.00000000,0.00000000,-0.28568861,2.17000008,1.48593247,0.60047758,-1.35449815,0.00000000,0.00000000
-0.16035511,-2.09808517,-0.92981058,-0.36393005,-1.74333227,0.00000000,0.00000000,-0.31201118,2.17000008,1.47807813,0.58474457,-1.32836044,0.00000000,0.00000000
-0.18213473,-2.09548378,-0.93563408,-0.37676445,-1.75507963,0.00000000,0.00000000,-0.33578056,2.17000008,1.47004867,0.56999046,-1.30341220,0.00000000,0.00000000
-0.19936794,-2.09197259,-0.94090736,-0.38705599,-1.77231431,0.00000000,0.00000000,-0.35497868,2.17000008,1.46220517,0.55722076,-1.28022778,0.00000000,0.00000000
-0.21470208,-2.08776760,-0.94589877,-0.39602646,-1.79213095,0.00000000,0.00000000,-0.36934468,2.17000008,1.45466673,0.54642099,-1.26003838,0.00000000,0.00000000
-0.22780646,-2.08373737,-0.95034039,-0.40346852,-1.81222165,0.00000000,0.00000000,-0.37964177,2.17000008,1.44732368,0.53702819,-1.23965788,0.00000000,0.00000000
-0.23780215,-2.08051562,-0.95392740,-0.40890458,-1.82649529,0.00000000,0.00000000,-0.38646063,2.17000008,1.44005561,0.52862716,-1.22118056,0.00000000,0.00000000
-0.24437697,-2.07870483,-0.95644325,-0.41233477,-1.84460521,0.00000000,0.00000000,-0.39021707,2.17000008,1.43286228,0.52088994,-1.19773948,0.00000000,0.00000000
-0.24739456,-2.07873273,-0.95773190,-0.41389939,-1.86584413,0.00000000,0.00000000,-0.39135459,2.17000008,1.42587924,0.51342243,-1.17929029,0.00000000,0.00000000
-0.24664511,-2.08086085,-0.95765984,-0.41369027,-1.88575685,0.00000000,0.00000000,-0.39057869,2.17000008,1.41945899,0.50560671,-1.16552949,0.00000000,0.00000000
-0.24199146,-2.08531976,-0.95611399,-0.41185489,-1.90592968,0.00000000,0.00000000,-0.38805521,2.17000008,1.41449320,0.49715871,-1.15350354,0.00000000,0.00000000
-0.23359635,-2.09201145,-0.95309889,-0.40856987,-1.92197859,0.00000000,0.00000000,-0.38205758,2.17000008,1.41245270,0.48933953,-1.13954663,0.00000000,0.00000000
-0.22184001,-2.10031629,-0.94876361,-0.40390059,-1.93430161,0.00000000,0.00000000,-0.37242979,2.17000008,1.41432333,0.48297778,-1.12378621,0.00000000,0.00000000
-0.20720075,-2.10927486,-0.94334799,-0.39778185,-1.95035541,0.00000000,0.00000000,-0.36048716,2.17000008,1.42041326,0.47785226,-1.10814846,0.00000000,0.00000000
-0.18958448,-2.11800504,-0.93700802,-0.38987380,-1.96652472,0.00000000,0.00000000,-0.34685656,2.16997647,1.43076158,0.47392225,-1.09421670,0.00000000,0.00000000
-0.16819641,-2.12572670,-0.92980123,-0.37955511,-1.98605525,0.00000000,0.00000000,-0.33143878,2.16950083,1.44466567,0.47178411,-1.08730996,0.00000000,0.00000000
-0.14209622,-2.13203645,-0.92171991,-0.36633369,-2.00486708,0.00000000,0.00000000,-0.31394371,2.16654229,1.46062076,0.47251937,-1.08533704,0.00000000,0.00000000
-0.11325605,-2.13740826,-0.91300994,-0.35140225,-2.02203465,0.00000000,0.00000000,-0.29314628,2.15902066,1.47682393,0.47779170,-1.07922876,0.00000000,0.00000000
-0.08720813,-2.14296293,-0.90427983,-0.33781293,-2.03619504,0.00000000,0.00000000,-0.26722300,2.14925694,1.49194717,0.48911306,-1.06766939,0.00000000,0.00000000
-0.06514125,-2.14874721,-0.89574963,-0.32626417,-2.04897380,0.00000000,0.00000000,-0.23649469,2.13923526,1.50545108,0.50622809,-1.05621529,0.00000000,0.00000000
-0.04554870,-2.15436769,-0.88735992,-0.31604302,-2.06127620,0.00000000,0.00000000,-0.20241219,2.12995052,1.51705599,0.52787864,-1.04227614,0.00000000,0.00000000
-0.02705248,-2.15956450,-0.87904274,-0.30649218,-2.07240009,0.00000000,0.00000000,-0.16596682,2.12205911,1.52655768,0.55278951,-1.02863467,0.00000000,0.00000000
-0.00845953,-2.16405964,-0.87075377,-0.29699925,-2.08245730,0.00000000,0.00000000,-0.12789987,2.11610889,1.53377342,0.57972467,-1.01273775,0.00000000,0.00000000
0.01151625,-2.16742897,-0.86246181,-0.28685540,-2.09347081,0.00000000,0.00000000,-0.08982465,2.11328459,1.53828228,0.60713851,-0.99810952,0.00000000,0.00000000
0.03361482,-2.16931486,-0.85419345,-0.27562365,-2.09986544,0.00000000,0.00000000,-0.05620749,2.11625338,1.53903484,0.63216913,-0.97686064,0.00000000,0.00000000
0.05614512,-2.16991234,-0.84620887,-0.26400313,-2.10324264,0.00000000,0.00000000,-0.03056604,2.12529898,1.53595269,0.65300483,-0.95847905,0.00000000,0.00000000
0.07560143,-2.16999626,-0.83897436,-0.25335488,-2.10986757,0.00000000,0.00000000,-0.00794869,2.13400888,1.53191268,0.67320901,-0.94613916,0.00000000,0.00000000
0.09006801,-2.16999197,-0.83282572,-0.24414127,-2.11558533,0.00000000,0.00000000,0.01293022,2.14075351,1.52785003,0.69369256,-0.93598211,0.00000000,0.00000000
0.09957604,-2.16983652,-0.82783699,-0.23618387,-2.12157726,0.00000000,0.00000000,0.03153303,2.14636946,1.52362907,0.71408910,-0.92762965,0.00000000,0.00000000
0.10501663,-2.16890860,-0.82391346,-0.22927403,-2.12566662,0.00000000,0.00000000,0.04741729,2.15136576,1.51919246,0.73403692,-0.91561401,0.00000000,0.00000000
0.10747556,-2.16633463,-0.82091832,-0.22323896,-2.12885880,0.00000000,0.00000000,0.06000036,2.15591049,1.51460469,0.75299799,-0.90527409,0.00000000,0.00000000
0.10792472,-2.16207361,-0.81874204,-0.21789743,-2.13475013,0.00000000,0.00000000,0.06885120,2.15995908,1.51001835,0.77044535,-0.89533490,0.00000000,0.00000000
0.10702661,-2.15652633,-0.81730932,-0.21316446,-2.14265180,0.00000000,0.00000000,0.07371623,2.16350055,1.50554812,0.78587252,-0.89043033,0.00000000,0.00000000
0.10513949,-2.15019417,-0.81656510,-0.20908074,-2.14890337,0.00000000,0.00000000,0.07443024,2.16648698,1.50128686,0.79860491,-0.88773048,0.00000000,0.00000000
0.10234562,-2.14366341,-0.81647134,-0.20581153,-2.15657496,0.00000000,0.00000000,0.07075607,2.16865826,1.49736798,0.80763483,-0.88249421,0.00000000,0.00000000
0.09841970,-2.13751817,-0.81701815,-0.20366521,-2.16756773,0.00000000,0.00000000,0.06225754,2.16973495,1.49387932,0.81182557,-0.88001227,0.00000000,0.00000000
0.09279879,-2.13219953,-0.81823581,-0.20308799,-2.17840338,0.00000000,0.00000000,0.04855954,2.16998529,1.49071181,0.81050158,-0.88883328,0.00000000,0.00000000
0.08487492,-2.12782431,-0.82017970,-0.20445742,-2.18751574,0.00000000,0.00000000,0.02991819,2.17000008,1.48770165,0.80390507,-0.89487964,0.00000000,0.00000000
0.07436692,-2.12412763,-0.82289755,-0.20784363,-2.19650149,0.00000000,0.00000000,0.00716307,2.17000008,1.48490739,0.79287952,-0.90110981,0.00000000,0.00000000
0.06128290,-2.12062430,-0.82641828,-0.21303508,-2.20265174,0.00000000,0.00000000,-0.01908974,2.17000008,1.48246741,0.77814507,-0.90257496,0.00000000,0.00000000
0.04592222,-2.11671305,-0.83074528,-0.21956025,-2.21400928,0.00000000,0.00000000,-0.04902505,2.17000008,1.48040390,0.75987554,-0.90628719,0.00000000,0.00000000
0.02921515,-2.11233163,-0.83576667,-0.22684211,-2.23279023,0.00000000,0.00000000,-0.08309217,2.17000008,1.47877395,0.73800886,-0.91675949,0.00000000,0.00000000
0.01133449,-2.10892558,-0.84128726,-0.23530845,-2.25199747,0.00000000,0.00000000,-0.11881944,2.17000008,1.47783685,0.71423769,-0.92587483,0.00000000,0.00000000
-0.01077483,-2.10708570,-0.84750217,-0.24661584,-2.26969290,0.00000000,0.00000000,-0.15039754,2.17000008,1.47764444,0.69245583,-0.93433130,0.00000000,0.00000000
-0.03908994,-2.10513544,-0.85474843,-0.26113024,-2.28435373,0.00000000,0.00000000,-0.17662838,2.17000008,1.47798574,0.67369515,-0.93737167,0.00000000,0.00000000
-0.07285244,-2.10179973,-0.86305302,-0.27802503,-2.29575109,0.00000000,0.00000000,-0.19930394,2.17000008,1.47841215,0.65710920,-0.93699545,0.00000000,0.00000000
-0.10997394,-2.09707332,-0.87213188,-0.29607734,-2.30639148,0.00000000,0.00000000,-0.22036903,2.17000008,1.47832274,0.64169520,-0.93851244,0.00000000,0.00000000
-0.14624754,-2.09200168,-0.88127804,-0.31335163,-2.31460929,0.00000000,0.00000000,-0.24155846,2.17000008,1.47735608,0.62639058,-0.94356024,0.00000000,0.00000000
-0.17713757,-2.08783436,-0.88966841,-0.32800516,-2.32254338,0.00000000,0.00000000,-0.26396215,2.17000008,1.47555768,0.61034125,-0.94463003,0.00000000,0.00000000
-0.20095737,-2.08566236,-0.89683563,-0.33979383,-2.33227277,0.00000000,0.00000000,-0.28720349,2.17000008,1.47296977,0.59359080,-0.94388944,0.00000000,0.00000000
-0.22020787,-2.08505297,-0.90310311,-0.35022506,-2.34494638,0.00000000,0.00000000,-0.30867141,2.17000008,1.46947014,0.57765204,-0.93921429,0.00000000,0.00000000
-0.23742691,-2.08414197,-0.90906137,-0.36038661,-2.35625720,0.00000000,0.00000000,-0.32605737,2.17000008,1.46510959,0.56381506,-0.93529767,0.00000000,0.00000000
-0.25251481,-2.08259559,-0.91471016,-0.37044749,-2.37345195,0.00000000,0.00000000,-0.33921897,2.17000008,1.46014178,0.55195224,-0.93007421,0.00000000,0.00000000
-0.26497597,-2.08074307,-0.91987437,-0.38030985,-2.39260316,0.00000000,0.00000000,-0.34887803,2.17000008,1.45495021,0.54137570,-0.92881447,0.00000000,0.00000000
-0.27491644,-2.07878470,-0.92446738,-0.38973388,-2.41190410,0.00000000,0.00000000,-0.35559228,2.17000008,1.44996881,0.53151441,-0.92839974,0.00000000,0.00000000
-0.28235441,-2.07714701,-0.92833704,-0.39817864,-2.43044066,0.00000000,0.00000000,-0.35966763,2.17000008,1.44561553,0.52199054,-0.93020660,0.00000000,0.00000000
-0.28648502,-2.07629108,-0.93119758,-0.40468913,-2.44474864,0.00000000,0.00000000,-0.36123013,2.17000008,1.44228637,0.51256531,-0.93085611,0.00000000,0.00000000
-0.28649017,-2.07650757,-0.93279409,-0.40856624,-2.45901799,0.00000000,0.00000000,-0.36040592,2.17000008,1.44029748,0.50301701,-0.92685235,0.00000000,0.00000000
-0.28233519,-2.07812023,-0.93298990,-0.40984616,-2.47349024,0.00000000,0.00000000,-0.35764953,2.17000008,1.43977106,0.49296266,-0.92560434,0.00000000,0.00000000
-0.27407512,-2.08153152,-0.93165982,-0.40883601,-2.49007869,0.00000000,0.00000000,-0.35345402,2.17000008,1.44073343,0.48207256,-0.92430395,0.00000000,0.00000000
-0.26157871,-2.08708096,-0.92867756,-0.40582135,-2.50989461,0.00000000,0.00000000,-0.34704086,2.17000008,1.44352746,0.47103351,-0.91947895,0.00000000,0.00000000
-0.24518391,-2.09455848,-0.92410427,-0.40110862,-2.52445722,0.00000000,0.00000000,-0.33654419,2.17000008,1.44875550,0.46185827,-0.90935826,0.00000000,0.00000000
-0.22596888,-2.10314178,-0.91823620,-0.39507103,-2.54018617,0.00000000,0.00000000,-0.32266966,2.17000008,1.45654869,0.45550844,-0.89388233,0.00000000,0.00000000
-0.20440137,-2.11196971,-0.91129518,-0.38772228,-2.55657482,0.00000000,0.00000000,-0.30655050,2.17000008,1.46657479,0.45257959,-0.87817931,0.00000000,0.00000000
-0.17991327,-2.12034392,-0.90333873,-0.37859103,-2.57261157,0.00000000,0.00000000,-0.28823718,2.16989613,1.47823572,0.45389190,-0.85921878,0.00000000,0.00000000
-0.15161021,-2.12807012,-0.89431244,-0.36721605,-2.59142637,0.00000000,0.00000000,-0.26755825,2.16829014,1.49077117,0.46015736,-0.83240271,0.00000000,0.00000000
-0.12076389,-2.13571382,-0.88435513,-0.35440379,-2.61294985,0.00000000,0.00000000,-0.24396858,2.16295958,1.50324416,0.47220170,-0.80515200,0.00000000,0.00000000
-0.09117928,-2.14347529,-0.87402385,-0.34199905,-2.63614798,0.00000000,0.00000000,-0.21656141,2.15647197,1.51428676,0.49079955,-0.77493370,0.00000000,0.00000000
-0.06467245,-2.15069604,-0.86373991,-0.33073753,-2.65973663,0.00000000,0.00000000,-0.18570085,2.15184855,1.52295768,0.51541531,-0.74749029,0.00000000,0.00000000
-0.04095349,-2.15686870,-0.85360968,-0.32054144,-2.67434096,0.00000000,0.00000000,-0.15241210,2.14955544,1.52905774,0.54454732,-0.72061080,0.00000000,0.00000000
-0.01914455,-2.16194296,-0.84358770,-0.31123370,-2.67823052,0.00000000,0.00000000,-0.11769330,2.14919662,1.53261745,0.57641500,-0.68367076,0.00000000,0.00000000
0.00181138,-2.16591668,-0.83359450,-0.30251247,-2.67435861,0.00000000,0.00000000,-0.08300123,2.15095520,1.53348422,0.60905075,-0.64946818,0.00000000,0.00000000
0.02291265,-2.16857147,-0.82358193,-0.29393309,-2.67428398,0.00000000,0.00000000,-0.05057514,2.15531659,1.53143942,0.64037412,-0.61467344,0.00000000,0.00000000
0.04392751,-2.16974020,-0.81369436,-0.28532746,-2.67576098,0.00000000,0.00000000,-0.02266430,2.16182280,1.52675259,0.66873568,-0.58066595,0.00000000,0.00000000
0.06233494,-2.16998625,-0.80442649,-0.27711743,-2.68125486,0.00000000,0.00000000,0.00028267,2.16748333,1.52092767,0.69382823,-0.55404568,0.00000000,0.00000000
0.07541852,-2.17000008,-0.79635191,-0.26950994,-2.67968917,0.00000000,0.00000000,0.01967734,2.16966128,1.51575708,0.71653306,-0.52707899,0.00000000,0.00000000
0.08286583,-2.17000008,-0.78967237,-0.26197663,-2.67726588,0.00000000,0.00000000,0.03662402,2.16998529,1.51185870,0.73727888,-0.50474739,0.00000000,0.00000000
0.08597960,-2.17000008,-0.78425270,-0.25389740,-2.67700791,0.00000000,0.00000000,0.05148545,2.16999769,1.50926387,0.75605381,-0.48200989,0.00000000,0.00000000
0.08606643,-2.16999340,-0.77985346,-0.24512857,-2.67693806,0.00000000,0.00000000,0.06421976,2.16995430,1.50767016,0.77288926,-0.46172088,0.00000000,0.00000000
0.08400011,-2.16987562,-0.77624524,-0.23595670,-2.66844130,0.00000000,0.00000000,0.07461480,2.16969347,1.50665069,0.78781658,-0.44297448,0.00000000,0.00000000
0.08044170,-2.16930795,-0.77322412,-0.22684531,-2.65951371,0.00000000,0.00000000,0.08239371,2.16906047,1.50598311,0.80061448,-0.42755535,0.00000000,0.00000000
0.07590884,-2.16815710,-0.77063531,-0.21825513,-2.64988232,0.00000000,0.00000000,0.08711065,2.16832161,1.50563049,0.81067801,-0.41707134,0.00000000,0.00000000
0.07059279,-2.16699123,-0.76841915,-0.21055935,-2.63735390,0.00000000,0.00000000,0.08825856,2.16780233,1.50552356,0.81737161,-0.40592584,0.00000000,0.00000000
0.06425223,-2.16621161,-0.76661831,-0.20404188,-2.62427831,0.00000000,0.00000000,0.08552679,2.16783190,1.50543249,0.82034916,-0.39037108,0.00000000,0.00000000
0.05652443,-2.16575289,-0.76532394,-0.19883868,-2.61125684,0.00000000,0.00000000,0.07842945,2.16848969,1.50509405,0.81915706,-0.37869483,0.00000000,0.00000000
0.04732563,-2.16522789,-0.76461625,-0.19483604,-2.60236073,0.00000000,0.00000000,0.06627031,2.16934919,1.50436676,0.81325048,-0.36365953,0.00000000,0.00000000
0.03632836,-2.16411042,-0.76459336,-0.19199155,-2.58788037,0.00000000,0.00000000,0.04920742,2.16986561,1.50323248,0.80281276,-0.34908345,0.00000000,0.00000000
0.02301544,-2.16198587,-0.76534867,-0.19047150,-2.57473946,0.00000000,0.00000000,0.02771820,2.16999245,1.50173950,0.78827381,-0.33416754,0.00000000,0.00000000
0.00764347,-2.15876722,-0.76687497,-0.19034554,-2.56113291,0.00000000,0.00000000,0.00154841,2.17000008,1.49985421,0.76962662,-0.32002684,0.00000000,0.00000000
-0.00882421,-2.15524554,-0.76902956,-0.19185282,-2.54294920,0.00000000,0.00000000,-0.03022465,2.17000008,1.49753571,0.74651235,-0.30870757,0.00000000,0.00000000
-0.02662315,-2.15219784,-0.77177143,-0.19576856,-2.52755833,0.00000000,0.00000000,-0.06600931,2.17000008,1.49484372,0.72012162,-0.30012065,0.00000000,0.00000000
-0.04881097,-2.14850116,-0.77545381,-0.20314473,-2.51233673,0.00000000,0.00000000,-0.09957790,2.17000008,1.49182439,0.69450057,-0.29471865,0.00000000,0.00000000
-0.07517167,-2.14373112,-0.78007227,-0.21392052,-2.49424148,0.00000000,0.00000000,-0.12964453,2.17000008,1.48850334,0.67073387,-0.29146296,0.00000000,0.00000000
-0.10393045,-2.13813353,-0.78540140,-0.22741422,-2.46840739,0.00000000,0.00000000,-0.15769733,2.17000008,1.48494196,0.64811212,-0.28533810,0.00000000,0.00000000
-0.13410079,-2.13197803,-0.79125947,-0.24298418,-2.44286871,0.00000000,0.00000000,-0.18455100,2.17000008,1.48123825,0.62614179,-0.28401771,0.00000000,0.00000000
-0.16489913,-2.12594557,-0.79741508,-0.26006037,-2.42240167,0.00000000,0.00000000,-0.21033734,2.17000008,1.47753823,0.60456461,-0.28389496,0.00000000,0.00000000
-0.19389644,-2.12165093,-0.80331546,-0.27772030,-2.40066123,0.00000000,0.00000000,-0.23546581,2.17000008,1.47397470,0.58286554,-0.28504223,0.00000000,0.00000000
-0.21589644,-2.11949682,-0.80817741,-0.29347080,-2.37794018,0.00000000,0.00000000,-0.26081935,2.17000008,1.47052300,0.56026912,-0.28923634,0.00000000,0.00000000
-0.22808011,-2.11763358,-0.81175750,-0.30502209,-2.35334301,0.00000000,0.00000000,-0.28540000,2.17000008,1.46690249,0.53728896,-0.29262018,0.00000000,0.00000000
-0.23662896,-2.11557627,-0.81480211,-0.31446412,-2.33836675,0.00000000,0.00000000,-0.30632335,2.17000008,1.46297038,0.51564860,-0.29846206,0.00000000,0.00000000
-0.24569477,-2.11228204,-0.81792510,-0.32280526,-2.33236575,0.00000000,0.00000000,-0.32213634,2.17000008,1.45865667,0.49622238,-0.30881920,0.00000000,0.00000000
-0.25445908,-2.10796452,-0.82093519,-0.32953429,-2.32141566,0.00000000,0.00000000,-0.33329123,2.17000008,1.45397460,0.47871068,-0.31875846,0.00000000,0.00000000
