isaac-sim2real/sage/motion_files/wr75s/amass/0-Eyes_Japan_Dataset_kudo_walk-01-normal-kudo_poses_idx63.txt
l_joint1,l_joint2,l_joint3,l_joint4,l_joint5,l_joint6,l_joint7,r_joint1,r_joint2,r_joint3,r_joint4,r_joint5,r_joint6,r_joint7
-0.38546368,-1.18870306,0.16074143,0.65001410,0.04034217,0.00000000,0.00000000,-2.03455615,0.56213236,-0.12058446,0.44763014,0.04490798,0.00000000,0.00000000
-0.38648444,-1.18757856,0.16001907,0.64894426,0.05437146,0.00000000,0.00000000,-2.03470874,0.56157053,-0.12064885,0.44768417,0.05101374,0.00000000,0.00000000
-0.38757321,-1.18739784,0.15878786,0.64760274,0.06391148,0.00000000,0.00000000,-2.03494453,0.56101763,-0.12054180,0.44800165,0.05700964,0.00000000,0.00000000
-0.38791999,-1.18957007,0.15733354,0.64669758,0.06978528,0.00000000,0.00000000,-2.03521848,0.56081343,-0.12009978,0.44871601,0.05790649,0.00000000,0.00000000
-0.38761410,-1.19353306,0.15587275,0.64643961,0.07827220,0.00000000,0.00000000,-2.03555298,0.56075108,-0.11947645,0.44974759,0.06061896,0.00000000,0.00000000
-0.38720676,-1.19781077,0.15453598,0.64667672,0.08660544,0.00000000,0.00000000,-2.03600264,0.56039864,-0.11898275,0.45093098,0.06204937,0.00000000,0.00000000
-0.38704747,-1.20156372,0.15342371,0.64724076,0.09565353,0.00000000,0.00000000,-2.03660464,0.55947274,-0.11886426,0.45215455,0.06166507,0.00000000,0.00000000
-0.38720635,-1.20468128,0.15261824,0.64806378,0.10114077,0.00000000,0.00000000,-2.03736401,0.55788952,-0.11926603,0.45336786,0.06415738,0.00000000,0.00000000
-0.38769406,-1.20711470,0.15216924,0.64909399,0.10571785,0.00000000,0.00000000,-2.03826284,0.55564404,-0.12027999,0.45452726,0.06673452,0.00000000,0.00000000
-0.38852292,-1.20875311,0.15207762,0.65024108,0.10968632,0.00000000,0.00000000,-2.03926134,0.55277252,-0.12194167,0.45558673,0.07078562,0.00000000,0.00000000
-0.38959703,-1.20968974,0.15230797,0.65141094,0.11203843,0.00000000,0.00000000,-2.04029083,0.54942852,-0.12418657,0.45653921,0.08056808,0.00000000,0.00000000
-0.39070061,-1.21018744,0.15282394,0.65252465,0.11473789,0.00000000,0.00000000,-2.04126096,0.54588687,-0.12685582,0.45742255,0.08895290,0.00000000,0.00000000
-0.39165717,-1.21044183,0.15360108,0.65349889,0.12084180,0.00000000,0.00000000,-2.04207873,0.54238778,-0.12977791,0.45825672,0.09671136,0.00000000,0.00000000
-0.39242581,-1.21052313,0.15461829,0.65426397,0.12811595,0.00000000,0.00000000,-2.04266548,0.53901201,-0.13282967,0.45899960,0.10380479,0.00000000,0.00000000
-0.39302999,-1.21043754,0.15585932,0.65480763,0.13447918,0.00000000,0.00000000,-2.04295349,0.53573817,-0.13591824,0.45957851,0.10983617,0.00000000,0.00000000
-0.39343560,-1.21014905,0.15732834,0.65516865,0.14124697,0.00000000,0.00000000,-2.04287386,0.53262198,-0.13892478,0.45997104,0.11589523,0.00000000,0.00000000
-0.39352089,-1.20959330,0.15904500,0.65539825,0.14708385,0.00000000,0.00000000,-2.04235363,0.52988338,-0.14168510,0.46024358,0.11917580,0.00000000,0.00000000
-0.39315334,-1.20873845,0.16100979,0.65557885,0.15556008,0.00000000,0.00000000,-2.04132438,0.52777785,-0.14402740,0.46049136,0.12250208,0.00000000,0.00000000
-0.39228472,-1.20760655,0.16317657,0.65586203,0.16704486,0.00000000,0.00000000,-2.03973651,0.52640170,-0.14582330,0.46074426,0.12766737,0.00000000,0.00000000
-0.39095858,-1.20625830,0.16546281,0.65640450,0.17513292,0.00000000,0.00000000,-2.03755617,0.52567947,-0.14700152,0.46095306,0.13517420,0.00000000,0.00000000
-0.38920385,-1.20488513,0.16777597,0.65722406,0.18679044,0.00000000,0.00000000,-2.03475666,0.52554792,-0.14751388,0.46106791,0.13601595,0.00000000,0.00000000
-0.38697398,-1.20389223,0.17001514,0.65815127,0.19901733,0.00000000,0.00000000,-2.03131008,0.52605188,-0.14730701,0.46108139,0.13784084,0.00000000,0.00000000
-0.38423526,-1.20378196,0.17205264,0.65893114,0.20995486,0.00000000,0.00000000,-2.02719522,0.52721089,-0.14633891,0.46097025,0.14565176,0.00000000,0.00000000
-0.38111514,-1.20490646,0.17372681,0.65933985,0.22104371,0.00000000,0.00000000,-2.02240586,0.52885437,-0.14462002,0.46062914,0.15545763,0.00000000,0.00000000
-0.37791419,-1.20733285,0.17487399,0.65921247,0.22934771,0.00000000,0.00000000,-2.01694894,0.53067029,-0.14221399,0.45990086,0.16263928,0.00000000,0.00000000
-0.37493199,-1.21092129,0.17539421,0.65843177,0.23616309,0.00000000,0.00000000,-2.01083016,0.53243911,-0.13919251,0.45867833,0.16689618,0.00000000,0.00000000
-0.37230343,-1.21542215,0.17531246,0.65697336,0.23574403,0.00000000,0.00000000,-2.00404239,0.53418052,-0.13560924,0.45695865,0.17303009,0.00000000,0.00000000
-0.36999661,-1.22046351,0.17479537,0.65496719,0.23305199,0.00000000,0.00000000,-1.99657166,0.53609252,-0.13152389,0.45481226,0.18426964,0.00000000,0.00000000
-0.36794490,-1.22552633,0.17410308,0.65267766,0.23452997,0.00000000,0.00000000,-1.98840773,0.53838044,-0.12704079,0.45231837,0.18843837,0.00000000,0.00000000
-0.36614412,-1.23004210,0.17350516,0.65039676,0.23290944,0.00000000,0.00000000,-1.97955489,0.54115468,-0.12230733,0.44953388,0.19412337,0.00000000,0.00000000
-0.36464244,-1.23354411,0.17321165,0.64835101,0.23262529,0.00000000,0.00000000,-1.97002602,0.54443985,-0.11747292,0.44649687,0.20161045,0.00000000,0.00000000
-0.36350003,-1.23574805,0.17334060,0.64668483,0.22884741,0.00000000,0.00000000,-1.95983994,0.54821068,-0.11265416,0.44323069,0.20834000,0.00000000,0.00000000
-0.36277714,-1.23655987,0.17391989,0.64547724,0.22040400,0.00000000,0.00000000,-1.94901741,0.55240899,-0.10793116,0.43974414,0.21322896,0.00000000,0.00000000
-0.36251584,-1.23605013,0.17492300,0.64472699,0.20321417,0.00000000,0.00000000,-1.93757987,0.55697066,-0.10335871,0.43604100,0.21478309,0.00000000,0.00000000
-0.36270097,-1.23440313,0.17631994,0.64433801,0.18490934,0.00000000,0.00000000,-1.92554855,0.56186062,-0.09897296,0.43212894,0.22229107,0.00000000,0.00000000
-0.36326855,-1.23186827,0.17809586,0.64415741,0.16220519,0.00000000,0.00000000,-1.91294253,0.56705725,-0.09479734,0.42800492,0.22665910,0.00000000,0.00000000
-0.36417875,-1.22875226,0.18022200,0.64405769,0.14485651,0.00000000,0.00000000,-1.89978242,0.57247984,-0.09085114,0.42362356,0.22995888,0.00000000,0.00000000
-0.36546159,-1.22542441,0.18262720,0.64398491,0.13175388,0.00000000,0.00000000,-1.88608980,0.57795602,-0.08715069,0.41888985,0.23969124,0.00000000,0.00000000
-0.36716324,-1.22225225,0.18521866,0.64392722,0.11701682,0.00000000,0.00000000,-1.87188137,0.58330590,-0.08369929,0.41370094,0.24804544,0.00000000,0.00000000
-0.36925963,-1.21950817,0.18792780,0.64386129,0.10287616,0.00000000,0.00000000,-1.85716200,0.58846337,-0.08048087,0.40800267,0.25922671,0.00000000,0.00000000
-0.37165731,-1.21734166,0.19072592,0.64375699,0.08963437,0.00000000,0.00000000,-1.84192681,0.59347844,-0.07747437,0.40179601,0.27142107,0.00000000,0.00000000
-0.37427741,-1.21582401,0.19360413,0.64362717,0.08394634,0.00000000,0.00000000,-1.82616913,0.59839410,-0.07467768,0.39508620,0.28002802,0.00000000,0.00000000
-0.37710539,-1.21498597,0.19655214,0.64352918,0.07521922,0.00000000,0.00000000,-1.80988324,0.60317129,-0.07211039,0.38784596,0.29547814,0.00000000,0.00000000
-0.38013324,-1.21484149,0.19955024,0.64347267,0.06619784,0.00000000,0.00000000,-1.79305494,0.60779458,-0.06978180,0.38005567,0.30836457,0.00000000,0.00000000
-0.38328284,-1.21541357,0.20256461,0.64334339,0.06092436,0.00000000,0.00000000,-1.77565265,0.61242378,-0.06765777,0.37177092,0.31799242,0.00000000,0.00000000
-0.38642582,-1.21674705,0.20554601,0.64297056,0.05390023,0.00000000,0.00000000,-1.75763106,0.61735386,-0.06566800,0.36311048,0.33005926,0.00000000,0.00000000
-0.38949734,-1.21884513,0.20844096,0.64230001,0.04462941,0.00000000,0.00000000,-1.73894870,0.62277722,-0.06375228,0.35414520,0.33964685,0.00000000,0.00000000
-0.39255273,-1.22155988,0.21121682,0.64146733,0.03676265,0.00000000,0.00000000,-1.71957946,0.62865150,-0.06189436,0.34482977,0.35019249,0.00000000,0.00000000
-0.39566889,-1.22462702,0.21388258,0.64067274,0.03072936,0.00000000,0.00000000,-1.69950652,0.63485247,-0.06010478,0.33507344,0.36180061,0.00000000,0.00000000
-0.39883429,-1.22782350,0.21647899,0.64001542,0.02381897,0.00000000,0.00000000,-1.67870927,0.64136195,-0.05838026,0.32483724,0.37520254,0.00000000,0.00000000
-0.40196615,-1.23105645,0.21904717,0.63948965,0.01931657,0.00000000,0.00000000,-1.65716064,0.64824915,-0.05668774,0.31412765,0.39154634,0.00000000,0.00000000
-0.40500677,-1.23433113,0.22160436,0.63909215,0.01318347,0.00000000,0.00000000,-1.63483119,0.65551668,-0.05497891,0.30291608,0.40525660,0.00000000,0.00000000
-0.40795180,-1.23760784,0.22414531,0.63887221,0.00616784,0.00000000,0.00000000,-1.61169660,0.66310322,-0.05321490,0.29113457,0.41801378,0.00000000,0.00000000
-0.41079685,-1.24073088,0.22666030,0.63884908,0.00289489,0.00000000,0.00000000,-1.58773649,0.67100471,-0.05136975,0.27873755,0.42703140,0.00000000,0.00000000
-0.41350937,-1.24349058,0.22914641,0.63894123,0.00084724,0.00000000,0.00000000,-1.56292915,0.67928678,-0.04940906,0.26570681,0.43879804,0.00000000,0.00000000
-0.41606677,-1.24572515,0.23160265,0.63902295,-0.00048658,0.00000000,0.00000000,-1.53724587,0.68796086,-0.04726915,0.25198272,0.45224264,0.00000000,0.00000000
-0.41847718,-1.24737060,0.23402070,0.63902539,-0.00346915,0.00000000,0.00000000,-1.51065242,0.69693100,-0.04486100,0.23744050,0.46234196,0.00000000,0.00000000
-0.42074531,-1.24843097,0.23638734,0.63894492,-0.00785107,0.00000000,0.00000000,-1.48311293,0.70608819,-0.04209164,0.22196230,0.47524017,0.00000000,0.00000000
-0.42284548,-1.24891651,0.23869403,0.63878858,-0.01073102,0.00000000,0.00000000,-1.45459282,0.71540487,-0.03887587,0.20550703,0.48791698,0.00000000,0.00000000
-0.42474186,-1.24882412,0.24093388,0.63855630,-0.01272244,0.00000000,0.00000000,-1.42505717,0.72492886,-0.03513037,0.18809935,0.50110316,0.00000000,0.00000000
-0.42642385,-1.24816883,0.24308394,0.63826275,-0.00661755,0.00000000,0.00000000,-1.39446747,0.73472738,-0.03076650,0.16977063,0.50918186,0.00000000,0.00000000
-0.42790678,-1.24701548,0.24510297,0.63792425,0.00352289,0.00000000,0.00000000,-1.36278391,0.74486119,-0.02569483,0.15053169,0.51780373,0.00000000,0.00000000
-0.42921790,-1.24546504,0.24695966,0.63751709,0.01247348,0.00000000,0.00000000,-1.32997036,0.75538242,-0.01983544,0.13038877,0.52808487,0.00000000,0.00000000
-0.43040580,-1.24361062,0.24865986,0.63699222,0.02004360,0.00000000,0.00000000,-1.29599500,0.76632237,-0.01312419,0.10936241,0.53325176,0.00000000,0.00000000
-0.43154690,-1.24152410,0.25024191,0.63634795,0.02774101,0.00000000,0.00000000,-1.26083398,0.77769166,-0.00551716,0.08749714,0.53499824,0.00000000,0.00000000
-0.43270436,-1.23933005,0.25175217,0.63564456,0.03838837,0.00000000,0.00000000,-1.22447395,0.78950244,0.00300168,0.06487020,0.53798902,0.00000000,0.00000000
-0.43388993,-1.23721635,0.25323716,0.63494337,0.04797146,0.00000000,0.00000000,-1.18691564,0.80178589,0.01241468,0.04159450,0.53878957,0.00000000,0.00000000
-0.43507785,-1.23538733,0.25474694,0.63424420,0.06663794,0.00000000,0.00000000,-1.14817679,0.81458122,0.02266997,0.01780170,0.54062867,0.00000000,0.00000000
-0.43625891,-1.23398137,0.25632516,0.63351089,0.09079195,0.00000000,0.00000000,-1.10829210,0.82790756,0.03368523,-0.00638933,0.53347421,0.00000000,0.00000000
-0.43746808,-1.23302770,0.25799432,0.63274181,0.11913506,0.00000000,0.00000000,-1.06731474,0.84174114,0.04535427,-0.03089312,0.52811962,0.00000000,0.00000000
-0.43876028,-1.23246014,0.25976029,0.63199985,0.14703077,0.00000000,0.00000000,-1.02531505,0.85600686,0.05755597,-0.05565364,0.52385455,0.00000000,0.00000000
-0.44017377,-1.23216677,0.26162902,0.63138020,0.16936935,0.00000000,0.00000000,-0.98237932,0.87058461,0.07016242,-0.08063006,0.52019149,0.00000000,0.00000000
-0.44172651,-1.23203325,0.26360625,0.63096702,0.19313155,0.00000000,0.00000000,-0.93860608,0.88532639,0.08304344,-0.10578728,0.51409042,0.00000000,0.00000000
-0.44343352,-1.23195934,0.26568285,0.63081539,0.21606213,0.00000000,0.00000000,-0.89410537,0.90007490,0.09606884,-0.13108759,0.50595218,0.00000000,0.00000000
-0.44530493,-1.23187375,0.26783252,0.63095188,0.23583956,0.00000000,0.00000000,-0.84899724,0.91468078,0.10910890,-0.15647587,0.49762407,0.00000000,0.00000000
-0.44731823,-1.23177803,0.27002889,0.63138372,0.25221881,0.00000000,0.00000000,-0.80340970,0.92902786,0.12203240,-0.18186341,0.49013790,0.00000000,0.00000000
-0.44941163,-1.23178327,0.27225137,0.63211262,0.26954353,0.00000000,0.00000000,-0.75747782,0.94304818,0.13470395,-0.20713067,0.47354922,0.00000000,0.00000000
-0.45152488,-1.23207629,0.27446571,0.63314766,0.28857818,0.00000000,0.00000000,-0.71134371,0.95669323,0.14698531,-0.23215577,0.45878208,0.00000000,0.00000000
-0.45363230,-1.23282814,0.27661306,0.63451552,0.30566722,0.00000000,0.00000000,-0.66515774,0.96989053,0.15873982,-0.25683689,0.44652969,0.00000000,0.00000000
-0.45571327,-1.23412800,0.27863815,0.63626474,0.31650108,0.00000000,0.00000000,-0.61907816,0.98255885,0.16983436,-0.28108183,0.43373126,0.00000000,0.00000000
-0.45768642,-1.23599577,0.28053042,0.63845420,0.32932305,0.00000000,0.00000000,-0.57326764,0.99468237,0.18013893,-0.30478024,0.42815116,0.00000000,0.00000000
-0.45939881,-1.23843038,0.28232151,0.64112312,0.33940691,0.00000000,0.00000000,-0.52789074,1.00635397,0.18952811,-0.32779646,0.42537171,0.00000000,0.00000000
-0.46070242,-1.24143326,0.28403449,0.64427376,0.34921208,0.00000000,0.00000000,-0.48311365,1.01771617,0.19788232,-0.34999055,0.42640400,0.00000000,0.00000000
-0.46150750,-1.24501181,0.28564858,0.64789730,0.35834557,0.00000000,0.00000000,-0.43910471,1.02888846,0.20508991,-0.37123564,0.42620558,0.00000000,0.00000000
-0.46174827,-1.24917710,0.28711313,0.65201539,0.36443299,0.00000000,0.00000000,-0.39603564,1.03994942,0.21105437,-0.39142975,0.42458117,0.00000000,0.00000000
-0.46132046,-1.25391006,0.28837547,0.65669626,0.36818650,0.00000000,0.00000000,-0.35408193,1.05093694,0.21570845,-0.41053051,0.42569232,0.00000000,0.00000000
-0.46006748,-1.25909984,0.28938434,0.66204262,0.37313646,0.00000000,0.00000000,-0.31342438,1.06181490,0.21902807,-0.42860678,0.42479056,0.00000000,0.00000000
-0.45778871,-1.26464117,0.29008830,0.66811907,0.37884739,0.00000000,0.00000000,-0.27423972,1.07257283,0.22102185,-0.44580141,0.42424393,0.00000000,0.00000000
-0.45425895,-1.27053463,0.29045165,0.67491490,0.38073921,0.00000000,0.00000000,-0.23669052,1.08330584,0.22170807,-0.46226802,0.41973209,0.00000000,0.00000000
-0.44926050,-1.27695584,0.29046777,0.68232054,0.37933931,0.00000000,0.00000000,-0.20091657,1.09423590,0.22108850,-0.47811753,0.41667914,0.00000000,0.00000000
-0.44260290,-1.28429484,0.29015419,0.69008720,0.38270101,0.00000000,0.00000000,-0.16702698,1.10573637,0.21914360,-0.49337715,0.41189456,0.00000000,0.00000000
-0.43410659,-1.29315925,0.28955176,0.69779366,0.38638902,0.00000000,0.00000000,-0.13508900,1.11839938,0.21586199,-0.50796026,0.40769452,0.00000000,0.00000000
-0.42358580,-1.30432391,0.28873694,0.70486987,0.39319491,0.00000000,0.00000000,-0.10512130,1.13306463,0.21127939,-0.52166253,0.40517956,0.00000000,0.00000000
-0.41088274,-1.31861711,0.28780237,0.71069056,0.40155676,0.00000000,0.00000000,-0.07710554,1.15071130,0.20549527,-0.53420007,0.40438807,0.00000000,0.00000000
-0.39592016,-1.33680439,0.28678519,0.71465594,0.40835121,0.00000000,0.00000000,-0.05101179,1.17229366,0.19868027,-0.54524994,0.40633601,0.00000000,0.00000000
-0.37871191,-1.35953176,0.28561258,0.71620035,0.40669197,0.00000000,0.00000000,-0.02681113,1.19866300,0.19110519,-0.55445039,0.40330380,0.00000000,0.00000000
-0.35937577,-1.38729465,0.28412780,0.71479529,0.40283909,0.00000000,0.00000000,-0.00444833,1.23052609,0.18317358,-0.56137323,0.39831340,0.00000000,0.00000000
-0.33825231,-1.42030823,0.28214130,0.71005893,0.40199804,0.00000000,0.00000000,0.01622669,1.26824427,0.17541187,-0.56552655,0.39820272,0.00000000,0.00000000
-0.31603181,-1.45831883,0.27942187,0.70191598,0.39662629,0.00000000,0.00000000,0.03551189,1.31150413,0.16842771,-0.56641096,0.40049168,0.00000000,0.00000000
-0.29364991,-1.50063014,0.27566445,0.69061035,0.38873339,0.00000000,0.00000000,0.05378818,1.35937262,0.16285551,-0.56354028,0.40371871,0.00000000,0.00000000
-0.27199700,-1.54652023,0.27053466,0.67645299,0.38036585,0.00000000,0.00000000,0.07136261,1.41093898,0.15926243,-0.55633658,0.40907997,0.00000000,0.00000000
-0.25186124,-1.59566057,0.26378018,0.65947068,0.36841515,0.00000000,0.00000000,0.08842871,1.46586812,0.15802124,-0.54391980,0.42013133,0.00000000,0.00000000
-0.23406872,-1.64811707,0.25529426,0.63919020,0.35116398,0.00000000,0.00000000,0.10512108,1.52427697,0.15927875,-0.52505273,0.43170828,0.00000000,0.00000000
-0.21938135,-1.70409799,0.24509111,0.61462253,0.33099249,0.00000000,0.00000000,0.12140454,1.58628535,0.16309780,-0.49849334,0.44551176,0.00000000,0.00000000
-0.20821023,-1.76369095,0.23326804,0.58450216,0.30909863,0.00000000,0.00000000,0.13680738,1.65174949,0.16962360,-0.46355054,0.45817867,0.00000000,0.00000000
-0.20058873,-1.82655168,0.22000313,0.54781985,0.29202774,0.00000000,0.00000000,0.15031154,1.72010207,0.17907172,-0.42038551,0.46621323,0.00000000,0.00000000
-0.19628908,-1.89146531,0.20546119,0.50441295,0.26927498,0.00000000,0.00000000,0.16064675,1.79027641,0.19155081,-0.36989573,0.47936794,0.00000000,0.00000000
-0.19450721,-1.95596623,0.18954384,0.45523757,0.24848548,0.00000000,0.00000000,0.16706036,1.86094499,0.20685467,-0.31331822,0.49661058,0.00000000,0.00000000
-0.19371024,-2.01685238,0.17191799,0.40199897,0.22615033,0.00000000,0.00000000,0.16968831,1.93036604,0.22445197,-0.25217283,0.51728028,0.00000000,0.00000000
-0.19252962,-2.07106495,0.15245715,0.34657031,0.20495011,0.00000000,0.00000000,0.16887937,1.99603343,0.24373323,-0.18850143,0.53937668,0.00000000,0.00000000
-0.19011924,-2.11586475,0.13133538,0.29074126,0.18495443,0.00000000,0.00000000,0.16510485,2.05508614,0.26411217,-0.12455234,0.56358176,0.00000000,0.00000000
-0.18618460,-2.14827394,0.10891926,0.23646800,0.16056187,0.00000000,0.00000000,0.15905856,2.10462403,0.28506759,-0.06241883,0.58821338,0.00000000,0.00000000
-0.18095212,-2.16546249,0.08566271,0.18628016,0.13668759,0.00000000,0.00000000,0.15155551,2.14162898,0.30620217,-0.00396727,0.60558581,0.00000000,0.00000000
-0.17499205,-2.16973829,0.06201927,0.14316912,0.11972470,0.00000000,0.00000000,0.14342487,2.16293168,0.32728881,0.04906678,0.61762244,0.00000000,0.00000000
-0.16895008,-2.17000008,0.03837166,0.10982501,0.10024601,0.00000000,0.00000000,0.13562383,2.16927385,0.34829423,0.09488826,0.62221444,0.00000000,0.00000000
-0.16342704,-2.17000008,0.01499735,0.08797969,0.07863599,0.00000000,0.00000000,0.12934394,2.16997504,0.36936492,0.13184552,0.62309885,0.00000000,0.00000000
-0.15906347,-2.17000008,-0.00792337,0.07830141,0.05880907,0.00000000,0.00000000,0.12571964,2.17000008,0.39072493,0.15918279,0.62154782,0.00000000,0.00000000
-0.15648584,-2.16980791,-0.03028986,0.08032528,0.03912668,0.00000000,0.00000000,0.12550849,2.17000008,0.41254336,0.17727086,0.61877185,0.00000000,0.00000000
-0.15609710,-2.16670799,-0.05207134,0.09200807,0.02067341,0.00000000,0.00000000,0.12896086,2.17000008,0.43484473,0.18742096,0.61657339,0.00000000,0.00000000
-0.15802665,-2.15476084,-0.07330208,0.10954230,0.00772602,0.00000000,0.00000000,0.13578661,2.17000008,0.45747077,0.19173427,0.61667526,0.00000000,0.00000000
-0.16229169,-2.13435221,-0.09407058,0.12854345,-0.00485361,0.00000000,0.00000000,0.14508502,2.17000008,0.48010302,0.19266725,0.61714768,0.00000000,0.00000000
-0.16883519,-2.11033750,-0.11450540,0.14557649,-0.01688887,0.00000000,0.00000000,0.15540345,2.17000008,0.50235033,0.19233975,0.61589336,0.00000000,0.00000000
-0.17745879,-2.08688998,-0.13476089,0.15844475,-0.03046387,0.00000000,0.00000000,0.16512661,2.16999769,0.52385962,0.19212082,0.61688221,0.00000000,0.00000000
-0.18786511,-2.06675315,-0.15499464,0.16581458,-0.04033422,0.00000000,0.00000000,0.17292085,2.16996622,0.54438502,0.19263957,0.61345005,0.00000000,0.00000000
-0.19972935,-2.05158591,-0.17534249,0.16696590,-0.05534482,0.00000000,0.00000000,0.17787300,2.16988564,0.56378311,0.19406003,0.61100423,0.00000000,0.00000000
-0.21265173,-2.04215884,-0.19590695,0.16168490,-0.07031026,0.00000000,0.00000000,0.17931400,2.16986990,0.58196872,0.19628613,0.60798615,0.00000000,0.00000000
-0.22603910,-2.03863907,-0.21675856,0.15013322,-0.08821943,0.00000000,0.00000000,0.17661449,2.16994238,0.59888721,0.19897842,0.60551631,0.00000000,0.00000000
-0.23907845,-2.04091859,-0.23793224,0.13269308,-0.11094001,0.00000000,0.00000000,0.16923825,2.16998959,0.61451906,0.20162968,0.60174066,0.00000000,0.00000000
-0.25089446,-2.04875493,-0.25940609,0.10988265,-0.13130713,0.00000000,0.00000000,0.15704414,2.16999412,0.62889141,0.20388158,0.59674740,0.00000000,0.00000000
-0.26081315,-2.06168294,-0.28107750,0.08236291,-0.14485514,0.00000000,0.00000000,0.14057228,2.16998625,0.64208347,0.20584472,0.59804028,0.00000000,0.00000000
-0.26858830,-2.07883906,-0.30276155,0.05097243,-0.15497606,0.00000000,0.00000000,0.12110894,2.16999435,0.65424788,0.20800909,0.59894538,0.00000000,0.00000000
-0.27450299,-2.09890270,-0.32422039,0.01671086,-0.16575353,0.00000000,0.00000000,0.10058313,2.16999960,0.66566795,0.21069962,0.60031199,0.00000000,0.00000000
-0.27904230,-2.12017918,-0.34521025,-0.01927247,-0.17550947,0.00000000,0.00000000,0.08131633,2.17000008,0.67682076,0.21343800,0.60014695,0.00000000,0.00000000
-0.28213704,-2.14050364,-0.36551404,-0.05551601,-0.18567500,0.00000000,0.00000000,0.06501351,2.17000008,0.68823248,0.21492368,0.59972727,0.00000000,0.00000000
-0.28371608,-2.15711546,-0.38496825,-0.09031032,-0.19981660,0.00000000,0.00000000,0.05183060,2.17000008,0.70015234,0.21409650,0.59915388,0.00000000,0.00000000
-0.28492257,-2.16705894,-0.40354046,-0.12214857,-0.20983881,0.00000000,0.00000000,0.04126248,2.17000008,0.71263367,0.21045087,0.59765691,0.00000000,0.00000000
-0.28803286,-2.16979265,-0.42139059,-0.14983657,-0.22048053,0.00000000,0.00000000,0.03252449,2.17000008,0.72566611,0.20362376,0.60023654,0.00000000,0.00000000
-0.29562822,-2.16999722,-0.43883291,-0.17264397,-0.22677702,0.00000000,0.00000000,0.02451512,2.16994524,0.73917443,0.19341095,0.60227466,0.00000000,0.00000000
-0.30956483,-2.17000008,-0.45616129,-0.19081061,-0.23131037,0.00000000,0.00000000,0.01617781,2.16905975,0.75300270,0.18025161,0.60572714,0.00000000,0.00000000
-0.33021617,-2.17000008,-0.47345361,-0.20562978,-0.23351130,0.00000000,0.00000000,0.00688010,2.16561198,0.76696253,0.16534992,0.60996515,0.00000000,0.00000000
-0.35630497,-2.17000008,-0.49050450,-0.21871386,-0.23018388,0.00000000,0.00000000,-0.00363406,2.15970254,0.78092283,0.15010814,0.61319214,0.00000000,0.00000000
-0.38553405,-2.17000008,-0.50693345,-0.23116340,-0.23309213,0.00000000,0.00000000,-0.01555714,2.15289688,0.79485184,0.13551947,0.61257207,0.00000000,0.00000000
-0.41578194,-2.17000008,-0.52237743,-0.24340501,-0.23466541,0.00000000,0.00000000,-0.02907704,2.14633465,0.80880445,0.12209729,0.61362535,0.00000000,0.00000000
-0.44518456,-2.17000008,-0.53652585,-0.25518748,-0.23808740,0.00000000,0.00000000,-0.04397152,2.14045930,0.82290208,0.11023099,0.60924035,0.00000000,0.00000000
-0.47173142,-2.17000008,-0.54905498,-0.26572767,-0.23867084,0.00000000,0.00000000,-0.05919229,2.13534212,0.83731437,0.10053790,0.60759372,0.00000000,0.00000000
-0.49383318,-2.17000008,-0.55968362,-0.27428260,-0.23578356,0.00000000,0.00000000,-0.07303975,2.13088346,0.85222542,0.09389446,0.60436845,0.00000000,0.00000000
-0.51035869,-2.17000008,-0.56824851,-0.27997875,-0.22949931,0.00000000,0.00000000,-0.08368509,2.12685394,0.86780280,0.09123833,0.60681903,0.00000000,0.00000000
-0.52054381,-2.17000008,-0.57473147,-0.28170663,-0.22405247,0.00000000,0.00000000,-0.08958516,2.12269330,0.88419139,0.09329362,0.61385393,0.00000000,0.00000000
-0.52383512,-2.16996098,-0.57917529,-0.27848518,-0.21463394,0.00000000,0.00000000,-0.08978377,2.11742020,0.90151024,0.10033207,0.62503505,0.00000000,0.00000000
-0.51968831,-2.16926694,-0.58159721,-0.26967451,-0.20375361,0.00000000,0.00000000,-0.08403770,2.10985303,0.91984242,0.11207429,0.63387626,0.00000000,0.00000000
-0.50785917,-2.16584492,-0.58204740,-0.25496978,-0.19767675,0.00000000,0.00000000,-0.07276034,2.09961390,0.93917686,0.12798016,0.64254910,0.00000000,0.00000000
-0.48931316,-2.15828753,-0.58070451,-0.23505755,-0.19405441,0.00000000,0.00000000,-0.05656386,2.08891845,0.95931238,0.14814183,0.65235889,0.00000000,0.00000000
-0.46673670,-2.14861274,-0.57787305,-0.21220794,-0.19247311,0.00000000,0.00000000,-0.03568326,2.08012772,0.97999328,0.17274979,0.66458690,0.00000000,0.00000000
-0.43965176,-2.13899565,-0.57357180,-0.18776563,-0.19793363,0.00000000,0.00000000,-0.01157303,2.07447004,1.00090468,0.20101479,0.67103952,0.00000000,0.00000000
-0.40628141,-2.13111353,-0.56776869,-0.16260123,-0.20657252,0.00000000,0.00000000,0.01381905,2.07233119,1.02170491,0.23162831,0.67785674,0.00000000,0.00000000
-0.36530489,-2.12616324,-0.56056851,-0.13752355,-0.21883851,0.00000000,0.00000000,0.03891077,2.07378650,1.04205084,0.26328844,0.68431437,0.00000000,0.00000000
-0.31563205,-2.12453175,-0.55217826,-0.11298592,-0.23464602,0.00000000,0.00000000,0.06243826,2.07890749,1.06158876,0.29477397,0.69005191,0.00000000,0.00000000
-0.25709209,-2.12614894,-0.54289109,-0.08944538,-0.24627870,0.00000000,0.00000000,0.08288070,2.08760929,1.07995188,0.32471409,0.69842058,0.00000000,0.00000000
-0.19205120,-2.13090920,-0.53309411,-0.06802572,-0.25690764,0.00000000,0.00000000,0.09827893,2.09927964,1.09682596,0.35149667,0.70712674,0.00000000,0.00000000
-0.12617506,-2.13839340,-0.52321923,-0.05055347,-0.26502284,0.00000000,0.00000000,0.10746906,2.11283445,1.11209249,0.37388030,0.71394968,0.00000000,0.00000000
-0.06633205,-2.14759040,-0.51361233,-0.03876068,-0.27638665,0.00000000,0.00000000,0.11122496,2.12708282,1.12591231,0.39160624,0.72035789,0.00000000,0.00000000
-0.01745631,-2.15717244,-0.50446135,-0.03353856,-0.28513920,0.00000000,0.00000000,0.11131747,2.14071584,1.13864052,0.40502223,0.72734439,0.00000000,0.00000000
0.01834516,-2.16503572,-0.49585590,-0.03453600,-0.29395533,0.00000000,0.00000000,0.10858423,2.15249681,1.15057290,0.41429177,0.73634118,0.00000000,0.00000000
0.04151867,-2.16903019,-0.48784840,-0.04027111,-0.30380628,0.00000000,0.00000000,0.10206516,2.16148162,1.16179669,0.41902265,0.74413335,0.00000000,0.00000000
0.05353215,-2.16994596,-0.48048532,-0.04907851,-0.31384283,0.00000000,0.00000000,0.09098305,2.16706705,1.17238402,0.41912484,0.75410116,0.00000000,0.00000000
0.05562490,-2.17000008,-0.47383326,-0.05913434,-0.32645571,0.00000000,0.00000000,0.07581211,2.16946054,1.18242288,0.41533378,0.76257646,0.00000000,0.00000000
0.04858571,-2.17000008,-0.46797919,-0.06845790,-0.34098646,0.00000000,0.00000000,0.05832136,2.16997051,1.19202352,0.40919843,0.76955855,0.00000000,0.00000000
0.03281997,-2.17000008,-0.46300551,-0.07554676,-0.35375705,0.00000000,0.00000000,0.04146426,2.16999793,1.20141029,0.40289277,0.77992678,0.00000000,0.00000000
0.00866115,-2.17000008,-0.45894584,-0.08005963,-0.36238050,0.00000000,0.00000000,0.02864024,2.16992879,1.21094334,0.39869368,0.79493117,0.00000000,0.00000000
-0.02297451,-2.17000008,-0.45575419,-0.08257564,-0.37354690,0.00000000,0.00000000,0.02195896,2.16921377,1.22092271,0.39802372,0.80701709,0.00000000,0.00000000
-0.06077448,-2.17000008,-0.45334664,-0.08368858,-0.38140833,0.00000000,0.00000000,0.02132989,2.16681528,1.23134494,0.40100205,0.81930476,0.00000000,0.00000000
-0.10381048,-2.17000008,-0.45165843,-0.08370590,-0.39542797,0.00000000,0.00000000,0.02512194,2.16309047,1.24190164,0.40675375,0.83167005,0.00000000,0.00000000
-0.15146127,-2.17000008,-0.45063815,-0.08285712,-0.41261438,0.00000000,0.00000000,0.03083547,2.15902758,1.25213838,0.41374013,0.84689069,0.00000000,0.00000000
-0.20256458,-2.17000008,-0.45020595,-0.08133885,-0.43307564,0.00000000,0.00000000,0.03553154,2.15521955,1.26164401,0.42005944,0.86210519,0.00000000,0.00000000
-0.25503990,-2.16999865,-0.45024309,-0.07923569,-0.45426318,0.00000000,0.00000000,0.03672419,2.15170121,1.27018285,0.42402554,0.87540942,0.00000000,0.00000000
-0.30650586,-2.16995168,-0.45062321,-0.07667985,-0.46945345,0.00000000,0.00000000,0.03368542,2.14829111,1.27772641,0.42491624,0.88647592,0.00000000,0.00000000
-0.35511678,-2.16942406,-0.45125365,-0.07395323,-0.48359892,0.00000000,0.00000000,0.02804786,2.14488602,1.28442526,0.42330593,0.88930094,0.00000000,0.00000000
-0.39966404,-2.16721702,-0.45209813,-0.07091726,-0.49744311,0.00000000,0.00000000,0.02274693,2.14135575,1.29054582,0.42052126,0.90037590,0.00000000,0.00000000
-0.43892545,-2.16253781,-0.45314795,-0.06683896,-0.51585883,0.00000000,0.00000000,0.02027023,2.13720942,1.29641271,0.41768587,0.90909171,0.00000000,0.00000000
-0.47160468,-2.15685940,-0.45436817,-0.06195291,-0.53473645,0.00000000,0.00000000,0.02183011,2.13161230,1.30233741,0.41527170,0.91684186,0.00000000,0.00000000
-0.49608421,-2.15339160,-0.45569491,-0.05739404,-0.55777454,0.00000000,0.00000000,0.02779675,2.12388921,1.30852640,0.41339326,0.92277598,0.00000000,0.00000000
-0.50997943,-2.15264678,-0.45710114,-0.05256275,-0.58047110,0.00000000,0.00000000,0.03836654,2.11392093,1.31503439,0.41221848,0.92868543,0.00000000,0.00000000
-0.51144308,-2.15291858,-0.45863137,-0.04580586,-0.60752809,0.00000000,0.00000000,0.05382815,2.10202765,1.32181132,0.41208151,0.93591440,0.00000000,0.00000000
-0.50071263,-2.15373826,-0.46039137,-0.03680531,-0.63293654,0.00000000,0.00000000,0.07437167,2.08875799,1.32874227,0.41334659,0.94779146,0.00000000,0.00000000
-0.47839734,-2.15497017,-0.46251249,-0.02560668,-0.65509945,0.00000000,0.00000000,0.09987443,2.07480645,1.33565271,0.41628811,0.95485079,0.00000000,0.00000000
-0.44426137,-2.15663171,-0.46513581,-0.01216234,-0.67598510,0.00000000,0.00000000,0.12976851,2.06084394,1.34234071,0.42099467,0.96078169,0.00000000,0.00000000
-0.39781338,-2.15940666,-0.46841982,0.00324493,-0.69465810,0.00000000,0.00000000,0.16283160,2.04726696,1.34863102,0.42719662,0.96253514,0.00000000,0.00000000
-0.34145582,-2.16425085,-0.47253197,0.01936761,-0.71429306,0.00000000,0.00000000,0.19722487,2.03414011,1.35439265,0.43424666,0.97184157,0.00000000,0.00000000
-0.27899864,-2.16857386,-0.47758588,0.03647321,-0.73853159,0.00000000,0.00000000,0.23086722,2.02162004,1.35945320,0.44139156,0.98004436,0.00000000,0.00000000
-0.21268238,-2.16990709,-0.48363185,0.05602900,-0.75784832,0.00000000,0.00000000,0.26165587,2.01016665,1.36355579,0.44794899,0.99129033,0.00000000,0.00000000
-0.14384104,-2.16999960,-0.49067432,0.07925875,-0.77410597,0.00000000,0.00000000,0.28813168,2.00043941,1.36641264,0.45363763,1.00948131,0.00000000,0.00000000
-0.07414585,-2.17000008,-0.49866956,0.10639895,-0.79725927,0.00000000,0.00000000,0.31051815,1.99322283,1.36776531,0.45909956,1.02323806,0.00000000,0.00000000
-0.00680189,-2.17000008,-0.50744349,0.13662249,-0.81781083,0.00000000,0.00000000,0.33085567,1.98951054,1.36737931,0.46599543,1.03183413,0.00000000,0.00000000
0.05435361,-2.17000008,-0.51678139,0.16812387,-0.83710945,0.00000000,0.00000000,0.35071877,1.99026561,1.36502552,0.47558478,1.03545809,0.00000000,0.00000000
0.10718893,-2.17000008,-0.52660114,0.19792305,-0.85401970,0.00000000,0.00000000,0.36774105,1.99566925,1.36049724,0.48637521,1.03662622,0.00000000,0.00000000
0.14984253,-2.17000008,-0.53661627,0.22396114,-0.87162691,0.00000000,0.00000000,0.37939852,2.00569415,1.35362148,0.49689281,1.03398168,0.00000000,0.00000000
0.18488227,-2.17000008,-0.54721618,0.24493633,-0.89526504,0.00000000,0.00000000,0.38810179,2.01949286,1.34477961,0.50941110,1.02914870,0.00000000,0.00000000
0.21279274,-2.17000008,-0.55841559,0.26066637,-0.91936374,0.00000000,0.00000000,0.39547607,2.03592491,1.33442438,0.52601171,1.02127075,0.00000000,0.00000000
0.23213550,-2.17000008,-0.56993192,0.27081102,-0.94582313,0.00000000,0.00000000,0.40232784,2.05430079,1.32288599,0.54687977,1.01449096,0.00000000,0.00000000
0.24187714,-2.17000008,-0.58160675,0.27470085,-0.96758598,0.00000000,0.00000000,0.40871063,2.07310867,1.31075835,0.56977510,1.00753570,0.00000000,0.00000000
0.24137735,-2.17000008,-0.59342307,0.27156162,-0.98631024,0.00000000,0.00000000,0.41142270,2.08999324,1.29869974,0.58991164,1.00309491,0.00000000,0.00000000
0.23009551,-2.17000008,-0.60541797,0.26072100,-1.00536525,0.00000000,0.00000000,0.40911856,2.10418916,1.28715062,0.60482264,0.99479657,0.00000000,0.00000000
0.20740484,-2.17000008,-0.61758751,0.24182123,-1.02767408,0.00000000,0.00000000,0.40117991,2.11637020,1.27624166,0.61308664,0.98133618,0.00000000,0.00000000
0.17291951,-2.16998601,-0.62992799,0.21494825,-1.04900670,0.00000000,0.00000000,0.38682610,2.12740970,1.26590490,0.61351687,0.97225690,0.00000000,0.00000000
0.12698188,-2.16975403,-0.64254367,0.18059556,-1.06815052,0.00000000,0.00000000,0.36610946,2.13760161,1.25606668,0.60580999,0.96313041,0.00000000,0.00000000
0.07103769,-2.16880441,-0.65568525,0.13957505,-1.08364534,0.00000000,0.00000000,0.34068263,2.14605427,1.24695051,0.59081960,0.95743477,0.00000000,0.00000000
0.00795616,-2.16715884,-0.66965908,0.09311595,-1.09433830,0.00000000,0.00000000,0.31343296,2.15052962,1.23916781,0.57026726,0.95080996,0.00000000,0.00000000
-0.05839719,-2.16557980,-0.68462551,0.04300186,-1.10242450,0.00000000,0.00000000,0.28682148,2.14917946,1.23306286,0.54614931,0.94469488,0.00000000,0.00000000
-0.12447136,-2.16467261,-0.70047325,-0.00882309,-1.10822320,0.00000000,0.00000000,0.26167014,2.14183521,1.22830915,0.52000165,0.93708372,0.00000000,0.00000000
-0.18770169,-2.16472149,-0.71686715,-0.06066626,-1.11434996,0.00000000,0.00000000,0.23662488,2.12865210,1.22440493,0.49177477,0.93043512,0.00000000,0.00000000
-0.24625750,-2.16575933,-0.73335248,-0.11110007,-1.12225747,0.00000000,0.00000000,0.20952156,2.11125731,1.22049975,0.46104890,0.92774844,0.00000000,0.00000000
-0.29857048,-2.16746783,-0.74943382,-0.15876459,-1.13579524,0.00000000,0.00000000,0.17947613,2.09289217,1.21556568,0.42838538,0.92133534,0.00000000,0.00000000
-0.34319577,-2.16907501,-0.76463729,-0.20226201,-1.14500248,0.00000000,0.00000000,0.14801241,2.07599783,1.20914578,0.39525083,0.91468424,0.00000000,0.00000000
-0.37892276,-2.16983700,-0.77857423,-0.24020249,-1.15221608,0.00000000,0.00000000,0.11769155,2.06147671,1.20136273,0.36313188,0.90741974,0.00000000,0.00000000
-0.40491143,-2.16999149,-0.79098630,-0.27132291,-1.15967596,0.00000000,0.00000000,0.09088709,2.04956889,1.19253409,0.33326563,0.89984405,0.00000000,0.00000000
-0.42076463,-2.17000008,-0.80173719,-0.29467499,-1.16776586,0.00000000,0.00000000,0.06900995,2.04025936,1.18296778,0.30641872,0.89008760,0.00000000,0.00000000
-0.42636192,-2.17000008,-0.81077063,-0.30963615,-1.17470670,0.00000000,0.00000000,0.05286418,2.03331137,1.17295086,0.28307822,0.87715387,0.00000000,0.00000000
-0.42177141,-2.17000008,-0.81806606,-0.31594670,-1.18319166,0.00000000,0.00000000,0.04312195,2.02812624,1.16278780,0.26363856,0.85801321,0.00000000,0.00000000
-0.40734425,-2.17000008,-0.82360500,-0.31386477,-1.19213080,0.00000000,0.00000000,0.04035329,2.02379084,1.15278196,0.24839526,0.84373528,0.00000000,0.00000000
-0.38391164,-2.17000008,-0.82737499,-0.30429667,-1.19791901,0.00000000,0.00000000,0.04475810,2.01959825,1.14314365,0.23747891,0.82642382,0.00000000,0.00000000
-0.35263348,-2.17000008,-0.82941961,-0.28854874,-1.20593607,0.00000000,0.00000000,0.05606087,2.01566172,1.13390911,0.23089591,0.81055003,0.00000000,0.00000000
-0.31469381,-2.17000008,-0.82986748,-0.26799008,-1.21126842,0.00000000,0.00000000,0.07371897,2.01266861,1.12499845,0.22854884,0.78983998,0.00000000,0.00000000
-0.27126047,-2.17000008,-0.82894498,-0.24391627,-1.21103227,0.00000000,0.00000000,0.09685922,2.01138091,1.11627734,0.23010127,0.77128106,0.00000000,0.00000000
-0.22349161,-2.17000008,-0.82696575,-0.21746826,-1.20864964,0.00000000,0.00000000,0.12422356,2.01235700,1.10758626,0.23493256,0.75374800,0.00000000,0.00000000
-0.17252414,-2.17000008,-0.82429576,-0.18957591,-1.20719278,0.00000000,0.00000000,0.15419438,2.01602554,1.09873176,0.24222182,0.73512894,0.00000000,0.00000000
-0.11956143,-2.17000008,-0.82131273,-0.16101001,-1.20391834,0.00000000,0.00000000,0.18473776,2.02282000,1.08946586,0.25099999,0.71619302,0.00000000,0.00000000
-0.06668237,-2.17000008,-0.81842113,-0.13273832,-1.19807017,0.00000000,0.00000000,0.21372356,2.03316855,1.07951820,0.26033849,0.70108873,0.00000000,0.00000000
-0.01775501,-2.17000008,-0.81605911,-0.10634909,-1.19452727,0.00000000,0.00000000,0.23970221,2.04720879,1.06870770,0.26964805,0.69310004,0.00000000,0.00000000
0.02291189,-2.17000008,-0.81457162,-0.08365069,-1.19476235,0.00000000,0.00000000,0.26154709,2.06383896,1.05706823,0.27814779,0.68646789,0.00000000,0.00000000
0.05297164,-2.17000008,-0.81411290,-0.06575872,-1.19267905,0.00000000,0.00000000,0.27769479,2.08037663,1.04484129,0.28430805,0.68453759,0.00000000,0.00000000
0.07213655,-2.17000008,-0.81472206,-0.05293525,-1.18760741,0.00000000,0.00000000,0.28853580,2.09581351,1.03220737,0.28863457,0.68642485,0.00000000,0.00000000
0.08114701,-2.16996169,-0.81640309,-0.04503690,-1.17830145,0.00000000,0.00000000,0.29740375,2.11218405,1.01916778,0.29524195,0.69463497,0.00000000,0.00000000
0.08089871,-2.16932940,-0.81915402,-0.04202688,-1.17071331,0.00000000,0.00000000,0.30229157,2.12916112,1.00557041,0.30423439,0.70225191,0.00000000,0.00000000
0.07234146,-2.16672206,-0.82296634,-0.04402135,-1.16697884,0.00000000,0.00000000,0.30260655,2.14507389,0.99156564,0.31521231,0.71045518,0.00000000,0.00000000
0.05675325,-2.16172361,-0.82781661,-0.05099044,-1.16648293,0.00000000,0.00000000,0.29895377,2.15801263,0.97743005,0.32801306,0.71865225,0.00000000,0.00000000
0.03581666,-2.15516973,-0.83365113,-0.06265082,-1.16544187,0.00000000,0.00000000,0.29106620,2.16617608,0.96333492,0.34187546,0.73138154,0.00000000,0.00000000
0.01141817,-2.14830017,-0.84036916,-0.07857238,-1.16124892,0.00000000,0.00000000,0.27835661,2.16936922,0.94942516,0.35565025,0.74345493,0.00000000,0.00000000
-0.01473234,-2.14218426,-0.84782767,-0.09824888,-1.15366828,0.00000000,0.00000000,0.26249737,2.16996765,0.93641198,0.36844787,0.74989420,0.00000000,0.00000000
-0.04164620,-2.13719726,-0.85588211,-0.12113623,-1.15199161,0.00000000,0.00000000,0.24781325,2.17000008,0.92569387,0.37966427,0.75485456,0.00000000,0.00000000
-0.06918453,-2.13282466,-0.86442912,-0.14663063,-1.14860106,0.00000000,0.00000000,0.23742309,2.17000008,0.91830832,0.38854519,0.75382966,0.00000000,0.00000000
-0.09751492,-2.12807012,-0.87339836,-0.17401251,-1.14765501,0.00000000,0.00000000,0.23370194,2.17000008,0.91487646,0.39495647,0.75010586,0.00000000,0.00000000
-0.12696265,-2.12212944,-0.88272339,-0.20268595,-1.14788163,0.00000000,0.00000000,0.23676264,2.17000008,0.91540951,0.39828315,0.74745893,0.00000000,0.00000000
-0.15813309,-2.11496520,-0.89229494,-0.23249659,-1.15483916,0.00000000,0.00000000,0.23797262,2.16991544,0.91808933,0.39485687,0.75091505,0.00000000,0.00000000
-0.19097735,-2.10752583,-0.90183568,-0.26340303,-1.15943480,0.00000000,0.00000000,0.23795484,2.16847420,0.92268884,0.38518640,0.75726706,0.00000000,0.00000000
-0.22440384,-2.10115194,-0.91088527,-0.29504395,-1.16352367,0.00000000,0.00000000,0.23619162,2.16199660,0.92876130,0.36932385,0.76506174,0.00000000,0.00000000
-0.25688508,-2.09690070,-0.91891420,-0.32674474,-1.16652036,0.00000000,0.00000000,0.22803590,2.14884639,0.93475819,0.34677511,0.77289873,0.00000000,0.00000000
-0.28638324,-2.09519672,-0.92537153,-0.35742891,-1.16772807,0.00000000,0.00000000,0.20865776,2.13257504,0.93918705,0.31765249,0.78197885,0.00000000,0.00000000
-0.31050771,-2.09598064,-0.92970765,-0.38583112,-1.16899574,0.00000000,0.00000000,0.17683744,2.11656547,0.94158053,0.28303900,0.79448390,0.00000000,0.00000000
-0.32778263,-2.09924674,-0.93147606,-0.41124031,-1.16938162,0.00000000,0.00000000,0.13658023,2.10221314,0.94247502,0.24557833,0.80728889,0.00000000,0.00000000
-0.33877718,-2.10541701,-0.93045771,-0.43405139,-1.16931093,0.00000000,0.00000000,0.09508555,2.08992195,0.94281024,0.20906629,0.82239300,0.00000000,0.00000000
-0.34566203,-2.11467290,-0.92677569,-0.45531216,-1.16891384,0.00000000,0.00000000,0.05891475,2.08015227,0.94331819,0.17708859,0.83939707,0.00000000,0.00000000
-0.35143161,-2.12623429,-0.92097372,-0.47611108,-1.16688275,0.00000000,0.00000000,0.03217526,2.07299662,0.94443357,0.15186837,0.85877353,0.00000000,0.00000000
-0.35698786,-2.13784575,-0.91365027,-0.49614576,-1.16499889,0.00000000,0.00000000,0.01576654,2.06754136,0.94638926,0.13362709,0.87909979,0.00000000,0.00000000
-0.35917756,-2.14705372,-0.90475667,-0.51445675,-1.16585267,0.00000000,0.00000000,0.00717304,2.06272697,0.94921178,0.12085985,0.90303999,0.00000000,0.00000000
-0.35849485,-2.15590334,-0.89382493,-0.53545588,-1.16454077,0.00000000,0.00000000,0.00280632,2.05784941,0.95284849,0.11166414,0.92746234,0.00000000,0.00000000
-0.35639670,-2.16397667,-0.88102853,-0.56137568,-1.16528082,0.00000000,0.00000000,0.00036909,2.05267262,0.95727843,0.10490695,0.94719827,0.00000000,0.00000000
-0.35308489,-2.16871643,-0.86690795,-0.59149486,-1.16537559,0.00000000,0.00000000,-0.00108488,2.04724240,0.96251714,0.10020740,0.96680564,0.00000000,0.00000000
-0.34761864,-2.16992569,-0.85268855,-0.62215441,-1.16699505,0.00000000,0.00000000,-0.00180689,2.04171348,0.96859407,0.09758694,0.98408365,0.00000000,0.00000000
-0.33815730,-2.17000008,-0.84020072,-0.64652288,-1.17038310,0.00000000,0.00000000,-0.00172662,2.03635073,0.97553295,0.09728412,0.99788797,0.00000000,0.00000000
-0.32616767,-2.17000008,-0.83089691,-0.66087353,-1.16914260,0.00000000,0.00000000,-0.00056981,2.03151011,0.98334569,0.09966056,1.01776552,0.00000000,0.00000000
-0.31182253,-2.17000008,-0.82536650,-0.66355747,-1.17090249,0.00000000,0.00000000,0.00203115,2.02748775,0.99203229,0.10508671,1.03825343,0.00000000,0.00000000
-0.29389071,-2.17000008,-0.82373852,-0.65329140,-1.17333901,0.00000000,0.00000000,0.00639408,2.02432656,1.00158501,0.11380707,1.05392444,0.00000000,0.00000000
-0.27080917,-2.17000008,-0.82559782,-0.62951452,-1.17140663,0.00000000,0.00000000,0.01286803,2.02189159,1.01198721,0.12597446,1.06979620,0.00000000,0.00000000
-0.24488182,-2.16980934,-0.83087951,-0.59483957,-1.16994941,0.00000000,0.00000000,0.02243638,2.02015805,1.02322006,0.14197980,1.08275795,0.00000000,0.00000000
-0.22311074,-2.16677737,-0.84021467,-0.55561912,-1.16746068,0.00000000,0.00000000,0.03695039,2.01934648,1.03526521,0.16259183,1.09727538,0.00000000,0.00000000
-0.20425008,-2.15556836,-0.85140049,-0.51588273,-1.16880727,0.00000000,0.00000000,0.05779695,2.01984310,1.04804850,0.18833242,1.10944271,0.00000000,0.00000000
-0.18355420,-2.13691378,-0.86228144,-0.47550851,-1.16340756,0.00000000,0.00000000,0.08516552,2.02219415,1.06138730,0.21912517,1.12330639,0.00000000,0.00000000
-0.15715641,-2.11355758,-0.87168920,-0.43285519,-1.15828538,0.00000000,0.00000000,0.11807407,2.02714968,1.07494962,0.25428629,1.13561165,0.00000000,0.00000000
-0.12333059,-2.08972096,-0.87878692,-0.38799903,-1.15078545,0.00000000,0.00000000,0.15448476,2.03542399,1.08825660,0.29249009,1.14807868,0.00000000,0.00000000
-0.08257466,-2.06994557,-0.88323361,-0.34298360,-1.14263928,0.00000000,0.00000000,0.19123495,2.04707479,1.10075152,0.33159381,1.15654993,0.00000000,0.00000000
-0.03839003,-2.05648947,-0.88557059,-0.30063522,-1.12996840,0.00000000,0.00000000,0.22473082,2.06105185,1.11197507,0.36890396,1.16779959,0.00000000,0.00000000
0.00202438,-2.04978299,-0.88698971,-0.26468977,-1.11754179,0.00000000,0.00000000,0.25249285,2.07545424,1.12174940,0.40203452,1.18131936,0.00000000,0.00000000
0.03385104,-2.04862785,-0.88843119,-0.23705299,-1.10656202,0.00000000,0.00000000,0.27284306,2.08837938,1.13005340,0.42909524,1.19314444,0.00000000,0.00000000
0.05576207,-2.05113459,-0.89038539,-0.21766789,-1.09807980,0.00000000,0.00000000,0.28469682,2.09878993,1.13683367,0.44888210,1.20444179,0.00000000,0.00000000
0.06728916,-2.05533552,-0.89317065,-0.20598751,-1.08892345,0.00000000,0.00000000,0.28780589,2.10663581,1.14198029,0.46099567,1.21634567,0.00000000,0.00000000
0.06804364,-2.05954933,-0.89701450,-0.20149511,-1.07860804,0.00000000,0.00000000,0.28252649,2.11238146,1.14539063,0.46560207,1.23200381,0.00000000,0.00000000
0.05809547,-2.06277823,-0.90201205,-0.20368195,-1.06672919,0.00000000,0.00000000,0.26969749,2.11663532,1.14703369,0.46328503,1.24669695,0.00000000,0.00000000
0.03835129,-2.06507993,-0.90807432,-0.21199952,-1.05578911,0.00000000,0.00000000,0.25044671,2.11981511,1.14701104,0.45486295,1.25524640,0.00000000,0.00000000
0.01055100,-2.06725001,-0.91495043,-0.22572276,-1.03812075,0.00000000,0.00000000,0.22557078,2.12191486,1.14553988,0.44102126,1.26408005,0.00000000,0.00000000
-0.02320193,-2.07012105,-0.92231607,-0.24389102,-1.01516330,0.00000000,0.00000000,0.19542870,2.12278676,1.14286911,0.42228994,1.27131319,0.00000000,0.00000000
-0.06092294,-2.07416439,-0.92984533,-0.26538879,-0.99784881,0.00000000,0.00000000,0.16048263,2.12256265,1.13922095,0.39938614,1.27577841,0.00000000,0.00000000
-0.10082701,-2.07950044,-0.93722528,-0.28900582,-0.98103887,0.00000000,0.00000000,0.12181740,2.12177896,1.13479674,0.37349442,1.27774775,0.00000000,0.00000000
-0.14110143,-2.08605504,-0.94413412,-0.31343016,-0.96313447,0.00000000,0.00000000,0.08127429,2.12116647,1.12982285,0.34625590,1.28050804,0.00000000,0.00000000
-0.17988756,-2.09370542,-0.95024073,-0.33735231,-0.94245076,0.00000000,0.00000000,0.04126415,2.12117147,1.12461901,0.31947330,1.28198218,0.00000000,0.00000000
-0.21563636,-2.10237503,-0.95524991,-0.35972172,-0.91892266,0.00000000,0.00000000,0.00434808,2.12169981,1.11958933,0.29476261,1.28054500,0.00000000,0.00000000
-0.24769312,-2.11190987,-0.95901048,-0.37996852,-0.90012467,0.00000000,0.00000000,-0.02707771,2.12236547,1.11513281,0.27344832,1.28038764,0.00000000,0.00000000
-0.27680740,-2.12165785,-0.96167517,-0.39803982,-0.88222039,0.00000000,0.00000000,-0.05126647,2.12295961,1.11153030,0.25647342,1.27877092,0.00000000,0.00000000
-0.30397400,-2.12941599,-0.96377063,-0.41360265,-0.86409348,0.00000000,0.00000000,-0.06801983,2.12359095,1.10887647,0.24400966,1.27682257,0.00000000,0.00000000
-0.32707804,-2.13236427,-0.96554345,-0.42556050,-0.84684652,0.00000000,0.00000000,-0.07888404,2.12426233,1.10714614,0.23526901,1.27421308,0.00000000,0.00000000
-0.34424070,-2.13309765,-0.96617961,-0.43611667,-0.82833320,0.00000000,0.00000000,-0.08555068,2.12456679,1.10634851,0.22927287,1.27650440,0.00000000,0.00000000
-0.35758182,-2.13516116,-0.96522897,-0.44912761,-0.81162417,0.00000000,0.00000000,-0.08895298,2.12422657,1.10651517,0.22548041,1.27885139,0.00000000,0.00000000
-0.36863759,-2.13885808,-0.96281356,-0.46598357,-0.79493105,0.00000000,0.00000000,-0.08955083,2.12326264,1.10765934,0.22368212,1.27988052,0.00000000,0.00000000
-0.37803999,-2.14361310,-0.95909381,-0.48704341,-0.77557445,0.00000000,0.00000000,-0.08774275,2.12179804,1.10977566,0.22371684,1.28392816,0.00000000,0.00000000
-0.38643962,-2.14907241,-0.95415461,-0.51280820,-0.76190233,0.00000000,0.00000000,-0.08410473,2.11996889,1.11283624,0.22532073,1.28432477,0.00000000,0.00000000
-0.39420041,-2.15486479,-0.94798452,-0.54371989,-0.75088966,0.00000000,0.00000000,-0.07951693,2.11798739,1.11677599,0.22809319,1.28412163,0.00000000,0.00000000
-0.40108243,-2.16052318,-0.94042647,-0.57993102,-0.74116266,0.00000000,0.00000000,-0.07504901,2.11622000,1.12149191,0.23159501,1.28790092,0.00000000,0.00000000
-0.40607652,-2.16550732,-0.93113315,-0.62115943,-0.73326200,0.00000000,0.00000000,-0.07156553,2.11517262,1.12687004,0.23556150,1.28971422,0.00000000,0.00000000
-0.40763232,-2.16890621,-0.91964632,-0.66670090,-0.72802317,0.00000000,0.00000000,-0.06929785,2.11533499,1.13283265,0.24010701,1.29305112,0.00000000,0.00000000
-0.40524790,-2.16991949,-0.90683198,-0.71346503,-0.71987480,0.00000000,0.00000000,-0.06777035,2.11687803,1.13938665,0.24572325,1.29281163,0.00000000,0.00000000
-0.39956862,-2.16999912,-0.89569336,-0.75367665,-0.70898581,0.00000000,0.00000000,-0.06611095,2.11929727,1.14665580,0.25302380,1.28900945,0.00000000,0.00000000
-0.38926536,-2.17000008,-0.88722378,-0.78280270,-0.70432925,0.00000000,0.00000000,-0.06338853,2.12128568,1.15487862,0.26244894,1.28697801,0.00000000,0.00000000
-0.37524801,-2.17000008,-0.88243610,-0.79989910,-0.69651210,0.00000000,0.00000000,-0.05888224,2.12089443,1.16436851,0.27405664,1.28860450,0.00000000,0.00000000
-0.35884309,-2.17000008,-0.88250083,-0.80463266,-0.68862152,0.00000000,0.00000000,-0.05217220,2.11595297,1.17545092,0.28754151,1.29202664,0.00000000,0.00000000
-0.34088710,-2.17000008,-0.88844824,-0.79682529,-0.67848140,0.00000000,0.00000000,-0.04321806,2.10453343,1.18839395,0.30232507,1.29542696,0.00000000,0.00000000
-0.32213145,-2.16980743,-0.90119040,-0.77660936,-0.67418581,0.00000000,0.00000000,-0.03237340,2.08550477,1.20331490,0.31770384,1.29464400,0.00000000,0.00000000
-0.30328494,-2.16662645,-0.92142075,-0.74446017,-0.67534381,0.00000000,0.00000000,-0.02022743,2.05915642,1.22006619,0.33310983,1.29420793,0.00000000,0.00000000
-0.28644198,-2.15344357,-0.94894075,-0.70418447,-0.67427069,0.00000000,0.00000000,-0.00706783,2.02749467,1.23819065,0.34854433,1.29321730,0.00000000,0.00000000
-0.27509549,-2.12781596,-0.98143309,-0.66528678,-0.67203337,0.00000000,0.00000000,0.00782636,1.99394691,1.25699079,0.36501837,1.29104996,0.00000000,0.00000000
-0.26714036,-2.09330368,-1.01587844,-0.63187963,-0.67147374,0.00000000,0.00000000,0.02557410,1.96246469,1.27562666,0.38410959,1.28624237,0.00000000,0.00000000
-0.25870231,-2.05690932,-1.04917550,-0.60468382,-0.67284465,0.00000000,0.00000000,0.04649020,1.93678677,1.29314983,0.40710822,1.28264260,0.00000000,0.00000000
-0.24243028,-2.02699065,-1.07746136,-0.58129400,-0.67419392,0.00000000,0.00000000,0.06965242,1.92002869,1.30853963,0.43452790,1.27610803,0.00000000,0.00000000
-0.21273543,-2.00658774,-1.09914052,-0.55746150,-0.67565513,0.00000000,0.00000000,0.09286408,1.91418815,1.32081544,0.46578935,1.27997327,0.00000000,0.00000000
-0.17233352,-1.99556005,-1.11512351,-0.53324008,-0.68046850,0.00000000,0.00000000,0.11367510,1.91998601,1.32917321,0.49965608,1.28008461,0.00000000,0.00000000
-0.12845969,-1.99337089,-1.12703383,-0.51170814,-0.68550414,0.00000000,0.00000000,0.13018982,1.93701434,1.33306360,0.53470838,1.28226829,0.00000000,0.00000000
-0.08719289,-1.99964082,-1.13608623,-0.49574709,-0.68744224,0.00000000,0.00000000,0.14071174,1.96379673,1.33223593,0.56918997,1.28317654,0.00000000,0.00000000
-0.05146622,-2.01363826,-1.14300787,-0.48654526,-0.68665832,0.00000000,0.00000000,0.14413641,1.99785340,1.32685566,0.60125625,1.28693581,0.00000000,0.00000000
-0.02226536,-2.03392720,-1.14837122,-0.48404598,-0.69048935,0.00000000,0.00000000,0.14017095,2.03585911,1.31756854,0.62923646,1.28830743,0.00000000,0.00000000
0.00009665,-2.05823350,-1.15284145,-0.48759598,-0.69451338,0.00000000,0.00000000,0.12927613,2.07410908,1.30539715,0.65189117,1.29270399,0.00000000,0.00000000
0.01541334,-2.08354306,-1.15725029,-0.49628717,-0.69873190,0.00000000,0.00000000,0.11248852,2.10910106,1.29151988,0.66859394,1.30034053,0.00000000,0.00000000
0.02346648,-2.10670137,-1.16247880,-0.50922722,-0.70167822,0.00000000,0.00000000,0.09140383,2.13782287,1.27712977,0.67943352,1.30909932,0.00000000,0.00000000
0.02419978,-2.12507677,-1.16926968,-0.52561057,-0.70206589,0.00000000,0.00000000,0.06837032,2.15773201,1.26344061,0.68527824,1.31682909,0.00000000,0.00000000
0.01814005,-2.13681507,-1.17809641,-0.54445493,-0.70065886,0.00000000,0.00000000,0.04633693,2.16754484,1.25176549,0.68757248,1.32651913,0.00000000,0.00000000
0.00689870,-2.14096189,-1.18904281,-0.56428009,-0.69875127,0.00000000,0.00000000,0.02815301,2.16986084,1.24360144,0.68775344,1.33448482,0.00000000,0.00000000
-0.00688264,-2.13787532,-1.20165038,-0.58328986,-0.69596195,0.00000000,0.00000000,0.01567455,2.17000008,1.24038243,0.68666130,1.34019363,0.00000000,0.00000000
-0.02043867,-2.12946057,-1.21492064,-0.60004073,-0.69250238,0.00000000,0.00000000,0.00927687,2.17000008,1.24287379,0.68440652,1.34665000,0.00000000,0.00000000
-0.03189150,-2.11834478,-1.22768688,-0.61383289,-0.69024670,0.00000000,0.00000000,0.00831573,2.17000008,1.25092113,0.68076968,1.35625005,0.00000000,0.00000000
-0.04053364,-2.10678244,-1.23903096,-0.62455714,-0.68509084,0.00000000,0.00000000,0.01203476,2.16994095,1.26366699,0.67575091,1.36288369,0.00000000,0.00000000
-0.04633828,-2.09625149,-1.24838698,-0.63233095,-0.67825323,0.00000000,0.00000000,0.01962866,2.16894770,1.27973413,0.66958416,1.37254179,0.00000000,0.00000000
-0.04941251,-2.08753181,-1.25545847,-0.63727641,-0.66771299,0.00000000,0.00000000,0.02969741,2.16462994,1.29738081,0.66236252,1.38195288,0.00000000,0.00000000
-0.04984588,-2.08099365,-1.26009870,-0.63953251,-0.65700752,0.00000000,0.00000000,0.04086036,2.15588570,1.31505775,0.65420336,1.38998449,0.00000000,0.00000000
-0.04774029,-2.07685924,-1.26222908,-0.63928574,-0.64763212,0.00000000,0.00000000,0.05204935,2.14418459,1.33169949,0.64528447,1.39773107,0.00000000,0.00000000
-0.04325563,-2.07526708,-1.26182723,-0.63674361,-0.63559902,0.00000000,0.00000000,0.06208830,2.13133621,1.34660125,0.63559109,1.40835452,0.00000000,0.00000000
-0.03666310,-2.07618213,-1.25895870,-0.63211805,-0.62836683,0.00000000,0.00000000,0.06970593,2.11860800,1.35933948,0.62487727,1.41701806,0.00000000,0.00000000
-0.02843008,-2.07925367,-1.25382602,-0.62565529,-0.62129384,0.00000000,0.00000000,0.07376412,2.10703540,1.36967957,0.61280155,1.43168211,0.00000000,0.00000000
-0.01934946,-2.08379221,-1.24678826,-0.61770272,-0.60793984,0.00000000,0.00000000,0.07338770,2.09786606,1.37740123,0.59913391,1.44485784,0.00000000,0.00000000
-0.01054429,-2.08888626,-1.23832810,-0.60870558,-0.59686816,0.00000000,0.00000000,0.06821724,2.09247065,1.38227022,0.58400404,1.45695519,0.00000000,0.00000000
-0.00317000,-2.09357071,-1.22896159,-0.59906161,-0.58611208,0.00000000,0.00000000,0.05875476,2.09148955,1.38427687,0.56800276,1.46968627,0.00000000,0.00000000
0.00197773,-2.09700561,-1.21912217,-0.58898306,-0.57531124,0.00000000,0.00000000,0.04632959,2.09424281,1.38382781,0.55198115,1.47933042,0.00000000,0.00000000
0.00458608,-2.09863663,-1.20908451,-0.57852864,-0.56599438,0.00000000,0.00000000,0.03252187,2.09932876,1.38154161,0.53673750,1.49712026,0.00000000,0.00000000
0.00467743,-2.09820843,-1.19896996,-0.56770843,-0.55300176,0.00000000,0.00000000,0.01856837,2.10559082,1.37791681,0.52281988,1.51690781,0.00000000,0.00000000
0.00247962,-2.09564209,-1.18880618,-0.55649078,-0.54290867,0.00000000,0.00000000,0.00516369,2.11238337,1.37324131,0.51046932,1.54004586,0.00000000,0.00000000
-0.00158085,-2.09098911,-1.17855072,-0.54475838,-0.53775108,0.00000000,0.00000000,-0.00748394,2.11937428,1.36766481,0.49966568,1.56214643,0.00000000,0.00000000
-0.00687221,-2.08449483,-1.16807926,-0.53232074,-0.53131264,0.00000000,0.00000000,-0.01951378,2.12639809,1.36126471,0.49024677,1.58993053,0.00000000,0.00000000
-0.01266798,-2.07657862,-1.15721524,-0.51898086,-0.52369469,0.00000000,0.00000000,-0.03121538,2.13343048,1.35407221,0.48205432,1.61272800,0.00000000,0.00000000
-0.01829180,-2.06768465,-1.14579308,-0.50457215,-0.51488578,0.00000000,0.00000000,-0.04283433,2.14056540,1.34608853,0.47503045,1.63286924,0.00000000,0.00000000
-0.02318581,-2.05816174,-1.13370132,-0.48896128,-0.50963211,0.00000000,0.00000000,-0.05443275,2.14794469,1.33730292,0.46927181,1.64469099,0.00000000,0.00000000
-0.02704900,-2.04825735,-1.12090003,-0.47213301,-0.50655687,0.00000000,0.00000000,-0.06553451,2.15564871,1.32773972,0.46521595,1.65844262,0.00000000,0.00000000
-0.03014700,-2.03827095,-1.10741818,-0.45440990,-0.50677329,0.00000000,0.00000000,-0.07424003,2.16314340,1.31766212,0.46401432,1.67392182,0.00000000,0.00000000
-0.03329962,-2.02878952,-1.09329152,-0.43652460,-0.50988275,0.00000000,0.00000000,-0.07748558,2.16836929,1.30782163,0.46713775,1.69078982,0.00000000,0.00000000
-0.03726504,-2.02040553,-1.07855403,-0.41922030,-0.51876819,0.00000000,0.00000000,-0.07387477,2.16989040,1.29917550,0.47475374,1.71104693,0.00000000,0.00000000
-0.04260989,-2.01345563,-1.06327891,-0.40306005,-0.52454633,0.00000000,0.00000000,-0.06407110,2.16999912,1.29255867,0.48559132,1.72737050,0.00000000,0.00000000
-0.04983899,-2.00823832,-1.04754019,-0.38855508,-0.53458345,0.00000000,0.00000000,-0.04972673,2.17000008,1.28856409,0.49774629,1.73945069,0.00000000,0.00000000
-0.05957001,-2.00515318,-1.03139853,-0.37633297,-0.54711908,0.00000000,0.00000000,-0.03301395,2.17000008,1.28736198,0.50927246,1.74991298,0.00000000,0.00000000
-0.07264291,-2.00471234,-1.01490903,-0.36720720,-0.55844456,0.00000000,0.00000000,-0.01666949,2.17000008,1.28852320,0.51836801,1.76334667,0.00000000,0.00000000
-0.08974124,-2.00756836,-0.99806559,-0.36197150,-0.57299238,0.00000000,0.00000000,-0.00408840,2.16996455,1.29104114,0.52331364,1.77983224,0.00000000,0.00000000
-0.11060138,-2.01453328,-0.98070002,-0.36099961,-0.58859318,0.00000000,0.00000000,0.00132681,2.16937327,1.29372072,0.52263564,1.79035997,0.00000000,0.00000000
-0.13367632,-2.02645063,-0.96245766,-0.36404389,-0.60823756,0.00000000,0.00000000,-0.00248100,2.16685462,1.29565394,0.51561677,1.80374753,0.00000000,0.00000000
-0.15703356,-2.04384637,-0.94296050,-0.37051883,-0.63067275,0.00000000,0.00000000,-0.01505463,2.16197252,1.29638219,0.50285059,1.81827843,0.00000000,0.00000000
-0.18006162,-2.06631041,-0.92213738,-0.38000554,-0.65570939,0.00000000,0.00000000,-0.03307460,2.15607524,1.29577410,0.48652422,1.82976615,0.00000000,0.00000000
-0.20237438,-2.09077883,-0.90039825,-0.39101914,-0.68617815,0.00000000,0.00000000,-0.05183926,2.15100694,1.29385328,0.46967328,1.83818960,0.00000000,0.00000000
-0.22191072,-2.11321306,-0.87809956,-0.40133306,-0.72275317,0.00000000,0.00000000,-0.06839555,2.14787269,1.29072309,0.45429072,1.84812212,0.00000000,0.00000000
-0.23954825,-2.13461018,-0.85512286,-0.41358560,-0.76173335,0.00000000,0.00000000,-0.08221865,2.14648867,1.28663862,0.44075862,1.85463142,0.00000000,0.00000000
-0.25425437,-2.15260553,-0.83163744,-0.42838907,-0.80267054,0.00000000,0.00000000,-0.09418751,2.14590597,1.28192341,0.42851490,1.86333096,0.00000000,0.00000000
-0.26583716,-2.16431952,-0.80802071,-0.44518510,-0.84115136,0.00000000,0.00000000,-0.10501500,2.14509511,1.27690065,0.41705769,1.86645746,0.00000000,0.00000000
-0.27520576,-2.16904783,-0.78479719,-0.46315113,-0.87718040,0.00000000,0.00000000,-0.11518508,2.14306998,1.27186728,0.40596935,1.87456536,0.00000000,0.00000000
-0.28385502,-2.16995049,-0.76319647,-0.47902465,-0.91422421,0.00000000,0.00000000,-0.12513679,2.13899493,1.26706195,0.39482978,1.87858450,0.00000000,0.00000000
-0.29130989,-2.17000008,-0.74480081,-0.48498279,-0.94822568,0.00000000,0.00000000,-0.13446495,2.13261223,1.26263130,0.38380462,1.88253546,0.00000000,0.00000000
-0.29600665,-2.17000008,-0.72944933,-0.47804484,-0.97959310,0.00000000,0.00000000,-0.14142098,2.12419367,1.25869179,0.37400490,1.88441861,0.00000000,0.00000000
-0.29616603,-2.16999269,-0.71614933,-0.45818958,-1.01629913,0.00000000,0.00000000,-0.14360546,2.11392188,1.25541902,0.36703461,1.88507962,0.00000000,0.00000000
-0.29138964,-2.16969323,-0.70399892,-0.42666391,-1.05063677,0.00000000,0.00000000,-0.13782276,2.10197973,1.25302804,0.36504269,1.88342309,0.00000000,0.00000000
-0.28497723,-2.16634631,-0.69271201,-0.38675663,-1.08708286,0.00000000,0.00000000,-0.12051279,2.08929157,1.25156426,0.37051439,1.87411427,0.00000000,0.00000000
-0.27668878,-2.15514350,-0.68140334,-0.34101775,-1.12598073,0.00000000,0.00000000,-0.09080753,2.07761788,1.25065923,0.38446212,1.86481345,0.00000000,0.00000000
-0.26310593,-2.13835406,-0.66886425,-0.29116330,-1.16366339,0.00000000,0.00000000,-0.05051111,2.06855917,1.24971497,0.40618852,1.84992123,0.00000000,0.00000000
-0.24232760,-2.12045789,-0.65456444,-0.23905112,-1.20707667,0.00000000,0.00000000,-0.00304988,2.06330609,1.24799681,0.43384555,1.83287477,0.00000000,0.00000000
-0.21437743,-2.10438752,-0.63863784,-0.18646972,-1.24621534,0.00000000,0.00000000,0.04704473,2.06274581,1.24463546,0.46481046,1.81258082,0.00000000,0.00000000
-0.18048117,-2.09176183,-0.62154382,-0.13501269,-1.28229666,0.00000000,0.00000000,0.09491194,2.06732345,1.23874843,0.49615318,1.79760873,0.00000000,0.00000000
-0.14420998,-2.08343124,-0.60391617,-0.08666676,-1.31606340,0.00000000,0.00000000,0.13682932,2.07682014,1.22969735,0.52538741,1.77665186,0.00000000,0.00000000
-0.11175542,-2.07930183,-0.58638656,-0.04371054,-1.34906518,0.00000000,0.00000000,0.17113246,2.09019303,1.21731102,0.55086845,1.75423169,0.00000000,0.00000000
-0.08893035,-2.07829332,-0.56933630,-0.00762919,-1.38493550,0.00000000,0.00000000,0.19735758,2.10547614,1.20188916,0.57132781,1.73339939,0.00000000,0.00000000
-0.07859111,-2.07907248,-0.55287403,0.02132081,-1.41998434,0.00000000,0.00000000,0.21615432,2.12092376,1.18385518,0.58620697,1.71735334,0.00000000,0.00000000
-0.08120582,-2.08063579,-0.53699476,0.04350676,-1.45418417,0.00000000,0.00000000,0.22797802,2.13542366,1.16345298,0.59520787,1.70163488,0.00000000,0.00000000
-0.09574059,-2.08242154,-0.52169818,0.05950721,-1.48218191,0.00000000,0.00000000,0.23233365,2.14847875,1.14060724,0.59799647,1.67688823,0.00000000,0.00000000
-0.11985850,-2.08424282,-0.50704223,0.07010037,-1.50472176,0.00000000,0.00000000,0.22663195,2.15986395,1.11472738,0.59355634,1.65729833,0.00000000,0.00000000
-0.14998950,-2.08620286,-0.49316418,0.07632014,-1.52475369,0.00000000,0.00000000,0.21030422,2.16762877,1.08627164,0.58164746,1.63281786,0.00000000,0.00000000
-0.18121161,-2.08822894,-0.48027736,0.07970623,-1.54292142,0.00000000,0.00000000,0.19194433,2.16985798,1.05810499,0.56745237,1.61453414,0.00000000,0.00000000
-0.20800170,-2.08969522,-0.46862495,0.08224907,-1.55553877,0.00000000,0.00000000,0.17340720,2.17000008,1.03068686,0.55465114,1.60316181,0.00000000,0.00000000
-0.22627413,-2.08979917,-0.45839795,0.08562908,-1.57229006,0.00000000,0.00000000,0.15596047,2.17000008,1.00531113,0.54387850,1.59342551,0.00000000,0.00000000
-0.23380068,-2.08813214,-0.44973311,0.09082042,-1.59281421,0.00000000,0.00000000,0.14126840,2.17000008,0.98348176,0.53464645,1.57875478,0.00000000,0.00000000
-0.22960111,-2.08495927,-0.44275230,0.09811411,-1.61442935,0.00000000,0.00000000,0.13060768,2.17000008,0.96605712,0.52659059,1.56173491,0.00000000,0.00000000
-0.21344022,-2.08118606,-0.43758580,0.10723530,-1.63677144,0.00000000,0.00000000,0.12536043,2.17000008,0.95344782,0.51998502,1.54645765,0.00000000,0.00000000
-0.18564148,-2.07813549,-0.43436873,0.11741684,-1.65746844,0.00000000,0.00000000,0.12613843,2.17000008,0.94549072,0.51535261,1.53032529,0.00000000,0.00000000
-0.14715058,-2.07729936,-0.43321362,0.12744118,-1.67434680,0.00000000,0.00000000,0.13084430,2.17000008,0.94148183,0.51129162,1.52096641,0.00000000,0.00000000
-0.09970108,-2.08012176,-0.43416482,0.13575101,-1.69144726,0.00000000,0.00000000,0.13740081,2.17000008,0.94097185,0.50461775,1.51316857,0.00000000,0.00000000
-0.04590014,-2.08772683,-0.43715203,0.14068994,-1.70321977,0.00000000,0.00000000,0.14774039,2.16999412,0.94341826,0.49522576,1.50761986,0.00000000,0.00000000
0.01112157,-2.10034633,-0.44197607,0.14096028,-1.70715034,0.00000000,0.00000000,0.16107510,2.16987062,0.94711185,0.48412055,1.50476444,0.00000000,0.00000000
0.06802969,-2.11682892,-0.44831893,0.13593845,-1.70730138,0.00000000,0.00000000,0.17534037,2.16904759,0.95029896,0.47198525,1.50390387,0.00000000,0.00000000
0.12118214,-2.13470244,-0.45576876,0.12559643,-1.70980740,0.00000000,0.00000000,0.18893307,2.16656518,0.95193636,0.45865348,1.50108361,0.00000000,0.00000000
0.16711290,-2.15099549,-0.46393183,0.11023320,-1.71094191,0.00000000,0.00000000,0.20013683,2.16223741,0.95153236,0.44287631,1.50258076,0.00000000,0.00000000
0.20359018,-2.16286945,-0.47256154,0.09047046,-1.71338463,0.00000000,0.00000000,0.20708485,2.15663362,0.94871122,0.42324394,1.49744356,0.00000000,0.00000000
0.22931643,-2.16861415,-0.48154005,0.06728451,-1.71816230,0.00000000,0.00000000,0.20851961,2.15101194,0.94313902,0.39916822,1.49181151,0.00000000,0.00000000
0.24363804,-2.16992283,-0.49084750,0.04204904,-1.72095788,0.00000000,0.00000000,0.20440456,2.14685273,0.93466419,0.37118381,1.48847866,0.00000000,0.00000000
0.24660811,-2.17000008,-0.50055242,0.01641663,-1.73124182,0.00000000,0.00000000,0.19600102,2.14507866,0.92344934,0.34058437,1.48424184,0.00000000,0.00000000
0.23893574,-2.17000008,-0.51078057,-0.00796182,-1.73830855,0.00000000,0.00000000,0.18539082,2.14554644,0.90996552,0.30873454,1.48248696,0.00000000,0.00000000
0.22174810,-2.17000008,-0.52166682,-0.02970644,-1.75002003,0.00000000,0.00000000,0.17470974,2.14724040,0.89480275,0.27659470,1.48420537,0.00000000,0.00000000
0.19614750,-2.17000008,-0.53332126,-0.04799997,-1.76160014,0.00000000,0.00000000,0.16561536,2.14886332,0.87847227,0.24464571,1.48862791,0.00000000,0.00000000
0.16254918,-2.17000008,-0.54582089,-0.06295662,-1.77337933,0.00000000,0.00000000,0.15943632,2.14930534,0.86135024,0.21313904,1.49498701,0.00000000,0.00000000
0.12074748,-2.16990852,-0.55919141,-0.07581957,-1.78238142,0.00000000,0.00000000,0.15697615,2.14773464,0.84367955,0.18208951,1.50032282,0.00000000,0.00000000
0.07132358,-2.16841340,-0.57337356,-0.08809534,-1.78345072,0.00000000,0.00000000,0.15732479,2.14401984,0.82548779,0.15103911,1.50449848,0.00000000,0.00000000
0.01589486,-2.16240025,-0.58824712,-0.10051079,-1.78527915,0.00000000,0.00000000,0.15898991,2.13930202,0.80669039,0.11982860,1.51144755,0.00000000,0.00000000
-0.04322013,-2.15138793,-0.60361224,-0.11350512,-1.78523386,0.00000000,0.00000000,0.16093896,2.13470626,0.78729087,0.08853271,1.51632226,0.00000000,0.00000000
-0.10343391,-2.13747954,-0.61920357,-0.12737016,-1.79122221,0.00000000,0.00000000,0.16233341,2.13099504,0.76737726,0.05721514,1.52325082,0.00000000,0.00000000
-0.16248401,-2.12241077,-0.63476110,-0.14198555,-1.80112529,0.00000000,0.00000000,0.16261183,2.12898302,0.74708325,0.02616456,1.53088915,0.00000000,0.00000000
-0.21866141,-2.10664892,-0.65007496,-0.15677534,-1.80421269,0.00000000,0.00000000,0.16176650,2.12947750,0.72658032,-0.00394930,1.53603232,0.00000000,0.00000000
-0.27150694,-2.09097791,-0.66497427,-0.17185640,-1.80742836,0.00000000,0.00000000,0.16021679,2.13285041,0.70605361,-0.03232751,1.54159319,0.00000000,0.00000000
-0.32218486,-2.07782555,-0.67929333,-0.18899786,-1.80904472,0.00000000,0.00000000,0.15841936,2.13879752,0.68566906,-0.05846506,1.54678249,0.00000000,0.00000000
-0.37039277,-2.06807756,-0.69280940,-0.20863350,-1.81144345,0.00000000,0.00000000,0.15668851,2.14657855,0.66556156,-0.08228631,1.55987430,0.00000000,0.00000000
-0.41520348,-2.06281900,-0.70517856,-0.23092487,-1.81905067,0.00000000,0.00000000,0.15505069,2.15516353,0.64584327,-0.10411253,1.56691480,0.00000000,0.00000000
-0.45525366,-2.06352854,-0.71592349,-0.25616205,-1.82623649,0.00000000,0.00000000,0.15293930,2.16301918,0.62661731,-0.12470057,1.57481885,0.00000000,0.00000000
-0.48858386,-2.07047582,-0.72455293,-0.28391856,-1.83587217,0.00000000,0.00000000,0.14923538,2.16816568,0.60798836,-0.14513113,1.58252788,0.00000000,0.00000000
-0.51394224,-2.08303380,-0.73070133,-0.31355453,-1.84968472,0.00000000,0.00000000,0.14278786,2.16980219,0.59006435,-0.16650432,1.58545649,0.00000000,0.00000000
-0.53056866,-2.10021043,-0.73409057,-0.34442693,-1.85980248,0.00000000,0.00000000,0.13303789,2.16999292,0.57293159,-0.18964036,1.58629882,0.00000000,0.00000000
-0.53917998,-2.12035251,-0.73478305,-0.37627062,-1.86568356,0.00000000,0.00000000,0.12053121,2.17000008,0.55660945,-0.21473277,1.58803177,0.00000000,0.00000000
-0.54408079,-2.14061618,-0.73370206,-0.40985498,-1.87532520,0.00000000,0.00000000,0.10703377,2.17000008,0.54105490,-0.24090846,1.58884168,0.00000000,0.00000000
-0.55138803,-2.15713692,-0.73242974,-0.44622111,-1.88918161,0.00000000,0.00000000,0.09434610,2.17000008,0.52632654,-0.26633480,1.59044933,0.00000000,0.00000000
-0.56349659,-2.16680598,-0.73193491,-0.48517272,-1.90115654,0.00000000,0.00000000,0.08288497,2.17000008,0.51267600,-0.28934518,1.59028745,0.00000000,0.00000000
-0.57831812,-2.16967297,-0.73212278,-0.52537543,-1.91107309,0.00000000,0.00000000,0.07204920,2.17000008,0.50036293,-0.30922705,1.58052099,0.00000000,0.00000000
-0.59290856,-2.16998887,-0.73243636,-0.56564236,-1.91428471,0.00000000,0.00000000,0.06112631,2.17000008,0.48952165,-0.32592714,1.57147145,0.00000000,0.00000000
-0.60527694,-2.17000008,-0.73227596,-0.60544181,-1.91606450,0.00000000,0.00000000,0.04964615,2.17000008,0.48017573,-0.33955535,1.56201923,0.00000000,0.00000000
-0.61391985,-2.17000008,-0.73099983,-0.64446706,-1.92189813,0.00000000,0.00000000,0.03741801,2.17000008,0.47226459,-0.35029012,1.55338800,0.00000000,0.00000000
-0.61785436,-2.17000008,-0.72800326,-0.68251503,-1.93288672,0.00000000,0.00000000,0.02449473,2.17000008,0.46566957,-0.35837451,1.54307163,0.00000000,0.00000000
-0.61731887,-2.17000008,-0.72362006,-0.71726465,-1.93852127,0.00000000,0.00000000,0.01131583,2.17000008,0.46021235,-0.36389378,1.53463328,0.00000000,0.00000000
-0.60998636,-2.17000008,-0.71894956,-0.74012238,-1.94665360,0.00000000,0.00000000,-0.00129584,2.17000008,0.45562953,-0.36666769,1.52585220,0.00000000,0.00000000
-0.59569514,-2.17000008,-0.71441931,-0.74853987,-1.95291126,0.00000000,0.00000000,-0.01252208,2.17000008,0.45159328,-0.36647117,1.52249277,0.00000000,0.00000000
-0.57548827,-2.17000008,-0.71037561,-0.74274296,-1.95453060,0.00000000,0.00000000,-0.02190785,2.17000008,0.44777000,-0.36344829,1.51821446,0.00000000,0.00000000
-0.54984963,-2.17000008,-0.70751071,-0.72203982,-1.95949090,0.00000000,0.00000000,-0.02967034,2.17000008,0.44394410,-0.35846743,1.51537240,0.00000000,0.00000000
-0.52088660,-2.17000008,-0.70694363,-0.68693411,-1.96026421,0.00000000,0.00000000,-0.03699793,2.17000008,0.44015515,-0.35315454,1.50861204,0.00000000,0.00000000
-0.49508420,-2.16984510,-0.70973456,-0.64381951,-1.96414232,0.00000000,0.00000000,-0.04544685,2.17000008,0.43661445,-0.34936932,1.49777961,0.00000000,0.00000000
-0.47078019,-2.16730738,-0.71452171,-0.59782851,-1.96439242,0.00000000,0.00000000,-0.05518634,2.16999888,0.43340930,-0.34812164,1.48526299,0.00000000,0.00000000
-0.44989228,-2.15703273,-0.72109771,-0.55257207,-1.96433640,0.00000000,0.00000000,-0.06503183,2.16984701,0.43053436,-0.34914744,1.47113276,0.00000000,0.00000000
-0.43536571,-2.13743258,-0.72968256,-0.51032585,-1.96659732,0.00000000,0.00000000,-0.07337511,2.16761565,0.42803934,-0.35120121,1.45868111,0.00000000,0.00000000
-0.42606533,-2.11005831,-0.73954946,-0.47154874,-1.97179365,0.00000000,0.00000000,-0.07928554,2.15950537,0.42612430,-0.35289961,1.44811416,0.00000000,0.00000000
-0.41768166,-2.07665110,-0.74942410,-0.43515086,-1.98307502,0.00000000,0.00000000,-0.08288817,2.14656162,0.42517707,-0.35306880,1.44121635,0.00000000,0.00000000
-0.40460995,-2.03891683,-0.75793910,-0.39927542,-1.99081087,0.00000000,0.00000000,-0.08530716,2.13192034,0.42575064,-0.35089755,1.43315411,0.00000000,0.00000000
-0.38249102,-1.99997044,-0.76390672,-0.36302832,-1.99782836,0.00000000,0.00000000,-0.08802606,2.11834860,0.42841455,-0.34592065,1.42577231,0.00000000,0.00000000
-0.35223690,-1.96621478,-0.76671308,-0.32876903,-2.00283933,0.00000000,0.00000000,-0.09104685,2.10807395,0.43336207,-0.33760959,1.41625059,0.00000000,0.00000000
-0.31878731,-1.94316185,-0.76660699,-0.29940918,-2.00434661,0.00000000,0.00000000,-0.09242292,2.10232496,0.44026425,-0.32535800,1.41345453,0.00000000,0.00000000
-0.28408295,-1.92911828,-0.76434016,-0.27408093,-2.00828528,0.00000000,0.00000000,-0.09161557,2.10086012,0.44889700,-0.30945802,1.41554272,0.00000000,0.00000000
-0.24915618,-1.92351401,-0.76034284,-0.25299564,-2.01418829,0.00000000,0.00000000,-0.09006373,2.10315514,0.45935649,-0.29073963,1.41281843,0.00000000,0.00000000
-0.21495508,-1.92684591,-0.75484407,-0.23709700,-2.02165365,0.00000000,0.00000000,-0.08897302,2.10861897,0.47165373,-0.26986879,1.41200197,0.00000000,0.00000000
-0.18329352,-1.93870521,-0.74822044,-0.22734705,-2.03347087,0.00000000,0.00000000,-0.08823551,2.11677217,0.48556587,-0.24699602,1.40769434,0.00000000,0.00000000
-0.15654525,-1.95815659,-0.74090999,-0.22471590,-2.03892875,0.00000000,0.00000000,-0.08754510,2.12674832,0.50081205,-0.22238672,1.40888381,0.00000000,0.00000000
-0.13668531,-1.98396087,-0.73328167,-0.22979128,-2.04578900,0.00000000,0.00000000,-0.08727836,2.13715672,0.51718801,-0.19684525,1.40861511,0.00000000,0.00000000
-0.12513936,-2.01448917,-0.72564483,-0.24261886,-2.05262280,0.00000000,0.00000000,-0.08803207,2.14671612,0.53454441,-0.17129809,1.40482461,0.00000000,0.00000000
-0.12246545,-2.04790163,-0.71822363,-0.26267862,-2.06050587,0.00000000,0.00000000,-0.09014837,2.15473008,0.55275297,-0.14628477,1.40143430,0.00000000,0.00000000
-0.12778915,-2.08236814,-0.71108228,-0.28878441,-2.06741381,0.00000000,0.00000000,-0.09342305,2.16104174,0.57167864,-0.12175798,1.39382482,0.00000000,0.00000000
-0.13762431,-2.11524940,-0.70402986,-0.31822878,-2.07214427,0.00000000,0.00000000,-0.09702004,2.16570306,0.59117377,-0.09722690,1.38603008,0.00000000,0.00000000
-0.14854376,-2.14346790,-0.69693983,-0.34851763,-2.07444930,0.00000000,0.00000000,-0.09956463,2.16861057,0.61109233,-0.07206588,1.37761879,0.00000000,0.00000000
-0.16365875,-2.16359472,-0.69090915,-0.38038418,-2.06992006,0.00000000,0.00000000,-0.09981890,2.16976786,0.63132399,-0.04585162,1.36896956,0.00000000,0.00000000
-0.18310715,-2.16961098,-0.68785697,-0.40910617,-2.06192136,0.00000000,0.00000000,-0.09781922,2.16998816,0.65181947,-0.01866073,1.36194062,0.00000000,0.00000000
-0.20597798,-2.17000008,-0.68863177,-0.43186405,-2.05598116,0.00000000,0.00000000,-0.09438554,2.17000008,0.67254198,0.00912039,1.36015201,0.00000000,0.00000000
-0.23104343,-2.17000008,-0.69326735,-0.44793284,-2.05426002,0.00000000,0.00000000,-0.09070995,2.16994905,0.69343495,0.03684151,1.35987878,0.00000000,0.00000000
-0.25674453,-2.17000008,-0.70144129,-0.45716974,-2.05582929,0.00000000,0.00000000,-0.08798836,2.16911960,0.71442109,0.06376484,1.36387968,0.00000000,0.00000000
-0.28142780,-2.17000008,-0.71252531,-0.45993212,-2.05380607,0.00000000,0.00000000,-0.08695462,2.16579390,0.73541695,0.08935711,1.36497223,0.00000000,0.00000000
-0.30309707,-2.16991043,-0.72555494,-0.45692605,-2.04914451,0.00000000,0.00000000,-0.08755395,2.15955663,0.75635165,0.11349235,1.36495280,0.00000000,0.00000000
-0.31942356,-2.16845226,-0.73925620,-0.44923148,-2.04270506,0.00000000,0.00000000,-0.08889198,2.15105367,0.77717942,0.13649258,1.36264074,0.00000000,0.00000000
-0.32841939,-2.16272473,-0.75226450,-0.43841246,-2.03859830,0.00000000,0.00000000,-0.08964226,2.14111018,0.79787534,0.15891154,1.35844493,0.00000000,0.00000000
-0.32898733,-2.15305161,-0.76336700,-0.42644209,-2.03606534,0.00000000,0.00000000,-0.08881058,2.13034058,0.81840968,0.18112276,1.35614514,0.00000000,0.00000000
-0.32052517,-2.14311028,-0.77160203,-0.41515094,-2.03576779,0.00000000,0.00000000,-0.08610502,2.11907148,0.83872408,0.20312707,1.35102201,0.00000000,0.00000000
-0.30223662,-2.13630247,-0.77627027,-0.40557852,-2.03554797,0.00000000,0.00000000,-0.08166905,2.10766625,0.85871428,0.22475795,1.34110343,0.00000000,0.00000000
-0.27622056,-2.13410544,-0.77753675,-0.39872774,-2.03557038,0.00000000,0.00000000,-0.07569266,2.09686947,0.87822008,0.24595423,1.33433008,0.00000000,0.00000000
-0.25060031,-2.13498545,-0.77710891,-0.39591938,-2.03562880,0.00000000,0.00000000,-0.06793341,2.08764601,0.89708197,0.26691824,1.32738018,0.00000000,0.00000000
-0.22675003,-2.13754845,-0.77545571,-0.39542559,-2.03553796,0.00000000,0.00000000,-0.05819004,2.08052373,0.91517156,0.28772980,1.31612158,0.00000000,0.00000000
-0.20340201,-2.14163613,-0.77235532,-0.39596239,-2.03191495,0.00000000,0.00000000,-0.04763404,2.07562208,0.93226039,0.30782247,1.30862200,0.00000000,0.00000000
-0.18077181,-2.14731622,-0.76779461,-0.39756888,-2.02555299,0.00000000,0.00000000,-0.03807425,2.07268715,0.94809860,0.32627866,1.30143225,0.00000000,0.00000000
-0.15883611,-2.15427899,-0.76178282,-0.40013495,-2.01684093,0.00000000,0.00000000,-0.03115988,2.07111073,0.96251202,0.34212738,1.29751754,0.00000000,0.00000000
-0.13719185,-2.16165876,-0.75436312,-0.40318844,-2.00709009,0.00000000,0.00000000,-0.02818180,2.07018328,0.97540432,0.35449100,1.29208493,0.00000000,0.00000000
-0.11566423,-2.16741085,-0.74583250,-0.40579528,-2.00002837,0.00000000,0.00000000,-0.02991001,2.06955457,0.98670870,0.36284024,1.28641522,0.00000000,0.00000000
-0.09541863,-2.16963434,-0.73702312,-0.40672967,-1.99280953,0.00000000,0.00000000,-0.03624091,2.06939721,0.99640477,0.36725122,1.27696526,0.00000000,0.00000000
-0.08003248,-2.16998339,-0.72927135,-0.40551186,-1.98454988,0.00000000,0.00000000,-0.04601888,2.06989622,1.00462770,0.36833209,1.26894295,0.00000000,0.00000000
-0.07364153,-2.17000008,-0.72373766,-0.40266922,-1.97652614,0.00000000,0.00000000,-0.05766123,2.07093477,1.01164377,0.36685324,1.25893176,0.00000000,0.00000000
-0.07808580,-2.17000008,-0.72089612,-0.39859211,-1.97010648,0.00000000,0.00000000,-0.07008097,2.07246685,1.01766419,0.36348176,1.24748790,0.00000000,0.00000000
-0.09257246,-2.17000008,-0.72064030,-0.39296088,-1.96083534,0.00000000,0.00000000,-0.08296767,2.07487035,1.02274513,0.35880408,1.24056661,0.00000000,0.00000000
-0.11476652,-2.16990638,-0.72247970,-0.38520619,-1.95362055,0.00000000,0.00000000,-0.09634794,2.07881188,1.02686751,0.35347128,1.23589528,0.00000000,0.00000000
-0.14204581,-2.16839457,-0.72567767,-0.37526563,-1.93891835,0.00000000,0.00000000,-0.10984023,2.08493423,1.03007269,0.34834477,1.22917581,0.00000000,0.00000000
-0.17225282,-2.16253614,-0.72944903,-0.36370572,-1.92728364,0.00000000,0.00000000,-0.12249291,2.09355760,1.03251362,0.34434131,1.21837199,0.00000000,0.00000000
-0.20343854,-2.15212226,-0.73314166,-0.35096893,-1.91570139,0.00000000,0.00000000,-0.13354361,2.10439372,1.03440547,0.34190100,1.20410395,0.00000000,0.00000000
-0.23335044,-2.13876843,-0.73617733,-0.33717746,-1.90380454,0.00000000,0.00000000,-0.14299192,2.11651540,1.03596854,0.34072453,1.19105279,0.00000000,0.00000000
-0.25978503,-2.12511086,-0.73794192,-0.32300290,-1.88996375,0.00000000,0.00000000,-0.15138169,2.12861013,1.03741646,0.34005329,1.17958915,0.00000000,0.00000000
-0.28102574,-2.11444902,-0.73786306,-0.30995882,-1.87674809,0.00000000,0.00000000,-0.15937504,2.13934135,1.03894913,0.33907503,1.17609787,0.00000000,0.00000000
-0.29578885,-2.10894823,-0.73561597,-0.29945326,-1.86497021,0.00000000,0.00000000,-0.16737750,2.14762235,1.04075050,0.33721906,1.17356622,0.00000000,0.00000000
-0.30435818,-2.10742569,-0.73150897,-0.29185897,-1.84859633,0.00000000,0.00000000,-0.17506251,2.15283728,1.04299772,0.33444962,1.17577672,0.00000000,0.00000000
-0.30946788,-2.10743523,-0.72630197,-0.28752086,-1.83587682,0.00000000,0.00000000,-0.18139537,2.15496731,1.04583538,0.33129695,1.17975259,0.00000000,0.00000000
-0.31305361,-2.10817075,-0.72041708,-0.28697926,-1.82359469,0.00000000,0.00000000,-0.18557513,2.15438700,1.04931509,0.32834134,1.18588257,0.00000000,0.00000000
-0.31516448,-2.10989118,-0.71386695,-0.29054099,-1.81263411,0.00000000,0.00000000,-0.18741499,2.15153527,1.05341625,0.32590729,1.19380450,0.00000000,0.00000000
-0.31482333,-2.11264729,-0.70650876,-0.29813430,-1.79917979,0.00000000,0.00000000,-0.18693440,2.14677978,1.05810511,0.32419044,1.19872308,0.00000000,0.00000000
-0.31047300,-2.11616302,-0.69810808,-0.30939129,-1.78789282,0.00000000,0.00000000,-0.18396677,2.14046574,1.06336212,0.32345250,1.20083487,0.00000000,0.00000000
-0.30087572,-2.12027502,-0.68840152,-0.32412171,-1.77777314,0.00000000,0.00000000,-0.17808275,2.13306451,1.06916213,0.32410982,1.20599210,0.00000000,0.00000000
-0.28547618,-2.12538290,-0.67708850,-0.34261024,-1.77318072,0.00000000,0.00000000,-0.16897838,2.12523127,1.07542539,0.32655907,1.21265316,0.00000000,0.00000000
-0.26368269,-2.13270617,-0.66367227,-0.36546153,-1.77814019,0.00000000,0.00000000,-0.15673581,2.11779523,1.08199060,0.33102557,1.22224271,0.00000000,0.00000000
-0.23773183,-2.14360046,-0.64809465,-0.39405072,-1.78444374,0.00000000,0.00000000,-0.14134784,2.11184049,1.08863723,0.33781809,1.23339152,0.00000000,0.00000000
-0.21522200,-2.15606833,-0.63180208,-0.42924994,-1.78556478,0.00000000,0.00000000,-0.12256213,2.10869646,1.09509468,0.34742200,1.23559439,0.00000000,0.00000000
-0.19747216,-2.16555405,-0.61559927,-0.46828055,-1.78361285,0.00000000,0.00000000,-0.10094631,2.10946774,1.10102189,0.35982627,1.24219143,0.00000000,0.00000000
-0.18360226,-2.16931772,-0.60016495,-0.50767350,-1.78037083,0.00000000,0.00000000,-0.07745175,2.11432028,1.10618138,0.37447777,1.25228608,0.00000000,0.00000000
-0.17376970,-2.16996670,-0.58678746,-0.54382366,-1.77808928,0.00000000,0.00000000,-0.05353761,2.12250042,1.11044002,0.39018583,1.26490450,0.00000000,0.00000000
-0.16822678,-2.17000008,-0.57677168,-0.57349068,-1.77092266,0.00000000,0.00000000,-0.03125193,2.13275027,1.11370337,0.40523770,1.27841485,0.00000000,0.00000000
-0.16761124,-2.17000008,-0.57095045,-0.59536171,-1.76324725,0.00000000,0.00000000,-0.01264871,2.14348173,1.11596727,0.41782722,1.29463327,0.00000000,0.00000000
-0.17257148,-2.17000008,-0.57003319,-0.60846704,-1.75534225,0.00000000,0.00000000,0.00084768,2.15306306,1.11734319,0.42653105,1.30584943,0.00000000,0.00000000
-0.18183127,-2.17000008,-0.57410705,-0.61071038,-1.75268972,0.00000000,0.00000000,0.00866039,2.16018629,1.11800182,0.43053690,1.31806302,0.00000000,0.00000000
-0.19093983,-2.17000008,-0.58174306,-0.59957415,-1.75188291,0.00000000,0.00000000,0.01081948,2.16431022,1.11803460,0.42962044,1.32976699,0.00000000,0.00000000
-0.19700804,-2.16988897,-0.59105086,-0.57538652,-1.74862540,0.00000000,0.00000000,0.00805265,2.16583180,1.11741555,0.42420340,1.33676684,0.00000000,0.00000000
-0.20366973,-2.16810465,-0.60158902,-0.54246646,-1.74559999,0.00000000,0.00000000,0.00217940,2.16572762,1.11612678,0.41542667,1.34474027,0.00000000,0.00000000
-0.21363853,-2.16129112,-0.61268675,-0.50546974,-1.74072623,0.00000000,0.00000000,-0.00464144,2.16484642,1.11423874,0.40458167,1.35470462,0.00000000,0.00000000
-0.22491464,-2.14967179,-0.62294728,-0.46662635,-1.73466408,0.00000000,0.00000000,-0.01148772,2.16368008,1.11178827,0.39229828,1.36716759,0.00000000,0.00000000
-0.23463717,-2.13535666,-0.63137114,-0.42666227,-1.72800219,0.00000000,0.00000000,-0.01864175,2.16262555,1.10872269,0.37866542,1.37438571,0.00000000,0.00000000
-0.24223241,-2.11956334,-0.63785380,-0.38622761,-1.71578276,0.00000000,0.00000000,-0.02663268,2.16209650,1.10497570,0.36375430,1.37900412,0.00000000,0.00000000
-0.24910447,-2.10285830,-0.64281344,-0.34628260,-1.70281696,0.00000000,0.00000000,-0.03579446,2.16235876,1.10054386,0.34777102,1.38245368,0.00000000,0.00000000
-0.25678504,-2.08629608,-0.64660072,-0.30810863,-1.69091666,0.00000000,0.00000000,-0.04637486,2.16337299,1.09550107,0.33089733,1.38310111,0.00000000,0.00000000
-0.26606956,-2.07180095,-0.64932251,-0.27323478,-1.68894672,0.00000000,0.00000000,-0.05857745,2.16488457,1.08997202,0.31324324,1.38973045,0.00000000,0.00000000
-0.27736095,-2.06136942,-0.65102154,-0.24310453,-1.68971395,0.00000000,0.00000000,-0.07238728,2.16662812,1.08410466,0.29499280,1.39595509,0.00000000,0.00000000
-0.29107532,-2.05635023,-0.65179831,-0.21877573,-1.68736613,0.00000000,0.00000000,-0.08742009,2.16832495,1.07807624,0.27651286,1.40857267,0.00000000,0.00000000
-0.30747458,-2.05720544,-0.65178037,-0.20070355,-1.67914820,0.00000000,0.00000000,-0.10300720,2.16953230,1.07210243,0.25827545,1.42148757,0.00000000,0.00000000
-0.32691598,-2.06363702,-0.65111762,-0.18891314,-1.66995382,0.00000000,0.00000000,-0.11824907,2.16994524,1.06644690,0.24072845,1.43774128,0.00000000,0.00000000
-0.34943026,-2.07488847,-0.64991742,-0.18301952,-1.66447031,0.00000000,0.00000000,-0.13185917,2.16999817,1.06143737,0.22426732,1.45511878,0.00000000,0.00000000
-0.37339118,-2.08938813,-0.64815027,-0.18156452,-1.65869081,0.00000000,0.00000000,-0.14214610,2.17000008,1.05742204,0.20932776,1.46953809,0.00000000,0.00000000
-0.39796326,-2.10498166,-0.64586246,-0.18309003,-1.65314555,0.00000000,0.00000000,-0.14739360,2.17000008,1.05467260,0.19644240,1.48089349,0.00000000,0.00000000
-0.42420888,-2.12161732,-0.64310819,-0.18816726,-1.64705467,0.00000000,0.00000000,-0.14667815,2.16990995,1.05333126,0.18594006,1.48748910,0.00000000,0.00000000
-0.45099887,-2.13962817,-0.63969517,-0.19717172,-1.64247835,0.00000000,0.00000000,-0.14003377,2.16844058,1.05341578,0.17787948,1.49696922,0.00000000,0.00000000
-0.47508559,-2.15525460,-0.63548791,-0.20741040,-1.63256347,0.00000000,0.00000000,-0.12764022,2.16252422,1.05487943,0.17237970,1.50116277,0.00000000,0.00000000
-0.49502954,-2.16550970,-0.63042629,-0.21676005,-1.62760735,0.00000000,0.00000000,-0.10932335,2.15124440,1.05766058,0.16972044,1.51037514,0.00000000,0.00000000
-0.51035887,-2.16933680,-0.62458372,-0.22258532,-1.62039101,0.00000000,0.00000000,-0.08481393,2.13533449,1.06166911,0.17016801,1.51427758,0.00000000,0.00000000
-0.52162623,-2.16996813,-0.61831224,-0.22095637,-1.61261761,0.00000000,0.00000000,-0.05387722,2.11591816,1.06678164,0.17393304,1.51537609,0.00000000,0.00000000
-0.52988029,-2.17000008,-0.61164933,-0.21097665,-1.59795868,0.00000000,0.00000000,-0.01624407,2.09413528,1.07286203,0.18120433,1.51253021,0.00000000,0.00000000
-0.53536087,-2.16994667,-0.60439962,-0.19340378,-1.57786524,0.00000000,0.00000000,0.02796462,2.07095480,1.07975221,0.19192323,1.50517714,0.00000000,0.00000000
-0.53612137,-2.16908145,-0.59614640,-0.16907622,-1.56078136,0.00000000,0.00000000,0.07793639,2.04729819,1.08723521,0.20566741,1.49379933,0.00000000,0.00000000
-0.53029585,-2.16570401,-0.58660930,-0.13887668,-1.55018997,0.00000000,0.00000000,0.13243684,2.02423453,1.09502208,0.22183011,1.48938775,0.00000000,0.00000000
-0.51703197,-2.15979624,-0.57577485,-0.10371412,-1.53881741,0.00000000,0.00000000,0.18990660,2.00294304,1.10275269,0.23968215,1.48538601,0.00000000,0.00000000
-0.49595991,-2.15262294,-0.56380659,-0.06444344,-1.52868938,0.00000000,0.00000000,0.24839102,1.98452234,1.11001039,0.25833309,1.48016632,0.00000000,0.00000000
-0.46702260,-2.14518571,-0.55098623,-0.02181364,-1.51894474,0.00000000,0.00000000,0.30552024,1.96977222,1.11635566,0.27669820,1.47016287,0.00000000,0.00000000
-0.43095633,-2.13767695,-0.53766775,0.02351631,-1.51147056,0.00000000,0.00000000,0.35864171,1.95905733,1.12137353,0.29351783,1.45920467,0.00000000,0.00000000
-0.39027020,-2.12934089,-0.52416569,0.07077505,-1.50434327,0.00000000,0.00000000,0.40540466,1.95247161,1.12472367,0.30762252,1.45001972,0.00000000,0.00000000
-0.34998050,-2.11885381,-0.51056689,0.11868502,-1.49911535,0.00000000,0.00000000,0.44471636,1.95016086,1.12619317,0.31840804,1.44737470,0.00000000,0.00000000
-0.31603372,-2.10548687,-0.49667653,0.16540655,-1.48806095,0.00000000,0.00000000,0.47634590,1.95163524,1.12579775,0.32536593,1.44426119,0.00000000,0.00000000
-0.29115683,-2.08958316,-0.48235184,0.20957725,-1.47506511,0.00000000,0.00000000,0.50144380,1.95596313,1.12379825,0.32903898,1.44071686,0.00000000,0.00000000
-0.27358446,-2.07144308,-0.46780148,0.25119317,-1.46102154,0.00000000,0.00000000,0.52413172,1.96387732,1.12046409,0.33332324,1.44480228,0.00000000,0.00000000
-0.26085940,-2.05146837,-0.45337549,0.29034695,-1.44873345,0.00000000,0.00000000,0.54332960,1.97385442,1.11598694,0.33804134,1.44272304,0.00000000,0.00000000
-0.25198820,-2.03082442,-0.43932366,0.32622784,-1.43971789,0.00000000,0.00000000,0.55763149,1.98502564,1.11037993,0.34203461,1.43701839,0.00000000,0.00000000
-0.24737257,-2.01129675,-0.42569095,0.35730276,-1.43199575,0.00000000,0.00000000,0.56642050,1.99738896,1.10354292,0.34434253,1.43078864,0.00000000,0.00000000
-0.24834619,-1.99488461,-0.41231474,0.38186464,-1.42891645,0.00000000,0.00000000,0.56958866,2.01120353,1.09535491,0.34396359,1.42419410,0.00000000,0.00000000
-0.25607178,-1.98349583,-0.39906844,0.39862955,-1.42973161,0.00000000,0.00000000,0.56584769,2.02554703,1.08579898,0.33873239,1.41746998,0.00000000,0.00000000
-0.27000543,-1.97870708,-0.38627028,0.40721294,-1.43269491,0.00000000,0.00000000,0.55461895,2.03936696,1.07499635,0.32768825,1.40669179,0.00000000,0.00000000
-0.28777957,-1.98127663,-0.37469789,0.40829787,-1.43172300,0.00000000,0.00000000,0.53765249,2.05265546,1.06316042,0.31252962,1.39551604,0.00000000,0.00000000
-0.30658209,-1.99070191,-0.36514807,0.40341946,-1.42933011,0.00000000,0.00000000,0.51862085,2.06372428,1.05098677,0.29555896,1.37861276,0.00000000,0.00000000
-0.32414120,-2.00558424,-0.35813683,0.39443395,-1.42722464,0.00000000,0.00000000,0.49936536,2.07156134,1.03886008,0.27781761,1.36125743,0.00000000,0.00000000
-0.33873689,-2.02422333,-0.35391110,0.38311619,-1.42536449,0.00000000,0.00000000,0.47825655,2.07799625,1.02638400,0.25912118,1.34039688,0.00000000,0.00000000
-0.34908062,-2.04520583,-0.35255548,0.37088594,-1.43057954,0.00000000,0.00000000,0.45560235,2.08406115,1.01342893,0.24004783,1.32004654,0.00000000,0.00000000
-0.35438675,-2.06741619,-0.35401976,0.35878870,-1.43371856,0.00000000,0.00000000,0.43368214,2.08952093,1.00019562,0.22173364,1.29095042,0.00000000,0.00000000
-0.35428312,-2.08983850,-0.35816082,0.34760430,-1.43800163,0.00000000,0.00000000,0.41467035,2.09454107,0.98682714,0.20515187,1.25732100,0.00000000,0.00000000
-0.34860730,-2.11144924,-0.36480647,0.33793601,-1.44333732,0.00000000,0.00000000,0.39982831,2.09936023,0.97340715,0.19075230,1.22465932,0.00000000,0.00000000
-0.33725685,-2.13116932,-0.37379941,0.33026880,-1.44709945,0.00000000,0.00000000,0.38862094,2.10434079,0.95989645,0.17844209,1.18984389,0.00000000,0.00000000
-0.32008889,-2.14787316,-0.38502654,0.32502571,-1.44915593,0.00000000,0.00000000,0.37997425,2.10984850,0.94621259,0.16806480,1.15961480,0.00000000,0.00000000
-0.29691201,-2.16042566,-0.39842522,0.32259688,-1.45104158,0.00000000,0.00000000,0.37381962,2.11607599,0.93233335,0.15988339,1.12164879,0.00000000,0.00000000
-0.26756164,-2.16766357,-0.41396183,0.32334378,-1.45551336,0.00000000,0.00000000,0.37079340,2.12309194,0.91827643,0.15434526,1.08919966,0.00000000,0.00000000
-0.23201652,-2.16977596,-0.43158746,0.32761326,-1.45755327,0.00000000,0.00000000,0.37084973,2.13088536,0.90402591,0.15148266,1.05661190,0.00000000,0.00000000
-0.19056152,-2.16999316,-0.45119414,0.33568934,-1.45597172,0.00000000,0.00000000,0.37256026,2.13923407,0.88950849,0.15066794,1.02729166,0.00000000,0.00000000
-0.14409164,-2.17000008,-0.47257158,0.34755927,-1.45754755,0.00000000,0.00000000,0.37457070,2.14767075,0.87467146,0.15120211,0.99658525,0.00000000,0.00000000
-0.09466381,-2.17000008,-0.49533284,0.36248088,-1.45892560,0.00000000,0.00000000,0.37695131,2.15588307,0.85952383,0.15307909,0.96858829,0.00000000,0.00000000
-0.04578045,-2.16993189,-0.51888484,0.37860247,-1.45863986,0.00000000,0.00000000,0.38077861,2.16293979,0.84416521,0.15654947,0.94367242,0.00000000,0.00000000
-0.00151871,-2.16881371,-0.54259557,0.39320680,-1.45388341,0.00000000,0.00000000,0.38659352,2.16756535,0.82868230,0.16150650,0.92612207,0.00000000,0.00000000
0.03490322,-2.16427469,-0.56601876,0.40364128,-1.44576323,0.00000000,0.00000000,0.39366156,2.16955519,0.81302214,0.16759807,0.90851027,0.00000000,0.00000000
0.06171307,-2.15561962,-0.58897001,0.40801391,-1.44197154,0.00000000,0.00000000,0.40054044,2.16997576,0.79702330,0.17443709,0.89293766,0.00000000,0.00000000
0.07827953,-2.14365911,-0.61148953,0.40524709,-1.43356872,0.00000000,0.00000000,0.40581682,2.17000008,0.78049952,0.18166269,0.87615371,0.00000000,0.00000000
0.08460805,-2.12931514,-0.63378465,0.39483076,-1.42691219,0.00000000,0.00000000,0.40845740,2.17000008,0.76328820,0.18892583,0.85906965,0.00000000,0.00000000
0.08109216,-2.11353040,-0.65619773,0.37657493,-1.42196858,0.00000000,0.00000000,0.40756994,2.17000008,0.74524963,0.19569570,0.84358805,0.00000000,0.00000000
0.06843249,-2.09740472,-0.67915428,0.35048044,-1.42186832,0.00000000,0.00000000,0.40206590,2.17000008,0.72624868,0.20107137,0.82216209,0.00000000,0.00000000
0.04754340,-2.08197570,-0.70305616,0.31674606,-1.42147565,0.00000000,0.00000000,0.39176264,2.17000008,0.70627367,0.20416048,0.80043268,0.00000000,0.00000000
0.01933059,-2.06780982,-0.72815681,0.27579626,-1.42085433,0.00000000,0.00000000,0.37845773,2.17000008,0.68566746,0.20360525,0.77641493,0.00000000,0.00000000
-0.01558971,-2.05486560,-0.75450599,0.22818859,-1.41878247,0.00000000,0.00000000,0.36436874,2.17000008,0.66508305,0.19611961,0.74706066,0.00000000,0.00000000
-0.05658423,-2.04302025,-0.78207290,0.17454486,-1.41929340,0.00000000,0.00000000,0.35213888,2.17000008,0.64502579,0.17985742,0.70709836,0.00000000,0.00000000
-0.10280004,-2.03250241,-0.81081337,0.11554386,-1.42124617,0.00000000,0.00000000,0.34019625,2.17000008,0.62515497,0.15511845,0.67026085,0.00000000,0.00000000
-0.15346690,-2.02398062,-0.84060639,0.05183500,-1.42560935,0.00000000,0.00000000,0.33004802,2.17000008,0.60507423,0.12623847,0.63772857,0.00000000,0.00000000
-0.20717934,-2.01855278,-0.87122315,-0.01567424,-1.43353319,0.00000000,0.00000000,0.32296923,2.17000008,0.58460212,0.09501973,0.60746658,0.00000000,0.00000000
-0.26153222,-2.01734543,-0.90224940,-0.08558331,-1.43670011,0.00000000,0.00000000,0.31711611,2.17000008,0.56355369,0.06081437,0.58347142,0.00000000,0.00000000
-0.31349134,-2.02127790,-0.93304312,-0.15612993,-1.44042087,0.00000000,0.00000000,0.30585843,2.17000008,0.54180169,0.01941381,0.56266701,0.00000000,0.00000000
-0.35980576,-2.03060770,-0.96280682,-0.22526810,-1.44386482,0.00000000,0.00000000,0.28742263,2.16998792,0.51944810,-0.02709940,0.54988927,0.00000000,0.00000000
-0.39752799,-2.04464030,-0.99075657,-0.29085052,-1.44629192,0.00000000,0.00000000,0.25965437,2.16978073,0.49679565,-0.07648554,0.53612536,0.00000000,0.00000000
-0.42495039,-2.06211448,-1.01631141,-0.35115862,-1.44701159,0.00000000,0.00000000,0.22421406,2.16884613,0.47414088,-0.12710734,0.52749258,0.00000000,0.00000000
-0.44321132,-2.08166146,-1.03934264,-0.40571046,-1.44965327,0.00000000,0.00000000,0.18726484,2.16708016,0.45148507,-0.17654142,0.51922613,0.00000000,0.00000000
-0.45466167,-2.10060644,-1.06034517,-0.45416898,-1.45551372,0.00000000,0.00000000,0.15420930,2.16542339,0.42868197,-0.22243571,0.50974441,0.00000000,0.00000000
-0.45883322,-2.11452007,-1.08011806,-0.49445003,-1.46150613,0.00000000,0.00000000,0.12586956,2.16470885,0.40585330,-0.26388934,0.49842229,0.00000000,0.00000000
-0.45590565,-2.12107468,-1.09927571,-0.52554828,-1.47001588,0.00000000,0.00000000,0.10205438,2.16539311,0.38315782,-0.30053845,0.48945069,0.00000000,0.00000000
-0.44731480,-2.12130451,-1.11781192,-0.54816878,-1.47571409,0.00000000,0.00000000,0.08386822,2.16710186,0.36046126,-0.33214402,0.48402438,0.00000000,0.00000000
-0.43511045,-2.11798382,-1.13525689,-0.56396061,-1.47881258,0.00000000,0.00000000,0.07268568,2.16876841,0.33745658,-0.35873458,0.48104784,0.00000000,0.00000000
-0.42010197,-2.11280227,-1.15117311,-0.57383049,-1.48506248,0.00000000,0.00000000,0.06817461,2.16973591,0.31412399,-0.38059548,0.47653604,0.00000000,0.00000000
-0.40244776,-2.10617208,-1.16537786,-0.57813680,-1.49023938,0.00000000,0.00000000,0.06914935,2.16998482,0.29062030,-0.39828500,0.47280681,0.00000000,0.00000000
-0.38218489,-2.09831977,-1.17776728,-0.57719493,-1.49776304,0.00000000,0.00000000,0.07416347,2.17000008,0.26721007,-0.41258779,0.47470599,0.00000000,0.00000000
-0.35883793,-2.08976769,-1.18813384,-0.57117128,-1.50857294,0.00000000,0.00000000,0.08150974,2.17000008,0.24425934,-0.42461804,0.47215030,0.00000000,0.00000000
-0.33206016,-2.08116722,-1.19628179,-0.56035113,-1.52340686,0.00000000,0.00000000,0.08954839,2.17000008,0.22217847,-0.43555337,0.46895069,0.00000000,0.00000000
-0.30362329,-2.07285690,-1.20239246,-0.54606330,-1.53950298,0.00000000,0.00000000,0.09736957,2.17000008,0.20132630,-0.44592032,0.46674782,0.00000000,0.00000000
-0.27803260,-2.06485844,-1.20707250,-0.53106368,-1.55681014,0.00000000,0.00000000,0.10516372,2.17000008,0.18185315,-0.45569235,0.46452355,0.00000000,0.00000000
-0.25894618,-2.05760860,-1.21068060,-0.51781541,-1.57596540,0.00000000,0.00000000,0.11311387,2.17000008,0.16384980,-0.46526226,0.46822190,0.00000000,0.00000000
-0.24668723,-2.05195570,-1.21304679,-0.50700587,-1.59617126,0.00000000,0.00000000,0.12024027,2.17000008,0.14767276,-0.47547752,0.47114486,0.00000000,0.00000000
-0.24059613,-2.04809856,-1.21408045,-0.49851641,-1.61280441,0.00000000,0.00000000,0.12524848,2.17000008,0.13379511,-0.48675165,0.47096851,0.00000000,0.00000000
-0.24055988,-2.04568410,-1.21391499,-0.49233165,-1.63011730,0.00000000,0.00000000,0.12713622,2.17000008,0.12263343,-0.49897239,0.46879163,0.00000000,0.00000000
-0.24711810,-2.04430652,-1.21276963,-0.48876333,-1.64866340,0.00000000,0.00000000,0.12529281,2.17000008,0.11447074,-0.51183128,0.46493453,0.00000000,0.00000000
-0.26115754,-2.04368091,-1.21086800,-0.48832962,-1.67159164,0.00000000,0.00000000,0.11963158,2.17000008,0.10938163,-0.52513039,0.46160218,0.00000000,0.00000000
-0.28317440,-2.04371953,-1.20834243,-0.49133596,-1.69250894,0.00000000,0.00000000,0.11049240,2.17000008,0.10727056,-0.53900957,0.45912769,0.00000000,0.00000000
-0.31239948,-2.04457331,-1.20512807,-0.49736145,-1.71281934,0.00000000,0.00000000,0.09839527,2.17000008,0.10797526,-0.55404049,0.45342770,0.00000000,0.00000000
-0.34618455,-2.04618526,-1.20100212,-0.50482392,-1.73046899,0.00000000,0.00000000,0.08392666,2.17000008,0.11130588,-0.57111293,0.45248845,0.00000000,0.00000000
-0.38085023,-2.04881263,-1.19550347,-0.51193100,-1.74523008,0.00000000,0.00000000,0.06776106,2.17000008,0.11701751,-0.59117532,0.45003167,0.00000000,0.00000000
-0.41452938,-2.05479765,-1.18775904,-0.51949662,-1.76174402,0.00000000,0.00000000,0.05098336,2.17000008,0.12468822,-0.61478311,0.44900474,0.00000000,0.00000000
-0.44905975,-2.06384015,-1.17812514,-0.53058362,-1.77891910,0.00000000,0.00000000,0.03538557,2.17000008,0.13367419,-0.64123547,0.45359972,0.00000000,0.00000000
-0.48539135,-2.07311344,-1.16760015,-0.54637510,-1.79557025,0.00000000,0.00000000,0.02269177,2.17000008,0.14344084,-0.66830456,0.46262610,0.00000000,0.00000000
-0.51907450,-2.08329582,-1.15541804,-0.56519490,-1.80682552,0.00000000,0.00000000,0.01408190,2.17000008,0.15356152,-0.69369924,0.47074452,0.00000000,0.00000000
-0.54908049,-2.09533000,-1.14112902,-0.58708370,-1.81429195,0.00000000,0.00000000,0.01047681,2.17000008,0.16351324,-0.71584368,0.48056698,0.00000000,0.00000000
-0.57679117,-2.10902405,-1.12492526,-0.61320120,-1.81807077,0.00000000,0.00000000,0.01185696,2.17000008,0.17306161,-0.73382056,0.48649609,0.00000000,0.00000000
-0.60331672,-2.12370348,-1.10713780,-0.64442962,-1.82394421,0.00000000,0.00000000,0.01720453,2.17000008,0.18232925,-0.74728596,0.48882261,0.00000000,0.00000000
-0.62889439,-2.13874745,-1.08794892,-0.68104327,-1.82761586,0.00000000,0.00000000,0.02503913,2.17000008,0.19154222,-0.75617343,0.49138311,0.00000000,0.00000000
-0.65239280,-2.15383911,-1.06710124,-0.72247142,-1.82971787,0.00000000,0.00000000,0.03392512,2.17000008,0.20080031,-0.76032716,0.49261183,0.00000000,0.00000000
-0.67149633,-2.16598272,-1.04514086,-0.76467627,-1.83313954,0.00000000,0.00000000,0.04285160,2.17000008,0.20995176,-0.75934708,0.49263975,0.00000000,0.00000000
-0.68360329,-2.16975403,-1.02458489,-0.79844022,-1.83422065,0.00000000,0.00000000,0.05113193,2.17000008,0.21861702,-0.75290072,0.49189076,0.00000000,0.00000000
-0.68664390,-2.17000008,-1.00568545,-0.81965202,-1.83205855,0.00000000,0.00000000,0.05792825,2.17000008,0.22632307,-0.74130863,0.49564126,0.00000000,0.00000000
-0.68076140,-2.17000008,-0.98863065,-0.82779044,-1.83557498,0.00000000,0.00000000,0.06257094,2.17000008,0.23249841,-0.72565299,0.49876460,0.00000000,0.00000000
-0.66698605,-2.17000008,-0.97384584,-0.82292974,-1.83691669,0.00000000,0.00000000,0.06497363,2.17000008,0.23650606,-0.70773327,0.50320709,0.00000000,0.00000000
-0.64677417,-2.17000008,-0.96182084,-0.80542141,-1.83587253,0.00000000,0.00000000,0.06550853,2.17000008,0.23781221,-0.68987942,0.50682151,0.00000000,0.00000000
-0.62165141,-2.17000008,-0.95313984,-0.77567691,-1.83360267,0.00000000,0.00000000,0.06463960,2.17000008,0.23613147,-0.67447042,0.50961232,0.00000000,0.00000000
-0.59327352,-2.16986251,-0.94841617,-0.73454523,-1.83304846,0.00000000,0.00000000,0.06267431,2.17000008,0.23142743,-0.66344374,0.51319128,0.00000000,0.00000000
-0.56370628,-2.16760087,-0.94753289,-0.68584442,-1.83033359,0.00000000,0.00000000,0.05979487,2.17000008,0.22381884,-0.65802717,0.52244872,0.00000000,0.00000000
-0.53178596,-2.15834498,-0.94781703,-0.63583833,-1.83152211,0.00000000,0.00000000,0.05627840,2.16986680,0.21357235,-0.65838236,0.53207618,0.00000000,0.00000000
