isaac-sim2real/sage/motion_files/wr75s/amass/0-Eyes_Japan_Dataset_hamada_walk-03-sneak-hamada_poses_idx51.txt
l_joint1,l_joint2,l_joint3,l_joint4,l_joint5,l_joint6,l_joint7,r_joint1,r_joint2,r_joint3,r_joint4,r_joint5,r_joint6,r_joint7
-1.81092799,-0.73522574,-0.47245321,-0.20870927,-0.08427817,0.00000000,0.00000000,-0.86589539,0.97137713,0.05687325,-0.49413309,-0.14731406,0.00000000,0.00000000
-1.81045079,-0.73630202,-0.47223687,-0.20877807,-0.10160097,0.00000000,0.00000000,-0.86560231,0.97083110,0.05726643,-0.49432009,-0.16920829,0.00000000,0.00000000
-1.80953288,-0.73818040,-0.47180396,-0.20878179,-0.11435607,0.00000000,0.00000000,-0.86504740,0.96992689,0.05801772,-0.49463958,-0.18577957,0.00000000,0.00000000
-1.80819976,-0.74056739,-0.47115928,-0.20858322,-0.12498835,0.00000000,0.00000000,-0.86423683,0.96892059,0.05912551,-0.49505982,-0.19720736,0.00000000,0.00000000
-1.80648780,-0.74320906,-0.47031876,-0.20807827,-0.13766536,0.00000000,0.00000000,-0.86318707,0.96801078,0.06057933,-0.49553517,-0.21216244,0.00000000,0.00000000
-1.80443716,-0.74587709,-0.46929997,-0.20716646,-0.14660437,0.00000000,0.00000000,-0.86193573,0.96737337,0.06233984,-0.49598402,-0.22618471,0.00000000,0.00000000
-1.80208755,-0.74836242,-0.46812013,-0.20574901,-0.15691125,0.00000000,0.00000000,-0.86053687,0.96717417,0.06434302,-0.49633524,-0.23942955,0.00000000,0.00000000
-1.79947829,-0.75052482,-0.46679848,-0.20376638,-0.16302128,0.00000000,0.00000000,-0.85904491,0.96746796,0.06653163,-0.49659190,-0.24965014,0.00000000,0.00000000
-1.79664898,-0.75232244,-0.46536306,-0.20122877,-0.16934879,0.00000000,0.00000000,-0.85751247,0.96814871,0.06887232,-0.49683300,-0.25842103,0.00000000,0.00000000
-1.79364514,-0.75379503,-0.46385631,-0.19822095,-0.17328821,0.00000000,0.00000000,-0.85601276,0.96898347,0.07133546,-0.49715656,-0.26496768,0.00000000,0.00000000
-1.79052019,-0.75501591,-0.46233854,-0.19488846,-0.17843179,0.00000000,0.00000000,-0.85466617,0.96965504,0.07385992,-0.49763498,-0.27314728,0.00000000,0.00000000
-1.78734016,-0.75600576,-0.46088928,-0.19139983,-0.18273295,0.00000000,0.00000000,-0.85365510,0.96986222,0.07632351,-0.49831223,-0.28577185,0.00000000,0.00000000
-1.78417683,-0.75671768,-0.45959979,-0.18792321,-0.18432073,0.00000000,0.00000000,-0.85324967,0.96956623,0.07854928,-0.49921110,-0.29699892,0.00000000,0.00000000
-1.78110242,-0.75700760,-0.45856521,-0.18459059,-0.18644682,0.00000000,0.00000000,-0.85363883,0.96875340,0.08033474,-0.50033391,-0.30462259,0.00000000,0.00000000
-1.77816892,-0.75664669,-0.45785743,-0.18142876,-0.18857189,0.00000000,0.00000000,-0.85467446,0.96717191,0.08153202,-0.50172281,-0.31398097,0.00000000,0.00000000
-1.77533436,-0.75600159,-0.45743179,-0.17850526,-0.19608882,0.00000000,0.00000000,-0.85626918,0.96542561,0.08226595,-0.50342250,-0.32285258,0.00000000,0.00000000
-1.77255428,-0.75537187,-0.45724332,-0.17583300,-0.20769101,0.00000000,0.00000000,-0.85808426,0.96384251,0.08268066,-0.50533944,-0.33542395,0.00000000,0.00000000
-1.76979911,-0.75498843,-0.45726761,-0.17343174,-0.21421644,0.00000000,0.00000000,-0.85980695,0.96255416,0.08288933,-0.50717735,-0.34684548,0.00000000,0.00000000
-1.76705337,-0.75496238,-0.45749527,-0.17130087,-0.22130987,0.00000000,0.00000000,-0.86126643,0.96168941,0.08298792,-0.50860763,-0.35422143,0.00000000,0.00000000
-1.76431572,-0.75529522,-0.45793322,-0.16944277,-0.22677478,0.00000000,0.00000000,-0.86237150,0.96125066,0.08306747,-0.50941169,-0.35536328,0.00000000,0.00000000
-1.76159966,-0.75593090,-0.45860431,-0.16789806,-0.23604444,0.00000000,0.00000000,-0.86308032,0.96113408,0.08321619,-0.50953102,-0.35758451,0.00000000,0.00000000
-1.75892842,-0.75675642,-0.45954347,-0.16673353,-0.24506377,0.00000000,0.00000000,-0.86340147,0.96118081,0.08350091,-0.50903398,-0.35717502,0.00000000,0.00000000
-1.75632846,-0.75763315,-0.46078700,-0.16601853,-0.25293213,0.00000000,0.00000000,-0.86339074,0.96121013,0.08395201,-0.50803995,-0.34593776,0.00000000,0.00000000
-1.75381911,-0.75845367,-0.46236023,-0.16581349,-0.26303366,0.00000000,0.00000000,-0.86312842,0.96104497,0.08456603,-0.50665981,-0.33969414,0.00000000,0.00000000
-1.75140929,-0.75916868,-0.46427536,-0.16617523,-0.27579886,0.00000000,0.00000000,-0.86269528,0.96051097,0.08532152,-0.50498158,-0.33526322,0.00000000,0.00000000
-1.74910235,-0.75976300,-0.46653911,-0.16716930,-0.28408995,0.00000000,0.00000000,-0.86217290,0.95940840,0.08618984,-0.50308824,-0.32446739,0.00000000,0.00000000
-1.74689865,-0.76023096,-0.46915650,-0.16887243,-0.28998041,0.00000000,0.00000000,-0.86164600,0.95751327,0.08713539,-0.50107926,-0.31033555,0.00000000,0.00000000
-1.74478734,-0.76057756,-0.47211930,-0.17134263,-0.29876947,0.00000000,0.00000000,-0.86118209,0.95466572,0.08811203,-0.49907041,-0.29702026,0.00000000,0.00000000
-1.74273157,-0.76081115,-0.47538567,-0.17455584,-0.30298248,0.00000000,0.00000000,-0.86080426,0.95090830,0.08905750,-0.49716574,-0.28168768,0.00000000,0.00000000
-1.74065900,-0.76094300,-0.47886479,-0.17835894,-0.29746583,0.00000000,0.00000000,-0.86047816,0.94654727,0.08989355,-0.49542326,-0.25166595,0.00000000,0.00000000
-1.73845887,-0.76100427,-0.48241648,-0.18247934,-0.30108982,0.00000000,0.00000000,-0.86011666,0.94208044,0.09054035,-0.49384865,-0.21975259,0.00000000,0.00000000
-1.73599815,-0.76105744,-0.48587286,-0.18659556,-0.30167544,0.00000000,0.00000000,-0.85961032,0.93801832,0.09093143,-0.49241918,-0.18735524,0.00000000,0.00000000
-1.73314500,-0.76117694,-0.48907086,-0.19042270,-0.30866212,0.00000000,0.00000000,-0.85887885,0.93471563,0.09101114,-0.49111372,-0.16272603,0.00000000,0.00000000
-1.72978401,-0.76142752,-0.49187124,-0.19375557,-0.31661639,0.00000000,0.00000000,-0.85789675,0.93232024,0.09072690,-0.48993129,-0.14291216,0.00000000,0.00000000
-1.72581470,-0.76185602,-0.49415538,-0.19645296,-0.32241151,0.00000000,0.00000000,-0.85666865,0.93084258,0.09003664,-0.48889318,-0.11735995,0.00000000,0.00000000
-1.72115004,-0.76251763,-0.49582323,-0.19843617,-0.33118621,0.00000000,0.00000000,-0.85519075,0.93021435,0.08892959,-0.48802948,-0.09042624,0.00000000,0.00000000
-1.71572626,-0.76349443,-0.49680501,-0.19971457,-0.33833715,0.00000000,0.00000000,-0.85344034,0.93026835,0.08744217,-0.48735708,-0.06558944,0.00000000,0.00000000
-1.70951223,-0.76483005,-0.49707308,-0.20036092,-0.34882683,0.00000000,0.00000000,-0.85139591,0.93073076,0.08565038,-0.48685640,-0.04721348,0.00000000,0.00000000
-1.70250952,-0.76643592,-0.49663717,-0.20043573,-0.35256413,0.00000000,0.00000000,-0.84906310,0.93128687,0.08364157,-0.48646420,-0.03189556,0.00000000,0.00000000
-1.69473636,-0.76809365,-0.49552441,-0.19993640,-0.36256859,0.00000000,0.00000000,-0.84646749,0.93167907,0.08149208,-0.48609808,-0.01658696,0.00000000,0.00000000
-1.68620610,-0.76957840,-0.49375346,-0.19881329,-0.37428921,0.00000000,0.00000000,-0.84362060,0.93178439,0.07925563,-0.48568892,-0.00309774,0.00000000,0.00000000
-1.67691088,-0.77078146,-0.49131927,-0.19701423,-0.38705531,0.00000000,0.00000000,-0.84050786,0.93163198,0.07695119,-0.48518515,0.01341601,0.00000000,0.00000000
-1.66683567,-0.77164215,-0.48820826,-0.19448400,-0.40495166,0.00000000,0.00000000,-0.83711314,0.93139988,0.07456000,-0.48455364,0.02887916,0.00000000,0.00000000
-1.65597260,-0.77210087,-0.48441765,-0.19118969,-0.42704523,0.00000000,0.00000000,-0.83342838,0.93137640,0.07203141,-0.48379415,0.03853916,0.00000000,0.00000000
-1.64431810,-0.77224433,-0.47995263,-0.18721668,-0.45027292,0.00000000,0.00000000,-0.82944989,0.93158907,0.06931257,-0.48292980,0.04867403,0.00000000,0.00000000
-1.63188481,-0.77224463,-0.47483844,-0.18276361,-0.47072938,0.00000000,0.00000000,-0.82522196,0.93170011,0.06636617,-0.48201531,0.06070051,0.00000000,0.00000000
-1.61868668,-0.77234900,-0.46910304,-0.17808960,-0.48835984,0.00000000,0.00000000,-0.82086682,0.93155974,0.06319749,-0.48114160,0.07567011,0.00000000,0.00000000
-1.60473680,-0.77273929,-0.46277076,-0.17340766,-0.51381844,0.00000000,0.00000000,-0.81644315,0.93160248,0.05980359,-0.48041627,0.09574641,0.00000000,0.00000000
-1.59003508,-0.77342129,-0.45584708,-0.16877252,-0.54153752,0.00000000,0.00000000,-0.81189466,0.93203986,0.05613819,-0.47992185,0.10792431,0.00000000,0.00000000
-1.57453799,-0.77436221,-0.44828263,-0.16406687,-0.56303108,0.00000000,0.00000000,-0.80719858,0.93172455,0.05217693,-0.47966811,0.11873905,0.00000000,0.00000000
-1.55819738,-0.77541482,-0.44002175,-0.15907741,-0.59072042,0.00000000,0.00000000,-0.80222207,0.93023705,0.04784347,-0.47965547,0.13242486,0.00000000,0.00000000
-1.54093742,-0.77686495,-0.43097875,-0.15375386,-0.62214482,0.00000000,0.00000000,-0.79702622,0.92871189,0.04315142,-0.47983295,0.14202975,0.00000000,0.00000000
-1.52266991,-0.77892435,-0.42105415,-0.14796090,-0.65083086,0.00000000,0.00000000,-0.79160178,0.92714328,0.03815458,-0.48008427,0.14704898,0.00000000,0.00000000
-1.50333369,-0.78157705,-0.41018209,-0.14151371,-0.67893749,0.00000000,0.00000000,-0.78577042,0.92545420,0.03285549,-0.48024267,0.15814698,0.00000000,0.00000000
-1.48288476,-0.78467584,-0.39832011,-0.13420841,-0.70853019,0.00000000,0.00000000,-0.77948874,0.92362893,0.02726897,-0.48018283,0.16901408,0.00000000,0.00000000
-1.46129894,-0.78805065,-0.38545394,-0.12588955,-0.73888046,0.00000000,0.00000000,-0.77279615,0.92153549,0.02141192,-0.47984174,0.17505491,0.00000000,0.00000000
-1.43857229,-0.79154581,-0.37159610,-0.11645676,-0.76836526,0.00000000,0.00000000,-0.76571870,0.91905361,0.01529682,-0.47919229,0.17951244,0.00000000,0.00000000
-1.41471219,-0.79505467,-0.35677630,-0.10585611,-0.79837841,0.00000000,0.00000000,-0.75825936,0.91608447,0.00894411,-0.47824293,0.18247704,0.00000000,0.00000000
-1.38973796,-0.79853249,-0.34104088,-0.09407999,-0.82806867,0.00000000,0.00000000,-0.75039971,0.91258013,0.00237999,-0.47704941,0.17949378,0.00000000,0.00000000
-1.36368167,-0.80199170,-0.32445425,-0.08116402,-0.86199892,0.00000000,0.00000000,-0.74210113,0.90858597,-0.00437138,-0.47571498,0.17009194,0.00000000,0.00000000
-1.33659089,-0.80551106,-0.30710155,-0.06718896,-0.88923883,0.00000000,0.00000000,-0.73330659,0.90426904,-0.01129098,-0.47437412,0.16245481,0.00000000,0.00000000
-1.30853105,-0.80922937,-0.28909239,-0.05227771,-0.91677421,0.00000000,0.00000000,-0.72395056,0.89988720,-0.01836573,-0.47316059,0.15425077,0.00000000,0.00000000
-1.27959061,-0.81329530,-0.27056417,-0.03657487,-0.93974978,0.00000000,0.00000000,-0.71397829,0.89570135,-0.02558797,-0.47217095,0.15143462,0.00000000,0.00000000
-1.24987948,-0.81781274,-0.25168151,-0.02022211,-0.96385509,0.00000000,0.00000000,-0.70334917,0.89190722,-0.03294587,-0.47144711,0.14798389,0.00000000,0.00000000
-1.21952462,-0.82282114,-0.23263164,-0.00334672,-0.98928154,0.00000000,0.00000000,-0.69202071,0.88863552,-0.04040595,-0.47099224,0.13936867,0.00000000,0.00000000
-1.18866336,-0.82830179,-0.21361908,0.01393636,-1.01793396,0.00000000,0.00000000,-0.67993146,0.88597351,-0.04790059,-0.47080365,0.12406884,0.00000000,0.00000000
-1.15743971,-0.83420515,-0.19486195,0.03151415,-1.04693723,0.00000000,0.00000000,-0.66699767,0.88397104,-0.05532776,-0.47089958,0.10847609,0.00000000,0.00000000
-1.12600064,-0.84049195,-0.17658909,0.04926267,-1.07709873,0.00000000,0.00000000,-0.65311223,0.88266164,-0.06255641,-0.47132546,0.09352339,0.00000000,0.00000000
-1.09449470,-0.84717363,-0.15903759,0.06703489,-1.11239064,0.00000000,0.00000000,-0.63814199,0.88210785,-0.06942937,-0.47214195,0.07761470,0.00000000,0.00000000
-1.06306851,-0.85435140,-0.14245006,0.08464622,-1.14589429,0.00000000,0.00000000,-0.62192214,0.88245565,-0.07576215,-0.47340870,0.05733643,0.00000000,0.00000000
-1.03186250,-0.86224449,-0.12707120,0.10186323,-1.18126011,0.00000000,0.00000000,-0.60425097,0.88399309,-0.08134058,-0.47516990,0.03842802,0.00000000,0.00000000
-1.00100243,-0.87120074,-0.11314316,0.11840160,-1.21479797,0.00000000,0.00000000,-0.58489221,0.88719743,-0.08592242,-0.47743499,0.02614284,0.00000000,0.00000000
-0.97058958,-0.88170958,-0.10090053,0.13391909,-1.24415374,0.00000000,0.00000000,-0.56358814,0.89274877,-0.08924612,-0.48013186,0.01503615,0.00000000,0.00000000
-0.94068640,-0.89444858,-0.09056545,0.14799508,-1.26846004,0.00000000,0.00000000,-0.54007238,0.90153372,-0.09103814,-0.48301032,0.00464970,0.00000000,0.00000000
-0.91130215,-0.91031462,-0.08234077,0.16012317,-1.29198730,0.00000000,0.00000000,-0.51406276,0.91467214,-0.09099825,-0.48550519,-0.00453416,0.00000000,0.00000000
-0.88237691,-0.93036616,-0.07640073,0.16973768,-1.31027079,0.00000000,0.00000000,-0.48523447,0.93354279,-0.08875035,-0.48661858,-0.01599938,0.00000000,0.00000000
-0.85376734,-0.95564443,-0.07288045,0.17627023,-1.32688653,0.00000000,0.00000000,-0.45320871,0.95971102,-0.08377855,-0.48492536,-0.02522424,0.00000000,0.00000000
-0.82523960,-0.98698050,-0.07186307,0.17920263,-1.33750927,0.00000000,0.00000000,-0.41761267,0.99464291,-0.07541265,-0.47879785,-0.03747089,0.00000000,0.00000000
-0.79647869,-1.02493465,-0.07336191,0.17808597,-1.34915984,0.00000000,0.00000000,-0.37823704,1.03924978,-0.06292861,-0.46680367,-0.04998602,0.00000000,0.00000000
-0.76712066,-1.06987226,-0.07730231,0.17253700,-1.36305380,0.00000000,0.00000000,-0.33521554,1.09351206,-0.04572855,-0.44805318,-0.06330694,0.00000000,0.00000000
-0.73679376,-1.12198126,-0.08351570,0.16227683,-1.37163448,0.00000000,0.00000000,-0.28912321,1.15642476,-0.02347710,-0.42231032,-0.07795326,0.00000000,0.00000000
-0.70514476,-1.18112433,-0.09175285,0.14724353,-1.37748885,0.00000000,0.00000000,-0.24097177,1.22631001,0.00386717,-0.38989913,-0.09530226,0.00000000,0.00000000
-0.67185062,-1.24670887,-0.10170859,0.12768322,-1.38493252,0.00000000,0.00000000,-0.19213082,1.30129933,0.03608653,-0.35154161,-0.10935776,0.00000000,0.00000000
-0.63664961,-1.31773090,-0.11304233,0.10412306,-1.39374411,0.00000000,0.00000000,-0.14419353,1.37963152,0.07275393,-0.30820978,-0.12716408,0.00000000,0.00000000
-0.59940571,-1.39288914,-0.12539376,0.07727778,-1.39867628,0.00000000,0.00000000,-0.09882133,1.45967603,0.11327770,-0.26101986,-0.13971481,0.00000000,0.00000000
-0.56017530,-1.47067928,-0.13840197,0.04796276,-1.40219343,0.00000000,0.00000000,-0.05759284,1.53987682,0.15694922,-0.21117158,-0.15704881,0.00000000,0.00000000
-0.51927954,-1.54946971,-0.15172721,0.01702484,-1.40703022,0.00000000,0.00000000,-0.02184344,1.61871421,0.20299323,-0.15991946,-0.17639750,0.00000000,0.00000000
-0.47737375,-1.62757134,-0.16507487,-0.01471955,-1.40951455,0.00000000,0.00000000,0.00750244,1.69466376,0.25061992,-0.10854612,-0.19745886,0.00000000,0.00000000
-0.43549019,-1.70332348,-0.17822073,-0.04654867,-1.41725540,0.00000000,0.00000000,0.03008408,1.76616907,0.29908198,-0.05830883,-0.21861126,0.00000000,0.00000000
-0.39502543,-1.77519679,-0.19103335,-0.07789632,-1.42344868,0.00000000,0.00000000,0.04619389,1.83170950,0.34773457,-0.01033114,-0.23752941,0.00000000,0.00000000
-0.35762620,-1.84195173,-0.20348407,-0.10841204,-1.42897582,0.00000000,0.00000000,0.05670736,1.89000547,0.39608434,0.03455094,-0.25915074,0.00000000,0.00000000
-0.32499033,-1.90307307,-0.21563299,-0.13814805,-1.43534994,0.00000000,0.00000000,0.06279394,1.94024384,0.44380176,0.07588644,-0.27798471,0.00000000,0.00000000
-0.29855636,-1.95886314,-0.22758356,-0.16753998,-1.44877326,0.00000000,0.00000000,0.06555218,1.98224878,0.49068367,0.11361618,-0.29922730,0.00000000,0.00000000
-0.27882189,-2.00901318,-0.23940547,-0.19658858,-1.46024787,0.00000000,0.00000000,0.06569360,2.01641774,0.53658694,0.14792943,-0.31693834,0.00000000,0.00000000
-0.26557946,-2.05180025,-0.25113070,-0.22469939,-1.46815014,0.00000000,0.00000000,0.06332359,2.04342222,0.58136690,0.17900811,-0.33139494,0.00000000,0.00000000
-0.25897330,-2.08697748,-0.26278251,-0.25251180,-1.47602808,0.00000000,0.00000000,0.05817351,2.06410742,0.62485772,0.20700590,-0.34450176,0.00000000,0.00000000
-0.25941572,-2.11624432,-0.27435425,-0.28172883,-1.48034060,0.00000000,0.00000000,0.05017481,2.07958245,0.66689748,0.23225009,-0.35245982,0.00000000,0.00000000
-0.26666203,-2.14005399,-0.28578904,-0.31284931,-1.48219609,0.00000000,0.00000000,0.03951912,2.09106994,0.70733804,0.25520417,-0.35854611,0.00000000,0.00000000
-0.28002691,-2.15749288,-0.29702285,-0.34529549,-1.48581231,0.00000000,0.00000000,0.02669435,2.09983468,0.74605346,0.27646860,-0.36042476,0.00000000,0.00000000
-0.29926044,-2.16728592,-0.30810657,-0.37830490,-1.49036932,0.00000000,0.00000000,0.01231420,2.10698843,0.78293890,0.29664525,-0.36032519,0.00000000,0.00000000
-0.32457110,-2.16984010,-0.31926227,-0.41069925,-1.49171972,0.00000000,0.00000000,-0.00322682,2.11326885,0.81789780,0.31612423,-0.35701483,0.00000000,0.00000000
-0.35588187,-2.17000008,-0.33073685,-0.44076556,-1.49439812,0.00000000,0.00000000,-0.01980874,2.11900425,0.85084939,0.33504927,-0.35600752,0.00000000,0.00000000
-0.39222765,-2.17000008,-0.34254181,-0.46699899,-1.49687743,0.00000000,0.00000000,-0.03716893,2.12429309,0.88177007,0.35354736,-0.35487393,0.00000000,0.00000000
-0.43195200,-2.17000008,-0.35437721,-0.48873430,-1.50000119,0.00000000,0.00000000,-0.05473397,2.12909842,0.91071039,0.37182564,-0.35927251,0.00000000,0.00000000
-0.47300327,-2.17000008,-0.36566874,-0.50616872,-1.50340867,0.00000000,0.00000000,-0.07180674,2.13322639,0.93778139,0.39007977,-0.36395490,0.00000000,0.00000000
-0.51318520,-2.17000008,-0.37569186,-0.51991963,-1.51194346,0.00000000,0.00000000,-0.08770753,2.13631344,0.96314329,0.40843138,-0.36980617,0.00000000,0.00000000
-0.55046427,-2.17000008,-0.38374352,-0.53060883,-1.51823485,0.00000000,0.00000000,-0.10185433,2.13784313,0.98700029,0.42690668,-0.37883976,0.00000000,0.00000000
-0.58327192,-2.17000008,-0.38928747,-0.53874242,-1.53143585,0.00000000,0.00000000,-0.11382880,2.13723016,1.00958490,0.44545209,-0.38567796,0.00000000,0.00000000
-0.61059433,-2.17000008,-0.39201188,-0.54472423,-1.53916967,0.00000000,0.00000000,-0.12349790,2.13422871,1.03106964,0.46405962,-0.39067638,0.00000000,0.00000000
-0.63184130,-2.17000008,-0.39179337,-0.54887879,-1.54670024,0.00000000,0.00000000,-0.13105328,2.12936234,1.05146766,0.48291066,-0.39265919,0.00000000,0.00000000
-0.64664364,-2.17000008,-0.38857636,-0.55163980,-1.54708171,0.00000000,0.00000000,-0.13652425,2.12314820,1.07081759,0.50217813,-0.39508551,0.00000000,0.00000000
-0.65470868,-2.17000008,-0.38232747,-0.55352348,-1.54759276,0.00000000,0.00000000,-0.13969032,2.11618900,1.08917427,0.52211452,-0.39728993,0.00000000,0.00000000
-0.65584981,-2.17000008,-0.37305996,-0.55508816,-1.54682767,0.00000000,0.00000000,-0.13951457,2.10884857,1.10681033,0.54331690,-0.39970422,0.00000000,0.00000000
-0.65009916,-2.17000008,-0.36089689,-0.55685103,-1.54462421,0.00000000,0.00000000,-0.13563009,2.10212803,1.12370086,0.56659168,-0.39831802,0.00000000,0.00000000
-0.63779056,-2.17000008,-0.34619933,-0.55884612,-1.54128599,0.00000000,0.00000000,-0.13053079,2.09887218,1.13876176,0.59343141,-0.40324643,0.00000000,0.00000000
-0.61959428,-2.17000008,-0.32962754,-0.56033260,-1.53961337,0.00000000,0.00000000,-0.12199495,2.09692621,1.15311992,0.62760115,-0.41074678,0.00000000,0.00000000
-0.59636486,-2.17000008,-0.31187439,-0.56064463,-1.53992927,0.00000000,0.00000000,-0.11103484,2.09369826,1.16756618,0.66854513,-0.41369766,0.00000000,0.00000000
-0.56899244,-2.17000008,-0.29356596,-0.55930507,-1.54103541,0.00000000,0.00000000,-0.09989526,2.08829379,1.18215096,0.71430469,-0.41492566,0.00000000,0.00000000
-0.53844613,-2.17000008,-0.27529085,-0.55582333,-1.54204869,0.00000000,0.00000000,-0.09018499,2.08054590,1.19673705,0.76333928,-0.41525614,0.00000000,0.00000000
-0.50604755,-2.17000008,-0.25765413,-0.54976338,-1.54801154,0.00000000,0.00000000,-0.08303331,2.07039833,1.21120417,0.81429780,-0.41484466,0.00000000,0.00000000
-0.47349519,-2.17000008,-0.24126898,-0.54085463,-1.55531383,0.00000000,0.00000000,-0.07874039,2.05732322,1.22576904,0.86605251,-0.42000198,0.00000000,0.00000000
-0.44211605,-2.17000008,-0.22657619,-0.52883869,-1.56277609,0.00000000,0.00000000,-0.07710768,2.04066277,1.24078596,0.91762298,-0.42327854,0.00000000,0.00000000
-0.41238827,-2.17000008,-0.21373725,-0.51335758,-1.56412315,0.00000000,0.00000000,-0.07808607,2.02057838,1.25618827,0.96813053,-0.42347875,0.00000000,0.00000000
-0.38426629,-2.17000008,-0.20272163,-0.49412253,-1.57211304,0.00000000,0.00000000,-0.08174679,1.99795461,1.27153206,1.01682055,-0.42682791,0.00000000,0.00000000
-0.35748261,-2.17000008,-0.19339326,-0.47103992,-1.58621168,0.00000000,0.00000000,-0.08810147,1.97393394,1.28624213,1.06303334,-0.42992279,0.00000000,0.00000000
-0.33169326,-2.17000008,-0.18556082,-0.44424537,-1.59484410,0.00000000,0.00000000,-0.09707415,1.94967186,1.29973090,1.10614467,-0.43031520,0.00000000,0.00000000
-0.30664387,-2.17000008,-0.17902739,-0.41414174,-1.60689592,0.00000000,0.00000000,-0.10843977,1.92619884,1.31148684,1.14556432,-0.43654430,0.00000000,0.00000000
-0.28240028,-2.17000008,-0.17364730,-0.38146871,-1.62395573,0.00000000,0.00000000,-0.12164655,1.90430772,1.32118309,1.18082631,-0.43616900,0.00000000,0.00000000
-0.25960767,-2.16999221,-0.16937648,-0.34740657,-1.63999176,0.00000000,0.00000000,-0.13559538,1.88450253,1.32876587,1.21173072,-0.43765956,0.00000000,0.00000000
-0.23957573,-2.16981959,-0.16627130,-0.31365782,-1.65233707,0.00000000,0.00000000,-0.14861712,1.86702895,1.33446097,1.23838878,-0.44140205,0.00000000,0.00000000
-0.22385256,-2.16863656,-0.16439109,-0.28236493,-1.66310322,0.00000000,0.00000000,-0.15901130,1.85196221,1.33864343,1.26093090,-0.44463658,0.00000000,0.00000000
-0.21336959,-2.16582680,-0.16365783,-0.25580457,-1.67261112,0.00000000,0.00000000,-0.16599000,1.83932757,1.34158707,1.27898169,-0.45383972,0.00000000,0.00000000
-0.20785153,-2.16464114,-0.16378950,-0.23643668,-1.68316782,0.00000000,0.00000000,-0.16980350,1.82929599,1.34324074,1.29169536,-0.46651086,0.00000000,0.00000000
-0.20499602,-2.16730499,-0.16429394,-0.22447605,-1.69080150,0.00000000,0.00000000,-0.17084914,1.82241797,1.34312713,1.29848540,-0.46832997,0.00000000,0.00000000
-0.20171529,-2.16897178,-0.16476455,-0.21468709,-1.69579899,0.00000000,0.00000000,-0.16920719,1.81938136,1.34063113,1.29925179,-0.46564308,0.00000000,0.00000000
-0.19831415,-2.16972303,-0.16517352,-0.20593122,-1.69603741,0.00000000,0.00000000,-0.16482945,1.82030618,1.33561420,1.29393315,-0.46618629,0.00000000,0.00000000
-0.19488865,-2.16998243,-0.16552815,-0.19718495,-1.69986856,0.00000000,0.00000000,-0.15760219,1.82492125,1.32827210,1.28255439,-0.45959041,0.00000000,0.00000000
-0.19142871,-2.17000008,-0.16589157,-0.18726838,-1.69782674,0.00000000,0.00000000,-0.14743334,1.83274937,1.31895661,1.26525617,-0.44856650,0.00000000,0.00000000
-0.18799680,-2.17000008,-0.16636877,-0.17574722,-1.69364238,0.00000000,0.00000000,-0.13437302,1.84322441,1.30804849,1.24225879,-0.43834463,0.00000000,0.00000000
-0.18450172,-2.17000008,-0.16705889,-0.16268186,-1.69182396,0.00000000,0.00000000,-0.11862608,1.85579777,1.29586399,1.21388566,-0.42993569,0.00000000,0.00000000
-0.18073824,-2.17000008,-0.16803886,-0.14848228,-1.69944572,0.00000000,0.00000000,-0.10053641,1.86998153,1.28262675,1.18056059,-0.41800275,0.00000000,0.00000000
-0.17653921,-2.17000008,-0.16936150,-0.13387531,-1.70950758,0.00000000,0.00000000,-0.08050708,1.88539648,1.26845086,1.14283395,-0.40370315,0.00000000,0.00000000
-0.17188016,-2.17000008,-0.17106725,-0.11955651,-1.72414553,0.00000000,0.00000000,-0.05903071,1.90162802,1.25342250,1.10124826,-0.39116398,0.00000000,0.00000000
-0.16694841,-2.17000008,-0.17319091,-0.10623587,-1.73723161,0.00000000,0.00000000,-0.03654808,1.91831577,1.23762834,1.05642855,-0.37975785,0.00000000,0.00000000
-0.16207972,-2.17000008,-0.17575721,-0.09478544,-1.75436771,0.00000000,0.00000000,-0.01338863,1.93528318,1.22113764,1.00914752,-0.36126867,0.00000000,0.00000000
-0.15774046,-2.17000008,-0.17878219,-0.08575860,-1.77200544,0.00000000,0.00000000,0.01003793,1.95239818,1.20399117,0.96012175,-0.33430946,0.00000000,0.00000000
-0.15441820,-2.17000008,-0.18226293,-0.07944607,-1.78653431,0.00000000,0.00000000,0.03340834,1.96968842,1.18621147,0.91015869,-0.31382263,0.00000000,0.00000000
-0.15230291,-2.17000008,-0.18617530,-0.07603034,-1.79773200,0.00000000,0.00000000,0.05622594,1.98710191,1.16781282,0.85990125,-0.29266256,0.00000000,0.00000000
-0.15139569,-2.17000008,-0.19047584,-0.07555910,-1.80720246,0.00000000,0.00000000,0.07789011,2.00474405,1.14871788,0.80994111,-0.26642591,0.00000000,0.00000000
-0.15145625,-2.17000008,-0.19510069,-0.07794579,-1.80960846,0.00000000,0.00000000,0.09782803,2.02276278,1.12885416,0.76083308,-0.23779882,0.00000000,0.00000000
-0.15197700,-2.17000008,-0.19995943,-0.08278311,-1.80921340,0.00000000,0.00000000,0.11548783,2.04133320,1.10816753,0.71308082,-0.20688397,0.00000000,0.00000000
-0.15249060,-2.17000008,-0.20496568,-0.08971082,-1.80732405,0.00000000,0.00000000,0.13014580,2.06049585,1.08662617,0.66695768,-0.17936085,0.00000000,0.00000000
-0.15268618,-2.17000008,-0.21005647,-0.09860971,-1.81050718,0.00000000,0.00000000,0.14090344,2.07988620,1.06429827,0.62243581,-0.15873837,0.00000000,0.00000000
-0.15277778,-2.17000008,-0.21523377,-0.10982320,-1.81373727,0.00000000,0.00000000,0.14679176,2.09879017,1.04132473,0.57930225,-0.14008555,0.00000000,0.00000000
-0.15345807,-2.17000008,-0.22056545,-0.12414023,-1.81549644,0.00000000,0.00000000,0.14705086,2.11649966,1.01783562,0.53742015,-0.11960340,0.00000000,0.00000000
-0.15508883,-2.17000008,-0.22611357,-0.14221337,-1.82587123,0.00000000,0.00000000,0.14225517,2.13277173,0.99399334,0.49736959,-0.10367742,0.00000000,0.00000000
-0.16115518,-2.17000008,-0.23229739,-0.16442177,-1.83974564,0.00000000,0.00000000,0.13526329,2.14769101,0.97017062,0.46085575,-0.08958583,0.00000000,0.00000000
-0.17986372,-2.17000008,-0.24008679,-0.19083083,-1.85560608,0.00000000,0.00000000,0.12837508,2.16020775,0.94685608,0.42893159,-0.08188188,0.00000000,0.00000000
-0.20781896,-2.17000008,-0.24939567,-0.21789096,-1.87215543,0.00000000,0.00000000,0.12077545,2.16783237,0.92436314,0.40077445,-0.07387801,0.00000000,0.00000000
-0.24302103,-2.17000008,-0.26014084,-0.24333511,-1.89649749,0.00000000,0.00000000,0.11109511,2.16987252,0.90293694,0.37521175,-0.06130954,0.00000000,0.00000000
-0.28401166,-2.17000008,-0.27217892,-0.26587474,-1.91529942,0.00000000,0.00000000,0.09851623,2.17000008,0.88279283,0.35137385,-0.05163177,0.00000000,0.00000000
-0.32841408,-2.17000008,-0.28520247,-0.28462943,-1.93342423,0.00000000,0.00000000,0.08280867,2.17000008,0.86409765,0.32879633,-0.03838047,0.00000000,0.00000000
-0.37414932,-2.17000008,-0.29887754,-0.29920253,-1.94866431,0.00000000,0.00000000,0.06489290,2.17000008,0.84697807,0.30793557,-0.02039658,0.00000000,0.00000000
-0.41983524,-2.17000008,-0.31286407,-0.30998251,-1.96693528,0.00000000,0.00000000,0.04499586,2.17000008,0.83134001,0.28853112,-0.00333463,0.00000000,0.00000000
-0.46478525,-2.17000008,-0.32681295,-0.31824401,-1.98576224,0.00000000,0.00000000,0.01996426,2.17000008,0.81661898,0.26757735,0.01087940,0.00000000,0.00000000
-0.50851935,-2.17000008,-0.34040675,-0.32510525,-2.00683689,0.00000000,0.00000000,-0.00646801,2.17000008,0.80253613,0.24794185,0.02813020,0.00000000,0.00000000
-0.55048472,-2.17000008,-0.35339147,-0.33092389,-2.02426934,0.00000000,0.00000000,-0.03346900,2.17000008,0.78869623,0.23127063,0.03821963,0.00000000,0.00000000
-0.58978486,-2.17000008,-0.36549148,-0.33569470,-2.04442501,0.00000000,0.00000000,-0.06091591,2.17000008,0.77494425,0.21757595,0.04365510,0.00000000,0.00000000
-0.62522012,-2.17000008,-0.37637964,-0.33940670,-2.06937671,0.00000000,0.00000000,-0.08749241,2.17000008,0.76136512,0.20659724,0.04966775,0.00000000,0.00000000
-0.65570682,-2.17000008,-0.38573894,-0.34222376,-2.09271026,0.00000000,0.00000000,-0.11142808,2.17000008,0.74814069,0.19787803,0.05117377,0.00000000,0.00000000
-0.68056834,-2.17000008,-0.39332354,-0.34447825,-2.11053276,0.00000000,0.00000000,-0.13092503,2.17000008,0.73548758,0.19094300,0.04928026,0.00000000,0.00000000
-0.69952369,-2.17000008,-0.39898103,-0.34651184,-2.12555242,0.00000000,0.00000000,-0.14461416,2.17000008,0.72359610,0.18536159,0.04734681,0.00000000,0.00000000
-0.71256065,-2.17000008,-0.40264800,-0.34854576,-2.13676000,0.00000000,0.00000000,-0.15182574,2.17000008,0.71259385,0.18073852,0.04428310,0.00000000,0.00000000
-0.71987790,-2.17000008,-0.40434790,-0.35066783,-2.14785433,0.00000000,0.00000000,-0.15264799,2.17000008,0.70253485,0.17670637,0.03786787,0.00000000,0.00000000
-0.72196132,-2.17000008,-0.40420732,-0.35292009,-2.16041732,0.00000000,0.00000000,-0.14779750,2.17000008,0.69340789,0.17296194,0.02698318,0.00000000,0.00000000
-0.71975619,-2.17000008,-0.40249175,-0.35541624,-2.17614937,0.00000000,0.00000000,-0.13840005,2.17000008,0.68515968,0.16931790,0.01876391,0.00000000,0.00000000
-0.71473229,-2.17000008,-0.39961773,-0.35838795,-2.19622135,0.00000000,0.00000000,-0.12573354,2.17000008,0.67772484,0.16575344,0.01000744,0.00000000,0.00000000
-0.70863163,-2.17000008,-0.39609250,-0.36210173,-2.21872377,0.00000000,0.00000000,-0.11096409,2.17000008,0.67105395,0.16245888,-0.00611447,0.00000000,0.00000000
-0.70298886,-2.17000008,-0.39239717,-0.36670306,-2.23724604,0.00000000,0.00000000,-0.09498950,2.17000008,0.66512704,0.15981475,-0.02587363,0.00000000,0.00000000
-0.69875205,-2.17000008,-0.38888797,-0.37210906,-2.26378393,0.00000000,0.00000000,-0.07847088,2.17000008,0.65994787,0.15825960,-0.05066597,0.00000000,0.00000000
-0.69618553,-2.17000008,-0.38575789,-0.37801263,-2.28775835,0.00000000,0.00000000,-0.06196453,2.17000008,0.65552640,0.15811299,-0.08074882,0.00000000,0.00000000
-0.69497728,-2.17000008,-0.38304803,-0.38396934,-2.31087637,0.00000000,0.00000000,-0.04601502,2.17000008,0.65186763,0.15945996,-0.11093939,0.00000000,0.00000000
-0.69440222,-2.17000008,-0.38067740,-0.38950941,-2.33111620,0.00000000,0.00000000,-0.03112395,2.17000008,0.64897430,0.16215895,-0.14211142,0.00000000,0.00000000
-0.69345921,-2.17000008,-0.37847054,-0.39422455,-2.34688473,0.00000000,0.00000000,-0.01762071,2.17000008,0.64686120,0.16597641,-0.17183824,0.00000000,0.00000000
-0.69098288,-2.17000008,-0.37618110,-0.39782625,-2.36238861,0.00000000,0.00000000,-0.00550503,2.17000008,0.64556950,0.17075457,-0.20575087,0.00000000,0.00000000
-0.68577945,-2.17000008,-0.37352633,-0.40017283,-2.37093973,0.00000000,0.00000000,0.00563218,2.17000008,0.64517623,0.17649512,-0.23107558,0.00000000,0.00000000
-0.67678624,-2.17000008,-0.37023574,-0.40125579,-2.37299967,0.00000000,0.00000000,0.01655580,2.17000008,0.64579690,0.18329413,-0.25127700,0.00000000,0.00000000
-0.66316390,-2.17000008,-0.36609033,-0.40112370,-2.37377357,0.00000000,0.00000000,0.02823087,2.17000008,0.64758641,0.19114722,-0.27376264,0.00000000,0.00000000
-0.64425892,-2.17000008,-0.36093330,-0.39973441,-2.37850475,0.00000000,0.00000000,0.04163708,2.17000008,0.65073866,0.19974318,-0.30356055,0.00000000,0.00000000
-0.61952901,-2.17000008,-0.35466543,-0.39680365,-2.37728691,0.00000000,0.00000000,0.05764746,2.17000008,0.65548187,0.20842630,-0.33570096,0.00000000,0.00000000
-0.58876079,-2.17000008,-0.34727868,-0.39185724,-2.37941170,0.00000000,0.00000000,0.07710706,2.17000008,0.66206515,0.21646962,-0.36502457,0.00000000,0.00000000
-0.55283970,-2.17000008,-0.33896548,-0.38467288,-2.38159633,0.00000000,0.00000000,0.10105749,2.17000008,0.67074049,0.22351030,-0.39540848,0.00000000,0.00000000
-0.51401013,-2.17000008,-0.33014211,-0.37561330,-2.38666987,0.00000000,0.00000000,0.13067015,2.17000008,0.68179029,0.22932371,-0.43140975,0.00000000,0.00000000
-0.47414598,-2.17000008,-0.32120055,-0.36485401,-2.39579201,0.00000000,0.00000000,0.16667369,2.17000008,0.69553047,0.23301299,-0.47348261,0.00000000,0.00000000
-0.43335930,-2.17000008,-0.31232777,-0.35156402,-2.40647173,0.00000000,0.00000000,0.20966201,2.16995907,0.71210665,0.23453099,-0.51626718,0.00000000,0.00000000
-0.39098796,-2.17000008,-0.30360153,-0.33466369,-2.41922879,0.00000000,0.00000000,0.25944984,2.16928720,0.73092896,0.23719043,-0.55840975,0.00000000,0.00000000
-0.34674665,-2.17000008,-0.29506895,-0.31388068,-2.43045425,0.00000000,0.00000000,0.31143564,2.16654229,0.75049210,0.24341072,-0.59855872,0.00000000,0.00000000
-0.30100620,-2.17000008,-0.28680417,-0.28949809,-2.44003844,0.00000000,0.00000000,0.36225057,2.16142917,0.76987964,0.25298440,-0.63767582,0.00000000,0.00000000
-0.25452298,-2.17000008,-0.27888355,-0.26199195,-2.44895983,0.00000000,0.00000000,0.41002876,2.15485883,0.78861237,0.26489159,-0.67137164,0.00000000,0.00000000
-0.20832485,-2.17000008,-0.27136067,-0.23206735,-2.45608139,0.00000000,0.00000000,0.45358127,2.14733124,0.80636561,0.27803692,-0.70193595,0.00000000,0.00000000
-0.16444694,-2.17000008,-0.26432118,-0.20106615,-2.46731830,0.00000000,0.00000000,0.49272838,2.13900518,0.82295460,0.29161701,-0.73298109,0.00000000,0.00000000
-0.12381246,-2.17000008,-0.25769350,-0.17004369,-2.47685623,0.00000000,0.00000000,0.52820802,2.13088942,0.83819187,0.30559063,-0.76841068,0.00000000,0.00000000
-0.08376384,-2.17000008,-0.25109673,-0.13811332,-2.48888469,0.00000000,0.00000000,0.56075794,2.12546706,0.85170466,0.32057998,-0.80523098,0.00000000,0.00000000
-0.04905336,-2.17000008,-0.24486828,-0.10668911,-2.49733949,0.00000000,0.00000000,0.59048843,2.12450314,0.86313766,0.33679485,-0.83807153,0.00000000,0.00000000
-0.01928285,-2.17000008,-0.23890062,-0.07689898,-2.50251102,0.00000000,0.00000000,0.61680543,2.12799048,0.87229669,0.35358402,-0.87197500,0.00000000,0.00000000
0.00723649,-2.17000008,-0.23306175,-0.04915369,-2.50720549,0.00000000,0.00000000,0.63864809,2.13437819,0.87918222,0.36939433,-0.91112065,0.00000000,0.00000000
0.03075447,-2.17000008,-0.22740190,-0.02349612,-2.51477337,0.00000000,0.00000000,0.65555346,2.14141345,0.88403398,0.38228771,-0.94559920,0.00000000,0.00000000
0.05133433,-2.17000008,-0.22201489,0.00039476,-2.52538133,0.00000000,0.00000000,0.66823077,2.14758658,0.88718385,0.39114431,-0.97714120,0.00000000,0.00000000
0.06920318,-2.17000008,-0.21700419,0.02279257,-2.54051089,0.00000000,0.00000000,0.67749745,2.15151286,0.88899326,0.39546716,-1.00773299,0.00000000,0.00000000
0.08446616,-2.17000008,-0.21247958,0.04400767,-2.55296683,0.00000000,0.00000000,0.68273556,2.15384102,0.88926917,0.39552087,-1.03798616,0.00000000,0.00000000
0.09764427,-2.17000008,-0.20856513,0.06402479,-2.56673312,0.00000000,0.00000000,0.68321460,2.15571523,0.88773787,0.39240608,-1.05866134,0.00000000,0.00000000
0.10934954,-2.17000008,-0.20538740,0.08272591,-2.58282733,0.00000000,0.00000000,0.68010324,2.15846252,0.88441432,0.38802740,-1.07341897,0.00000000,0.00000000
0.11924537,-2.17000008,-0.20303792,0.09967820,-2.59967375,0.00000000,0.00000000,0.67378789,2.16213107,0.87946397,0.38291287,-1.08394611,0.00000000,0.00000000
0.12696002,-2.16998506,-0.20158117,0.11434042,-2.61744714,0.00000000,0.00000000,0.66423720,2.16581440,0.87317306,0.37699732,-1.09526777,0.00000000,0.00000000
0.13221113,-2.16975451,-0.20103739,0.12609600,-2.63447666,0.00000000,0.00000000,0.65098977,2.16854525,0.86577404,0.37009144,-1.10604584,0.00000000,0.00000000
0.13473530,-2.16899729,-0.20136105,0.13432403,-2.65369201,0.00000000,0.00000000,0.63325095,2.16974497,0.85743749,0.36190832,-1.11865640,0.00000000,0.00000000
0.13414437,-2.16808462,-0.20243175,0.13846767,-2.67645884,0.00000000,0.00000000,0.61033505,2.16998672,0.84830344,0.35234210,-1.13503850,0.00000000,0.00000000
0.12995051,-2.16751814,-0.20407774,0.13799602,-2.69492936,0.00000000,0.00000000,0.58164710,2.17000008,0.83846974,0.34143445,-1.15034330,0.00000000,0.00000000
0.12173079,-2.16764522,-0.20611247,0.13230635,-2.70813012,0.00000000,0.00000000,0.54660141,2.17000008,0.82801825,0.32917595,-1.15564525,0.00000000,0.00000000
0.10933699,-2.16830730,-0.20834485,0.12074371,-2.72391820,0.00000000,0.00000000,0.50584018,2.17000008,0.81725961,0.31585115,-1.15975463,0.00000000,0.00000000
0.09290861,-2.16897130,-0.21061289,0.10260212,-2.74004483,0.00000000,0.00000000,0.46083939,2.17000008,0.80663764,0.30174631,-1.16561234,0.00000000,0.00000000
0.07280513,-2.16925263,-0.21282183,0.07720590,-2.75881505,0.00000000,0.00000000,0.41430455,2.17000008,0.79672462,0.28735119,-1.17348635,0.00000000,0.00000000
0.04918718,-2.16946030,-0.21499071,0.04427644,-2.78005815,0.00000000,0.00000000,0.36945996,2.17000008,0.78803134,0.27341515,-1.17941630,0.00000000,0.00000000
0.02182765,-2.16983747,-0.21726005,0.00440121,-2.79655290,0.00000000,0.00000000,0.32826421,2.17000008,0.78078920,0.26048791,-1.18366563,0.00000000,0.00000000
-0.01009046,-2.16998959,-0.21986806,-0.04060072,-2.80963159,0.00000000,0.00000000,0.29152042,2.17000008,0.77504933,0.24875045,-1.18772125,0.00000000,0.00000000
-0.04791305,-2.17000008,-0.22318259,-0.08491668,-2.81920004,0.00000000,0.00000000,0.26036325,2.17000008,0.77099240,0.23799971,-1.19199991,0.00000000,0.00000000
-0.09177897,-2.17000008,-0.22759128,-0.12009625,-2.83265781,0.00000000,0.00000000,0.23627912,2.17000008,0.76907349,0.22711010,-1.19894910,0.00000000,0.00000000
-0.14081725,-2.17000008,-0.23317593,-0.14717579,-2.84649086,0.00000000,0.00000000,0.21996267,2.16997695,0.76958942,0.21519293,-1.20684206,0.00000000,0.00000000
-0.19270785,-2.17000008,-0.23979497,-0.16744210,-2.86174536,0.00000000,0.00000000,0.21017754,2.16943121,0.77242529,0.20160468,-1.21849775,0.00000000,0.00000000
-0.24627216,-2.17000008,-0.24727507,-0.18194985,-2.87979317,0.00000000,0.00000000,0.20072198,2.16527557,0.77683181,0.18409744,-1.22753739,0.00000000,0.00000000
-0.30108142,-2.17000008,-0.25538969,-0.19297685,-2.87979317,0.00000000,0.00000000,0.18894549,2.15364933,0.78179431,0.16496164,-1.23370039,0.00000000,0.00000000
-0.35585564,-2.17000008,-0.26382786,-0.20211664,-2.87979317,0.00000000,0.00000000,0.17359400,2.13833117,0.78664410,0.14704382,-1.23383486,0.00000000,0.00000000
-0.40910089,-2.17000008,-0.27228865,-0.21004400,-2.87979317,0.00000000,0.00000000,0.15422891,2.12269998,0.79117811,0.13177627,-1.22984672,0.00000000,0.00000000
-0.45975763,-2.17000008,-0.28053412,-0.21703649,-2.87979317,0.00000000,0.00000000,0.13128382,2.10780144,0.79540849,0.11994213,-1.22871220,0.00000000,0.00000000
-0.50713021,-2.17000008,-0.28837100,-0.22334902,-2.87979317,0.00000000,0.00000000,0.10538970,2.09387207,0.79940504,0.11185671,-1.22835958,0.00000000,0.00000000
-0.55084836,-2.17000008,-0.29564065,-0.22945641,-2.87979317,0.00000000,0.00000000,0.07743742,2.08089256,0.80326509,0.10750145,-1.22548151,0.00000000,0.00000000
-0.59088737,-2.16999984,-0.30222344,-0.23610085,-2.87979317,0.00000000,0.00000000,0.04862503,2.06914616,0.80710232,0.10666088,-1.22398782,0.00000000,0.00000000
-0.62754685,-2.16999888,-0.30804336,-0.24410361,-2.87979317,0.00000000,0.00000000,0.02034218,2.05944252,0.81103724,0.10907531,-1.22139525,0.00000000,0.00000000
-0.66123897,-2.16999698,-0.31304362,-0.25407988,-2.87979317,0.00000000,0.00000000,-0.00604689,2.05278230,0.81518745,0.11457028,-1.22072816,0.00000000,0.00000000
-0.69211972,-2.16999888,-0.31712958,-0.26627064,-2.87979317,0.00000000,0.00000000,-0.02940051,2.04992294,0.81965691,0.12311121,-1.21882105,0.00000000,0.00000000
-0.71983427,-2.17000008,-0.32012495,-0.28054088,-2.87979317,0.00000000,0.00000000,-0.04890282,2.05120349,0.82453108,0.13480255,-1.22276139,0.00000000,0.00000000
-0.74365973,-2.17000008,-0.32179806,-0.29649034,-2.87979317,0.00000000,0.00000000,-0.06411858,2.05654836,0.82987714,0.14985968,-1.22837341,0.00000000,0.00000000
-0.76294541,-2.17000008,-0.32195169,-0.31359306,-2.87979317,0.00000000,0.00000000,-0.07506840,2.06545734,0.83575231,0.16854559,-1.23062813,0.00000000,0.00000000
-0.77741647,-2.17000008,-0.32050076,-0.33128089,-2.87979317,0.00000000,0.00000000,-0.08228370,2.07690668,0.84222358,0.19108449,-1.23639393,0.00000000,0.00000000
-0.78703004,-2.17000008,-0.31746435,-0.34892690,-2.87979317,0.00000000,0.00000000,-0.08678744,2.08931065,0.84938872,0.21760598,-1.24098349,0.00000000,0.00000000
-0.79176801,-2.17000008,-0.31291187,-0.36589658,-2.87979317,0.00000000,0.00000000,-0.08984740,2.10082102,0.85739106,0.24814866,-1.24539506,0.00000000,0.00000000
-0.79162431,-2.17000008,-0.30691209,-0.38177347,-2.87979317,0.00000000,0.00000000,-0.09256938,2.10994291,0.86640584,0.28264380,-1.24607527,0.00000000,0.00000000
-0.78661376,-2.17000008,-0.29949278,-0.39655954,-2.87979317,0.00000000,0.00000000,-0.09566423,2.11594701,0.87659562,0.32084528,-1.24401927,0.00000000,0.00000000
-0.77670401,-2.17000008,-0.29062644,-0.41061598,-2.87979317,0.00000000,0.00000000,-0.09947653,2.11866093,0.88808131,0.36233130,-1.24766231,0.00000000,0.00000000
-0.76179332,-2.17000008,-0.28025627,-0.42443550,-2.87979317,0.00000000,0.00000000,-0.10424215,2.11751866,0.90103638,0.40634635,-1.25525820,0.00000000,0.00000000
-0.74204594,-2.17000008,-0.26842162,-0.43831769,-2.87979317,0.00000000,0.00000000,-0.11002704,2.11223626,0.91556770,0.45361936,-1.26654947,0.00000000,0.00000000
-0.71813035,-2.17000008,-0.25537246,-0.45197970,-2.87979317,0.00000000,0.00000000,-0.11657042,2.10486341,0.93139625,0.50853336,-1.27632964,0.00000000,0.00000000
-0.69035298,-2.17000008,-0.24135622,-0.46464837,-2.87979317,0.00000000,0.00000000,-0.12505364,2.09253430,0.94908559,0.57097000,-1.28296709,0.00000000,0.00000000
-0.65854895,-2.17000008,-0.22652164,-0.47553873,-2.87979317,0.00000000,0.00000000,-0.13696471,2.07085562,0.96961421,0.63884121,-1.28458309,0.00000000,0.00000000
-0.62338370,-2.17000008,-0.21116251,-0.48446387,-2.87979317,0.00000000,0.00000000,-0.15396181,2.03662920,0.99383223,0.71034962,-1.28578901,0.00000000,0.00000000
-0.58698756,-2.17000008,-0.19589406,-0.49173927,-2.87979317,0.00000000,0.00000000,-0.17803070,1.98774958,1.02235699,0.78387225,-1.28031743,0.00000000,0.00000000
-0.55096990,-2.17000008,-0.18131295,-0.49675813,-2.87979317,0.00000000,0.00000000,-0.21139981,1.92284870,1.05552602,0.85776931,-1.26842701,0.00000000,0.00000000
-0.51559055,-2.17000008,-0.16775768,-0.49795377,-2.87979317,0.00000000,0.00000000,-0.25635514,1.84091628,1.09344876,0.93018901,-1.26035273,0.00000000,0.00000000
-0.48069331,-2.17000008,-0.15542133,-0.49365193,-2.87979317,0.00000000,0.00000000,-0.31482330,1.74134207,1.13606691,0.99915123,-1.25440073,0.00000000,0.00000000
-0.44619760,-2.17000008,-0.14442037,-0.48253804,-2.87979317,0.00000000,0.00000000,-0.38812143,1.62399578,1.18320394,1.06250143,-1.25083196,0.00000000,0.00000000
-0.41214013,-2.17000008,-0.13480099,-0.46383286,-2.87979317,0.00000000,0.00000000,-0.47666731,1.48938084,1.23458767,1.11790073,-1.24457455,0.00000000,0.00000000
-0.37871894,-2.17000008,-0.12656343,-0.43738788,-2.87979317,0.00000000,0.00000000,-0.57962579,1.33893108,1.28977478,1.16305983,-1.24373913,0.00000000,0.00000000
-0.34643501,-2.17000008,-0.11970908,-0.40373939,-2.87979317,0.00000000,0.00000000,-0.69476557,1.17523503,1.34800494,1.19608414,-1.24703026,0.00000000,0.00000000
-0.31614804,-2.17000008,-0.11425730,-0.36411649,-2.87979317,0.00000000,0.00000000,-0.81870031,1.00206161,1.40805447,1.21569717,-1.24967313,0.00000000,0.00000000
-0.28882146,-2.16992211,-0.11019059,-0.32034305,-2.87979317,0.00000000,0.00000000,-0.94737041,0.82423526,1.46816111,1.22132158,-1.24671006,0.00000000,0.00000000
-0.26533911,-2.16888022,-0.10742928,-0.27422324,-2.87979317,0.00000000,0.00000000,-1.07642496,0.64720446,1.52620590,1.21311677,-1.24542117,0.00000000,0.00000000
-0.24541539,-2.16727591,-0.10567818,-0.22841194,-2.87979317,0.00000000,0.00000000,-1.20146894,0.47634423,1.58010459,1.19194221,-1.24004054,0.00000000,0.00000000
-0.22586209,-2.16887999,-0.10424546,-0.18645653,-2.87979317,0.00000000,0.00000000,-1.31835258,0.31638846,1.62813139,1.15923464,-1.23412716,0.00000000,0.00000000
-0.20483933,-2.16992235,-0.10288408,-0.14570954,-2.87979317,0.00000000,0.00000000,-1.42356789,0.17124295,1.66901171,1.11689591,-1.22700071,0.00000000,0.00000000
-0.18201843,-2.17000008,-0.10152327,-0.10724049,-2.87979317,0.00000000,0.00000000,-1.51467657,0.04400653,1.70189309,1.06729245,-1.21809316,0.00000000,0.00000000
-0.15782316,-2.17000008,-0.10017192,-0.07307772,-2.87979317,0.00000000,0.00000000,-1.59058583,-0.06329641,1.72647047,1.01343369,-1.20328379,0.00000000,0.00000000
-0.13329719,-2.17000008,-0.09890319,-0.04409738,-2.87979317,0.00000000,0.00000000,-1.65181279,-0.15022251,1.74322355,0.95928913,-1.19027472,0.00000000,0.00000000
-0.11022083,-2.17000008,-0.09779944,-0.02072851,-2.87979317,0.00000000,0.00000000,-1.70044386,-0.21812344,1.75347686,0.90959138,-1.18050671,0.00000000,0.00000000
-0.09096628,-2.17000008,-0.09691700,-0.00298933,-2.87979317,0.00000000,0.00000000,-1.73904145,-0.26950592,1.75904393,0.86856133,-1.16919994,0.00000000,0.00000000
-0.07800905,-2.17000008,-0.09627394,0.00947771,-2.87979317,0.00000000,0.00000000,-1.76936066,-0.30705276,1.76175177,0.83898371,-1.16061318,0.00000000,0.00000000
-0.07251396,-2.17000008,-0.09585945,0.01754339,-2.87979317,0.00000000,0.00000000,-1.79176021,-0.33222651,1.76275194,0.82180935,-1.15653062,0.00000000,0.00000000
-0.07438987,-2.17000008,-0.09565922,0.02249662,-2.87979317,0.00000000,0.00000000,-1.80568528,-0.34518680,1.76247764,0.81680107,-1.14738727,0.00000000,0.00000000
-0.08255950,-2.17000008,-0.09567118,0.02593138,-2.87979317,0.00000000,0.00000000,-1.81019437,-0.34504780,1.76077724,0.82310158,-1.13866448,0.00000000,0.00000000
-0.09557454,-2.17000008,-0.09590489,0.02927861,-2.87979317,0.00000000,0.00000000,-1.80472624,-0.33048835,1.75709724,0.83987552,-1.12478149,0.00000000,0.00000000
-0.11165591,-2.17000008,-0.09637967,0.03376177,-2.87979317,0.00000000,0.00000000,-1.78884661,-0.29987049,1.75058711,0.86615962,-1.10601008,0.00000000,0.00000000
-0.12928312,-2.17000008,-0.09710915,0.04016754,-2.87979317,0.00000000,0.00000000,-1.76200581,-0.25161949,1.74027693,0.90074950,-1.08201575,0.00000000,0.00000000
-0.14711024,-2.17000008,-0.09810215,0.04880717,-2.87979317,0.00000000,0.00000000,-1.72345233,-0.18440156,1.72518730,0.94208294,-1.05725408,0.00000000,0.00000000
-0.16386238,-2.17000008,-0.09936072,0.05923910,-2.87979317,0.00000000,0.00000000,-1.67213702,-0.09733908,1.70449901,0.98806614,-1.03386009,0.00000000,0.00000000
-0.17842922,-2.17000008,-0.10087476,0.07079550,-2.87979317,0.00000000,0.00000000,-1.60715413,0.01001473,1.67743313,1.03597021,-1.01101792,0.00000000,0.00000000
-0.18967420,-2.17000008,-0.10263018,0.08278465,-2.87979317,0.00000000,0.00000000,-1.52840579,0.13746309,1.64333045,1.08265448,-0.98842508,0.00000000,0.00000000
-0.19674730,-2.17000008,-0.10460436,0.09409456,-2.87979317,0.00000000,0.00000000,-1.43676519,0.28349230,1.60209668,1.12481725,-0.97363251,0.00000000,0.00000000
-0.19950838,-2.17000008,-0.10674648,0.10306349,-2.87979317,0.00000000,0.00000000,-1.33403766,0.44487017,1.55452621,1.15921307,-0.96720171,0.00000000,0.00000000
-0.19842714,-2.16999483,-0.10897810,0.10842220,-2.87979317,0.00000000,0.00000000,-1.22326946,0.61700541,1.50208247,1.18320692,-0.95841390,0.00000000,0.00000000
-0.19434093,-2.16991448,-0.11121022,0.10910138,-2.87979317,0.00000000,0.00000000,-1.10837352,0.79431856,1.44678617,1.19495118,-0.94435406,0.00000000,0.00000000
-0.18814078,-2.16965628,-0.11336523,0.10410486,-2.87979317,0.00000000,0.00000000,-0.99361050,0.97079283,1.39097130,1.19343138,-0.93229800,0.00000000,0.00000000
-0.18054414,-2.16945028,-0.11540717,0.09280601,-2.87979317,0.00000000,0.00000000,-0.88314617,1.14060736,1.33693922,1.17848480,-0.92242479,0.00000000,0.00000000
-0.17206831,-2.16959715,-0.11735784,0.07512281,-2.87979317,0.00000000,0.00000000,-0.78066432,1.29867327,1.28665781,1.15074587,-0.91008604,0.00000000,0.00000000
-0.16338438,-2.16987514,-0.11927336,0.05153537,-2.87979317,0.00000000,0.00000000,-0.68895841,1.44091630,1.24165833,1.11155546,-0.89425039,0.00000000,0.00000000
-0.15592657,-2.16998625,-0.12123228,0.02298109,-2.87979317,0.00000000,0.00000000,-0.60950613,1.56435859,1.20306110,1.06295109,-0.88357317,0.00000000,0.00000000
-0.15237269,-2.16999960,-0.12336119,-0.00872693,-2.87979317,0.00000000,0.00000000,-0.54222041,1.66722929,1.17159438,1.00764787,-0.87964344,0.00000000,0.00000000
-0.15595096,-2.17000008,-0.12587965,-0.04151640,-2.87979317,0.00000000,0.00000000,-0.48599792,1.74914241,1.14743233,0.94861239,-0.87025112,0.00000000,0.00000000
-0.16864225,-2.17000008,-0.12906206,-0.07465698,-2.87979317,0.00000000,0.00000000,-0.43975177,1.81106234,1.13002765,0.88844150,-0.86707437,0.00000000,0.00000000
-0.18909140,-2.17000008,-0.13309243,-0.10662286,-2.87979317,0.00000000,0.00000000,-0.40240425,1.85520279,1.11825299,0.82957298,-0.86192441,0.00000000,0.00000000
-0.21531716,-2.17000008,-0.13803856,-0.13587192,-2.87979317,0.00000000,0.00000000,-0.37274563,1.88481629,1.11061192,0.77441663,-0.85416353,0.00000000,0.00000000
-0.24577916,-2.17000008,-0.14387687,-0.16153394,-2.87979317,0.00000000,0.00000000,-0.34988526,1.90493774,1.10497880,0.72540963,-0.85197067,0.00000000,0.00000000
-0.27946365,-2.17000008,-0.15052515,-0.18370047,-2.87979317,0.00000000,0.00000000,-0.33226383,1.92108512,1.09936380,0.68336213,-0.85467893,0.00000000,0.00000000
-0.31570330,-2.17000008,-0.15785284,-0.20323670,-2.87979317,0.00000000,0.00000000,-0.31688836,1.93478298,1.09372973,0.64495003,-0.85500741,0.00000000,0.00000000
-0.35342732,-2.17000008,-0.16565657,-0.22043535,-2.87979317,0.00000000,0.00000000,-0.30487019,1.94890296,1.08685291,0.60836929,-0.85678589,0.00000000,0.00000000
-0.39139992,-2.17000008,-0.17368497,-0.23538612,-2.87979317,0.00000000,0.00000000,-0.29577604,1.96403730,1.07869315,0.57398289,-0.85826677,0.00000000,0.00000000
-0.42832562,-2.17000008,-0.18165109,-0.24828392,-2.87979317,0.00000000,0.00000000,-0.28884757,1.98007309,1.06954300,0.54221100,-0.85857660,0.00000000,0.00000000
-0.46296263,-2.17000008,-0.18926144,-0.25941396,-2.87979317,0.00000000,0.00000000,-0.28380552,1.99706924,1.05953217,0.51320690,-0.85561329,0.00000000,0.00000000
-0.49442765,-2.17000008,-0.19627173,-0.26916879,-2.87979317,0.00000000,0.00000000,-0.28033710,2.01485848,1.04884934,0.48697022,-0.85772538,0.00000000,0.00000000
-0.52245218,-2.17000008,-0.20253600,-0.27807483,-2.87979317,0.00000000,0.00000000,-0.27803701,2.03301334,1.03774166,0.46336553,-0.85714453,0.00000000,0.00000000
-0.54738307,-2.17000008,-0.20801473,-0.28677678,-2.87979317,0.00000000,0.00000000,-0.27641073,2.05088258,1.02649772,0.44215167,-0.85858035,0.00000000,0.00000000
-0.56994247,-2.17000008,-0.21274118,-0.29593670,-2.87979317,0.00000000,0.00000000,-0.27491093,2.06769204,1.01542449,0.42304340,-0.86367339,0.00000000,0.00000000
-0.59091568,-2.17000008,-0.21677631,-0.30606231,-2.87979317,0.00000000,0.00000000,-0.27301028,2.08270311,1.00481963,0.40581042,-0.87257236,0.00000000,0.00000000
-0.61087143,-2.17000008,-0.22017172,-0.31732574,-2.87979317,0.00000000,0.00000000,-0.27030534,2.09538698,0.99493998,0.39038539,-0.87875289,0.00000000,0.00000000
-0.62997395,-2.17000008,-0.22294769,-0.32945630,-2.87979317,0.00000000,0.00000000,-0.26661825,2.10553885,0.98598087,0.37693107,-0.88387126,0.00000000,0.00000000
-0.64800024,-2.17000008,-0.22510062,-0.34179494,-2.87979317,0.00000000,0.00000000,-0.26206303,2.11327195,0.97808045,0.36581838,-0.89006007,0.00000000,0.00000000
-0.66455108,-2.17000008,-0.22663212,-0.35353377,-2.87979317,0.00000000,0.00000000,-0.25703871,2.11890841,0.97134042,0.35751468,-0.89877099,0.00000000,0.00000000
-0.67924726,-2.17000008,-0.22756492,-0.36401534,-2.87979317,0.00000000,0.00000000,-0.25207227,2.12284493,0.96585274,0.35246158,-0.90369236,0.00000000,0.00000000
-0.69176555,-2.17000008,-0.22792722,-0.37293568,-2.87979317,0.00000000,0.00000000,-0.24756192,2.12539411,0.96172506,0.35100645,-0.90621060,0.00000000,0.00000000
-0.70175141,-2.17000008,-0.22771934,-0.38036680,-2.87979317,0.00000000,0.00000000,-0.24360004,2.12667489,0.95908999,0.35340104,-0.91125196,0.00000000,0.00000000
-0.70870769,-2.17000008,-0.22688150,-0.38662764,-2.87979317,0.00000000,0.00000000,-0.23996094,2.12664723,0.95809084,0.35984796,-0.92258716,0.00000000,0.00000000
-0.71193075,-2.17000008,-0.22527599,-0.39210328,-2.87979317,0.00000000,0.00000000,-0.23623665,2.12527227,0.95884943,0.37053639,-0.93592352,0.00000000,0.00000000
-0.71052563,-2.17000008,-0.22269253,-0.39709485,-2.87979317,0.00000000,0.00000000,-0.23203714,2.12267327,0.96143126,0.38562676,-0.94944966,0.00000000,0.00000000
-0.70349413,-2.17000008,-0.21887590,-0.40174437,-2.87979317,0.00000000,0.00000000,-0.22713520,2.11915421,0.96583444,0.40519175,-0.96005583,0.00000000,0.00000000
-0.68987536,-2.17000008,-0.21356808,-0.40604588,-2.87979317,0.00000000,0.00000000,-0.22151639,2.11503363,0.97200906,0.42913088,-0.97495496,0.00000000,0.00000000
-0.66893578,-2.17000008,-0.20656455,-0.40991101,-2.87979317,0.00000000,0.00000000,-0.21543115,2.11040115,0.97988582,0.45704341,-0.99016994,0.00000000,0.00000000
-0.64040190,-2.17000008,-0.19778106,-0.41325393,-2.87979317,0.00000000,0.00000000,-0.20941533,2.10452008,0.98950940,0.48806232,-1.00398302,0.00000000,0.00000000
-0.60515195,-2.17000008,-0.18740310,-0.41619241,-2.87979317,0.00000000,0.00000000,-0.20311052,2.09641457,1.00112891,0.52307910,-1.02202928,0.00000000,0.00000000
-0.56621498,-2.17000008,-0.17608877,-0.41931912,-2.87979317,0.00000000,0.00000000,-0.19574973,2.08661771,1.01475894,0.56632304,-1.03543639,0.00000000,0.00000000
-0.52749199,-2.17000008,-0.16473188,-0.42320359,-2.87979317,0.00000000,0.00000000,-0.19002438,2.07280707,1.03060377,0.61735076,-1.04826713,0.00000000,0.00000000
-0.49109277,-2.17000008,-0.15393680,-0.42736316,-2.87979317,0.00000000,0.00000000,-0.18725395,2.05240726,1.04919600,0.67473823,-1.06287551,0.00000000,0.00000000
-0.45753419,-2.17000008,-0.14399141,-0.43069789,-2.87979317,0.00000000,0.00000000,-0.18851075,2.02395535,1.07081401,0.73738050,-1.07409751,0.00000000,0.00000000
-0.42673504,-2.17000008,-0.13501482,-0.43209985,-2.87979317,0.00000000,0.00000000,-0.19548525,1.98672509,1.09536254,0.80407989,-1.08725381,0.00000000,0.00000000
-0.39841422,-2.17000008,-0.12702231,-0.43065044,-2.87979317,0.00000000,0.00000000,-0.21013772,1.94040096,1.12249470,0.87357092,-1.10505092,0.00000000,0.00000000
-0.37227431,-2.17000008,-0.11996689,-0.42567307,-2.87979317,0.00000000,0.00000000,-0.23443894,1.88471794,1.15181220,0.94446558,-1.12227571,0.00000000,0.00000000
-0.34818479,-2.17000008,-0.11379329,-0.41673547,-2.87979317,0.00000000,0.00000000,-0.26991543,1.81919074,1.18314135,1.01530492,-1.13816261,0.00000000,0.00000000
-0.32642531,-2.17000008,-0.10850716,-0.40366048,-2.87979317,0.00000000,0.00000000,-0.31719121,1.74301612,1.21675599,1.08465099,-1.15323031,0.00000000,0.00000000
-0.30785668,-2.17000008,-0.10421835,-0.38659465,-2.87979317,0.00000000,0.00000000,-0.37586606,1.65525043,1.25337195,1.15107477,-1.17027891,0.00000000,0.00000000
-0.29356095,-2.17000008,-0.10105342,-0.36609194,-2.87979317,0.00000000,0.00000000,-0.44492954,1.55535376,1.29376388,1.21297216,-1.18787229,0.00000000,0.00000000
-0.28393227,-2.17000008,-0.09895404,-0.34306836,-2.87979317,0.00000000,0.00000000,-0.52328616,1.44389665,1.33818221,1.26845443,-1.21071076,0.00000000,0.00000000
-0.27832872,-2.17000008,-0.09762122,-0.31865457,-2.87979317,0.00000000,0.00000000,-0.60965627,1.32286167,1.38608587,1.31564879,-1.23277593,0.00000000,0.00000000
-0.27568251,-2.16993570,-0.09667017,-0.29410294,-2.87979317,0.00000000,0.00000000,-0.70214754,1.19536591,1.43631232,1.35314870,-1.25389993,0.00000000,0.00000000
-0.27484879,-2.16900039,-0.09574059,-0.27047163,-2.87979317,0.00000000,0.00000000,-0.79817295,1.06521046,1.48732936,1.38023162,-1.27457786,0.00000000,0.00000000
-0.27513438,-2.16664195,-0.09459118,-0.24875365,-2.87979317,0.00000000,0.00000000,-0.89467490,0.93648183,1.53743410,1.39687884,-1.29720461,0.00000000,0.00000000
-0.27662930,-2.16603899,-0.09315620,-0.22973280,-2.87979317,0.00000000,0.00000000,-0.98839933,0.81319338,1.58493757,1.40374720,-1.31974339,0.00000000,0.00000000
-0.27725992,-2.16786289,-0.09114463,-0.21129756,-2.87979317,0.00000000,0.00000000,-1.07618916,0.69903725,1.62828815,1.40208077,-1.34290111,0.00000000,0.00000000
-0.27710974,-2.16951704,-0.08861573,-0.19139467,-2.87979317,0.00000000,0.00000000,-1.15527844,0.59727776,1.66610920,1.39356029,-1.36088610,0.00000000,0.00000000
-0.27644455,-2.16997194,-0.08565444,-0.16987434,-2.87979317,0.00000000,0.00000000,-1.22344482,0.51060551,1.69728136,1.38024139,-1.38400745,0.00000000,0.00000000
-0.27585071,-2.17000008,-0.08236032,-0.14816284,-2.87979317,0.00000000,0.00000000,-1.27901566,0.44102058,1.72104001,1.36437845,-1.40053046,0.00000000,0.00000000
-0.27621242,-2.17000008,-0.07886456,-0.12767212,-2.87979317,0.00000000,0.00000000,-1.32079518,0.38981292,1.73701036,1.34817719,-1.41519547,0.00000000,0.00000000
-0.27841830,-2.17000008,-0.07528690,-0.10943277,-2.87979317,0.00000000,0.00000000,-1.34793401,0.35766050,1.74515879,1.33349192,-1.43415868,0.00000000,0.00000000
-0.28343084,-2.17000008,-0.07173745,-0.09414549,-2.87979317,0.00000000,0.00000000,-1.35978937,0.34480000,1.74568892,1.32155490,-1.45149076,0.00000000,0.00000000
-0.29183027,-2.17000008,-0.06828924,-0.08231712,-2.87979317,0.00000000,0.00000000,-1.35590112,0.35122809,1.73888421,1.31285465,-1.47148728,0.00000000,0.00000000
-0.30373183,-2.17000008,-0.06497929,-0.07418498,-2.87979317,0.00000000,0.00000000,-1.33598721,0.37675542,1.72505057,1.30713212,-1.49209070,0.00000000,0.00000000
-0.31866312,-2.17000008,-0.06181507,-0.06973287,-2.87979317,0.00000000,0.00000000,-1.30007482,0.42098597,1.70447195,1.30353081,-1.51135337,0.00000000,0.00000000
-0.33520174,-2.17000008,-0.05876711,-0.06899051,-2.87979317,0.00000000,0.00000000,-1.24868274,0.48321646,1.67743409,1.30088794,-1.52203572,0.00000000,0.00000000
-0.35176972,-2.17000008,-0.05580319,-0.07157151,-2.87979317,0.00000000,0.00000000,-1.18282604,0.56230825,1.64431596,1.29771185,-1.53398585,0.00000000,0.00000000
-0.36655948,-2.17000008,-0.05288360,-0.07685990,-2.87979317,0.00000000,0.00000000,-1.10415149,0.65662521,1.60561311,1.29241979,-1.55285692,0.00000000,0.00000000
-0.37733844,-2.17000008,-0.04994743,-0.08439468,-2.87979317,0.00000000,0.00000000,-1.01495492,0.76397783,1.56198859,1.28356946,-1.57337976,0.00000000,0.00000000
-0.38226888,-2.17000008,-0.04694144,-0.09357956,-2.87979317,0.00000000,0.00000000,-0.91815007,0.88165611,1.51423287,1.26995945,-1.59373915,0.00000000,0.00000000
-0.38009715,-2.17000008,-0.04382837,-0.10374545,-2.87979317,0.00000000,0.00000000,-0.81711167,1.00655377,1.46322882,1.25058568,-1.61083698,0.00000000,0.00000000
-0.37008500,-2.16999984,-0.04058503,-0.11441612,-2.87979317,0.00000000,0.00000000,-0.71539134,1.13529134,1.40996206,1.22474444,-1.62890887,0.00000000,0.00000000
-0.35250163,-2.16991830,-0.03724266,-0.12517586,-2.87979317,0.00000000,0.00000000,-0.61641020,1.26436114,1.35547459,1.19208121,-1.64136028,0.00000000,0.00000000
-0.32896280,-2.16879153,-0.03393320,-0.13566369,-2.87979317,0.00000000,0.00000000,-0.52311653,1.39025450,1.30085778,1.15259171,-1.65248919,0.00000000,0.00000000
-0.30296147,-2.16661453,-0.03095547,-0.14782473,-2.87979317,0.00000000,0.00000000,-0.43772718,1.50948882,1.24730921,1.10641479,-1.66981471,0.00000000,0.00000000
-0.27974856,-2.16751862,-0.02880568,-0.16655080,-2.87979317,0.00000000,0.00000000,-0.36168650,1.61903906,1.19590724,1.05398393,-1.68428433,0.00000000,0.00000000
-0.26401672,-2.16937447,-0.02802974,-0.19137315,-2.87979317,0.00000000,0.00000000,-0.29547611,1.71639323,1.14761984,0.99609476,-1.69800639,0.00000000,0.00000000
-0.25802854,-2.16996002,-0.02900757,-0.21964517,-2.87979317,0.00000000,0.00000000,-0.23878869,1.79998338,1.10306466,0.93395954,-1.71538186,0.00000000,0.00000000
-0.26212290,-2.17000008,-0.03192000,-0.24816659,-2.87979317,0.00000000,0.00000000,-0.19096762,1.86947858,1.06235576,0.86908376,-1.72974479,0.00000000,0.00000000
-0.27535871,-2.17000008,-0.03675053,-0.27459458,-2.87979317,0.00000000,0.00000000,-0.15175359,1.92539990,1.02513897,0.80267787,-1.74080789,0.00000000,0.00000000
-0.29618472,-2.17000008,-0.04333384,-0.29769278,-2.87979317,0.00000000,0.00000000,-0.12116976,1.96867883,0.99086112,0.73564237,-1.75296664,0.00000000,0.00000000
-0.32273367,-2.17000008,-0.05139209,-0.31681645,-2.87979317,0.00000000,0.00000000,-0.09885725,2.00064778,0.95896477,0.66902554,-1.76732516,0.00000000,0.00000000
-0.35294962,-2.17000008,-0.06056448,-0.33162075,-2.87979317,0.00000000,0.00000000,-0.08349162,2.02315950,0.92900175,0.60441411,-1.78058994,0.00000000,0.00000000
-0.38517684,-2.17000008,-0.07051145,-0.34201530,-2.87979317,0.00000000,0.00000000,-0.07269163,2.03853631,0.90067691,0.54396731,-1.79061997,0.00000000,0.00000000
-0.41834587,-2.17000008,-0.08095063,-0.34834832,-2.87979317,0.00000000,0.00000000,-0.06413679,2.05017281,0.87352228,0.49012274,-1.80585289,0.00000000,0.00000000
-0.45185915,-2.17000008,-0.09164109,-0.35165390,-2.87979317,0.00000000,0.00000000,-0.05569782,2.06163311,0.84705567,0.44403857,-1.82130861,0.00000000,0.00000000
-0.48524341,-2.17000008,-0.10234729,-0.35337996,-2.87979317,0.00000000,0.00000000,-0.04525586,2.07277560,0.82161093,0.40332040,-1.84015930,0.00000000,0.00000000
-0.51769370,-2.17000008,-0.11280011,-0.35433686,-2.87979317,0.00000000,0.00000000,-0.03479243,2.08462882,0.79657185,0.36642170,-1.85566509,0.00000000,0.00000000
-0.54836178,-2.17000008,-0.12273880,-0.35494751,-2.87979317,0.00000000,0.00000000,-0.02450333,2.09735441,0.77181381,0.33364341,-1.87774324,0.00000000,0.00000000
-0.57647973,-2.17000008,-0.13191751,-0.35560539,-2.87979317,0.00000000,0.00000000,-0.01412746,2.11050868,0.74739397,0.30527854,-1.89480281,0.00000000,0.00000000
-0.60140055,-2.17000008,-0.14011343,-0.35670629,-2.87979317,0.00000000,0.00000000,-0.00382353,2.12362671,0.72327793,0.28135118,-1.90800714,0.00000000,0.00000000
-0.62268043,-2.17000008,-0.14715175,-0.35859221,-2.87979317,0.00000000,0.00000000,0.00624770,2.13612723,0.69944596,0.26177460,-1.92072129,0.00000000,0.00000000
-0.64016563,-2.17000008,-0.15293404,-0.36147636,-2.87979317,0.00000000,0.00000000,0.01593238,2.14737415,0.67589903,0.24639690,-1.93281615,0.00000000,0.00000000
-0.65406221,-2.17000008,-0.15746117,-0.36539981,-2.87979317,0.00000000,0.00000000,0.02513418,2.15674901,0.65266508,0.23507223,-1.94688523,0.00000000,0.00000000
-0.66497779,-2.17000008,-0.16084416,-0.37027162,-2.87979317,0.00000000,0.00000000,0.03395578,2.16373110,0.62980700,0.22773804,-1.95517671,0.00000000,0.00000000
-0.67376667,-2.17000008,-0.16327296,-0.37593091,-2.87979317,0.00000000,0.00000000,0.04261186,2.16796589,0.60740548,0.22435039,-1.96610546,0.00000000,0.00000000
-0.68121153,-2.17000008,-0.16495217,-0.38215339,-2.87979317,0.00000000,0.00000000,0.05103389,2.16965246,0.58550769,0.22469923,-1.97518659,0.00000000,0.00000000
-0.68787301,-2.17000008,-0.16606708,-0.38864180,-2.87979317,0.00000000,0.00000000,0.05866203,2.16998196,0.56410152,0.22828819,-1.97853422,0.00000000,0.00000000
-0.69407737,-2.17000008,-0.16677260,-0.39506003,-2.87979317,0.00000000,0.00000000,0.06440224,2.17000008,0.54313320,0.23414810,-1.98541558,0.00000000,0.00000000
-0.69988722,-2.17000008,-0.16718006,-0.40102726,-2.87979317,0.00000000,0.00000000,0.06684332,2.17000008,0.52259940,0.24048546,-1.99008775,0.00000000,0.00000000
-0.70510757,-2.17000008,-0.16735815,-0.40600467,-2.87979317,0.00000000,0.00000000,0.06635236,2.17000008,0.50280780,0.24573198,-1.99992561,0.00000000,0.00000000
-0.70929158,-2.17000008,-0.16732220,-0.40930143,-2.87979317,0.00000000,0.00000000,0.06583504,2.17000008,0.48433775,0.25050372,-2.00924277,0.00000000,0.00000000
-0.71174085,-2.17000008,-0.16699862,-0.41043192,-2.87979317,0.00000000,0.00000000,0.06640527,2.17000008,0.46755320,0.25525671,-2.01926160,0.00000000,0.00000000
-0.71164221,-2.17000008,-0.16625047,-0.40919957,-2.87979317,0.00000000,0.00000000,0.06742423,2.17000008,0.45263276,0.25894451,-2.03419805,0.00000000,0.00000000
-0.70813465,-2.17000008,-0.16490982,-0.40557206,-2.87979317,0.00000000,0.00000000,0.06982022,2.17000008,0.43987316,0.26096946,-2.04103589,0.00000000,0.00000000
-0.70028007,-2.17000008,-0.16279086,-0.39955536,-2.87979317,0.00000000,0.00000000,0.07474347,2.17000008,0.42952305,0.26107270,-2.04849553,0.00000000,0.00000000
-0.68708211,-2.17000008,-0.15970977,-0.39111328,-2.87979317,0.00000000,0.00000000,0.08289970,2.17000008,0.42171109,0.25909001,-2.05397344,0.00000000,0.00000000
-0.66755629,-2.17000008,-0.15550660,-0.38017702,-2.87979317,0.00000000,0.00000000,0.09481904,2.17000008,0.41647536,0.25510022,-2.05309916,0.00000000,0.00000000
-0.64102888,-2.17000008,-0.15009581,-0.36682305,-2.87979317,0.00000000,0.00000000,0.11089054,2.17000008,0.41375393,0.24965987,-2.05560946,0.00000000,0.00000000
-0.60797822,-2.17000008,-0.14359435,-0.35170549,-2.87979317,0.00000000,0.00000000,0.13147560,2.17000008,0.41340917,0.24391788,-2.05884409,0.00000000,0.00000000
-0.57042927,-2.17000008,-0.13637917,-0.33610845,-2.87979317,0.00000000,0.00000000,0.15697755,2.17000008,0.41530153,0.23900151,-2.06529856,0.00000000,0.00000000
-0.53024453,-2.17000008,-0.12882262,-0.32094783,-2.87979317,0.00000000,0.00000000,0.18725610,2.17000008,0.41924679,0.23530522,-2.07269526,0.00000000,0.00000000
-0.48750612,-2.17000008,-0.12102353,-0.30627653,-2.87979317,0.00000000,0.00000000,0.22136502,2.17000008,0.42494592,0.23276033,-2.07704639,0.00000000,0.00000000
-0.44142720,-2.17000008,-0.11294257,-0.29172617,-2.87979317,0.00000000,0.00000000,0.25791317,2.17000008,0.43200696,0.23135658,-2.08870840,0.00000000,0.00000000
-0.39128590,-2.17000008,-0.10454245,-0.27687740,-2.87979317,0.00000000,0.00000000,0.29517135,2.17000008,0.43996856,0.23121597,-2.09458256,0.00000000,0.00000000
-0.33687025,-2.17000008,-0.09584833,-0.26140520,-2.87979317,0.00000000,0.00000000,0.33143348,2.17000008,0.44837892,0.23239315,-2.10097384,0.00000000,0.00000000
-0.27860248,-2.17000008,-0.08695853,-0.24514838,-2.87979317,0.00000000,0.00000000,0.36514860,2.16998720,0.45683622,0.23475668,-2.10824609,0.00000000,0.00000000
-0.21784155,-2.17000008,-0.07807659,-0.22806972,-2.87979317,0.00000000,0.00000000,0.39532989,2.16975164,0.46503484,0.23802420,-2.11711025,0.00000000,0.00000000
-0.15694477,-2.17000008,-0.06950989,-0.21015663,-2.87979317,0.00000000,0.00000000,0.42204410,2.16847301,0.47280893,0.24194588,-2.12301588,0.00000000,0.00000000
-0.09860127,-2.17000008,-0.06156818,-0.19170049,-2.87979317,0.00000000,0.00000000,0.44631296,2.16525173,0.48009905,0.24650922,-2.13264823,0.00000000,0.00000000
-0.04490399,-2.17000008,-0.05444347,-0.17391476,-2.87979317,0.00000000,0.00000000,0.46952590,2.16049433,0.48687845,0.25190580,-2.14040852,0.00000000,0.00000000
0.00194581,-2.17000008,-0.04828829,-0.15773776,-2.87979317,0.00000000,0.00000000,0.49250662,2.15570974,0.49302399,0.25855115,-2.14731050,0.00000000,0.00000000
0.03930106,-2.17000008,-0.04326998,-0.14136764,-2.87979317,0.00000000,0.00000000,0.51499933,2.15282512,0.49826491,0.26687461,-2.15783215,0.00000000,0.00000000
0.06872308,-2.17000008,-0.03912278,-0.12548941,-2.87979317,0.00000000,0.00000000,0.53644127,2.15212345,0.50241417,0.27656448,-2.16057873,0.00000000,0.00000000
0.09144571,-2.17000008,-0.03563962,-0.11065446,-2.87979317,0.00000000,0.00000000,0.55582654,2.15320301,0.50526804,0.28695938,-2.16690898,0.00000000,0.00000000
0.10826930,-2.17000008,-0.03269901,-0.09656220,-2.87979317,0.00000000,0.00000000,0.57168686,2.15579534,0.50654167,0.29742458,-2.17407990,0.00000000,0.00000000
0.12033164,-2.17000008,-0.03019113,-0.08271746,-2.87979317,0.00000000,0.00000000,0.58287168,2.15936661,0.50602138,0.30740911,-2.17989159,0.00000000,0.00000000
0.12844095,-2.17000008,-0.02805427,-0.06868067,-2.87979317,0.00000000,0.00000000,0.58883506,2.16334629,0.50359976,0.31661561,-2.18430972,0.00000000,0.00000000
0.13315253,-2.17000008,-0.02626141,-0.05422504,-2.87979317,0.00000000,0.00000000,0.58979249,2.16699100,0.49932817,0.32498038,-2.18742895,0.00000000,0.00000000
0.13496847,-2.17000008,-0.02480387,-0.03936032,-2.87979317,0.00000000,0.00000000,0.58634335,2.16931248,0.49337667,0.33248168,-2.18941045,0.00000000,0.00000000
0.13448535,-2.17000008,-0.02368473,-0.02428001,-2.87979317,0.00000000,0.00000000,0.57903361,2.16995525,0.48596799,0.33899140,-2.19451427,0.00000000,0.00000000
0.13277429,-2.17000008,-0.02291248,-0.00939549,-2.87979317,0.00000000,0.00000000,0.56854582,2.16999984,0.47744840,0.34419918,-2.20310760,0.00000000,0.00000000
0.13111714,-2.17000008,-0.02250358,0.00459456,-2.87979317,0.00000000,0.00000000,0.55556095,2.17000008,0.46822208,0.34771073,-2.21335101,0.00000000,0.00000000
0.13058576,-2.17000008,-0.02248127,0.01686623,-2.87979317,0.00000000,0.00000000,0.54089534,2.17000008,0.45871973,0.34929305,-2.21843171,0.00000000,0.00000000
0.13209949,-2.17000008,-0.02286614,0.02664085,-2.87979317,0.00000000,0.00000000,0.52519113,2.17000008,0.44934136,0.34880951,-2.22296214,0.00000000,0.00000000
0.13604225,-2.17000008,-0.02366814,0.03335560,-2.87979317,0.00000000,0.00000000,0.50919306,2.17000008,0.44045466,0.34645203,-2.22704220,0.00000000,0.00000000
0.14209516,-2.17000008,-0.02487482,0.03680514,-2.87979317,0.00000000,0.00000000,0.49330145,2.17000008,0.43229318,0.34251970,-2.23478365,0.00000000,0.00000000
0.14953801,-2.16998649,-0.02644967,0.03699303,-2.87979317,0.00000000,0.00000000,0.47739354,2.17000008,0.42496961,0.33712313,-2.24234629,0.00000000,0.00000000
0.15723602,-2.16972971,-0.02834003,0.03397359,-2.87979317,0.00000000,0.00000000,0.46090353,2.17000008,0.41849980,0.33009827,-2.25069237,0.00000000,0.00000000
0.16358131,-2.16828513,-0.03049788,0.02788392,-2.87979317,0.00000000,0.00000000,0.44303799,2.17000008,0.41283247,0.32120803,-2.25945067,0.00000000,0.00000000
0.16658184,-2.16485882,-0.03290293,0.01899034,-2.87979317,0.00000000,0.00000000,0.42285487,2.17000008,0.40783277,0.31035909,-2.26671219,0.00000000,0.00000000
0.16439968,-2.16078281,-0.03557846,0.00741904,-2.87979317,0.00000000,0.00000000,0.39932519,2.17000008,0.40331328,0.29740894,-2.26571465,0.00000000,0.00000000
0.15639077,-2.15760899,-0.03860828,-0.00701929,-2.87979317,0.00000000,0.00000000,0.37169808,2.17000008,0.39915895,0.28184015,-2.26610732,0.00000000,0.00000000
0.14205149,-2.15628982,-0.04213845,-0.02466085,-2.87979317,0.00000000,0.00000000,0.34155706,2.17000008,0.39552781,0.26392674,-2.26581502,0.00000000,0.00000000
0.12063735,-2.15734744,-0.04636901,-0.04574435,-2.87979317,0.00000000,0.00000000,0.31121850,2.17000008,0.39256793,0.24488318,-2.26991224,0.00000000,0.00000000
0.09134332,-2.16058135,-0.05153394,-0.07016508,-2.87979317,0.00000000,0.00000000,0.28191516,2.17000008,0.39022022,0.22621584,-2.28137279,0.00000000,0.00000000
0.05361743,-2.16507626,-0.05788168,-0.09742405,-2.87979317,0.00000000,0.00000000,0.25389832,2.17000008,0.38830766,0.20933169,-2.29023194,0.00000000,0.00000000
0.00721626,-2.16879416,-0.06565493,-0.12593783,-2.87979317,0.00000000,0.00000000,0.22762410,2.17000008,0.38671565,0.19550163,-2.29778242,0.00000000,0.00000000
-0.04660838,-2.16992664,-0.07494543,-0.15274869,-2.87979317,0.00000000,0.00000000,0.20385326,2.17000008,0.38546917,0.18501008,-2.30614543,0.00000000,0.00000000
-0.10388483,-2.17000008,-0.08548101,-0.17657943,-2.87979317,0.00000000,0.00000000,0.18263584,2.17000008,0.38467398,0.17622533,-2.31532216,0.00000000,0.00000000
-0.16109824,-2.17000008,-0.09688232,-0.19678193,-2.87979317,0.00000000,0.00000000,0.16414028,2.16992879,0.38440102,0.16822402,-2.32424998,0.00000000,0.00000000
-0.21688949,-2.17000008,-0.10890447,-0.21318825,-2.87979317,0.00000000,0.00000000,0.14925057,2.16897702,0.38472950,0.16104682,-2.32970285,0.00000000,0.00000000
-0.27124548,-2.17000008,-0.12142240,-0.22621107,-2.87979317,0.00000000,0.00000000,0.13960782,2.16751122,0.38575062,0.15550274,-2.33450770,0.00000000,0.00000000
-0.32465416,-2.17000008,-0.13435572,-0.23681135,-2.87979317,0.00000000,0.00000000,0.13674529,2.16897678,0.38747615,0.15266368,-2.34344864,0.00000000,0.00000000
-0.37728688,-2.17000008,-0.14757548,-0.24625459,-2.87979317,0.00000000,0.00000000,0.13812028,2.16992903,0.38971856,0.14994067,-2.35273361,0.00000000,0.00000000
-0.42838868,-2.17000008,-0.16084145,-0.25541267,-2.87979317,0.00000000,0.00000000,0.14217342,2.17000008,0.39220461,0.14810672,-2.35794640,0.00000000,0.00000000
-0.47660232,-2.17000008,-0.17383096,-0.26494065,-2.87979317,0.00000000,0.00000000,0.14797802,2.17000008,0.39471978,0.14816946,-2.36367440,0.00000000,0.00000000
-0.52049452,-2.17000008,-0.18619487,-0.27551141,-2.87979317,0.00000000,0.00000000,0.15461418,2.17000008,0.39711726,0.15006791,-2.37087798,0.00000000,0.00000000
-0.55889732,-2.17000008,-0.19760643,-0.28773353,-2.87979317,0.00000000,0.00000000,0.16147618,2.17000008,0.39929417,0.15356784,-2.37568593,0.00000000,0.00000000
-0.59107560,-2.17000008,-0.20779659,-0.30201703,-2.87979317,0.00000000,0.00000000,0.16815996,2.17000008,0.40117234,0.15838809,-2.38530684,0.00000000,0.00000000
-0.61676127,-2.17000008,-0.21657416,-0.31850982,-2.87979317,0.00000000,0.00000000,0.17428294,2.17000008,0.40267780,0.16423841,-2.38973546,0.00000000,0.00000000
-0.63613057,-2.17000008,-0.22383709,-0.33712143,-2.87979317,0.00000000,0.00000000,0.17945126,2.17000008,0.40373233,0.17086513,-2.39111185,0.00000000,0.00000000
-0.64984816,-2.17000008,-0.22959521,-0.35764706,-2.87979317,0.00000000,0.00000000,0.18349728,2.17000008,0.40427628,0.17809746,-2.39397287,0.00000000,0.00000000
-0.65905756,-2.17000008,-0.23398343,-0.37989318,-2.87979317,0.00000000,0.00000000,0.18671802,2.17000008,0.40430948,0.18578549,-2.39667821,0.00000000,0.00000000
-0.66501224,-2.17000008,-0.23721267,-0.40361118,-2.87979317,0.00000000,0.00000000,0.18972653,2.17000008,0.40391648,0.19347931,-2.40110946,0.00000000,0.00000000
-0.66870248,-2.17000008,-0.23952582,-0.42823204,-2.87979317,0.00000000,0.00000000,0.19354206,2.17000008,0.40332228,0.20009685,-2.40670657,0.00000000,0.00000000
-0.67070037,-2.17000008,-0.24118744,-0.45262286,-2.87979317,0.00000000,0.00000000,0.19739410,2.17000008,0.40261173,0.20411475,-2.40938044,0.00000000,0.00000000
-0.67113346,-2.17000008,-0.24244344,-0.47528318,-2.87979317,0.00000000,0.00000000,0.19840930,2.17000008,0.40153927,0.20554627,-2.41159987,0.00000000,0.00000000
-0.66987759,-2.17000008,-0.24345179,-0.49513486,-2.87979317,0.00000000,0.00000000,0.20082389,2.17000008,0.40062469,0.20648339,-2.40737700,0.00000000,0.00000000
-0.66649288,-2.17000008,-0.24417841,-0.51189077,-2.87979317,0.00000000,0.00000000,0.20566268,2.17000008,0.40006924,0.20717125,-2.40164948,0.00000000,0.00000000
-0.66025895,-2.17000008,-0.24441242,-0.52570957,-2.87979317,0.00000000,0.00000000,0.21264063,2.17000008,0.39991403,0.20755132,-2.39286184,0.00000000,0.00000000
-0.65032130,-2.17000008,-0.24384786,-0.53674448,-2.87979317,0.00000000,0.00000000,0.22228949,2.17000008,0.40025842,0.20813419,-2.38626480,0.00000000,0.00000000
-0.63588274,-2.17000008,-0.24218623,-0.54482335,-2.87979317,0.00000000,0.00000000,0.23495458,2.17000008,0.40116358,0.20944028,-2.38034439,0.00000000,0.00000000
-0.61635351,-2.17000008,-0.23922887,-0.54925293,-2.87979317,0.00000000,0.00000000,0.25040308,2.17000008,0.40261930,0.21165621,-2.36790943,0.00000000,0.00000000
-0.59134209,-2.17000008,-0.23490445,-0.54880106,-2.87979317,0.00000000,0.00000000,0.26780912,2.17000008,0.40454218,0.21454820,-2.35601401,0.00000000,0.00000000
-0.56056345,-2.17000008,-0.22922975,-0.54191172,-2.87979317,0.00000000,0.00000000,0.28592664,2.17000008,0.40678659,0.21761157,-2.33737373,0.00000000,0.00000000
-0.52436692,-2.17000008,-0.22238986,-0.52729875,-2.87979317,0.00000000,0.00000000,0.30343771,2.17000008,0.40918878,0.22030522,-2.31709743,0.00000000,0.00000000
-0.48565096,-2.17000008,-0.21518406,-0.50490004,-2.87979317,0.00000000,0.00000000,0.31965333,2.17000008,0.41168198,0.22209524,-2.29593039,0.00000000,0.00000000
-0.44886547,-2.17000008,-0.20875919,-0.47579718,-2.87979317,0.00000000,0.00000000,0.33482805,2.17000008,0.41433507,0.22243817,-2.27280521,0.00000000,0.00000000
-0.41490856,-2.17000008,-0.20329228,-0.44086340,-2.87979317,0.00000000,0.00000000,0.34897819,2.16999817,0.41715187,0.22103566,-2.25363755,0.00000000,0.00000000
-0.38252735,-2.17000008,-0.19839968,-0.40111840,-2.87979317,0.00000000,0.00000000,0.36163455,2.16991091,0.42003137,0.21793233,-2.23321533,0.00000000,0.00000000
-0.35077873,-2.17000008,-0.19375615,-0.35848165,-2.87979317,0.00000000,0.00000000,0.37216517,2.16886997,0.42282248,0.21342483,-2.21688581,0.00000000,0.00000000
-0.31786281,-2.17000008,-0.18891349,-0.31516409,-2.87979317,0.00000000,0.00000000,0.38008103,2.16543221,0.42536575,0.20804042,-2.20048881,0.00000000,0.00000000
-0.27946836,-2.16998625,-0.18313317,-0.27133158,-2.87979317,0.00000000,0.00000000,0.38537535,2.16084576,0.42753288,0.20260225,-2.18757868,0.00000000,0.00000000
-0.23644307,-2.16976094,-0.17673557,-0.22674395,-2.87406874,0.00000000,0.00000000,0.38852262,2.15735722,0.42925113,0.19802809,-2.17212534,0.00000000,0.00000000
-0.19219787,-2.16883755,-0.17024545,-0.18439998,-2.84950566,0.00000000,0.00000000,0.39001542,2.15598488,0.43050909,0.19469833,-2.16267943,0.00000000,0.00000000
-0.14889625,-2.16729617,-0.16388124,-0.14704685,-2.82629085,0.00000000,0.00000000,0.39022636,2.15640736,0.43134269,0.19238587,-2.15480089,0.00000000,0.00000000
-0.10830953,-2.16602588,-0.15779611,-0.11600001,-2.80225515,0.00000000,0.00000000,0.38941646,2.15781689,0.43179616,0.19068255,-2.14681220,0.00000000,0.00000000
-0.07167212,-2.16560364,-0.15206788,-0.09185838,-2.77977896,0.00000000,0.00000000,0.38770270,2.15961337,0.43188980,0.18934703,-2.14352298,0.00000000,0.00000000
-0.03958223,-2.16621280,-0.14670628,-0.07487117,-2.76418018,0.00000000,0.00000000,0.38507575,2.16156149,0.43161747,0.18838237,-2.14009738,0.00000000,0.00000000
-0.01230150,-2.16767859,-0.14170375,-0.06499187,-2.74946666,0.00000000,0.00000000,0.38149431,2.16364074,0.43096435,0.18795422,-2.13562012,0.00000000,0.00000000
0.01006541,-2.16921043,-0.13705711,-0.06175661,-2.73977685,0.00000000,0.00000000,0.37700808,2.16583967,0.42992955,0.18828334,-2.13098311,0.00000000,0.00000000
0.02757903,-2.16988039,-0.13276868,-0.06410915,-2.73135304,0.00000000,0.00000000,0.37185261,2.16795301,0.42854342,0.18952969,-2.12419772,0.00000000,0.00000000
0.04062659,-2.16999435,-0.12883726,-0.07038778,-2.72783065,0.00000000,0.00000000,0.36640882,2.16944313,0.42687047,0.19167434,-2.11955595,0.00000000,0.00000000
0.05000442,-2.17000008,-0.12524907,-0.07861713,-2.72211647,0.00000000,0.00000000,0.36110038,2.16993856,0.42500395,0.19449060,-2.11124802,0.00000000,0.00000000
0.05677924,-2.17000008,-0.12197194,-0.08692250,-2.71199059,0.00000000,0.00000000,0.35625732,2.16999793,0.42304277,0.19757737,-2.10395670,0.00000000,0.00000000
0.06218865,-2.17000008,-0.11895014,-0.09393092,-2.70318151,0.00000000,0.00000000,0.35196045,2.17000008,0.42107224,0.20037873,-2.09677577,0.00000000,0.00000000
0.06770530,-2.17000008,-0.11610122,-0.09861007,-2.69987774,0.00000000,0.00000000,0.34824634,2.17000008,0.41920057,0.20205607,-2.08848619,0.00000000,0.00000000
0.07459914,-2.17000008,-0.11334158,-0.10068081,-2.69850612,0.00000000,0.00000000,0.34467608,2.17000008,0.41746208,0.20194177,-2.08132744,0.00000000,0.00000000
0.08383145,-2.17000008,-0.11059807,-0.10043623,-2.70065522,0.00000000,0.00000000,0.34051713,2.17000008,0.41582674,0.19967723,-2.08142304,0.00000000,0.00000000
0.09602225,-2.17000008,-0.10782842,-0.09816452,-2.69959307,0.00000000,0.00000000,0.33542994,2.17000008,0.41429734,0.19533102,-2.08102942,0.00000000,0.00000000
0.11154073,-2.17000008,-0.10501759,-0.09417354,-2.69792318,0.00000000,0.00000000,0.32907552,2.17000008,0.41286254,0.18947013,-2.08417010,0.00000000,0.00000000
0.12959090,-2.16999006,-0.10222270,-0.08905427,-2.69998837,0.00000000,0.00000000,0.32145762,2.16999292,0.41148198,0.18358113,-2.08724046,0.00000000,0.00000000
0.14974202,-2.16979074,-0.09950445,-0.08249263,-2.70768929,0.00000000,0.00000000,0.31336620,2.16989708,0.41025519,0.17852779,-2.09641933,0.00000000,0.00000000
0.17058496,-2.16858006,-0.09696890,-0.07479802,-2.71588063,0.00000000,0.00000000,0.30439627,2.16974974,0.40916017,0.17468250,-2.10599041,0.00000000,0.00000000
0.18809080,-2.16565013,-0.09483171,-0.06793673,-2.72531557,0.00000000,0.00000000,0.29720119,2.16989708,0.40838733,0.17365557,-2.11219072,0.00000000,0.00000000
0.20025504,-2.16220355,-0.09321337,-0.06333531,-2.73419952,0.00000000,0.00000000,0.30075198,2.16999292,0.40881565,0.17714453,-2.12256169,0.00000000,0.00000000
0.20693742,-2.15887094,-0.09215496,-0.06117685,-2.74284267,0.00000000,0.00000000,0.30785167,2.17000008,0.40973535,0.18341516,-2.13675857,0.00000000,0.00000000
0.20792907,-2.15542054,-0.09170989,-0.06120580,-2.75324202,0.00000000,0.00000000,0.31137684,2.17000008,0.41041720,0.19005825,-2.15168691,0.00000000,0.00000000
0.20261589,-2.15227652,-0.09194998,-0.06362925,-2.76685691,0.00000000,0.00000000,0.30957365,2.17000008,0.41054851,0.19681099,-2.16421771,0.00000000,0.00000000
0.19000196,-2.15090942,-0.09296695,-0.06932332,-2.77725911,0.00000000,0.00000000,0.29993454,2.17000008,0.40971163,0.20266291,-2.17889047,0.00000000,0.00000000
0.16902539,-2.15139914,-0.09487212,-0.07838382,-2.78548574,0.00000000,0.00000000,0.28769863,2.17000008,0.40834022,0.20793121,-2.19420838,0.00000000,0.00000000
0.13952591,-2.15421343,-0.09774509,-0.09103574,-2.80020785,0.00000000,0.00000000,0.26628196,2.17000008,0.40553445,0.21098505,-2.20833921,0.00000000,0.00000000
0.10175356,-2.15878844,-0.10166561,-0.10690174,-2.81153250,0.00000000,0.00000000,0.23325974,2.17000008,0.40096313,0.21112825,-2.22048354,0.00000000,0.00000000
0.05610790,-2.16203976,-0.10672143,-0.12444428,-2.82718730,0.00000000,0.00000000,0.19186994,2.17000008,0.39504355,0.20863508,-2.23949575,0.00000000,0.00000000
0.00646900,-2.16615486,-0.11270026,-0.14536640,-2.83819985,0.00000000,0.00000000,0.14622402,2.17000008,0.38839334,0.20354995,-2.25509095,0.00000000,0.00000000
-0.04528357,-2.16916752,-0.11948480,-0.16826357,-2.85257816,0.00000000,0.00000000,0.10085708,2.17000008,0.38168430,0.19616202,-2.27088547,0.00000000,0.00000000
-0.09892464,-2.16995192,-0.12705101,-0.19073287,-2.86494732,0.00000000,0.00000000,0.06015268,2.17000008,0.37552947,0.18686816,-2.28514767,0.00000000,0.00000000
-0.15451720,-2.17000008,-0.13537107,-0.21139263,-2.87716389,0.00000000,0.00000000,0.02688113,2.17000008,0.37029368,0.17602403,-2.29451108,0.00000000,0.00000000
-0.21212962,-2.17000008,-0.14438330,-0.22974358,-2.87979317,0.00000000,0.00000000,0.00174712,2.17000008,0.36602682,0.16420135,-2.30387592,0.00000000,0.00000000
-0.27170858,-2.17000008,-0.15399350,-0.24574938,-2.87979317,0.00000000,0.00000000,-0.01603454,2.17000008,0.36256480,0.15215369,-2.31499767,0.00000000,0.00000000
-0.33277813,-2.17000008,-0.16403884,-0.25951543,-2.87979317,0.00000000,0.00000000,-0.02802450,2.17000008,0.35966715,0.14066304,-2.32647824,0.00000000,0.00000000
-0.39404181,-2.17000008,-0.17420688,-0.27135140,-2.87979317,0.00000000,0.00000000,-0.03595209,2.17000008,0.35710338,0.13036306,-2.34068656,0.00000000,0.00000000
-0.45353314,-2.17000008,-0.18405475,-0.28164828,-2.87874198,0.00000000,0.00000000,-0.04129874,2.17000008,0.35469714,0.12160961,-2.35333753,0.00000000,0.00000000
-0.50899339,-2.17000008,-0.19308586,-0.29072887,-2.87979317,0.00000000,0.00000000,-0.04493131,2.17000008,0.35234895,0.11461105,-2.36879230,0.00000000,0.00000000
-0.55819941,-2.17000008,-0.20081316,-0.29883054,-2.87979317,0.00000000,0.00000000,-0.04685865,2.17000008,0.35004267,0.10942497,-2.38158178,0.00000000,0.00000000
-0.59935951,-2.17000008,-0.20684595,-0.30602184,-2.87979317,0.00000000,0.00000000,-0.04662203,2.17000008,0.34782454,0.10594357,-2.39335275,0.00000000,0.00000000
-0.63134933,-2.17000008,-0.21094145,-0.31224224,-2.87979317,0.00000000,0.00000000,-0.04383120,2.17000008,0.34576768,0.10402206,-2.41490126,0.00000000,0.00000000
-0.65371579,-2.17000008,-0.21301314,-0.31736985,-2.87979317,0.00000000,0.00000000,-0.03837528,2.17000008,0.34394822,0.10366834,-2.43885732,0.00000000,0.00000000
-0.66661996,-2.17000008,-0.21313348,-0.32125089,-2.87364984,0.00000000,0.00000000,-0.03044546,2.17000008,0.34243575,0.10516673,-2.45606637,0.00000000,0.00000000
-0.67068672,-2.17000008,-0.21150763,-0.32374299,-2.86946249,0.00000000,0.00000000,-0.02044764,2.17000008,0.34129006,0.10903324,-2.47706246,0.00000000,0.00000000
-0.66679037,-2.17000008,-0.20840678,-0.32480556,-2.87102270,0.00000000,0.00000000,-0.00873654,2.17000008,0.34056288,0.11569111,-2.49707937,0.00000000,0.00000000
-0.65578508,-2.17000008,-0.20409846,-0.32452914,-2.87087035,0.00000000,0.00000000,0.00450125,2.17000008,0.34030235,0.12526782,-2.52124357,0.00000000,0.00000000
-0.63834769,-2.17000008,-0.19880587,-0.32307997,-2.86750793,0.00000000,0.00000000,0.01928511,2.17000008,0.34056240,0.13758029,-2.54062581,0.00000000,0.00000000
-0.61495566,-2.17000008,-0.19269647,-0.32062018,-2.86627150,0.00000000,0.00000000,0.03585438,2.17000008,0.34141800,0.15213038,-2.55618525,0.00000000,0.00000000
-0.58600062,-2.17000008,-0.18590096,-0.31725413,-2.87108397,0.00000000,0.00000000,0.05483118,2.17000008,0.34300578,0.16801035,-2.57532859,0.00000000,0.00000000
-0.55214661,-2.17000008,-0.17857516,-0.31305224,-2.87916899,0.00000000,0.00000000,0.07692944,2.17000008,0.34553286,0.18349947,-2.59192538,0.00000000,0.00000000
-0.51495254,-2.17000008,-0.17100634,-0.30808517,-2.87979317,0.00000000,0.00000000,0.10247538,2.17000008,0.34918526,0.19718218,-2.60481787,0.00000000,0.00000000
-0.47688586,-2.17000008,-0.16363110,-0.30225268,-2.87979317,0.00000000,0.00000000,0.13329458,2.17000008,0.35421535,0.21013659,-2.61934805,0.00000000,0.00000000
-0.43958563,-2.17000008,-0.15676150,-0.29512352,-2.87979317,0.00000000,0.00000000,0.16998947,2.17000008,0.36077365,0.22112040,-2.63555169,0.00000000,0.00000000
-0.40280467,-2.17000008,-0.15041935,-0.28582138,-2.87979317,0.00000000,0.00000000,0.21138442,2.17000008,0.36870533,0.22861458,-2.64747190,0.00000000,0.00000000
-0.36543638,-2.17000008,-0.14448284,-0.27341098,-2.87979317,0.00000000,0.00000000,0.25592473,2.17000008,0.37766933,0.23218910,-2.65444446,0.00000000,0.00000000
-0.32637450,-2.17000008,-0.13881263,-0.25727570,-2.87979317,0.00000000,0.00000000,0.30190286,2.17000008,0.38721833,0.23216309,-2.65793729,0.00000000,0.00000000
-0.28479254,-2.17000008,-0.13329238,-0.23724878,-2.87979317,0.00000000,0.00000000,0.34718916,2.17000008,0.39680961,0.22933002,-2.65715647,0.00000000,0.00000000
-0.24040185,-2.17000008,-0.12786597,-0.21358965,-2.87979317,0.00000000,0.00000000,0.38956919,2.16998291,0.40591586,0.22461118,-2.65031028,0.00000000,0.00000000
-0.19400173,-2.17000008,-0.12260100,-0.18691917,-2.87979317,0.00000000,0.00000000,0.42747465,2.16969132,0.41415474,0.21879758,-2.64639330,0.00000000,0.00000000
-0.14754574,-2.16999841,-0.11766227,-0.15828645,-2.87979317,0.00000000,0.00000000,0.46056336,2.16837716,0.42135701,0.21252079,-2.64215374,0.00000000,0.00000000
-0.10386458,-2.16988373,-0.11324293,-0.12918210,-2.87979317,0.00000000,0.00000000,0.48984286,2.16564083,0.42754346,0.20647961,-2.64207840,0.00000000,0.00000000
-0.06600144,-2.16858697,-0.10946748,-0.10125884,-2.87979317,0.00000000,0.00000000,0.51710308,2.16213799,0.43284059,0.20142040,-2.63811779,0.00000000,0.00000000
-0.03532646,-2.16666937,-0.10628806,-0.07695846,-2.87979317,0.00000000,0.00000000,0.54344392,2.15917063,0.43729165,0.19801922,-2.63183928,0.00000000,0.00000000
-0.01018891,-2.16863823,-0.10350139,-0.05861139,-2.87979317,0.00000000,0.00000000,0.56848276,2.15814948,0.44078106,0.19667661,-2.62415481,0.00000000,0.00000000
0.00844981,-2.16990566,-0.10110275,-0.04383435,-2.87979317,0.00000000,0.00000000,0.59112316,2.15914512,0.44318616,0.19705077,-2.61348915,0.00000000,0.00000000
0.02184933,-2.17000008,-0.09899165,-0.03267934,-2.87979317,0.00000000,0.00000000,0.60978705,2.16136146,0.44437513,0.19830568,-2.59916949,0.00000000,0.00000000
0.03198475,-2.17000008,-0.09706806,-0.02572661,-2.87979317,0.00000000,0.00000000,0.62273264,2.16394353,0.44420150,0.19958086,-2.58487344,0.00000000,0.00000000
0.03960200,-2.17000008,-0.09529913,-0.02296039,-2.87979317,0.00000000,0.00000000,0.62847447,2.16633606,0.44253564,0.20028338,-2.57210660,0.00000000,0.00000000
0.04435075,-2.17000008,-0.09368259,-0.02421411,-2.87979317,0.00000000,0.00000000,0.62615085,2.16831350,0.43930501,0.20019914,-2.56028676,0.00000000,0.00000000
0.04557350,-2.17000008,-0.09223000,-0.02918986,-2.87979317,0.00000000,0.00000000,0.61551350,2.16954517,0.43452665,0.19930857,-2.54517078,0.00000000,0.00000000
0.04271877,-2.17000008,-0.09096227,-0.03753657,-2.87979317,0.00000000,0.00000000,0.59667003,2.16994524,0.42827728,0.19776945,-2.53028369,0.00000000,0.00000000
0.03549413,-2.17000008,-0.08990904,-0.04872791,-2.87979317,0.00000000,0.00000000,0.56996387,2.16999793,0.42067051,0.19584036,-2.51880240,0.00000000,0.00000000
0.02403161,-2.17000008,-0.08910242,-0.06222738,-2.87979317,0.00000000,0.00000000,0.53604490,2.17000008,0.41186324,0.19383249,-2.50726700,0.00000000,0.00000000
0.00844162,-2.17000008,-0.08858417,-0.07765753,-2.87979317,0.00000000,0.00000000,0.49646679,2.17000008,0.40209588,0.19234811,-2.49549723,0.00000000,0.00000000
-0.01178860,-2.17000008,-0.08843356,-0.09461299,-2.87979317,0.00000000,0.00000000,0.45413816,2.17000008,0.39171541,0.19253328,-2.48326325,0.00000000,0.00000000
-0.03786160,-2.17000008,-0.08881164,-0.11176328,-2.87979317,0.00000000,0.00000000,0.41195506,2.17000008,0.38106415,0.19556566,-2.47254276,0.00000000,0.00000000
-0.06862406,-2.17000008,-0.08974185,-0.12634464,-2.87979317,0.00000000,0.00000000,0.37131640,2.17000008,0.37039670,0.20153792,-2.46446300,0.00000000,0.00000000
-0.09975128,-2.17000008,-0.09094483,-0.13705228,-2.87979317,0.00000000,0.00000000,0.33298543,2.17000008,0.35996163,0.20954351,-2.45763373,0.00000000,0.00000000
-0.13509633,-2.17000008,-0.09270394,-0.14549822,-2.87979317,0.00000000,0.00000000,0.29707533,2.17000008,0.34997347,0.21832508,-2.44751906,0.00000000,0.00000000
-0.17410690,-2.17000008,-0.09497493,-0.15143348,-2.87979317,0.00000000,0.00000000,0.26317635,2.17000008,0.34058249,0.22660211,-2.43993354,0.00000000,0.00000000
-0.21519354,-2.17000008,-0.09760797,-0.15459296,-2.87979317,0.00000000,0.00000000,0.23100258,2.17000008,0.33191958,0.23330301,-2.43462133,0.00000000,0.00000000
-0.25762680,-2.17000008,-0.10049862,-0.15524037,-2.87979317,0.00000000,0.00000000,0.20049554,2.17000008,0.32413977,0.23741075,-2.42504025,0.00000000,0.00000000
-0.30063188,-2.17000008,-0.10353115,-0.15374699,-2.87979317,0.00000000,0.00000000,0.17208482,2.17000008,0.31744963,0.23806965,-2.41379833,0.00000000,0.00000000
-0.34360200,-2.17000008,-0.10660500,-0.15057357,-2.87979317,0.00000000,0.00000000,0.14657955,2.17000008,0.31203672,0.23530149,-2.40775013,0.00000000,0.00000000
-0.38603884,-2.17000008,-0.10963137,-0.14630327,-2.87979317,0.00000000,0.00000000,0.12559171,2.17000008,0.30815783,0.22937170,-2.40263796,0.00000000,0.00000000
-0.42767736,-2.17000008,-0.11254057,-0.14173938,-2.87979317,0.00000000,0.00000000,0.11082117,2.17000008,0.30609509,0.21906351,-2.40178442,0.00000000,0.00000000
-0.46820983,-2.17000008,-0.11526023,-0.13792625,-2.87979317,0.00000000,0.00000000,0.10072950,2.17000008,0.30540678,0.20535709,-2.40578628,0.00000000,0.00000000
-0.50698000,-2.17000008,-0.11770592,-0.13530816,-2.87979317,0.00000000,0.00000000,0.09466751,2.17000008,0.30571386,0.19085944,-2.40889907,0.00000000,0.00000000
-0.54314309,-2.17000008,-0.11978584,-0.13392240,-2.87979317,0.00000000,0.00000000,0.09205375,2.17000008,0.30672625,0.17761773,-2.40881062,0.00000000,0.00000000
-0.57581764,-2.17000008,-0.12140635,-0.13374184,-2.87979317,0.00000000,0.00000000,0.09216282,2.17000008,0.30820751,0.16685778,-2.41263461,0.00000000,0.00000000
-0.60416979,-2.17000008,-0.12247774,-0.13475823,-2.87979317,0.00000000,0.00000000,0.09445594,2.17000008,0.31000566,0.15916602,-2.41490912,0.00000000,0.00000000
-0.62754416,-2.17000008,-0.12292492,-0.13697846,-2.87979317,0.00000000,0.00000000,0.09847379,2.17000008,0.31202370,0.15464725,-2.42117000,0.00000000,0.00000000
-0.64558899,-2.17000008,-0.12269867,-0.14036858,-2.87979317,0.00000000,0.00000000,0.10371374,2.17000008,0.31419528,0.15308478,-2.42840195,0.00000000,0.00000000
-0.65820867,-2.17000008,-0.12177357,-0.14480180,-2.87979317,0.00000000,0.00000000,0.10955251,2.17000008,0.31646845,0.15404731,-2.43617272,0.00000000,0.00000000
-0.66538644,-2.17000008,-0.12013492,-0.15003236,-2.87979317,0.00000000,0.00000000,0.11530045,2.17000008,0.31880262,0.15696037,-2.44569707,0.00000000,0.00000000
-0.66704690,-2.17000008,-0.11776650,-0.15570197,-2.87979317,0.00000000,0.00000000,0.12038525,2.17000008,0.32117817,0.16119690,-2.45314217,0.00000000,0.00000000
-0.66303271,-2.17000008,-0.11464658,-0.16140224,-2.87979317,0.00000000,0.00000000,0.12454646,2.17000008,0.32361028,0.16618119,-2.46076250,0.00000000,0.00000000
-0.65323895,-2.17000008,-0.11075776,-0.16678636,-2.87979317,0.00000000,0.00000000,0.12792136,2.17000008,0.32615963,0.17145956,-2.46553421,0.00000000,0.00000000
-0.63773882,-2.17000008,-0.10609768,-0.17166479,-2.87979317,0.00000000,0.00000000,0.13094527,2.17000008,0.32893336,0.17660852,-2.46898413,0.00000000,0.00000000
-0.61677891,-2.17000008,-0.10067867,-0.17604965,-2.87979317,0.00000000,0.00000000,0.13427918,2.17000008,0.33209366,0.18096754,-2.47824836,0.00000000,0.00000000
-0.59080982,-2.17000008,-0.09453260,-0.18015203,-2.87979317,0.00000000,0.00000000,0.13978136,2.17000008,0.33597291,0.18344651,-2.47786856,0.00000000,0.00000000
-0.56068951,-2.17000008,-0.08774298,-0.18416944,-2.87979317,0.00000000,0.00000000,0.14903530,2.17000008,0.34088972,0.18263878,-2.47875881,0.00000000,0.00000000
-0.52769279,-2.17000008,-0.08045820,-0.18801288,-2.87979317,0.00000000,0.00000000,0.15944724,2.17000008,0.34661788,0.17814396,-2.47866178,0.00000000,0.00000000
-0.49301824,-2.17000008,-0.07282925,-0.19156229,-2.87979317,0.00000000,0.00000000,0.17378117,2.17000008,0.35329872,0.17302826,-2.47877860,0.00000000,0.00000000
-0.45719129,-2.17000008,-0.06495078,-0.19467323,-2.87979317,0.00000000,0.00000000,0.19530794,2.17000008,0.36110270,0.16895621,-2.47503281,0.00000000,0.00000000
-0.42010397,-2.17000008,-0.05685391,-0.19718353,-2.87979317,0.00000000,0.00000000,0.22248521,2.17000008,0.36972684,0.16569422,-2.46695495,0.00000000,0.00000000
-0.38129506,-2.17000008,-0.04852543,-0.19902052,-2.87979317,0.00000000,0.00000000,0.25326231,2.16997862,0.37881047,0.16315857,-2.46422124,0.00000000,0.00000000
-0.34027922,-2.17000008,-0.03994202,-0.20023467,-2.87979317,0.00000000,0.00000000,0.28610069,2.16963363,0.38803950,0.16175859,-2.46652150,0.00000000,0.00000000
-0.29681230,-2.17000008,-0.03110235,-0.20095082,-2.87979317,0.00000000,0.00000000,0.31946096,2.16829848,0.39710969,0.16208978,-2.47678733,0.00000000,0.00000000
-0.25104815,-2.17000008,-0.02204886,-0.20124225,-2.87979317,0.00000000,0.00000000,0.35183036,2.16620111,0.40574202,0.16462782,-2.48790908,0.00000000,0.00000000
-0.20359060,-2.17000008,-0.01287569,-0.20097771,-2.87979317,0.00000000,0.00000000,0.38179952,2.16448617,0.41369283,0.16950873,-2.49878049,0.00000000,0.00000000
-0.15551059,-2.17000008,-0.00373297,-0.19991100,-2.87979317,0.00000000,0.00000000,0.40814662,2.16396284,0.42075852,0.17652926,-2.51574540,0.00000000,0.00000000
-0.10835907,-2.17000008,0.00517369,-0.19791085,-2.87979317,0.00000000,0.00000000,0.42997220,2.16483331,0.42678094,0.18523768,-2.53257585,0.00000000,0.00000000
-0.06392770,-2.16990948,0.01361191,-0.19488969,-2.87979317,0.00000000,0.00000000,0.44712055,2.16660070,0.43169999,0.19503029,-2.54738307,0.00000000,0.00000000
-0.02426935,-2.16869926,0.02132069,-0.19049904,-2.87979317,0.00000000,0.00000000,0.46005043,2.16840076,0.43553606,0.20530595,-2.56728435,0.00000000,0.00000000
0.00926121,-2.16683555,0.02811581,-0.18557084,-2.87979317,0.00000000,0.00000000,0.46922728,2.16962743,0.43830419,0.21560636,-2.59132767,0.00000000,0.00000000
0.03799750,-2.16869926,0.03412276,-0.18216990,-2.87979317,0.00000000,0.00000000,0.47451562,2.16997766,0.43997377,0.22533774,-2.61357641,0.00000000,0.00000000
0.06057816,-2.16990995,0.03919689,-0.17723998,-2.87979317,0.00000000,0.00000000,0.47542557,2.17000008,0.44049886,0.23373984,-2.63930821,0.00000000,0.00000000
0.07758669,-2.17000008,0.04338965,-0.17156455,-2.87979317,0.00000000,0.00000000,0.47165549,2.17000008,0.43989694,0.23981190,-2.66604686,0.00000000,0.00000000
0.09024472,-2.17000008,0.04680316,-0.16662838,-2.87979317,0.00000000,0.00000000,0.46300164,2.17000008,0.43820718,0.24262539,-2.68842030,0.00000000,0.00000000
0.09880683,-2.17000008,0.04942146,-0.16277075,-2.87979317,0.00000000,0.00000000,0.44959900,2.17000008,0.43549767,0.24168089,-2.70873642,0.00000000,0.00000000
0.10271816,-2.17000008,0.05113008,-0.15997547,-2.87979317,0.00000000,0.00000000,0.43192056,2.17000008,0.43186244,0.23706624,-2.72885323,0.00000000,0.00000000
0.10164649,-2.16999888,0.05183170,-0.15825097,-2.87979317,0.00000000,0.00000000,0.41044840,2.17000008,0.42741925,0.22903742,-2.75271297,0.00000000,0.00000000
0.09486340,-2.16997480,0.05141246,-0.15802364,-2.87979317,0.00000000,0.00000000,0.38592058,2.17000008,0.42230707,0.21811800,-2.77660275,0.00000000,0.00000000
0.08163419,-2.16980267,0.04975535,-0.15968044,-2.87979317,0.00000000,0.00000000,0.35902390,2.17000008,0.41666195,0.20505002,-2.80176854,0.00000000,0.00000000
0.06138187,-2.16925931,0.04676675,-0.16347259,-2.87979317,0.00000000,0.00000000,0.33038443,2.17000008,0.41060096,0.19085923,-2.82518983,0.00000000,0.00000000
0.03347434,-2.16760635,0.04235892,-0.16864628,-2.87979317,0.00000000,0.00000000,0.30084738,2.17000008,0.40423992,0.17684995,-2.84601283,0.00000000,0.00000000
-0.00220626,-2.16584277,0.03650353,-0.17482650,-2.87979317,0.00000000,0.00000000,0.27160057,2.17000008,0.39771387,0.16436897,-2.86698103,0.00000000,0.00000000
-0.04413158,-2.16837597,0.02936430,-0.18442604,-2.87979317,0.00000000,0.00000000,0.24382046,2.17000008,0.39118394,0.15415666,-2.87979317,0.00000000,0.00000000
-0.09044780,-2.16988373,0.02122660,-0.19505268,-2.87979317,0.00000000,0.00000000,0.21766329,2.17000008,0.38472083,0.14655316,-2.87979317,0.00000000,0.00000000
-0.13947549,-2.16999960,0.01236141,-0.20543981,-2.87979317,0.00000000,0.00000000,0.19295362,2.17000008,0.37832615,0.14208554,-2.87979317,0.00000000,0.00000000
-0.19021504,-2.17000008,0.00296140,-0.21522872,-2.87979317,0.00000000,0.00000000,0.16966158,2.17000008,0.37198728,0.14150949,-2.87979317,0.00000000,0.00000000
-0.24203548,-2.17000008,-0.00681369,-0.22375140,-2.87979317,0.00000000,0.00000000,0.14761916,2.17000008,0.36568841,0.14522314,-2.87979317,0.00000000,0.00000000
-0.29472053,-2.17000008,-0.01684207,-0.23032956,-2.87979317,0.00000000,0.00000000,0.12756860,2.17000008,0.35953251,0.15296696,-2.87979317,0.00000000,0.00000000
-0.34814376,-2.17000008,-0.02699905,-0.23446004,-2.87979317,0.00000000,0.00000000,0.11270483,2.17000008,0.35395312,0.16299170,-2.87979317,0.00000000,0.00000000
-0.40212193,-2.17000008,-0.03713748,-0.23597679,-2.87979317,0.00000000,0.00000000,0.10255913,2.17000008,0.34915543,0.17094952,-2.87979317,0.00000000,0.00000000
-0.45582539,-2.17000008,-0.04702267,-0.23511571,-2.87979317,0.00000000,0.00000000,0.09370536,2.17000008,0.34491041,0.17462595,-2.87979317,0.00000000,0.00000000
-0.50772238,-2.17000008,-0.05634550,-0.23221743,-2.87979317,0.00000000,0.00000000,0.08517663,2.17000008,0.34105930,0.17502135,-2.87979317,0.00000000,0.00000000
-0.55578834,-2.17000008,-0.06476320,-0.22773591,-2.87979317,0.00000000,0.00000000,0.07657543,2.17000008,0.33749378,0.17345783,-2.87979317,0.00000000,0.00000000
-0.59780210,-2.17000008,-0.07194740,-0.22217411,-2.87979317,0.00000000,0.00000000,0.06758466,2.17000008,0.33415699,0.17077741,-2.87979317,0.00000000,0.00000000
-0.63166499,-2.17000008,-0.07762828,-0.21596164,-2.87979317,0.00000000,0.00000000,0.05842473,2.17000008,0.33107623,0.16753665,-2.87979317,0.00000000,0.00000000
-0.65564620,-2.17000008,-0.08162116,-0.20939294,-2.87979317,0.00000000,0.00000000,0.04974003,2.17000008,0.32833460,0.16409445,-2.87979317,0.00000000,0.00000000
-0.66858137,-2.17000008,-0.08384069,-0.20264369,-2.87979317,0.00000000,0.00000000,0.04241803,2.17000008,0.32603982,0.16062425,-2.87979317,0.00000000,0.00000000
-0.66999739,-2.17000008,-0.08430198,-0.19586171,-2.87979317,0.00000000,0.00000000,0.03745832,2.17000008,0.32430410,0.15712062,-2.87979317,0.00000000,0.00000000
-0.66012555,-2.17000008,-0.08310808,-0.18925932,-2.87979317,0.00000000,0.00000000,0.03594861,2.17000008,0.32323638,0.15351346,-2.87979317,0.00000000,0.00000000
-0.63976151,-2.17000008,-0.08042432,-0.18313748,-2.87979317,0.00000000,0.00000000,0.03883569,2.17000008,0.32292068,0.14979239,-2.87979317,0.00000000,0.00000000
-0.61006683,-2.17000008,-0.07644790,-0.17791039,-2.87979317,0.00000000,0.00000000,0.04666525,2.17000008,0.32338858,0.14617673,-2.87979317,0.00000000,0.00000000
