isaac-sim2real/sage/motion_files/wr75s/amass/0-HumanEva_S1_Walking_3_poses_idx37.txt
l_joint1,l_joint2,l_joint3,l_joint4,l_joint5,l_joint6,l_joint7,r_joint1,r_joint2,r_joint3,r_joint4,r_joint5,r_joint6,r_joint7
0.16432175,-2.16863728,-0.40669632,-0.04218507,-0.03412208,0.00000000,0.00000000,0.40923488,2.15670037,0.79747266,-0.00649557,0.25696847,0.00000000,0.00000000
0.17246282,-2.16921997,-0.40752083,-0.04746697,-0.03109169,0.00000000,0.00000000,0.43033949,2.14723325,0.79782957,0.00072777,0.28456819,0.00000000,0.00000000
0.18168448,-2.16980553,-0.40926465,-0.05782766,-0.03288082,0.00000000,0.00000000,0.46623284,2.13480473,0.79856741,0.01534324,0.31358168,0.00000000,0.00000000
0.19057724,-2.16998816,-0.41201490,-0.07069516,-0.03299537,0.00000000,0.00000000,0.50923151,2.12007189,0.79969519,0.03419748,0.34616023,0.00000000,0.00000000
0.19910170,-2.17000008,-0.41583833,-0.08426253,-0.03710125,0.00000000,0.00000000,0.55258393,2.10331440,0.80111766,0.05427019,0.38617295,0.00000000,0.00000000
0.20567724,-2.17000008,-0.42085356,-0.09804424,-0.03849320,0.00000000,0.00000000,0.59125346,2.08660507,0.80261385,0.07404272,0.42221329,0.00000000,0.00000000
0.20866241,-2.17000008,-0.42721313,-0.11141111,-0.03963593,0.00000000,0.00000000,0.62176579,2.07184362,0.80389494,0.09264559,0.45602214,0.00000000,0.00000000
0.20656876,-2.17000008,-0.43509069,-0.12361671,-0.04425067,0.00000000,0.00000000,0.64215153,2.05997825,0.80467391,0.10945484,0.49546733,0.00000000,0.00000000
0.19800925,-2.17000008,-0.44467619,-0.13386627,-0.05013452,0.00000000,0.00000000,0.65135324,2.05140519,0.80469263,0.12404999,0.53432411,0.00000000,0.00000000
0.18257548,-2.17000008,-0.45612040,-0.14101160,-0.05534665,0.00000000,0.00000000,0.64913332,2.04567194,0.80377358,0.13610402,0.57120275,0.00000000,0.00000000
0.15930504,-2.16992974,-0.46955526,-0.14447594,-0.05484500,0.00000000,0.00000000,0.63508624,2.04269195,0.80171525,0.14547414,0.60687500,0.00000000,0.00000000
0.12726010,-2.16869020,-0.48500174,-0.14484227,-0.05408180,0.00000000,0.00000000,0.60869700,2.04212666,0.79834831,0.15183373,0.64382493,0.00000000,0.00000000
0.08628938,-2.16261721,-0.50228393,-0.14401527,-0.05192424,0.00000000,0.00000000,0.56943721,2.04349446,0.79355812,0.15471251,0.68217134,0.00000000,0.00000000
0.03567489,-2.14876008,-0.52112395,-0.14538285,-0.04791870,0.00000000,0.00000000,0.51741678,2.04765725,0.78724414,0.15448953,0.71977615,0.00000000,0.00000000
-0.02592332,-2.12962365,-0.54130787,-0.15161438,-0.04390932,0.00000000,0.00000000,0.45583111,2.05607486,0.77951688,0.15311983,0.75578803,0.00000000,0.00000000
-0.09837472,-2.10961556,-0.56253725,-0.16422001,-0.03735031,0.00000000,0.00000000,0.38864398,2.06941867,0.77060342,0.15260604,0.78960109,0.00000000,0.00000000
-0.17849895,-2.09228373,-0.58428305,-0.18335587,-0.02619753,0.00000000,0.00000000,0.31818479,2.08635116,0.76073855,0.15337887,0.81714386,0.00000000,0.00000000
-0.26125923,-2.08134341,-0.60573608,-0.20870149,-0.01753681,0.00000000,0.00000000,0.24553521,2.10570812,0.75004148,0.15533921,0.83418024,0.00000000,0.00000000
-0.34173876,-2.07942820,-0.62597978,-0.23935787,-0.00731354,0.00000000,0.00000000,0.17049769,2.12754130,0.73844981,0.15822884,0.83948088,0.00000000,0.00000000
-0.41509226,-2.08629203,-0.64413816,-0.27304170,0.00760300,0.00000000,0.00000000,0.09147930,2.14973426,0.72594219,0.16021529,0.84498256,0.00000000,0.00000000
-0.47659093,-2.09896827,-0.65947628,-0.30614009,0.02323984,0.00000000,0.00000000,0.01007455,2.16436052,0.71313500,0.15840165,0.84845841,0.00000000,0.00000000
-0.52350515,-2.11485076,-0.67145264,-0.33599806,0.04323693,0.00000000,0.00000000,-0.06575175,2.16925931,0.70098668,0.15423419,0.85144758,0.00000000,0.00000000
-0.55505633,-2.13228011,-0.67975366,-0.36118391,0.06233094,0.00000000,0.00000000,-0.12989512,2.16996717,0.69032156,0.14899516,0.85934722,0.00000000,0.00000000
-0.57174021,-2.14884233,-0.68445092,-0.38048473,0.07226796,0.00000000,0.00000000,-0.18053837,2.17000008,0.68169171,0.14219786,0.86802661,0.00000000,0.00000000
-0.57411474,-2.16179037,-0.68580550,-0.39317471,0.07986966,0.00000000,0.00000000,-0.21697783,2.17000008,0.67551082,0.13297540,0.88021892,0.00000000,0.00000000
-0.56335741,-2.16837788,-0.68444687,-0.39845666,0.09103720,0.00000000,0.00000000,-0.24015693,2.17000008,0.67188925,0.12037282,0.89024228,0.00000000,0.00000000
-0.54113692,-2.16990900,-0.68117464,-0.39473310,0.10058856,0.00000000,0.00000000,-0.25166285,2.17000008,0.67066216,0.10396231,0.89439636,0.00000000,0.00000000
-0.51030302,-2.17000008,-0.67698491,-0.38101277,0.10317180,0.00000000,0.00000000,-0.25322497,2.17000008,0.67151868,0.08342534,0.90264744,0.00000000,0.00000000
-0.47187546,-2.17000008,-0.67223245,-0.35714751,0.10382111,0.00000000,0.00000000,-0.24447839,2.16982603,0.67413604,0.05960102,0.90657729,0.00000000,0.00000000
-0.42715576,-2.16992855,-0.66695577,-0.32462367,0.11085542,0.00000000,0.00000000,-0.22487006,2.16699100,0.67813444,0.03358545,0.90920532,0.00000000,0.00000000
-0.37836128,-2.16876483,-0.66116077,-0.28629300,0.11829533,0.00000000,0.00000000,-0.19411525,2.15585327,0.68310148,0.00739992,0.91149223,0.00000000,0.00000000
-0.32896701,-2.16423702,-0.65513635,-0.24554735,0.13456209,0.00000000,0.00000000,-0.15177488,2.13750768,0.68872756,-0.01395532,0.90123636,0.00000000,0.00000000
-0.28337765,-2.15739083,-0.64928818,-0.20656286,0.14335606,0.00000000,0.00000000,-0.09925386,2.11908722,0.69490868,-0.02681235,0.89405197,0.00000000,0.00000000
-0.24229924,-2.15257549,-0.64355212,-0.17266563,0.15188479,0.00000000,0.00000000,-0.03527099,2.10290074,0.70162207,-0.02985252,0.88766533,0.00000000,0.00000000
-0.20256384,-2.15066862,-0.63778806,-0.14381440,0.16336687,0.00000000,0.00000000,0.03944054,2.08868122,0.70888191,-0.02356697,0.87332559,0.00000000,0.00000000
-0.16252965,-2.15029025,-0.63214135,-0.11921316,0.17566727,0.00000000,0.00000000,0.12331647,2.07611251,0.71670455,-0.00878818,0.86150634,0.00000000,0.00000000
-0.12145769,-2.15159988,-0.62672484,-0.09892426,0.18591973,0.00000000,0.00000000,0.21401061,2.06656694,0.72509217,0.01394053,0.84817159,0.00000000,0.00000000
-0.07937827,-2.15420699,-0.62168741,-0.08292833,0.18638186,0.00000000,0.00000000,0.30684522,2.06072474,0.73395830,0.04263157,0.83730453,0.00000000,0.00000000
-0.03732378,-2.15765667,-0.61719757,-0.07148740,0.18511772,0.00000000,0.00000000,0.39583522,2.05779910,0.74307251,0.07414293,0.82731271,0.00000000,0.00000000
0.00297296,-2.16196895,-0.61338544,-0.06527031,0.18247369,0.00000000,0.00000000,0.47640625,2.05715442,0.75209707,0.10605235,0.81504303,0.00000000,0.00000000
0.04048805,-2.16631389,-0.61033559,-0.06433107,0.17855987,0.00000000,0.00000000,0.54601759,2.05823755,0.76065725,0.13672055,0.79912585,0.00000000,0.00000000
0.07455286,-2.16911030,-0.60811257,-0.06831265,0.17165327,0.00000000,0.00000000,0.60295200,2.06108880,0.76833284,0.16517545,0.78309035,0.00000000,0.00000000
0.10539653,-2.16992188,-0.60675883,-0.07636467,0.16474618,0.00000000,0.00000000,0.64600033,2.06542850,0.77472705,0.19059825,0.76018453,0.00000000,0.00000000
0.13238619,-2.16999817,-0.60641819,-0.08665936,0.15145175,0.00000000,0.00000000,0.67418003,2.07136464,0.77941746,0.21238321,0.73393041,0.00000000,0.00000000
0.15344992,-2.17000008,-0.60734427,-0.09736371,0.14145987,0.00000000,0.00000000,0.68672389,2.07954645,0.78194946,0.23031862,0.71331477,0.00000000,0.00000000
0.16644703,-2.17000008,-0.60984135,-0.10667527,0.12925239,0.00000000,0.00000000,0.68315190,2.09026289,0.78192067,0.24419357,0.70069641,0.00000000,0.00000000
0.16921616,-2.17000008,-0.61420703,-0.11348726,0.11423378,0.00000000,0.00000000,0.66287804,2.10366201,0.77896112,0.25375578,0.68522966,0.00000000,0.00000000
0.16010608,-2.17000008,-0.62065053,-0.11750117,0.09541354,0.00000000,0.00000000,0.62609690,2.11925411,0.77291662,0.25893673,0.66713315,0.00000000,0.00000000
0.13913670,-2.16987443,-0.62920219,-0.11876059,0.06968014,0.00000000,0.00000000,0.57433021,2.13363791,0.76416951,0.25872478,0.64517170,0.00000000,0.00000000
0.10732417,-2.16777825,-0.63969189,-0.11810608,0.04396993,0.00000000,0.00000000,0.50812358,2.14173818,0.75327557,0.25045636,0.61599225,0.00000000,0.00000000
0.06304546,-2.15888906,-0.65193260,-0.11845161,0.02134629,0.00000000,0.00000000,0.43377137,2.14478850,0.74088490,0.23737116,0.59203911,0.00000000,0.00000000
0.00333141,-2.14177680,-0.66578847,-0.12319826,0.00177756,0.00000000,0.00000000,0.35849342,2.14524293,0.72766608,0.22385697,0.56581765,0.00000000,0.00000000
-0.07158644,-2.12105513,-0.68093187,-0.13455831,-0.02154421,0.00000000,0.00000000,0.28275219,2.14507484,0.71356261,0.21123533,0.54185516,0.00000000,0.00000000
-0.15787703,-2.10259461,-0.69678706,-0.15325345,-0.03946269,0.00000000,0.00000000,0.20475911,2.14553475,0.69834107,0.19951516,0.51813972,0.00000000,0.00000000
-0.24954610,-2.09031844,-0.71259981,-0.17816159,-0.04803279,0.00000000,0.00000000,0.12195915,2.14828324,0.68170077,0.18874650,0.49587023,0.00000000,0.00000000
-0.33954304,-2.08491135,-0.72755134,-0.20617668,-0.05470004,0.00000000,0.00000000,0.03331969,2.15464759,0.66353679,0.17947638,0.47307763,0.00000000,0.00000000
-0.42229486,-2.08562732,-0.74090743,-0.23418400,-0.06112042,0.00000000,0.00000000,-0.05622483,2.16300440,0.64448518,0.17287825,0.44753116,0.00000000,0.00000000
-0.49439585,-2.09077621,-0.75215840,-0.25963408,-0.07057661,0.00000000,0.00000000,-0.13747938,2.16848946,0.62590700,0.16889805,0.42004043,0.00000000,0.00000000
-0.55379778,-2.09839177,-0.76096743,-0.28061634,-0.08559852,0.00000000,0.00000000,-0.20605563,2.16991234,0.60884029,0.16481437,0.39522296,0.00000000,0.00000000
-0.59922630,-2.10706377,-0.76707751,-0.29598284,-0.09580413,0.00000000,0.00000000,-0.26033163,2.17000008,0.59383607,0.15902913,0.37303314,0.00000000,0.00000000
-0.62982529,-2.11605668,-0.77027142,-0.30516154,-0.10941106,0.00000000,0.00000000,-0.29873374,2.17000008,0.58126271,0.15133363,0.35161433,0.00000000,0.00000000
-0.64503336,-2.12471342,-0.77044582,-0.30779815,-0.11804698,0.00000000,0.00000000,-0.32112128,2.17000008,0.57129735,0.14116785,0.32693779,0.00000000,0.00000000
-0.64543331,-2.13150263,-0.76783651,-0.30353770,-0.12626258,0.00000000,0.00000000,-0.33061227,2.17000008,0.56385547,0.12566786,0.29807726,0.00000000,0.00000000
-0.63022459,-2.13770103,-0.76221627,-0.29278126,-0.12958108,0.00000000,0.00000000,-0.32399836,2.17000008,0.55885857,0.10784119,0.26798984,0.00000000,0.00000000
-0.59997112,-2.14399576,-0.75367951,-0.27618578,-0.12914832,0.00000000,0.00000000,-0.30077630,2.16989756,0.55603862,0.08873851,0.23931254,0.00000000,0.00000000
-0.55695498,-2.14965844,-0.74275810,-0.25451779,-0.12507755,0.00000000,0.00000000,-0.26363647,2.16811156,0.55496699,0.06702548,0.20716825,0.00000000,0.00000000
-0.50550985,-2.15381098,-0.73025507,-0.22931965,-0.11988910,0.00000000,0.00000000,-0.21413295,2.15962243,0.55516434,0.04298728,0.17352876,0.00000000,0.00000000
-0.45091301,-2.15740514,-0.71687591,-0.20349574,-0.12028138,0.00000000,0.00000000,-0.14988044,2.14110684,0.55619496,0.02208105,0.14336230,0.00000000,0.00000000
-0.39520600,-2.16099858,-0.70302039,-0.17867072,-0.11732242,0.00000000,0.00000000,-0.07170318,2.11692882,0.55775064,0.00816513,0.11064671,0.00000000,0.00000000
-0.33682078,-2.16446519,-0.68877774,-0.15482147,-0.11316229,0.00000000,0.00000000,0.01592009,2.09179854,0.55967176,0.00180176,0.09159764,0.00000000,0.00000000
-0.27568549,-2.16696095,-0.67438483,-0.13208798,-0.10766028,0.00000000,0.00000000,0.10892382,2.06575203,0.56190670,0.00105213,0.07911576,0.00000000,0.00000000
-0.21176074,-2.16916943,-0.65995365,-0.11121597,-0.09857917,0.00000000,0.00000000,0.20512919,2.03939986,0.56443828,0.00486488,0.06782930,0.00000000,0.00000000
-0.14656590,-2.16994762,-0.64574623,-0.09234034,-0.08735060,0.00000000,0.00000000,0.30150834,2.01302743,0.56723607,0.01189355,0.05422652,0.00000000,0.00000000
-0.08351476,-2.17000008,-0.63203251,-0.07643005,-0.07454407,0.00000000,0.00000000,0.39448518,1.98788881,0.57023263,0.02125683,0.03460243,0.00000000,0.00000000
-0.02555440,-2.17000008,-0.61901188,-0.06371876,-0.05787588,0.00000000,0.00000000,0.48084942,1.96483374,0.57331729,0.03214178,0.01427740,0.00000000,0.00000000
0.02615511,-2.17000008,-0.60677379,-0.05395604,-0.03774837,0.00000000,0.00000000,0.55790466,1.94500256,0.57632542,0.04413447,-0.00266100,0.00000000,0.00000000
0.07107295,-2.17000008,-0.59534359,-0.04723847,-0.02104940,0.00000000,0.00000000,0.62323022,1.92990756,0.57903016,0.05710599,-0.01661220,0.00000000,0.00000000
0.10949978,-2.17000008,-0.58473986,-0.04279165,-0.00985430,0.00000000,0.00000000,0.67517829,1.91986620,0.58118916,0.07051510,-0.02974203,0.00000000,0.00000000
0.14192607,-2.17000008,-0.57501245,-0.03848983,0.00128568,0.00000000,0.00000000,0.71300954,1.91430116,0.58256131,0.08362124,-0.04051505,0.00000000,0.00000000
0.16561349,-2.17000008,-0.56620318,-0.03585748,0.01850964,0.00000000,0.00000000,0.73492527,1.91428280,0.58280265,0.09612736,-0.05472219,0.00000000,0.00000000
0.17861666,-2.17000008,-0.55835652,-0.03490206,0.02873345,0.00000000,0.00000000,0.73953813,1.92046010,0.58157611,0.10771866,-0.06754298,0.00000000,0.00000000
0.18028817,-2.17000008,-0.55151659,-0.03379057,0.03821130,0.00000000,0.00000000,0.72543424,1.93306351,0.57854068,0.11791728,-0.08201341,0.00000000,0.00000000
0.17081104,-2.17000008,-0.54569525,-0.03085381,0.04322996,0.00000000,0.00000000,0.69121748,1.95179904,0.57339072,0.12608682,-0.09425693,0.00000000,0.00000000
0.14979570,-2.17000008,-0.54086155,-0.02586358,0.04710763,0.00000000,0.00000000,0.63602149,1.97454154,0.56596816,0.13092260,-0.10369795,0.00000000,0.00000000
0.11650501,-2.16989946,-0.53694618,-0.01977297,0.04680712,0.00000000,0.00000000,0.56345928,1.99664688,0.55659837,0.13117881,-0.11087640,0.00000000,0.00000000
0.06991745,-2.16825795,-0.53388178,-0.01455422,0.04700730,0.00000000,0.00000000,0.48331770,2.01846457,0.54594767,0.13049531,-0.11897229,0.00000000,0.00000000
0.00933611,-2.16165447,-0.53161383,-0.01211863,0.04846903,0.00000000,0.00000000,0.40171710,2.04054236,0.53447324,0.13166037,-0.12716845,0.00000000,0.00000000
-0.06398824,-2.14941597,-0.53009152,-0.01384042,0.04926525,0.00000000,0.00000000,0.32046455,2.06265998,0.52234572,0.13550395,-0.13645947,0.00000000,0.00000000
-0.14669381,-2.13510513,-0.52925193,-0.02037094,0.04877131,0.00000000,0.00000000,0.24075134,2.08464384,0.50964910,0.14246148,-0.13996021,0.00000000,0.00000000
-0.23440041,-2.12514973,-0.52897298,-0.03283363,0.04794222,0.00000000,0.00000000,0.16068135,2.10923743,0.49607012,0.15349600,-0.13746329,0.00000000,0.00000000
-0.32160357,-2.12125039,-0.52905399,-0.04962093,0.04625304,0.00000000,0.00000000,0.07950028,2.13581228,0.48150864,0.16782203,-0.12876177,0.00000000,0.00000000
-0.40314484,-2.12221456,-0.52921909,-0.06786747,0.04826122,0.00000000,0.00000000,-0.00098494,2.15681744,0.46639517,0.18170415,-0.12082266,0.00000000,0.00000000
-0.47584707,-2.12690711,-0.52917284,-0.08548950,0.04654969,0.00000000,0.00000000,-0.07388154,2.16737843,0.45170221,0.19373922,-0.11108457,0.00000000,0.00000000
-0.53800195,-2.13432169,-0.52864218,-0.10106617,0.04065895,0.00000000,0.00000000,-0.13386166,2.16985226,0.43837401,0.20305157,-0.09991636,0.00000000,0.00000000
-0.58832461,-2.14350843,-0.52738839,-0.11357743,0.03659508,0.00000000,0.00000000,-0.17983437,2.17000008,0.42703372,0.20786932,-0.09065857,0.00000000,0.00000000
-0.62612903,-2.15207744,-0.52529162,-0.12152698,0.03162554,0.00000000,0.00000000,-0.21247000,2.17000008,0.41819140,0.20550071,-0.07513894,0.00000000,0.00000000
-0.65054935,-2.15785885,-0.52227640,-0.12355006,0.01820740,0.00000000,0.00000000,-0.23219995,2.17000008,0.41213456,0.19470932,-0.06366376,0.00000000,0.00000000
-0.66085327,-2.16089940,-0.51827681,-0.11979149,0.00895287,0.00000000,0.00000000,-0.23916680,2.17000008,0.40884703,0.17568545,-0.05283382,0.00000000,0.00000000
-0.65635705,-2.16195393,-0.51327813,-0.11089824,-0.00225380,0.00000000,0.00000000,-0.23360176,2.17000008,0.40803152,0.14947708,-0.04363019,0.00000000,0.00000000
-0.63701302,-2.16164970,-0.50737363,-0.09753056,-0.01497043,0.00000000,0.00000000,-0.21585067,2.16992712,0.40919128,0.11790868,-0.04026103,0.00000000,0.00000000
-0.60409242,-2.16068769,-0.50078058,-0.08071593,-0.02980532,0.00000000,0.00000000,-0.18689215,2.16862154,0.41170523,0.08313213,-0.03077253,0.00000000,0.00000000
-0.56026906,-2.15958905,-0.49381334,-0.06185801,-0.04315281,0.00000000,0.00000000,-0.14888500,2.16199875,0.41493726,0.04718161,-0.01763247,0.00000000,0.00000000
-0.50866014,-2.15806341,-0.48680633,-0.04208916,-0.05793107,0.00000000,0.00000000,-0.10488761,2.14625430,0.41840130,0.01196282,-0.00455476,0.00000000,0.00000000
-0.45296234,-2.15686083,-0.48004171,-0.02322197,-0.07299449,0.00000000,0.00000000,-0.05604926,2.12558675,0.42188472,-0.01945039,0.00628524,0.00000000,0.00000000
-0.39681551,-2.15840197,-0.47372308,-0.00784602,-0.08431765,0.00000000,0.00000000,0.00174420,2.10631537,0.42529890,-0.04279106,0.00601653,0.00000000,0.00000000
-0.33933342,-2.16235709,-0.46796721,0.00413776,-0.09963186,0.00000000,0.00000000,0.07033019,2.08445907,0.42848951,-0.05997010,0.00222373,0.00000000,0.00000000
-0.27902326,-2.16662788,-0.46285787,0.01384815,-0.12157941,0.00000000,0.00000000,0.14874476,2.06433868,0.43145758,-0.06910635,0.00182230,0.00000000,0.00000000
-0.21597083,-2.16926908,-0.45845070,0.02213428,-0.14427336,0.00000000,0.00000000,0.23574303,2.04884195,0.43425727,-0.06915994,0.00077610,0.00000000,0.00000000
-0.15103072,-2.16995764,-0.45476440,0.02956114,-0.17284128,0.00000000,0.00000000,0.32826465,2.03747916,0.43699843,-0.06151047,0.00507878,0.00000000,0.00000000
-0.08605736,-2.17000008,-0.45178628,0.03474117,-0.19486883,0.00000000,0.00000000,0.41995245,2.03217435,0.43992782,-0.04719322,0.00958031,0.00000000,0.00000000
-0.02450608,-2.17000008,-0.44944501,0.03568124,-0.21537371,0.00000000,0.00000000,0.50493580,2.03264427,0.44314602,-0.02838424,0.01484965,0.00000000,0.00000000
0.03091086,-2.17000008,-0.44762591,0.03344657,-0.23015410,0.00000000,0.00000000,0.57940328,2.03636694,0.44654679,-0.00800631,0.01788648,0.00000000,0.00000000
0.07873714,-2.17000008,-0.44625607,0.02918868,-0.24594034,0.00000000,0.00000000,0.64131802,2.04235816,0.44992155,0.01230593,0.02899509,0.00000000,0.00000000
0.11888498,-2.17000008,-0.44532120,0.02379872,-0.25962216,0.00000000,0.00000000,0.68998003,2.04973555,0.45301396,0.03138615,0.04269619,0.00000000,0.00000000
0.15163392,-2.17000008,-0.44484118,0.01771127,-0.27288234,0.00000000,0.00000000,0.72487617,2.05774236,0.45555311,0.04828173,0.05886732,0.00000000,0.00000000
0.17736827,-2.17000008,-0.44484240,0.01190471,-0.28799400,0.00000000,0.00000000,0.74488246,2.06606650,0.45725542,0.06226859,0.07215609,0.00000000,0.00000000
0.19510892,-2.17000008,-0.44535053,0.00661714,-0.30071887,0.00000000,0.00000000,0.74819106,2.07545662,0.45781338,0.07320397,0.08201436,0.00000000,0.00000000
0.20339231,-2.17000008,-0.44639313,0.00232738,-0.31750327,0.00000000,0.00000000,0.73266226,2.08734107,0.45691293,0.08141254,0.08859514,0.00000000,0.00000000
0.20125432,-2.17000008,-0.44799969,-0.00021357,-0.34200469,0.00000000,0.00000000,0.69666809,2.10250068,0.45430848,0.08713043,0.09629116,0.00000000,0.00000000
0.18832317,-2.17000008,-0.45019197,-0.00036997,-0.36544931,0.00000000,0.00000000,0.64042568,2.11924934,0.44995084,0.08981562,0.10054490,0.00000000,0.00000000
0.16504371,-2.17000008,-0.45297346,0.00230263,-0.38573501,0.00000000,0.00000000,0.56756353,2.13350201,0.44407868,0.08862646,0.10445333,0.00000000,0.00000000
0.13076994,-2.16992664,-0.45632946,0.00716087,-0.40225279,0.00000000,0.00000000,0.48408031,2.14336753,0.43705034,0.08467505,0.11034898,0.00000000,0.00000000
0.08417309,-2.16871333,-0.46024084,0.01171038,-0.41856891,0.00000000,0.00000000,0.39819318,2.14862299,0.42931348,0.08063146,0.11550714,0.00000000,0.00000000
0.02446866,-2.16372108,-0.46470755,0.01311499,-0.42993182,0.00000000,0.00000000,0.31454077,2.15468001,0.42103669,0.08144432,0.12255212,0.00000000,0.00000000
-0.04646100,-2.15469837,-0.46976528,0.00937156,-0.44310951,0.00000000,0.00000000,0.23375444,2.16192603,0.41229808,0.08824188,0.12505087,0.00000000,0.00000000
-0.12513097,-2.14530587,-0.47544831,-0.00054729,-0.45641860,0.00000000,0.00000000,0.15583545,2.16708040,0.40320733,0.10007780,0.13081862,0.00000000,0.00000000
-0.20744914,-2.13970852,-0.48172265,-0.01672103,-0.47073281,0.00000000,0.00000000,0.08027046,2.16943264,0.39387408,0.11551698,0.13917205,0.00000000,0.00000000
-0.28807583,-2.13901329,-0.48842731,-0.03717715,-0.47824758,0.00000000,0.00000000,0.00649139,2.16996813,0.38454947,0.12894157,0.13968292,0.00000000,0.00000000
-0.36210012,-2.14251375,-0.49528337,-0.05923774,-0.48748210,0.00000000,0.00000000,-0.06245601,2.17000008,0.37563947,0.13738209,0.14396614,0.00000000,0.00000000
-0.42720267,-2.14881086,-0.50198644,-0.08070819,-0.49712715,0.00000000,0.00000000,-0.11798102,2.17000008,0.36793742,0.14069986,0.14673270,0.00000000,0.00000000
-0.48186305,-2.15601993,-0.50824231,-0.09972497,-0.50476897,0.00000000,0.00000000,-0.15948175,2.17000008,0.36156568,0.13896173,0.15280302,0.00000000,0.00000000
-0.52451515,-2.16259885,-0.51377672,-0.11495481,-0.50723290,0.00000000,0.00000000,-0.18906109,2.17000008,0.35639814,0.13229178,0.16440913,0.00000000,0.00000000
-0.55410707,-2.16723490,-0.51838440,-0.12547894,-0.51093614,0.00000000,0.00000000,-0.20756924,2.17000008,0.35237855,0.12101081,0.17761229,0.00000000,0.00000000
-0.56967217,-2.16945696,-0.52190858,-0.13087821,-0.51487195,0.00000000,0.00000000,-0.21505266,2.17000008,0.34944865,0.10588314,0.18828171,0.00000000,0.00000000
-0.57047635,-2.16994405,-0.52426016,-0.13124882,-0.51542717,0.00000000,0.00000000,-0.21149781,2.17000008,0.34748232,0.08762575,0.19890718,0.00000000,0.00000000
-0.55688900,-2.16958880,-0.52546412,-0.12722953,-0.50644469,0.00000000,0.00000000,-0.19718276,2.17000008,0.34626931,0.06683423,0.20372503,0.00000000,0.00000000
-0.53018820,-2.16841817,-0.52563924,-0.11986184,-0.49704853,0.00000000,0.00000000,-0.17303067,2.17000008,0.34552956,0.04394431,0.20695665,0.00000000,0.00000000
-0.49191371,-2.16747689,-0.52491581,-0.11069666,-0.49419022,0.00000000,0.00000000,-0.13945054,2.17000008,0.34499016,0.02033672,0.20575814,0.00000000,0.00000000
-0.44447243,-2.16793442,-0.52350277,-0.10137769,-0.49303478,0.00000000,0.00000000,-0.09732451,2.16973042,0.34440982,-0.00099308,0.20220196,0.00000000,0.00000000
-0.39117482,-2.16938448,-0.52172983,-0.09246822,-0.49249661,0.00000000,0.00000000,-0.04942597,2.16555142,0.34364519,-0.01961287,0.19218516,0.00000000,0.00000000
-0.33750522,-2.16996050,-0.52008539,-0.08369712,-0.49920949,0.00000000,0.00000000,0.00029528,2.15143704,0.34267274,-0.04073966,0.17912145,0.00000000,0.00000000
-0.28871068,-2.17000008,-0.51887548,-0.07681468,-0.50934744,0.00000000,0.00000000,0.05336742,2.13164568,0.34154668,-0.06065451,0.16957666,0.00000000,0.00000000
-0.24478194,-2.17000008,-0.51812619,-0.07264561,-0.52256501,0.00000000,0.00000000,0.11206782,2.11008072,0.34029642,-0.07619047,0.16228896,0.00000000,0.00000000
-0.20399104,-2.17000008,-0.51777905,-0.07155853,-0.53941220,0.00000000,0.00000000,0.17854877,2.08929420,0.33888191,-0.08568169,0.15705547,0.00000000,0.00000000
-0.16565806,-2.17000008,-0.51784933,-0.07292936,-0.55165577,0.00000000,0.00000000,0.25319496,2.06778240,0.33725926,-0.09029616,0.15292010,0.00000000,0.00000000
-0.12947069,-2.17000008,-0.51837617,-0.07569320,-0.55816311,0.00000000,0.00000000,0.33139223,2.04614615,0.33569187,-0.09119234,0.15022148,0.00000000,0.00000000
-0.09554578,-2.17000008,-0.51942182,-0.07838476,-0.56310129,0.00000000,0.00000000,0.40531382,2.02699351,0.33465150,-0.08907247,0.15451795,0.00000000,0.00000000
-0.06460880,-2.17000008,-0.52103281,-0.08038598,-0.56324023,0.00000000,0.00000000,0.47349095,2.00886321,0.33413389,-0.08541304,0.15894777,0.00000000,0.00000000
-0.03620530,-2.17000008,-0.52309453,-0.08322472,-0.56793255,0.00000000,0.00000000,0.53281689,1.99591756,0.33431578,-0.07857115,0.16335173,0.00000000,0.00000000
-0.00989847,-2.17000008,-0.52556837,-0.08694841,-0.56970000,0.00000000,0.00000000,0.58059454,1.98838401,0.33527601,-0.06906884,0.16672656,0.00000000,0.00000000
0.01460722,-2.17000008,-0.52846509,-0.09108824,-0.57189381,0.00000000,0.00000000,0.61538601,1.98556244,0.33696207,-0.05765429,0.16501489,0.00000000,0.00000000
0.03718446,-2.17000008,-0.53186262,-0.09480045,-0.57466936,0.00000000,0.00000000,0.63606435,1.98743868,0.33926216,-0.04459576,0.16207777,0.00000000,0.00000000
0.05762745,-2.17000008,-0.53584039,-0.09755023,-0.57675231,0.00000000,0.00000000,0.64220262,1.99354553,0.34199575,-0.03039175,0.15433727,0.00000000,0.00000000
0.07523114,-2.17000008,-0.54050571,-0.09897312,-0.57664788,0.00000000,0.00000000,0.63446826,2.00328302,0.34492785,-0.01534655,0.15499428,0.00000000,0.00000000
0.08822058,-2.17000008,-0.54602271,-0.09878007,-0.58336717,0.00000000,0.00000000,0.61336255,2.01721692,0.34782097,0.00111662,0.16296019,0.00000000,0.00000000
0.09471164,-2.17000008,-0.55256647,-0.09646826,-0.58778805,0.00000000,0.00000000,0.57848626,2.03683448,0.35042852,0.02006527,0.16586386,0.00000000,0.00000000
0.09338672,-2.16995311,-0.56024933,-0.09183812,-0.59269732,0.00000000,0.00000000,0.52911872,2.06127691,0.35247681,0.04120219,0.16772479,0.00000000,0.00000000
0.08286805,-2.16910958,-0.56909484,-0.08606213,-0.59380466,0.00000000,0.00000000,0.46671981,2.08500028,0.35376945,0.06193871,0.16770872,0.00000000,0.00000000
0.06115028,-2.16478896,-0.57906777,-0.08163683,-0.59743237,0.00000000,0.00000000,0.39751136,2.10467958,0.35430580,0.08177552,0.16796345,0.00000000,0.00000000
0.02577347,-2.15429282,-0.59014368,-0.08121346,-0.59384710,0.00000000,0.00000000,0.32612836,2.12030959,0.35413447,0.10164092,0.16402604,0.00000000,0.00000000
-0.02432941,-2.13878441,-0.60227668,-0.08643175,-0.59162879,0.00000000,0.00000000,0.25562221,2.13330698,0.35328236,0.12285493,0.16154791,0.00000000,0.00000000
-0.08760966,-2.12211275,-0.61529094,-0.09843221,-0.59186953,0.00000000,0.00000000,0.18567358,2.14625931,0.35157207,0.14710815,0.16366367,0.00000000,0.00000000
-0.16098022,-2.10829473,-0.62888819,-0.11772858,-0.59834450,0.00000000,0.00000000,0.11663284,2.15884590,0.34894222,0.17479342,0.16864528,0.00000000,0.00000000
-0.24031723,-2.09970021,-0.64265043,-0.14340448,-0.60757452,0.00000000,0.00000000,0.04827494,2.16742921,0.34539115,0.20425820,0.17600246,0.00000000,0.00000000
-0.31995416,-2.09771514,-0.65594506,-0.17342897,-0.61449730,0.00000000,0.00000000,-0.01973276,2.16984677,0.34106740,0.23217244,0.18460077,0.00000000,0.00000000
-0.39428613,-2.10182142,-0.66809487,-0.20495462,-0.62093121,0.00000000,0.00000000,-0.08489420,2.17000008,0.33673066,0.25318703,0.19128551,0.00000000,0.00000000
-0.46007147,-2.11061835,-0.67856914,-0.23563039,-0.62157446,0.00000000,0.00000000,-0.14053071,2.17000008,0.33379477,0.26357254,0.20027050,0.00000000,0.00000000
-0.51550120,-2.12262750,-0.68695140,-0.26375711,-0.61711729,0.00000000,0.00000000,-0.18321943,2.17000008,0.33298868,0.26302624,0.20649430,0.00000000,0.00000000
-0.55939162,-2.13596869,-0.69294757,-0.28783080,-0.60628176,0.00000000,0.00000000,-0.21395983,2.17000008,0.33421001,0.25231564,0.20732300,0.00000000,0.00000000
-0.59065503,-2.14859223,-0.69634229,-0.30640873,-0.59362948,0.00000000,0.00000000,-0.23437682,2.17000008,0.33717450,0.23258696,0.20523922,0.00000000,0.00000000
-0.60828745,-2.15880108,-0.69696856,-0.31826669,-0.57389671,0.00000000,0.00000000,-0.24539873,2.17000008,0.34166265,0.20532869,0.19427164,0.00000000,0.00000000
-0.61117351,-2.16560483,-0.69464636,-0.32250193,-0.55827105,0.00000000,0.00000000,-0.24709430,2.17000008,0.34754220,0.17214137,0.18964346,0.00000000,0.00000000
-0.59824252,-2.16907477,-0.68919510,-0.31865612,-0.54201794,0.00000000,0.00000000,-0.23866898,2.16996694,0.35468203,0.13507347,0.18112662,0.00000000,0.00000000
-0.57002598,-2.16988301,-0.68080717,-0.30665860,-0.52722996,0.00000000,0.00000000,-0.21983127,2.16952372,0.36280540,0.09586233,0.16775535,0.00000000,0.00000000
-0.52738458,-2.16984463,-0.66966009,-0.28743231,-0.51810145,0.00000000,0.00000000,-0.18994957,2.16866016,0.37155768,0.05740720,0.15434004,0.00000000,0.00000000
-0.47218931,-2.16993618,-0.65614569,-0.26237139,-0.50812751,0.00000000,0.00000000,-0.14996043,2.16661596,0.38050148,0.02487757,0.13723661,0.00000000,0.00000000
-0.40998060,-2.16999578,-0.64167589,-0.23226373,-0.49988902,0.00000000,0.00000000,-0.10652573,2.15881467,0.38933486,-0.00386161,0.11940938,0.00000000,0.00000000
-0.34417281,-2.16999722,-0.62664247,-0.20077868,-0.49119458,0.00000000,0.00000000,-0.05810524,2.14932513,0.39798045,-0.02628040,0.10014496,0.00000000,0.00000000
-0.28753018,-2.16996050,-0.61255908,-0.17290491,-0.48751253,0.00000000,0.00000000,0.00085123,2.13729334,0.40637437,-0.04188341,0.07921579,0.00000000,0.00000000
-0.23922500,-2.16990352,-0.59960628,-0.14855115,-0.48593101,0.00000000,0.00000000,0.07013028,2.12143874,0.41448140,-0.05186880,0.05677928,0.00000000,0.00000000
-0.19454619,-2.16996050,-0.58723485,-0.12839337,-0.48303840,0.00000000,0.00000000,0.14948791,2.10576248,0.42230567,-0.05444399,0.03409443,0.00000000,0.00000000
-0.15186988,-2.16999745,-0.57539374,-0.11146589,-0.47364923,0.00000000,0.00000000,0.23708187,2.09211874,0.42990547,-0.04941661,0.00942288,0.00000000,0.00000000
-0.11010411,-2.17000008,-0.56409389,-0.09651101,-0.46598384,0.00000000,0.00000000,0.32995367,2.08203650,0.43739530,-0.03708468,-0.01725265,0.00000000,0.00000000
-0.07023181,-2.17000008,-0.55347776,-0.08210947,-0.45412329,0.00000000,0.00000000,0.42495072,2.07374978,0.44479835,-0.01957108,-0.04034805,0.00000000,0.00000000
-0.03224348,-2.17000008,-0.54361373,-0.06698897,-0.44577006,0.00000000,0.00000000,0.51217467,2.06772113,0.45218214,0.00020145,-0.05965688,0.00000000,0.00000000
0.00180224,-2.17000008,-0.53445292,-0.05482338,-0.44410264,0.00000000,0.00000000,0.58610529,2.06491828,0.45942768,0.02079543,-0.08118634,0.00000000,0.00000000
0.03086686,-2.17000008,-0.52601153,-0.04643574,-0.44634947,0.00000000,0.00000000,0.64591259,2.06462479,0.46628743,0.04108833,-0.10351088,0.00000000,0.00000000
0.05544889,-2.17000008,-0.51829380,-0.04112838,-0.44699013,0.00000000,0.00000000,0.69142181,2.06620097,0.47249416,0.06024387,-0.13142490,0.00000000,0.00000000
0.07667680,-2.17000008,-0.51129496,-0.03817013,-0.44716859,0.00000000,0.00000000,0.72206861,2.06893182,0.47778043,0.07740202,-0.16369300,0.00000000,0.00000000
0.09494140,-2.17000008,-0.50502712,-0.03694968,-0.44668695,0.00000000,0.00000000,0.73738629,2.07248402,0.48189744,0.09201092,-0.19754960,0.00000000,0.00000000
0.11004444,-2.17000008,-0.49952441,-0.03656600,-0.44496837,0.00000000,0.00000000,0.73718864,2.07644248,0.48463202,0.10375077,-0.22757728,0.00000000,0.00000000
0.12008126,-2.17000008,-0.49484921,-0.03632377,-0.43850642,0.00000000,0.00000000,0.72104836,2.08124971,0.48575535,0.11284948,-0.25041080,0.00000000,0.00000000
0.12254018,-2.17000008,-0.49107200,-0.03531636,-0.42520091,0.00000000,0.00000000,0.68805188,2.08807421,0.48501584,0.11989868,-0.27292100,0.00000000,0.00000000
0.11552241,-2.17000008,-0.48823756,-0.03266127,-0.42028627,0.00000000,0.00000000,0.63769513,2.09782004,0.48221236,0.12552071,-0.29442754,0.00000000,0.00000000
0.09816315,-2.17000008,-0.48633853,-0.02858323,-0.41656077,0.00000000,0.00000000,0.56995386,2.11076188,0.47723007,0.13015495,-0.31545174,0.00000000,0.00000000
0.07149316,-2.17000008,-0.48532385,-0.02264884,-0.41115287,0.00000000,0.00000000,0.48895913,2.12346053,0.47041386,0.13330933,-0.33637929,0.00000000,0.00000000
0.03427635,-2.16990995,-0.48514122,-0.01648971,-0.40584531,0.00000000,0.00000000,0.40242144,2.13198781,0.46243414,0.13516437,-0.35730669,0.00000000,0.00000000
-0.01626850,-2.16852498,-0.48574638,-0.01353511,-0.40171972,0.00000000,0.00000000,0.31555682,2.13992143,0.45355743,0.13938525,-0.37288791,0.00000000,0.00000000
-0.07956748,-2.16401458,-0.48708689,-0.01577082,-0.39677882,0.00000000,0.00000000,0.22977135,2.14911079,0.44383857,0.14787099,-0.39614516,0.00000000,0.00000000
-0.15266147,-2.15838861,-0.48909515,-0.02390487,-0.39008963,0.00000000,0.00000000,0.14471984,2.15847230,0.43329883,0.16072901,-0.42136654,0.00000000,0.00000000
-0.23066641,-2.15411282,-0.49165097,-0.03740763,-0.38176295,0.00000000,0.00000000,0.06032259,2.16517925,0.42206517,0.17741950,-0.44508186,0.00000000,0.00000000
-0.30836129,-2.15386891,-0.49453336,-0.05574548,-0.37464646,0.00000000,0.00000000,-0.02269399,2.16892147,0.41034910,0.19777800,-0.46713907,0.00000000,0.00000000
-0.38135296,-2.15723825,-0.49745512,-0.07687408,-0.36370987,0.00000000,0.00000000,-0.10126598,2.16993618,0.39902082,0.21699749,-0.48473135,0.00000000,0.00000000
-0.44655958,-2.16208410,-0.50010049,-0.09825004,-0.35408527,0.00000000,0.00000000,-0.16712615,2.17000008,0.38971293,0.22948460,-0.49848947,0.00000000,0.00000000
-0.50164443,-2.16662693,-0.50213921,-0.11791895,-0.34198037,0.00000000,0.00000000,-0.21731453,2.17000008,0.38303003,0.23520987,-0.51417208,0.00000000,0.00000000
-0.54484481,-2.16928434,-0.50327814,-0.13424166,-0.32332015,0.00000000,0.00000000,-0.25297549,2.17000008,0.37903371,0.23422080,-0.52560192,0.00000000,0.00000000
-0.57438749,-2.16995859,-0.50325251,-0.14581177,-0.30031693,0.00000000,0.00000000,-0.27537408,2.17000008,0.37769115,0.22646530,-0.53164881,0.00000000,0.00000000
-0.58927447,-2.17000008,-0.50190830,-0.15158896,-0.27773878,0.00000000,0.00000000,-0.28541338,2.17000008,0.37887454,0.21238025,-0.54434288,0.00000000,0.00000000
-0.58991194,-2.17000008,-0.49927822,-0.15081671,-0.26136845,0.00000000,0.00000000,-0.28480023,2.17000008,0.38231862,0.19146934,-0.55669701,0.00000000,0.00000000
-0.57678330,-2.17000008,-0.49543494,-0.14337821,-0.24153118,0.00000000,0.00000000,-0.27426428,2.17000008,0.38772082,0.16426346,-0.56443518,0.00000000,0.00000000
-0.54923528,-2.17000008,-0.49034908,-0.13041617,-0.22194214,0.00000000,0.00000000,-0.25289100,2.16997528,0.39474496,0.13354178,-0.57497293,0.00000000,0.00000000
-0.50779307,-2.17000008,-0.48411903,-0.11379112,-0.20493580,0.00000000,0.00000000,-0.21984403,2.16948462,0.40299445,0.10249480,-0.59188181,0.00000000,0.00000000
-0.45452154,-2.17000008,-0.47701198,-0.09535529,-0.18021205,0.00000000,0.00000000,-0.17629778,2.16647935,0.41198692,0.07356507,-0.60903937,0.00000000,0.00000000
-0.39375132,-2.17000008,-0.46946454,-0.07664724,-0.15793258,0.00000000,0.00000000,-0.12473781,2.15824914,0.42128009,0.04853257,-0.62353355,0.00000000,0.00000000
-0.33177638,-2.17000008,-0.46192586,-0.05961970,-0.13691182,0.00000000,0.00000000,-0.06553171,2.14495730,0.43065467,0.02833114,-0.63381392,0.00000000,0.00000000
-0.27483720,-2.17000008,-0.45470038,-0.04695582,-0.11289493,0.00000000,0.00000000,0.00294207,2.12786865,0.44005156,0.01358863,-0.63820189,0.00000000,0.00000000
-0.22338578,-2.17000008,-0.44783816,-0.03967240,-0.09064289,0.00000000,0.00000000,0.07915948,2.10951042,0.44942510,0.00473932,-0.63914979,0.00000000,0.00000000
-0.17487946,-2.17000008,-0.44129065,-0.03727437,-0.07058667,0.00000000,0.00000000,0.16112949,2.08978701,0.45878258,0.00074942,-0.64164859,0.00000000,0.00000000
-0.12720187,-2.17000008,-0.43501040,-0.03905319,-0.05603494,0.00000000,0.00000000,0.24752426,2.06886673,0.46813518,0.00095368,-0.64762950,0.00000000,0.00000000
-0.07896892,-2.17000008,-0.42895240,-0.04420573,-0.04524832,0.00000000,0.00000000,0.33599314,2.04886317,0.47746405,0.00547906,-0.65066713,0.00000000,0.00000000
-0.03094206,-2.17000008,-0.42310885,-0.05250024,-0.03239609,0.00000000,0.00000000,0.41974667,2.03230262,0.48671582,0.01348987,-0.65198356,0.00000000,0.00000000
0.01349537,-2.17000008,-0.41755080,-0.06417842,-0.01424474,0.00000000,0.00000000,0.49368364,2.01965332,0.49579680,0.02367989,-0.65451747,0.00000000,0.00000000
0.05191559,-2.17000008,-0.41236970,-0.07865070,0.00049452,0.00000000,0.00000000,0.55705065,2.01050186,0.50459707,0.03559909,-0.65402442,0.00000000,0.00000000
0.08449969,-2.17000008,-0.40765965,-0.09290149,0.01969030,0.00000000,0.00000000,0.61043310,2.00384140,0.51299632,0.04875477,-0.65222287,0.00000000,0.00000000
0.11132643,-2.17000008,-0.40354782,-0.10451125,0.03270457,0.00000000,0.00000000,0.65310794,1.99977231,0.52080214,0.06267010,-0.64795345,0.00000000,0.00000000
0.13119823,-2.17000008,-0.40012726,-0.11443330,0.04216794,0.00000000,0.00000000,0.68287021,1.99978709,0.52773690,0.07718636,-0.63812995,0.00000000,0.00000000
0.14512597,-2.17000008,-0.39748764,-0.12013519,0.04748570,0.00000000,0.00000000,0.69947249,2.00331187,0.53359002,0.09169810,-0.62930566,0.00000000,0.00000000
0.15297800,-2.17000008,-0.39572066,-0.12028641,0.05362289,0.00000000,0.00000000,0.70186836,2.01035833,0.53806967,0.10566880,-0.62703180,0.00000000,0.00000000
0.15442213,-2.17000008,-0.39483798,-0.11480056,0.05824802,0.00000000,0.00000000,0.68837422,2.02141285,0.54082566,0.11866397,-0.62188375,0.00000000,0.00000000
0.14835711,-2.17000008,-0.39483428,-0.10439121,0.06281487,0.00000000,0.00000000,0.65655094,2.03702140,0.54145873,0.13001531,-0.61658782,0.00000000,0.00000000
0.13343748,-2.17000008,-0.39569733,-0.08894020,0.06770154,0.00000000,0.00000000,0.60600036,2.05579543,0.53980267,0.13847940,-0.62133920,0.00000000,0.00000000
0.10827670,-2.16996121,-0.39729440,-0.06984250,0.07075936,0.00000000,0.00000000,0.54078746,2.07265782,0.53623438,0.14233260,-0.62134880,0.00000000,0.00000000
0.07179566,-2.16917634,-0.39941925,-0.04959775,0.06884099,0.00000000,0.00000000,0.46737185,2.08517647,0.53130609,0.14224890,-0.62234008,0.00000000,0.00000000
0.02134057,-2.16434622,-0.40194079,-0.03084635,0.06825856,0.00000000,0.00000000,0.39286828,2.09580660,0.52548414,0.14188249,-0.62642324,0.00000000,0.00000000
-0.04332424,-2.15274239,-0.40472856,-0.01525345,0.06541143,0.00000000,0.00000000,0.32075942,2.10612202,0.51902056,0.14355057,-0.62897855,0.00000000,0.00000000
-0.12016747,-2.14018679,-0.40766129,-0.00602439,0.06519397,0.00000000,0.00000000,0.25016934,2.11881828,0.51176298,0.14905918,-0.63613451,0.00000000,0.00000000
-0.20497626,-2.13134933,-0.41068053,-0.00420795,0.05486718,0.00000000,0.00000000,0.17923616,2.13466978,0.50351667,0.15854959,-0.64574289,0.00000000,0.00000000
-0.29242834,-2.12765336,-0.41374949,-0.00873414,0.04005334,0.00000000,0.00000000,0.10620669,2.15022898,0.49422738,0.16954562,-0.65169257,0.00000000,0.00000000
-0.37750891,-2.12924147,-0.41679132,-0.01778321,0.02527220,0.00000000,0.00000000,0.03348265,2.16210890,0.48418272,0.18075463,-0.65486854,0.00000000,0.00000000
-0.45594543,-2.13445783,-0.41967607,-0.02876574,0.00932109,0.00000000,0.00000000,-0.03253026,2.16837311,0.47413111,0.19167751,-0.64897764,0.00000000,0.00000000
-0.52478921,-2.14017916,-0.42224434,-0.03881212,-0.00738213,0.00000000,0.00000000,-0.08839128,2.16990709,0.46476248,0.20020187,-0.64673817,0.00000000,0.00000000
-0.58113897,-2.14624858,-0.42430234,-0.04694104,-0.02389438,0.00000000,0.00000000,-0.13459741,2.17000008,0.45626965,0.20519884,-0.64455497,0.00000000,0.00000000
-0.62336940,-2.15200353,-0.42570403,-0.05227810,-0.04008529,0.00000000,0.00000000,-0.17198198,2.17000008,0.44885129,0.20545158,-0.65093982,0.00000000,0.00000000
-0.65083480,-2.15603495,-0.42637110,-0.05386617,-0.05250452,0.00000000,0.00000000,-0.20071098,2.17000008,0.44278297,0.19980255,-0.66251487,0.00000000,0.00000000
-0.66331887,-2.15784431,-0.42628199,-0.05136913,-0.06423148,0.00000000,0.00000000,-0.22035398,2.17000008,0.43824244,0.18820098,-0.67831266,0.00000000,0.00000000
-0.66060692,-2.15756750,-0.42547035,-0.04485698,-0.07229146,0.00000000,0.00000000,-0.23057103,2.17000008,0.43522051,0.17151740,-0.69928777,0.00000000,0.00000000
-0.64281547,-2.15530205,-0.42404240,-0.03458558,-0.08131036,0.00000000,0.00000000,-0.23157878,2.17000008,0.43354324,0.15106881,-0.72025061,0.00000000,0.00000000
-0.61060232,-2.15180349,-0.42216635,-0.02140986,-0.08614358,0.00000000,0.00000000,-0.22388397,2.17000008,0.43288639,0.12886159,-0.74757349,0.00000000,0.00000000
-0.56524509,-2.14891434,-0.42005125,-0.00695009,-0.09384344,0.00000000,0.00000000,-0.20697057,2.17000008,0.43292490,0.10866691,-0.77135003,0.00000000,0.00000000
-0.50851172,-2.14874887,-0.41792142,0.00687138,-0.09887753,0.00000000,0.00000000,-0.18179606,2.17000008,0.43345737,0.09114556,-0.79981619,0.00000000,0.00000000
-0.44253209,-2.15170360,-0.41597122,0.01864392,-0.11224071,0.00000000,0.00000000,-0.15117301,2.17000008,0.43435967,0.07315876,-0.82615882,0.00000000,0.00000000
-0.37240696,-2.15608931,-0.41429836,0.02730359,-0.12374524,0.00000000,0.00000000,-0.11391098,2.16996193,0.43552250,0.05642136,-0.86317986,0.00000000,0.00000000
-0.30480433,-2.16088033,-0.41289958,0.03116145,-0.13738902,0.00000000,0.00000000,-0.06513157,2.16934657,0.43699670,0.04271038,-0.90911585,0.00000000,0.00000000
-0.24089244,-2.16523957,-0.41178578,0.02975831,-0.15006910,0.00000000,0.00000000,-0.00393355,2.16679621,0.43874505,0.03212807,-0.94583416,0.00000000,0.00000000
-0.17969601,-2.16878605,-0.41097340,0.02309793,-0.16016778,0.00000000,0.00000000,0.06823186,2.16031671,0.44066980,0.02513047,-0.97383475,0.00000000,0.00000000
-0.12117497,-2.16992521,-0.41043437,0.01218686,-0.16725260,0.00000000,0.00000000,0.14841560,2.14795566,0.44271278,0.02028477,-1.00174105,0.00000000,0.00000000
-0.06447956,-2.17000008,-0.41015562,-0.00194145,-0.17380577,0.00000000,0.00000000,0.23135386,2.13421297,0.44477963,0.01829305,-1.03513908,0.00000000,0.00000000
-0.01024790,-2.17000008,-0.41013908,-0.01675433,-0.18165997,0.00000000,0.00000000,0.31070188,2.12171459,0.44678801,0.01874461,-1.06227005,0.00000000,0.00000000
0.03803775,-2.17000008,-0.41043609,-0.03262691,-0.19532548,0.00000000,0.00000000,0.38268203,2.10964918,0.44871402,0.02024305,-1.08908963,0.00000000,0.00000000
0.07881267,-2.17000008,-0.41114238,-0.04899878,-0.20881645,0.00000000,0.00000000,0.44668707,2.09726143,0.45055747,0.02239929,-1.11464190,0.00000000,0.00000000
0.11180626,-2.17000008,-0.41236752,-0.06507939,-0.23010641,0.00000000,0.00000000,0.50168186,2.08582664,0.45228150,0.02575818,-1.14369309,0.00000000,0.00000000
0.13756073,-2.17000008,-0.41421694,-0.08023179,-0.24728683,0.00000000,0.00000000,0.54642934,2.07609820,0.45382896,0.03040090,-1.17290473,0.00000000,0.00000000
0.15624379,-2.17000008,-0.41681311,-0.09407294,-0.26593274,0.00000000,0.00000000,0.58017492,2.06840658,0.45512924,0.03618299,-1.19550037,0.00000000,0.00000000
0.16799833,-2.17000008,-0.42028263,-0.10569818,-0.27611151,0.00000000,0.00000000,0.60234803,2.06311440,0.45609030,0.04292775,-1.22007644,0.00000000,0.00000000
0.17254913,-2.17000008,-0.42477059,-0.11419256,-0.28710282,0.00000000,0.00000000,0.61249071,2.06047869,0.45659873,0.05041119,-1.24121976,0.00000000,0.00000000
0.16893335,-2.17000008,-0.43043005,-0.11897156,-0.29741442,0.00000000,0.00000000,0.60896987,2.06168342,0.45647651,0.05866661,-1.26077700,0.00000000,0.00000000
0.15608095,-2.17000008,-0.43738735,-0.11960436,-0.31182578,0.00000000,0.00000000,0.59010237,2.06731319,0.45552373,0.06750380,-1.28598762,0.00000000,0.00000000
0.13329647,-2.17000008,-0.44568497,-0.11622872,-0.32242033,0.00000000,0.00000000,0.55525029,2.07661009,0.45357427,0.07635925,-1.31123412,0.00000000,0.00000000
0.10131910,-2.16991782,-0.45521700,-0.10923702,-0.32789329,0.00000000,0.00000000,0.50613856,2.08774304,0.45057490,0.08475805,-1.33966005,0.00000000,0.00000000
0.05981659,-2.16855788,-0.46581650,-0.10088474,-0.33774000,0.00000000,0.00000000,0.44460386,2.09813023,0.44654265,0.09195609,-1.36386788,0.00000000,0.00000000
0.00737952,-2.16294336,-0.47732472,-0.09435841,-0.34896719,0.00000000,0.00000000,0.37727219,2.10784960,0.44174230,0.10005484,-1.38164592,0.00000000,0.00000000
-0.05638907,-2.15257978,-0.48956978,-0.09213524,-0.35851297,0.00000000,0.00000000,0.31027859,2.11800075,0.43644339,0.11179576,-1.39603925,0.00000000,0.00000000
-0.12899750,-2.14066601,-0.50228930,-0.09547266,-0.36991656,0.00000000,0.00000000,0.24390890,2.12914419,0.43061113,0.12835260,-1.40648794,0.00000000,0.00000000
-0.20579615,-2.13100123,-0.51512414,-0.10473964,-0.38217852,0.00000000,0.00000000,0.17590234,2.14121556,0.42402482,0.14989053,-1.41022766,0.00000000,0.00000000
-0.28188711,-2.12627769,-0.52766514,-0.11961460,-0.39473525,0.00000000,0.00000000,0.10415355,2.15423894,0.41639972,0.17645158,-1.40865338,0.00000000,0.00000000
-0.35269225,-2.12720537,-0.53948259,-0.13883747,-0.41336134,0.00000000,0.00000000,0.02918308,2.16539192,0.40789983,0.20617074,-1.40413213,0.00000000,0.00000000
-0.41520962,-2.13227701,-0.55023688,-0.16048262,-0.43299976,0.00000000,0.00000000,-0.04094662,2.16947961,0.40016982,0.23284450,-1.39933503,0.00000000,0.00000000
-0.46812767,-2.14006209,-0.55964357,-0.18313259,-0.44906962,0.00000000,0.00000000,-0.09785680,2.16998100,0.39521074,0.24944666,-1.39466166,0.00000000,0.00000000
-0.51085103,-2.14963722,-0.56745487,-0.20595059,-0.46729797,0.00000000,0.00000000,-0.13731834,2.17000008,0.39385775,0.25588438,-1.37991190,0.00000000,0.00000000
-0.54268080,-2.15828276,-0.57349801,-0.22699180,-0.47679830,0.00000000,0.00000000,-0.16471851,2.17000008,0.39530084,0.25253788,-1.35403144,0.00000000,0.00000000
-0.56073248,-2.16527390,-0.57724273,-0.24468140,-0.49003881,0.00000000,0.00000000,-0.18366013,2.17000008,0.39853337,0.24441794,-1.33109844,0.00000000,0.00000000
-0.56427824,-2.16904831,-0.57858992,-0.25735086,-0.50924981,0.00000000,0.00000000,-0.19170015,2.17000008,0.40341642,0.23641284,-1.30669105,0.00000000,0.00000000
-0.55401069,-2.16994619,-0.57771480,-0.26351210,-0.53286016,0.00000000,0.00000000,-0.19179027,2.17000008,0.40963238,0.22649935,-1.29142153,0.00000000,0.00000000
-0.53008407,-2.17000008,-0.57472438,-0.26223099,-0.55728430,0.00000000,0.00000000,-0.18563685,2.17000008,0.41709745,0.21211153,-1.27058423,0.00000000,0.00000000
-0.49476063,-2.17000008,-0.57010567,-0.25308847,-0.57904327,0.00000000,0.00000000,-0.17581646,2.16999936,0.42580065,0.18869293,-1.24540198,0.00000000,0.00000000
-0.45086750,-2.17000008,-0.56438011,-0.23686303,-0.60022438,0.00000000,0.00000000,-0.16453023,2.16988206,0.43555948,0.15416145,-1.22119534,0.00000000,0.00000000
-0.39953452,-2.17000008,-0.55771881,-0.21520866,-0.62266904,0.00000000,0.00000000,-0.14693682,2.16814661,0.44617143,0.11728133,-1.20349419,0.00000000,0.00000000
-0.34373623,-2.17000008,-0.55064398,-0.18944387,-0.64400381,0.00000000,0.00000000,-0.12347872,2.16211963,0.45716634,0.08238822,-1.18271208,0.00000000,0.00000000
-0.28955579,-2.17000008,-0.54386312,-0.16213129,-0.66575426,0.00000000,0.00000000,-0.09255163,2.15175176,0.46836442,0.05174821,-1.16013348,0.00000000,0.00000000
-0.24278016,-2.16998148,-0.53793824,-0.13586380,-0.68987906,0.00000000,0.00000000,-0.05104294,2.13569474,0.47978315,0.02604518,-1.13799787,0.00000000,0.00000000
-0.20058191,-2.16961050,-0.53257054,-0.11159730,-0.71122676,0.00000000,0.00000000,0.00286834,2.11656809,0.49135748,0.00730496,-1.11185658,0.00000000,0.00000000
-0.15934242,-2.16740060,-0.52754438,-0.08847203,-0.73053396,0.00000000,0.00000000,0.06878602,2.09554362,0.50300759,-0.00401474,-1.09188926,0.00000000,0.00000000
-0.11745490,-2.16244435,-0.52282393,-0.06707558,-0.74957287,0.00000000,0.00000000,0.14424367,2.06900597,0.51469225,-0.01080841,-1.07381272,0.00000000,0.00000000
-0.07468311,-2.15777898,-0.51841623,-0.04969675,-0.76684368,0.00000000,0.00000000,0.22818305,2.03883862,0.52641976,-0.01281636,-1.05780137,0.00000000,0.00000000
-0.03183227,-2.15504050,-0.51441610,-0.03765839,-0.78825843,0.00000000,0.00000000,0.31567717,2.01600885,0.53826964,-0.00628725,-1.03346825,0.00000000,0.00000000
0.00855782,-2.15484905,-0.51094967,-0.03225517,-0.81038147,0.00000000,0.00000000,0.40096822,2.00156975,0.55023390,0.00725049,-1.00440717,0.00000000,0.00000000
0.04556771,-2.15724635,-0.50807124,-0.03403556,-0.82911611,0.00000000,0.00000000,0.48086268,1.99223363,0.56218481,0.02496785,-0.97350878,0.00000000,0.00000000
0.07985539,-2.16166377,-0.50577533,-0.04280292,-0.85081148,0.00000000,0.00000000,0.55230284,1.98736632,0.57391149,0.04550455,-0.95025414,0.00000000,0.00000000
0.11132763,-2.16622567,-0.50406843,-0.05791442,-0.87780005,0.00000000,0.00000000,0.61388016,1.98666155,0.58514327,0.06817535,-0.93366599,0.00000000,0.00000000
0.13882057,-2.16915417,-0.50300556,-0.07845645,-0.89908868,0.00000000,0.00000000,0.66367131,1.99105322,0.59549165,0.09264521,-0.91647434,0.00000000,0.00000000
0.16136734,-2.16995001,-0.50275612,-0.10177336,-0.91754043,0.00000000,0.00000000,0.70023406,2.00106740,0.60449463,0.11840578,-0.90613794,0.00000000,0.00000000
0.17725100,-2.17000008,-0.50367576,-0.12388559,-0.93630308,0.00000000,0.00000000,0.72057551,2.01709104,0.61151737,0.14404914,-0.89520645,0.00000000,0.00000000
0.18453933,-2.17000008,-0.50618911,-0.14149724,-0.95502174,0.00000000,0.00000000,0.72194368,2.03544927,0.61610049,0.16586058,-0.89343196,0.00000000,0.00000000
0.18278807,-2.17000008,-0.51061779,-0.15189175,-0.97736162,0.00000000,0.00000000,0.70521772,2.05318761,0.61809635,0.18224689,-0.88391340,0.00000000,0.00000000
0.17202611,-2.17000008,-0.51712161,-0.15376014,-0.99949169,0.00000000,0.00000000,0.67253447,2.06901002,0.61749732,0.19318166,-0.87637001,0.00000000,0.00000000
0.15214404,-2.16982722,-0.52565300,-0.14763188,-1.01724863,0.00000000,0.00000000,0.62620431,2.08166480,0.61442983,0.19872767,-0.86727113,0.00000000,0.00000000
0.12166359,-2.16700888,-0.53600311,-0.13651446,-1.03759253,0.00000000,0.00000000,0.56987995,2.09028149,0.60922444,0.19958004,-0.86274278,0.00000000,0.00000000
0.07770812,-2.15585470,-0.54794550,-0.12479966,-1.05878925,0.00000000,0.00000000,0.50803739,2.09519935,0.60228932,0.19735563,-0.86025465,0.00000000,0.00000000
0.01853252,-2.13664460,-0.56120771,-0.11643460,-1.07770431,0.00000000,0.00000000,0.44180268,2.09795547,0.59367603,0.19330978,-0.86349773,0.00000000,0.00000000
-0.05481660,-2.11618018,-0.57536572,-0.11476043,-1.09122431,0.00000000,0.00000000,0.36901605,2.10179281,0.58304036,0.18873592,-0.85515928,0.00000000,0.00000000
-0.13776882,-2.10052776,-0.58989090,-0.12106913,-1.10612845,0.00000000,0.00000000,0.28946939,2.11147833,0.57015443,0.18693632,-0.84743875,0.00000000,0.00000000
-0.22344539,-2.09172201,-0.60423553,-0.13384899,-1.11852956,0.00000000,0.00000000,0.20480865,2.12718725,0.55526239,0.18987435,-0.84286886,0.00000000,0.00000000
-0.30595344,-2.08912992,-0.61793190,-0.15045652,-1.12280393,0.00000000,0.00000000,0.11848459,2.14450192,0.53905582,0.19727041,-0.83949476,0.00000000,0.00000000
-0.38068482,-2.09089780,-0.63057208,-0.16808933,-1.12599730,0.00000000,0.00000000,0.03637433,2.15910029,0.52245229,0.20964634,-0.83081859,0.00000000,0.00000000
-0.44528672,-2.09553385,-0.64185548,-0.18490757,-1.12491012,0.00000000,0.00000000,-0.03563802,2.16763639,0.50644237,0.22705595,-0.81730443,0.00000000,0.00000000
-0.49874613,-2.10126519,-0.65160662,-0.19946641,-1.12482357,0.00000000,0.00000000,-0.09702951,2.16986227,0.49169976,0.24545537,-0.81168050,0.00000000,0.00000000
-0.54027623,-2.10687089,-0.65966374,-0.21069787,-1.12400377,0.00000000,0.00000000,-0.14860845,2.17000008,0.47859290,0.26122978,-0.80262434,0.00000000,0.00000000
-0.56935871,-2.11180139,-0.66588879,-0.21798912,-1.13283634,0.00000000,0.00000000,-0.18999007,2.17000008,0.46767306,0.27063516,-0.79595876,0.00000000,0.00000000
-0.58536446,-2.11574030,-0.67016536,-0.22084756,-1.13998747,0.00000000,0.00000000,-0.22039533,2.17000008,0.45944294,0.27190775,-0.78866822,0.00000000,0.00000000
-0.58790731,-2.11887145,-0.67241174,-0.21912664,-1.14240456,0.00000000,0.00000000,-0.23998293,2.17000008,0.45412642,0.26437926,-0.77598423,0.00000000,0.00000000
-0.57720089,-2.12138677,-0.67265970,-0.21288490,-1.14431107,0.00000000,0.00000000,-0.24883544,2.17000008,0.45180419,0.24800371,-0.76638037,0.00000000,0.00000000
-0.55384916,-2.12356114,-0.67102599,-0.20248955,-1.14430940,0.00000000,0.00000000,-0.24643387,2.17000008,0.45233721,0.22432971,-0.75818825,0.00000000,0.00000000
-0.51899326,-2.12613273,-0.66769153,-0.18885517,-1.14655101,0.00000000,0.00000000,-0.23284043,2.17000008,0.45538443,0.19496831,-0.74951857,0.00000000,0.00000000
-0.47436893,-2.12982678,-0.66293037,-0.17321506,-1.14455938,0.00000000,0.00000000,-0.20945539,2.16993237,0.46035734,0.16149519,-0.74884844,0.00000000,0.00000000
-0.42149225,-2.13443851,-0.65707523,-0.15645583,-1.13575435,0.00000000,0.00000000,-0.17792243,2.16880560,0.46645099,0.12768397,-0.74507976,0.00000000,0.00000000
-0.36345047,-2.13918614,-0.65059763,-0.13983826,-1.12471139,0.00000000,0.00000000,-0.13984795,2.16400862,0.47299361,0.09696133,-0.73876321,0.00000000,0.00000000
-0.30533141,-2.14420009,-0.64401716,-0.12560570,-1.11631346,0.00000000,0.00000000,-0.09331738,2.15445995,0.47985303,0.07129437,-0.73749959,0.00000000,0.00000000
-0.24795736,-2.14936924,-0.63752925,-0.11437108,-1.11108088,0.00000000,0.00000000,-0.03597016,2.14047766,0.48702997,0.05159444,-0.73063570,0.00000000,0.00000000
-0.19050562,-2.15395117,-0.63121915,-0.10597728,-1.10607171,0.00000000,0.00000000,0.03301634,2.12099409,0.49447659,0.03739090,-0.72766346,0.00000000,0.00000000
-0.13309732,-2.15806079,-0.62515575,-0.10075328,-1.10026836,0.00000000,0.00000000,0.11264924,2.09846640,0.50209290,0.02943691,-0.71856660,0.00000000,0.00000000
-0.07580976,-2.16325450,-0.61931157,-0.09935720,-1.08497119,0.00000000,0.00000000,0.19901620,2.07738423,0.50976115,0.02854408,-0.71067399,0.00000000,0.00000000
-0.01974566,-2.16741562,-0.61381185,-0.10079318,-1.07332301,0.00000000,0.00000000,0.28741479,2.05823302,0.51739442,0.03309454,-0.69296533,0.00000000,0.00000000
0.03238902,-2.16945744,-0.60882109,-0.10521136,-1.05946219,0.00000000,0.00000000,0.37251452,2.04229856,0.52484506,0.04174482,-0.67230314,0.00000000,0.00000000
0.07868845,-2.16996145,-0.60445535,-0.11302430,-1.04710650,0.00000000,0.00000000,0.44919226,2.02926850,0.53192580,0.05248174,-0.65138423,0.00000000,0.00000000
0.11804266,-2.16999960,-0.60091978,-0.12311956,-1.03438711,0.00000000,0.00000000,0.51430303,2.01977181,0.53842205,0.06443694,-0.63249063,0.00000000,0.00000000
0.15023647,-2.17000008,-0.59845871,-0.13346288,-1.01641452,0.00000000,0.00000000,0.56687063,2.01377392,0.54412627,0.07701898,-0.60864848,0.00000000,0.00000000
0.17490478,-2.17000008,-0.59721649,-0.14385608,-1.00378811,0.00000000,0.00000000,0.60430032,2.01337242,0.54868627,0.09011544,-0.59175330,0.00000000,0.00000000
0.19151285,-2.17000008,-0.59743029,-0.15332043,-0.99213970,0.00000000,0.00000000,0.62550056,2.01813960,0.55185491,0.10264444,-0.57286137,0.00000000,0.00000000
0.19960786,-2.17000008,-0.59931558,-0.16067976,-0.98565894,0.00000000,0.00000000,0.63045096,2.02471900,0.55352181,0.11223155,-0.55349731,0.00000000,0.00000000
0.19899154,-2.17000008,-0.60300958,-0.16509055,-0.98156524,0.00000000,0.00000000,0.61916965,2.03230381,0.55354631,0.11812475,-0.52720553,0.00000000,0.00000000
0.18973006,-2.17000008,-0.60857445,-0.16592020,-0.97511476,0.00000000,0.00000000,0.59184998,2.04220510,0.55177993,0.12095061,-0.50104642,0.00000000,0.00000000
0.17154719,-2.16986179,-0.61598420,-0.16352510,-0.97601867,0.00000000,0.00000000,0.54944313,2.05533934,0.54818529,0.12157352,-0.47481588,0.00000000,0.00000000
0.14458947,-2.16767359,-0.62507594,-0.15879956,-0.97089052,0.00000000,0.00000000,0.49521938,2.07006717,0.54301310,0.12034800,-0.44655061,0.00000000,0.00000000
0.10888450,-2.15971160,-0.63570642,-0.15235431,-0.97028130,0.00000000,0.00000000,0.43623504,2.08214188,0.53688759,0.11740271,-0.42440614,0.00000000,0.00000000
0.06185243,-2.14707422,-0.64753318,-0.14920399,-0.96425623,0.00000000,0.00000000,0.37691465,2.09302855,0.53007150,0.11505977,-0.40096024,0.00000000,0.00000000
0.00275903,-2.13253832,-0.66028309,-0.15192820,-0.95592904,0.00000000,0.00000000,0.31791463,2.10433435,0.52259874,0.11486251,-0.38058004,0.00000000,0.00000000
-0.06552406,-2.11923027,-0.67354834,-0.16070156,-0.95355940,0.00000000,0.00000000,0.25588533,2.11876822,0.51421905,0.11808365,-0.36613908,0.00000000,0.00000000
-0.13874581,-2.10978484,-0.68680423,-0.17488471,-0.94580990,0.00000000,0.00000000,0.19088042,2.13541770,0.50496668,0.12489685,-0.34089836,0.00000000,0.00000000
-0.21316372,-2.10572672,-0.69954395,-0.19336766,-0.94098270,0.00000000,0.00000000,0.12243124,2.15127540,0.49487495,0.13376299,-0.31640232,0.00000000,0.00000000
-0.28552443,-2.10761476,-0.71127766,-0.21470970,-0.93054515,0.00000000,0.00000000,0.05252997,2.16294241,0.48415157,0.14323837,-0.29306397,0.00000000,0.00000000
-0.35258296,-2.11441207,-0.72157598,-0.23683172,-0.92582089,0.00000000,0.00000000,-0.01262506,2.16861820,0.47333351,0.15275526,-0.26951289,0.00000000,0.00000000
-0.41130883,-2.12407231,-0.73008430,-0.25745195,-0.92568189,0.00000000,0.00000000,-0.06903781,2.16992259,0.46289700,0.16056195,-0.24304163,0.00000000,0.00000000
-0.45969027,-2.13556337,-0.73646945,-0.27532980,-0.92518520,0.00000000,0.00000000,-0.11618079,2.17000008,0.45305896,0.16512062,-0.21428803,0.00000000,0.00000000
-0.49698222,-2.14715075,-0.74064982,-0.28938526,-0.92701918,0.00000000,0.00000000,-0.15445785,2.17000008,0.44397470,0.16507576,-0.18213539,0.00000000,0.00000000
-0.52323836,-2.15675974,-0.74273390,-0.29863587,-0.92743725,0.00000000,0.00000000,-0.18408398,2.17000008,0.43579277,0.15947893,-0.15411480,0.00000000,0.00000000
-0.53829944,-2.16346979,-0.74273831,-0.30257887,-0.92452306,0.00000000,0.00000000,-0.20442170,2.17000008,0.42872828,0.14827025,-0.12267140,0.00000000,0.00000000
-0.54065245,-2.16758347,-0.74041742,-0.30085504,-0.91785300,0.00000000,0.00000000,-0.21385352,2.17000008,0.42311850,0.13239099,-0.09021501,0.00000000,0.00000000
-0.52950048,-2.16951990,-0.73568642,-0.29321614,-0.91508555,0.00000000,0.00000000,-0.21135066,2.17000008,0.41900453,0.11299413,-0.05981194,0.00000000,0.00000000
-0.50516427,-2.16997290,-0.72867960,-0.27966601,-0.91055357,0.00000000,0.00000000,-0.19705901,2.17000008,0.41617635,0.09042920,-0.03633884,0.00000000,0.00000000
-0.46935332,-2.17000008,-0.71971947,-0.26080376,-0.91574574,0.00000000,0.00000000,-0.17238928,2.16984248,0.41430208,0.06434073,-0.02027333,0.00000000,0.00000000
-0.42584613,-2.17000008,-0.70950037,-0.23759557,-0.92454851,0.00000000,0.00000000,-0.13908003,2.16735530,0.41298914,0.03519501,-0.00405399,0.00000000,0.00000000
-0.38062260,-2.17000008,-0.69888967,-0.21216653,-0.92813969,0.00000000,0.00000000,-0.09535034,2.15840530,0.41191548,0.00782333,0.01181266,0.00000000,0.00000000
-0.33607027,-2.17000008,-0.68831015,-0.18573096,-0.93374103,0.00000000,0.00000000,-0.03980444,2.14432812,0.41087776,-0.01407523,0.02176533,0.00000000,0.00000000
-0.29130825,-2.16998959,-0.67786050,-0.15830690,-0.93234730,0.00000000,0.00000000,0.02738852,2.12591076,0.40975747,-0.03036756,0.03174797,0.00000000,0.00000000
-0.24597619,-2.16980910,-0.66768682,-0.13010131,-0.92738408,0.00000000,0.00000000,0.10489208,2.10141015,0.40849131,-0.04297760,0.03925804,0.00000000,0.00000000
-0.19909640,-2.16902065,-0.65782386,-0.10186983,-0.91590178,0.00000000,0.00000000,0.19144963,2.07400274,0.40710706,-0.05120242,0.04632315,0.00000000,0.00000000
-0.14984745,-2.16801286,-0.64830732,-0.07491620,-0.90211827,0.00000000,0.00000000,0.28370270,2.04979420,0.40577683,-0.05312682,0.04894316,0.00000000,0.00000000
-0.09923810,-2.16839337,-0.63928497,-0.05104411,-0.88923573,0.00000000,0.00000000,0.37401032,2.03371286,0.40479594,-0.04836749,0.05348786,0.00000000,0.00000000
-0.05050801,-2.16951942,-0.63102084,-0.03141841,-0.86938941,0.00000000,0.00000000,0.45683095,2.02416587,0.40426442,-0.03951142,0.04951635,0.00000000,0.00000000
-0.00584914,-2.16992331,-0.62369680,-0.01643324,-0.86322874,0.00000000,0.00000000,0.52907360,2.01863408,0.40414530,-0.02901432,0.04338150,0.00000000,0.00000000
0.03315851,-2.16998148,-0.61739314,-0.00688058,-0.85319263,0.00000000,0.00000000,0.58895087,2.01694727,0.40435153,-0.01756823,0.03721516,0.00000000,0.00000000
0.06584793,-2.16999912,-0.61214733,-0.00239978,-0.84944445,0.00000000,0.00000000,0.63572210,2.01868534,0.40474397,-0.00565518,0.03453360,0.00000000,0.00000000
0.09239730,-2.17000008,-0.60797060,-0.00210085,-0.84702981,0.00000000,0.00000000,0.66855353,2.02318358,0.40515980,0.00599474,0.03369274,0.00000000,0.00000000
0.11302525,-2.17000008,-0.60486317,-0.00499021,-0.84364969,0.00000000,0.00000000,0.68653595,2.03011250,0.40542737,0.01676960,0.03347016,0.00000000,0.00000000
0.12737031,-2.17000008,-0.60283005,-0.01011198,-0.84700364,0.00000000,0.00000000,0.68921244,2.03926134,0.40537694,0.02628573,0.02715714,0.00000000,0.00000000
0.13439095,-2.17000008,-0.60188997,-0.01666382,-0.84575486,0.00000000,0.00000000,0.67613173,2.05096412,0.40484434,0.03464374,0.01810788,0.00000000,0.00000000
0.13317531,-2.17000008,-0.60207564,-0.02393264,-0.85115212,0.00000000,0.00000000,0.64665335,2.06625533,0.40367100,0.04246101,0.00764488,0.00000000,0.00000000
0.12360267,-2.17000008,-0.60342801,-0.03077514,-0.84935313,0.00000000,0.00000000,0.60070413,2.08489704,0.40173542,0.04989447,0.00376596,0.00000000,0.00000000
0.10584974,-2.17000008,-0.60597104,-0.03684507,-0.84942138,0.00000000,0.00000000,0.53944427,2.10430217,0.39899945,0.05613048,-0.00017403,0.00000000,0.00000000
0.07917015,-2.16984558,-0.60971129,-0.04315127,-0.85193735,0.00000000,0.00000000,0.46818829,2.12208724,0.39559463,0.06149131,-0.00565505,0.00000000,0.00000000
0.04177843,-2.16741681,-0.61466032,-0.05111754,-0.85537785,0.00000000,0.00000000,0.39514849,2.13513803,0.39180884,0.06646667,-0.00794084,0.00000000,0.00000000
-0.00680405,-2.15885925,-0.62077272,-0.06225276,-0.86318946,0.00000000,0.00000000,0.32392257,2.14333701,0.38777173,0.07211526,-0.01172171,0.00000000,0.00000000
-0.06555974,-2.14659977,-0.62790227,-0.07822618,-0.88144952,0.00000000,0.00000000,0.25443992,2.15117478,0.38341230,0.08144670,-0.01603266,0.00000000,0.00000000
-0.13182411,-2.13512683,-0.63578004,-0.09969775,-0.90087318,0.00000000,0.00000000,0.18596733,2.15979624,0.37865993,0.09553781,-0.02397686,0.00000000,0.00000000
-0.20192900,-2.12761140,-0.64400429,-0.12610173,-0.92069310,0.00000000,0.00000000,0.11764681,2.16685247,0.37347767,0.11352453,-0.03097980,0.00000000,0.00000000
-0.27132040,-2.12563515,-0.65202749,-0.15570647,-0.94360328,0.00000000,0.00000000,0.04913966,2.16957474,0.36789680,0.13379590,-0.03210491,0.00000000,0.00000000
-0.33530509,-2.12931085,-0.65921986,-0.18617295,-0.96038413,0.00000000,0.00000000,-0.01825873,2.16998100,0.36214647,0.15412135,-0.02750397,0.00000000,0.00000000
-0.39037913,-2.13715506,-0.66504812,-0.21523055,-0.97052526,0.00000000,0.00000000,-0.08074494,2.17000008,0.35689962,0.16932237,-0.02252741,0.00000000,0.00000000
-0.43472478,-2.14709449,-0.66914064,-0.24110833,-0.98000920,0.00000000,0.00000000,-0.13284494,2.17000008,0.35299966,0.17649584,-0.01595752,0.00000000,0.00000000
-0.46759194,-2.15725589,-0.67125750,-0.26251978,-0.98888528,0.00000000,0.00000000,-0.17197292,2.17000008,0.35092497,0.17563975,-0.01078355,0.00000000,0.00000000
-0.48894778,-2.16521978,-0.67137474,-0.27814716,-1.00157213,0.00000000,0.00000000,-0.19815600,2.17000008,0.35083607,0.16701131,-0.00311991,0.00000000,0.00000000
-0.49836519,-2.16908741,-0.66953337,-0.28679195,-1.01355052,0.00000000,0.00000000,-0.21255472,2.17000008,0.35261232,0.15149945,0.00477357,0.00000000,0.00000000
-0.49547988,-2.16994953,-0.66582698,-0.28755987,-1.02701843,0.00000000,0.00000000,-0.21599293,2.17000008,0.35603231,0.13053200,0.00880495,0.00000000,0.00000000
-0.48096681,-2.17000008,-0.66057849,-0.27983728,-1.04015601,0.00000000,0.00000000,-0.20973681,2.17000008,0.36079937,0.10473187,0.01918786,0.00000000,0.00000000
-0.45547438,-2.17000008,-0.65397871,-0.26395059,-1.05256879,0.00000000,0.00000000,-0.19466104,2.16988778,0.36655140,0.07559586,0.02799072,0.00000000,0.00000000
-0.41995692,-2.17000008,-0.64610136,-0.24151336,-1.06828797,0.00000000,0.00000000,-0.17109878,2.16812420,0.37293109,0.04506910,0.04362288,0.00000000,0.00000000
-0.37630334,-2.17000008,-0.63707358,-0.21532676,-1.07967687,0.00000000,0.00000000,-0.13916418,2.16183496,0.37963137,0.01627230,0.06173533,0.00000000,0.00000000
-0.32702330,-2.16998553,-0.62722933,-0.18797047,-1.08959353,0.00000000,0.00000000,-0.10106322,2.15152431,0.38643393,-0.00792969,0.08279015,0.00000000,0.00000000
-0.27798560,-2.16976070,-0.61736077,-0.16192317,-1.09261525,0.00000000,0.00000000,-0.05835775,2.13781881,0.39327225,-0.02729188,0.10199989,0.00000000,0.00000000
-0.23616317,-2.16899538,-0.60819179,-0.14052650,-1.09269893,0.00000000,0.00000000,-0.00819253,2.12241054,0.40012494,-0.04071736,0.12530623,0.00000000,0.00000000
-0.20008200,-2.16822314,-0.59965026,-0.12449656,-1.09444177,0.00000000,0.00000000,0.05119750,2.10470796,0.40696171,-0.04852890,0.15014920,0.00000000,0.00000000
-0.16681194,-2.16847777,-0.59153485,-0.11357070,-1.08984864,0.00000000,0.00000000,0.12001666,2.08712244,0.41381115,-0.04977404,0.17413108,0.00000000,0.00000000
-0.13462107,-2.16934633,-0.58379698,-0.10666209,-1.08884513,0.00000000,0.00000000,0.19544564,2.07600069,0.42083091,-0.04226188,0.19889310,0.00000000,0.00000000
-0.10162445,-2.16948128,-0.57641608,-0.10191888,-1.08332133,0.00000000,0.00000000,0.27433780,2.07141018,0.42805299,-0.02722321,0.22487968,0.00000000,0.00000000
-0.06727556,-2.16979885,-0.56930679,-0.09970491,-1.08778965,0.00000000,0.00000000,0.35135236,2.07490897,0.43548021,-0.00539691,0.24972418,0.00000000,0.00000000
-0.03333770,-2.16998625,-0.56255889,-0.10035726,-1.08755732,0.00000000,0.00000000,0.42066461,2.08517718,0.44298461,0.02096580,0.27406085,0.00000000,0.00000000
-0.00159914,-2.17000008,-0.55630124,-0.10373122,-1.08770072,0.00000000,0.00000000,0.47944859,2.09887385,0.45030853,0.04940133,0.29629362,0.00000000,0.00000000
0.02721973,-2.17000008,-0.55063844,-0.10908534,-1.08500266,0.00000000,0.00000000,0.52745622,2.11325788,0.45717588,0.07839029,0.31459412,0.00000000,0.00000000
0.05306228,-2.17000008,-0.54567558,-0.11525688,-1.08134890,0.00000000,0.00000000,0.56488311,2.12638116,0.46330315,0.10680258,0.32753491,0.00000000,0.00000000
0.07625812,-2.17000008,-0.54143268,-0.12218154,-1.06825829,0.00000000,0.00000000,0.59052747,2.13752222,0.46829924,0.13369744,0.33641586,0.00000000,0.00000000
0.09598417,-2.17000008,-0.53798598,-0.13032843,-1.05538249,0.00000000,0.00000000,0.60221469,2.14712048,0.47164708,0.15850700,0.34570527,0.00000000,0.00000000
0.11092464,-2.17000008,-0.53555572,-0.13871107,-1.04166818,0.00000000,0.00000000,0.59839755,2.15512729,0.47284594,0.18062098,0.35562044,0.00000000,0.00000000
0.11967643,-2.17000008,-0.53446335,-0.14521672,-1.02405024,0.00000000,0.00000000,0.57803392,2.16122723,0.47143224,0.19954863,0.36460474,0.00000000,0.00000000
0.12086920,-2.17000008,-0.53507179,-0.14726400,-1.00555527,0.00000000,0.00000000,0.54082203,2.16569090,0.46704620,0.21530500,0.36924455,0.00000000,0.00000000
0.11289796,-2.17000008,-0.53757030,-0.14447190,-0.99030185,0.00000000,0.00000000,0.48722649,2.16892934,0.45958605,0.22697718,0.37372527,0.00000000,0.00000000
0.09513316,-2.16987228,-0.54190397,-0.13767676,-0.97975600,0.00000000,0.00000000,0.41748148,2.16993427,0.44938913,0.22956893,0.38016251,0.00000000,0.00000000
0.06823562,-2.16779804,-0.54779279,-0.12852590,-0.97447288,0.00000000,0.00000000,0.33899373,2.17000008,0.43775013,0.22166122,0.39135128,0.00000000,0.00000000
0.03193930,-2.15966606,-0.55495822,-0.11961028,-0.96669382,0.00000000,0.00000000,0.26527166,2.17000008,0.42613363,0.21162821,0.40300062,0.00000000,0.00000000
-0.01492485,-2.14562488,-0.56319880,-0.11386697,-0.96453685,0.00000000,0.00000000,0.19670121,2.17000008,0.41432926,0.20482816,0.41473582,0.00000000,0.00000000
-0.07157437,-2.12978244,-0.57224935,-0.11339279,-0.96077365,0.00000000,0.00000000,0.13147476,2.17000008,0.40215650,0.20282909,0.43219629,0.00000000,0.00000000
-0.13522169,-2.11592221,-0.58178204,-0.11894952,-0.95744687,0.00000000,0.00000000,0.06884135,2.17000008,0.38974419,0.20531082,0.44640139,0.00000000,0.00000000
-0.20277728,-2.10645461,-0.59146166,-0.13032107,-0.95712680,0.00000000,0.00000000,0.00816751,2.17000008,0.37723541,0.21144243,0.45805234,0.00000000,0.00000000
-0.27107713,-2.10313058,-0.60090142,-0.14673854,-0.95508111,0.00000000,0.00000000,-0.05066492,2.17000008,0.36483654,0.21966040,0.46559653,0.00000000,0.00000000
-0.33643076,-2.10636997,-0.60965472,-0.16657919,-0.94819742,0.00000000,0.00000000,-0.10648720,2.17000008,0.35299245,0.22688146,0.47713506,0.00000000,0.00000000
-0.39519787,-2.11503911,-0.61728042,-0.18762623,-0.94669151,0.00000000,0.00000000,-0.15545097,2.17000008,0.34245127,0.23019649,0.48679125,0.00000000,0.00000000
-0.44440374,-2.12711406,-0.62339997,-0.20762600,-0.94340533,0.00000000,0.00000000,-0.19654819,2.17000008,0.33335552,0.22871794,0.49811012,0.00000000,0.00000000
-0.48208967,-2.14044380,-0.62773359,-0.22469769,-0.94048464,0.00000000,0.00000000,-0.22561392,2.17000008,0.32619199,0.22268727,0.51104790,0.00000000,0.00000000
-0.50672489,-2.15300083,-0.63007057,-0.23726577,-0.92686385,0.00000000,0.00000000,-0.24517322,2.17000008,0.32055464,0.21245304,0.51758403,0.00000000,0.00000000
-0.51729947,-2.16280532,-0.63031328,-0.24405427,-0.91368461,0.00000000,0.00000000,-0.25552148,2.17000008,0.31634617,0.19899470,0.52438396,0.00000000,0.00000000
-0.51301938,-2.16829729,-0.62843508,-0.24419820,-0.89573127,0.00000000,0.00000000,-0.25585270,2.17000008,0.31356934,0.18373336,0.53097802,0.00000000,0.00000000
-0.49400315,-2.16984129,-0.62464720,-0.23701374,-0.87944776,0.00000000,0.00000000,-0.24655606,2.17000008,0.31207755,0.16749686,0.54085404,0.00000000,0.00000000
-0.46242440,-2.16999531,-0.61956018,-0.22211924,-0.86190909,0.00000000,0.00000000,-0.22930101,2.17000008,0.31162575,0.14947484,0.55364084,0.00000000,0.00000000
-0.41810238,-2.17000008,-0.61312526,-0.20130521,-0.84677225,0.00000000,0.00000000,-0.20216824,2.16999936,0.31216511,0.13148959,0.56741464,0.00000000,0.00000000
-0.36434025,-2.17000008,-0.60577321,-0.17698655,-0.82960814,0.00000000,0.00000000,-0.16624728,2.16999292,0.31343448,0.11344751,0.58787394,0.00000000,0.00000000
-0.30686504,-2.17000008,-0.59823728,-0.15178068,-0.81476122,0.00000000,0.00000000,-0.12518346,2.16991258,0.31501815,0.09449196,0.61080694,0.00000000,0.00000000
-0.25015295,-2.17000008,-0.59100103,-0.12793772,-0.80261588,0.00000000,0.00000000,-0.08050913,2.16873908,0.31663468,0.07595260,0.64058083,0.00000000,0.00000000
-0.20043926,-2.17000008,-0.58462542,-0.10724866,-0.79497409,0.00000000,0.00000000,-0.03107723,2.16351223,0.31827709,0.05523020,0.67001921,0.00000000,0.00000000
-0.16180401,-2.17000008,-0.57929271,-0.09245637,-0.78928876,0.00000000,0.00000000,0.02744624,2.15275502,0.31997690,0.03485644,0.69634944,0.00000000,0.00000000
-0.13116050,-2.16998839,-0.57478952,-0.08349603,-0.78071719,0.00000000,0.00000000,0.09517474,2.13799620,0.32163602,0.01760659,0.71917313,0.00000000,0.00000000
-0.10451076,-2.16981840,-0.57092184,-0.07905720,-0.77027309,0.00000000,0.00000000,0.17060243,2.12041044,0.32319769,0.00397115,0.74200469,0.00000000,0.00000000
-0.07873335,-2.16937852,-0.56755042,-0.07805564,-0.75640184,0.00000000,0.00000000,0.25078100,2.10289407,0.32465208,-0.00535435,0.76929092,0.00000000,0.00000000
-0.05179341,-2.16930676,-0.56454438,-0.08037914,-0.73497123,0.00000000,0.00000000,0.33002123,2.09074712,0.32601455,-0.00894229,0.79746860,0.00000000,0.00000000
-0.02359513,-2.16977215,-0.56186986,-0.08601837,-0.71132356,0.00000000,0.00000000,0.40095478,2.08272386,0.32732049,-0.00933287,0.82087934,0.00000000,0.00000000
0.00356800,-2.16998529,-0.55963868,-0.09490277,-0.68983966,0.00000000,0.00000000,0.46186548,2.07584715,0.32857546,-0.00876442,0.84586185,0.00000000,0.00000000
0.02838381,-2.17000008,-0.55791634,-0.10678638,-0.66542286,0.00000000,0.00000000,0.51237959,2.07004142,0.32976869,-0.00736852,0.86911643,0.00000000,0.00000000
0.05091980,-2.17000008,-0.55671990,-0.12092006,-0.63659781,0.00000000,0.00000000,0.55169147,2.06609154,0.33087924,-0.00476085,0.89916706,0.00000000,0.00000000
0.07148754,-2.17000008,-0.55610734,-0.13601176,-0.61181521,0.00000000,0.00000000,0.57864201,2.06474948,0.33187166,-0.00059037,0.92917168,0.00000000,0.00000000
0.09066257,-2.17000008,-0.55626404,-0.14902942,-0.58039117,0.00000000,0.00000000,0.59311932,2.06553483,0.33268729,0.00492724,0.95824414,0.00000000,0.00000000
0.10793344,-2.17000008,-0.55743241,-0.15776950,-0.54503793,0.00000000,0.00000000,0.59507275,2.06838012,0.33324543,0.01175636,0.98986876,0.00000000,0.00000000
0.12057520,-2.17000008,-0.55997628,-0.16138877,-0.51133674,0.00000000,0.00000000,0.58389264,2.07442856,0.33343461,0.02051089,1.02362144,0.00000000,0.00000000
0.12628791,-2.17000008,-0.56415755,-0.15981750,-0.47801322,0.00000000,0.00000000,0.55857420,2.08463478,0.33309951,0.03167686,1.05330992,0.00000000,0.00000000
0.12381417,-2.16994405,-0.57003599,-0.15377046,-0.43970966,0.00000000,0.00000000,0.51907396,2.09902811,0.33206046,0.04531046,1.08428645,0.00000000,0.00000000
0.11209282,-2.16895962,-0.57749563,-0.14513837,-0.40694386,0.00000000,0.00000000,0.46648040,2.11381912,0.33018440,0.05938556,1.11127889,0.00000000,0.00000000
0.08922512,-2.16417265,-0.58635265,-0.13693433,-0.37180796,0.00000000,0.00000000,0.40560970,2.12475991,0.32750675,0.07230838,1.12905788,0.00000000,0.00000000
0.05253281,-2.15327501,-0.59650570,-0.13212715,-0.34592479,0.00000000,0.00000000,0.34284723,2.13268232,0.32415232,0.08576227,1.14975154,0.00000000,0.00000000
0.00179372,-2.13780689,-0.60778302,-0.13218316,-0.32394695,0.00000000,0.00000000,0.28116238,2.13895035,0.32015914,0.10117231,1.16491055,0.00000000,0.00000000
-0.06233019,-2.12109971,-0.61996704,-0.13824551,-0.30091783,0.00000000,0.00000000,0.22118273,2.14473176,0.31547627,0.11972919,1.18356431,0.00000000,0.00000000
-0.13662276,-2.10819793,-0.63255763,-0.15130964,-0.28025037,0.00000000,0.00000000,0.16186631,2.15151525,0.30991852,0.14281267,1.19506538,0.00000000,0.00000000
-0.21391280,-2.10280442,-0.64475298,-0.17024922,-0.25588319,0.00000000,0.00000000,0.09931138,2.15946150,0.30302960,0.17040169,1.20507669,0.00000000,0.00000000
-0.28740236,-2.10472035,-0.65585995,-0.19218260,-0.23238030,0.00000000,0.00000000,0.03267595,2.16675758,0.29474330,0.20031883,1.21202028,0.00000000,0.00000000
-0.35368881,-2.11265278,-0.66542286,-0.21486796,-0.20709255,0.00000000,0.00000000,-0.02902354,2.16960049,0.28637603,0.22875641,1.21652544,0.00000000,0.00000000
-0.41054070,-2.12439442,-0.67313206,-0.23618010,-0.18170796,0.00000000,0.00000000,-0.08077244,2.16998386,0.27889401,0.25279966,1.22117102,0.00000000,0.00000000
-0.45688364,-2.13754368,-0.67883551,-0.25449046,-0.14861596,0.00000000,0.00000000,-0.12187412,2.17000008,0.27283534,0.26862594,1.23021507,0.00000000,0.00000000
-0.49166244,-2.15026379,-0.68238968,-0.26860079,-0.11415210,0.00000000,0.00000000,-0.15131357,2.17000008,0.26850963,0.27678564,1.24104011,0.00000000,0.00000000
-0.51431924,-2.16077423,-0.68376362,-0.27756220,-0.07431484,0.00000000,0.00000000,-0.17104116,2.17000008,0.26580033,0.27599156,1.25554359,0.00000000,0.00000000
-0.52424967,-2.16735744,-0.68297893,-0.28041607,-0.03160193,0.00000000,0.00000000,-0.18282759,2.17000008,0.26447526,0.26621503,1.26889241,0.00000000,0.00000000
-0.52143556,-2.16963959,-0.68018305,-0.27641341,0.00812553,0.00000000,0.00000000,-0.18729620,2.17000008,0.26440170,0.24840057,1.27326655,0.00000000,0.00000000
-0.50645441,-2.16998386,-0.67562371,-0.26520342,0.04443641,0.00000000,0.00000000,-0.18557191,2.17000008,0.26536694,0.22294134,1.27624762,0.00000000,0.00000000
-0.47953069,-2.17000008,-0.66939807,-0.24718286,0.07153629,0.00000000,0.00000000,-0.17758016,2.17000008,0.26719481,0.19193374,1.27768767,0.00000000,0.00000000
-0.44139314,-2.17000008,-0.66158497,-0.22378199,0.10138114,0.00000000,0.00000000,-0.16243781,2.16999102,0.26975435,0.15794411,1.28109801,0.00000000,0.00000000
-0.39444014,-2.16998672,-0.65247142,-0.19737360,0.13708733,0.00000000,0.00000000,-0.13978115,2.16969752,0.27284980,0.12254717,1.28106034,0.00000000,0.00000000
-0.34199840,-2.16978431,-0.64255780,-0.17019916,0.16730703,0.00000000,0.00000000,-0.11029078,2.16676307,0.27620459,0.08642790,1.27649879,0.00000000,0.00000000
-0.28891036,-2.16909266,-0.63248748,-0.14456901,0.20087409,0.00000000,0.00000000,-0.07383692,2.15695119,0.27958947,0.05044806,1.26408470,0.00000000,0.00000000
-0.24157459,-2.16775417,-0.62289196,-0.12351462,0.23718990,0.00000000,0.00000000,-0.02695818,2.14125896,0.28294095,0.01776170,1.24559867,0.00000000,0.00000000
-0.19918533,-2.16541910,-0.61386251,-0.10713479,0.26446119,0.00000000,0.00000000,0.03084161,2.12346458,0.28612241,-0.00879202,1.22200680,0.00000000,0.00000000
-0.15821628,-2.16464233,-0.60519052,-0.09575216,0.29615185,0.00000000,0.00000000,0.09974164,2.10736704,0.28904510,-0.02717613,1.20224512,0.00000000,0.00000000
-0.11672058,-2.16769028,-0.59676087,-0.09003110,0.32981017,0.00000000,0.00000000,0.17809206,2.09281969,0.29168296,-0.03841154,1.17663658,0.00000000,0.00000000
-0.07455002,-2.16965151,-0.58875865,-0.08735686,0.35971299,0.00000000,0.00000000,0.26337820,2.07854724,0.29406661,-0.04439078,1.15370321,0.00000000,0.00000000
-0.03244981,-2.16998386,-0.58126336,-0.08744767,0.39387742,0.00000000,0.00000000,0.34845904,2.06695223,0.29639301,-0.04571205,1.13287830,0.00000000,0.00000000
0.00726173,-2.17000008,-0.57435757,-0.09147271,0.42908165,0.00000000,0.00000000,0.42620960,2.05881715,0.29885447,-0.04375302,1.11689258,0.00000000,0.00000000
0.04277084,-2.17000008,-0.56816691,-0.09953547,0.45548022,0.00000000,0.00000000,0.49302995,2.05323696,0.30151951,-0.04004522,1.10873640,0.00000000,0.00000000
0.07268895,-2.17000008,-0.56283867,-0.11134618,0.48593199,0.00000000,0.00000000,0.54701751,2.05043745,0.30439451,-0.03504285,1.10150671,0.00000000,0.00000000
0.09594799,-2.17000008,-0.55852884,-0.12654425,0.51558888,0.00000000,0.00000000,0.58699125,2.05101705,0.30744830,-0.02878747,1.10252130,0.00000000,0.00000000
0.11354365,-2.17000008,-0.55539280,-0.14276209,0.54185790,0.00000000,0.00000000,0.61281741,2.05399966,0.31059876,-0.02201236,1.10052264,0.00000000,0.00000000
0.12567586,-2.17000008,-0.55365008,-0.15781502,0.56639808,0.00000000,0.00000000,0.62485367,2.05882621,0.31374750,-0.01509420,1.10050595,0.00000000,0.00000000
0.13128874,-2.17000008,-0.55354834,-0.17064887,0.58740699,0.00000000,0.00000000,0.62287003,2.06614304,0.31680301,-0.00773096,1.09570408,0.00000000,0.00000000
0.12941574,-2.17000008,-0.55529678,-0.18056470,0.61202961,0.00000000,0.00000000,0.60665810,2.07641530,0.31966311,0.00038867,1.09174609,0.00000000,0.00000000
0.11904287,-2.17000008,-0.55904859,-0.18746535,0.63394189,0.00000000,0.00000000,0.57588375,2.08946371,0.32220906,0.00927374,1.08553255,0.00000000,0.00000000
0.10050751,-2.17000008,-0.56480110,-0.19094132,0.65157259,0.00000000,0.00000000,0.53097373,2.10400128,0.32431322,0.01842941,1.07932258,0.00000000,0.00000000
0.07532414,-2.16988635,-0.57237250,-0.19030501,0.66642427,0.00000000,0.00000000,0.47388193,2.11871386,0.32586396,0.02765878,1.06267774,0.00000000,0.00000000
0.04285910,-2.16799021,-0.58158386,-0.18669680,0.67750961,0.00000000,0.00000000,0.40957677,2.13019252,0.32687974,0.03609576,1.04825771,0.00000000,0.00000000
0.00097389,-2.15998197,-0.59233791,-0.18217419,0.68404341,0.00000000,0.00000000,0.34904343,2.13613343,0.32756960,0.04454437,1.03709948,0.00000000,0.00000000
-0.05133893,-2.14523196,-0.60433900,-0.17946753,0.68411762,0.00000000,0.00000000,0.29187760,2.14049339,0.32786724,0.05547660,1.02347004,0.00000000,0.00000000
-0.11289702,-2.12934136,-0.61703557,-0.18161149,0.68516666,0.00000000,0.00000000,0.23587555,2.14644551,0.32765582,0.07073914,1.00893581,0.00000000,0.00000000
-0.18027367,-2.11692643,-0.62982792,-0.18967661,0.68597108,0.00000000,0.00000000,0.18088380,2.15321183,0.32688525,0.09027534,0.98767728,0.00000000,0.00000000
-0.24969158,-2.11016583,-0.64216858,-0.20324221,0.69418383,0.00000000,0.00000000,0.12742604,2.15901828,0.32555333,0.11324858,0.96814221,0.00000000,0.00000000
-0.31692305,-2.11031723,-0.65344256,-0.22120218,0.70172280,0.00000000,0.00000000,0.07306207,2.16382027,0.32340977,0.13828346,0.94348800,0.00000000,0.00000000
-0.37754008,-2.11620045,-0.66311759,-0.24116792,0.70591903,0.00000000,0.00000000,0.01554930,2.16833735,0.32028300,0.16196595,0.92099589,0.00000000,0.00000000
-0.42874447,-2.12613630,-0.67082608,-0.26111892,0.71324998,0.00000000,0.00000000,-0.03476023,2.16989565,0.31737652,0.17915085,0.90416080,0.00000000,0.00000000
-0.46972013,-2.13802981,-0.67645341,-0.27956226,0.71901667,0.00000000,0.00000000,-0.07601988,2.17000008,0.31498918,0.18876803,0.88653249,0.00000000,0.00000000
-0.49952570,-2.14987779,-0.67987931,-0.29505715,0.72376907,0.00000000,0.00000000,-0.10960624,2.17000008,0.31300274,0.19218488,0.87931824,0.00000000,0.00000000
-0.51643139,-2.16006207,-0.68087882,-0.30611533,0.72585857,0.00000000,0.00000000,-0.13570398,2.17000008,0.31141901,0.19085650,0.87359542,0.00000000,0.00000000
-0.51985633,-2.16682243,-0.67946899,-0.31158543,0.72403991,0.00000000,0.00000000,-0.15412807,2.17000008,0.31043723,0.18427938,0.86430240,0.00000000,0.00000000
-0.51169312,-2.16948652,-0.67609608,-0.31114960,0.72249305,0.00000000,0.00000000,-0.16452922,2.17000008,0.31030759,0.17102076,0.86719906,0.00000000,0.00000000
-0.49272966,-2.16997385,-0.67108679,-0.30409822,0.72402334,0.00000000,0.00000000,-0.16674958,2.17000008,0.31103802,0.15183905,0.86510432,0.00000000,0.00000000
-0.46325120,-2.17000008,-0.66465950,-0.28987056,0.71979898,0.00000000,0.00000000,-0.16140184,2.17000008,0.31240499,0.12867504,0.85676324,0.00000000,0.00000000
-0.42380130,-2.17000008,-0.65691769,-0.26903293,0.71687239,0.00000000,0.00000000,-0.14891730,2.17000008,0.31419837,0.10283279,0.84254730,0.00000000,0.00000000
-0.37729898,-2.17000008,-0.64823186,-0.24379365,0.71907759,0.00000000,0.00000000,-0.12987600,2.16986322,0.31626067,0.07431237,0.82569957,0.00000000,0.00000000
-0.32757029,-2.17000008,-0.63914686,-0.21641235,0.72153270,0.00000000,0.00000000,-0.10403994,2.16767383,0.31839398,0.04498359,0.81124091,0.00000000,0.00000000
-0.28050670,-2.17000008,-0.63043100,-0.18949178,0.72802252,0.00000000,0.00000000,-0.06971320,2.15934801,0.32047981,0.01684654,0.80070662,0.00000000,0.00000000
-0.23850228,-2.17000008,-0.62245500,-0.16415407,0.73412907,0.00000000,0.00000000,-0.02494627,2.14398217,0.32241970,-0.00888167,0.78564358,0.00000000,0.00000000
-0.19930477,-2.17000008,-0.61511910,-0.13993421,0.74665165,0.00000000,0.00000000,0.03116593,2.12230992,0.32408246,-0.03189553,0.77000958,0.00000000,0.00000000
-0.16097625,-2.16999388,-0.60827386,-0.11735695,0.76316500,0.00000000,0.00000000,0.09870563,2.09975076,0.32539511,-0.04957519,0.75575054,0.00000000,0.00000000
-0.12239158,-2.16991305,-0.60187119,-0.09720416,0.77363491,0.00000000,0.00000000,0.17703283,2.07998776,0.32637203,-0.06034950,0.73685098,0.00000000,0.00000000
-0.08301392,-2.16978788,-0.59594768,-0.08003119,0.78625417,0.00000000,0.00000000,0.26218650,2.06522679,0.32717502,-0.06415649,0.71425617,0.00000000,0.00000000
-0.04352918,-2.16991282,-0.59062684,-0.06643363,0.79842561,0.00000000,0.00000000,0.34696540,2.05555868,0.32807237,-0.06274258,0.69474435,0.00000000,0.00000000
-0.00571084,-2.16999412,-0.58608156,-0.05654169,0.80630195,0.00000000,0.00000000,0.42440012,2.04847884,0.32927874,-0.05911427,0.68715900,0.00000000,0.00000000
0.02817330,-2.17000008,-0.58243924,-0.05114860,0.81573635,0.00000000,0.00000000,0.49020767,2.04527974,0.33093381,-0.05337973,0.67368394,0.00000000,0.00000000
0.05737844,-2.17000008,-0.57976848,-0.05044594,0.82953018,0.00000000,0.00000000,0.54310316,2.04627180,0.33303019,-0.04566249,0.65543246,0.00000000,0.00000000
0.08195472,-2.17000008,-0.57810038,-0.05453421,0.83674169,0.00000000,0.00000000,0.58269882,2.05053067,0.33548972,-0.03665989,0.64040816,0.00000000,0.00000000
0.10180527,-2.17000008,-0.57749283,-0.06248687,0.84531456,0.00000000,0.00000000,0.60870278,2.05736613,0.33821383,-0.02696158,0.63295609,0.00000000,0.00000000
0.11656933,-2.17000008,-0.57803750,-0.07273209,0.85458452,0.00000000,0.00000000,0.62110198,2.06627893,0.34108514,-0.01700389,0.63146383,0.00000000,0.00000000
0.12550411,-2.17000008,-0.57987118,-0.08348698,0.86192632,0.00000000,0.00000000,0.62003422,2.07713771,0.34397420,-0.00691576,0.62472373,0.00000000,0.00000000
0.12683097,-2.17000008,-0.58319002,-0.09339240,0.86565316,0.00000000,0.00000000,0.60512978,2.09078264,0.34674591,0.00371238,0.62223542,0.00000000,0.00000000
0.11899867,-2.17000008,-0.58818465,-0.10145583,0.86752069,0.00000000,0.00000000,0.57608789,2.10798621,0.34925097,0.01531268,0.61947304,0.00000000,0.00000000
0.10219161,-2.17000008,-0.59492892,-0.10695412,0.86507547,0.00000000,0.00000000,0.53393602,2.12777638,0.35133442,0.02759215,0.61411434,0.00000000,0.00000000
0.07741520,-2.16985369,-0.60332942,-0.11037639,0.85865611,0.00000000,0.00000000,0.47995064,2.14721966,0.35287347,0.03926950,0.60655963,0.00000000,0.00000000
0.04474785,-2.16751194,-0.61324275,-0.11312734,0.85162377,0.00000000,0.00000000,0.41853672,2.16044426,0.35389176,0.04805793,0.59391373,0.00000000,0.00000000
0.00283820,-2.15877199,-0.62455404,-0.11714939,0.84696776,0.00000000,0.00000000,0.35742524,2.16575837,0.35453728,0.05480400,0.58250439,0.00000000,0.00000000
-0.04842346,-2.14509487,-0.63699651,-0.12478399,0.83747107,0.00000000,0.00000000,0.29857472,2.16714501,0.35481039,0.06255075,0.57162547,0.00000000,0.00000000
-0.10718876,-2.13209128,-0.65012908,-0.13791920,0.82290912,0.00000000,0.00000000,0.24114156,2.16853833,0.35462236,0.07400622,0.55413306,0.00000000,0.00000000
-0.17013551,-2.12393928,-0.66344607,-0.15674503,0.80925685,0.00000000,0.00000000,0.18353471,2.16966963,0.35389540,0.08853637,0.54488260,0.00000000,0.00000000
-0.23466399,-2.12077212,-0.67659062,-0.17955236,0.79230660,0.00000000,0.00000000,0.12447482,2.16998076,0.35258973,0.10324012,0.53742373,0.00000000,0.00000000
-0.29724535,-2.12281036,-0.68903953,-0.20443076,0.77708340,0.00000000,0.00000000,0.06331029,2.17000008,0.35065144,0.11690672,0.52157187,0.00000000,0.00000000
-0.35398322,-2.12939692,-0.70025057,-0.22917545,0.75924456,0.00000000,0.00000000,0.00380361,2.17000008,0.34839600,0.12782711,0.51143616,0.00000000,0.00000000
-0.40243262,-2.13895059,-0.70986557,-0.25182760,0.74498111,0.00000000,0.00000000,-0.04777936,2.17000008,0.34638599,0.13485330,0.49846187,0.00000000,0.00000000
-0.44133848,-2.14936376,-0.71772128,-0.27079836,0.72423118,0.00000000,0.00000000,-0.09001122,2.17000008,0.34484562,0.13716020,0.48233461,0.00000000,0.00000000
-0.46973687,-2.15865588,-0.72372991,-0.28485891,0.70217597,0.00000000,0.00000000,-0.12379536,2.17000008,0.34379524,0.13468778,0.47400400,0.00000000,0.00000000
-0.48686746,-2.16552067,-0.72783124,-0.29324564,0.67118150,0.00000000,0.00000000,-0.14924657,2.17000008,0.34328747,0.12816727,0.46949229,0.00000000,0.00000000
-0.49244565,-2.16908360,-0.73009926,-0.29543346,0.64255452,0.00000000,0.00000000,-0.16655648,2.17000008,0.34336743,0.11795583,0.46790248,0.00000000,0.00000000
-0.48640746,-2.16994071,-0.73066401,-0.29114065,0.61753750,0.00000000,0.00000000,-0.17583875,2.17000008,0.34404734,0.10431558,0.46260521,0.00000000,0.00000000
-0.46903715,-2.16989493,-0.72957051,-0.28079793,0.59201479,0.00000000,0.00000000,-0.17642070,2.17000008,0.34530583,0.08820417,0.45883104,0.00000000,0.00000000
-0.44067812,-2.16964269,-0.72666878,-0.26594383,0.57462829,0.00000000,0.00000000,-0.16733831,2.17000008,0.34706581,0.07103384,0.44649869,0.00000000,0.00000000
-0.40267125,-2.16959906,-0.72205055,-0.24824861,0.55533409,0.00000000,0.00000000,-0.14922321,2.17000008,0.34915584,0.05336669,0.42911726,0.00000000,0.00000000
-0.35771075,-2.16977715,-0.71616447,-0.22895533,0.53827667,0.00000000,0.00000000,-0.12387047,2.17000008,0.35137388,0.03518749,0.41195282,0.00000000,0.00000000
-0.30997840,-2.16976357,-0.70967275,-0.20942673,0.51959413,0.00000000,0.00000000,-0.09172771,2.16987991,0.35356256,0.01729649,0.40051177,0.00000000,0.00000000
-0.26569787,-2.16990638,-0.70329612,-0.19232768,0.50781024,0.00000000,0.00000000,-0.04981596,2.16794944,0.35566065,0.00055877,0.38882786,0.00000000,0.00000000
-0.22482102,-2.16997743,-0.69721091,-0.17752846,0.49530640,0.00000000,0.00000000,0.00260282,2.16048717,0.35760021,-0.01536242,0.37308189,0.00000000,0.00000000
-0.18522845,-2.16976571,-0.69132835,-0.16444364,0.48005709,0.00000000,0.00000000,0.06633773,2.14647698,0.35930455,-0.02867378,0.35556749,0.00000000,0.00000000
-0.14536470,-2.16942978,-0.68558383,-0.15302235,0.46117520,0.00000000,0.00000000,0.14024851,2.12722206,0.36074275,-0.03862476,0.34215119,0.00000000,0.00000000
-0.10373177,-2.16976595,-0.67990428,-0.14327547,0.44541371,0.00000000,0.00000000,0.22057973,2.10869932,0.36202723,-0.04331570,0.33049366,0.00000000,0.00000000
-0.06077261,-2.16998386,-0.67454284,-0.13399540,0.43266487,0.00000000,0.00000000,0.30139890,2.09396887,0.36335063,-0.04295326,0.32241347,0.00000000,0.00000000
-0.01945580,-2.17000008,-0.66978371,-0.12568077,0.42084488,0.00000000,0.00000000,0.37867588,2.08405590,0.36482424,-0.03834190,0.31558642,0.00000000,0.00000000
0.01764426,-2.17000008,-0.66577119,-0.11949885,0.40875167,0.00000000,0.00000000,0.45002931,2.07757235,0.36645418,-0.03110820,0.30966046,0.00000000,0.00000000
0.05011520,-2.17000008,-0.66260034,-0.11512132,0.39893770,0.00000000,0.00000000,0.51274896,2.07305908,0.36822155,-0.02287510,0.30207276,0.00000000,0.00000000
0.07810400,-2.17000008,-0.66039014,-0.11166349,0.39098004,0.00000000,0.00000000,0.56502569,2.06988955,0.37006530,-0.01447591,0.29693109,0.00000000,0.00000000
0.10156092,-2.17000008,-0.65919423,-0.10903536,0.38515776,0.00000000,0.00000000,0.60469395,2.06900072,0.37191120,-0.00593271,0.29123533,0.00000000,0.00000000
0.12065889,-2.17000008,-0.65909821,-0.10644649,0.37993065,0.00000000,0.00000000,0.63072473,2.07055044,0.37365279,0.00250076,0.29305276,0.00000000,0.00000000
0.13458350,-2.17000008,-0.66021323,-0.10358369,0.37153953,0.00000000,0.00000000,0.64234722,2.07501101,0.37516525,0.01082964,0.29645255,0.00000000,0.00000000
0.14185917,-2.17000008,-0.66262555,-0.10089079,0.37150043,0.00000000,0.00000000,0.63866997,2.08335185,0.37631235,0.01941171,0.29844567,0.00000000,0.00000000
0.14158230,-2.17000008,-0.66637713,-0.09859838,0.37307149,0.00000000,0.00000000,0.61871207,2.09608364,0.37694791,0.02840531,0.30873150,0.00000000,0.00000000
0.13364774,-2.16993046,-0.67146945,-0.09658071,0.37565377,0.00000000,0.00000000,0.58255130,2.11078215,0.37695336,0.03658042,0.31217998,0.00000000,0.00000000
0.11808482,-2.16879439,-0.67782879,-0.09546077,0.37472561,0.00000000,0.00000000,0.53204769,2.12357640,0.37627554,0.04230494,0.31807995,0.00000000,0.00000000
0.09465947,-2.16419077,-0.68531030,-0.09675729,0.38259450,0.00000000,0.00000000,0.47158569,2.13289380,0.37495488,0.04584349,0.32093576,0.00000000,0.00000000
0.06209522,-2.15507412,-0.69383091,-0.10194372,0.39526057,0.00000000,0.00000000,0.40738875,2.13725805,0.37313059,0.04790819,0.31915599,0.00000000,0.00000000
0.01997196,-2.14243269,-0.70330441,-0.11158655,0.41149077,0.00000000,0.00000000,0.34327608,2.13787341,0.37088558,0.05031203,0.31466001,0.00000000,0.00000000
-0.03076809,-2.13025379,-0.71346486,-0.12675220,0.43076721,0.00000000,0.00000000,0.28104031,2.14260244,0.36818537,0.05851892,0.30839097,0.00000000,0.00000000
-0.08731330,-2.12071848,-0.72396278,-0.14692223,0.44625166,0.00000000,0.00000000,0.22054014,2.15111256,0.36500740,0.07300579,0.30115518,0.00000000,0.00000000
-0.14652447,-2.11473846,-0.73439628,-0.17079996,0.46076605,0.00000000,0.00000000,0.16060193,2.16065359,0.36130151,0.09260233,0.29802635,0.00000000,0.00000000
-0.20547312,-2.11232638,-0.74434674,-0.19668402,0.46954992,0.00000000,0.00000000,0.10042404,2.16777611,0.35709268,0.11472381,0.30217671,0.00000000,0.00000000
-0.26166674,-2.11268544,-0.75342381,-0.22262424,0.48529854,0.00000000,0.00000000,0.04121700,2.16986609,0.35262486,0.13474573,0.30912358,0.00000000,0.00000000
-0.31255981,-2.11512423,-0.76119453,-0.24668273,0.50063986,0.00000000,0.00000000,-0.01435330,2.17000008,0.34816691,0.15093397,0.32002547,0.00000000,0.00000000
-0.35544145,-2.11844516,-0.76726204,-0.26671690,0.50817424,0.00000000,0.00000000,-0.06420384,2.17000008,0.34395123,0.16214521,0.33097911,0.00000000,0.00000000
-0.38934514,-2.12163901,-0.77142322,-0.28137177,0.51182079,0.00000000,0.00000000,-0.10875110,2.17000008,0.33993196,0.16858166,0.33671895,0.00000000,0.00000000
-0.41530657,-2.12350821,-0.77376592,-0.29014567,0.51424372,0.00000000,0.00000000,-0.14584549,2.17000008,0.33630466,0.17132138,0.33834332,0.00000000,0.00000000
-0.43342564,-2.12248898,-0.77439696,-0.29240698,0.51326859,0.00000000,0.00000000,-0.17437272,2.17000008,0.33329517,0.17069548,0.34024182,0.00000000,0.00000000
-0.44247219,-2.11930776,-0.77308393,-0.28810811,0.51589429,0.00000000,0.00000000,-0.19895296,2.17000008,0.33061528,0.16670954,0.34041366,0.00000000,0.00000000
-0.44118544,-2.11479521,-0.76963162,-0.27766359,0.51460713,0.00000000,0.00000000,-0.21594094,2.17000008,0.32885262,0.15876926,0.33816686,0.00000000,0.00000000
-0.42892870,-2.10981274,-0.76398700,-0.26192275,0.51519638,0.00000000,0.00000000,-0.22134988,2.17000008,0.32848829,0.14657649,0.33290565,0.00000000,0.00000000
-0.40510425,-2.10562110,-0.75613922,-0.24208970,0.51437044,0.00000000,0.00000000,-0.21472183,2.17000008,0.32953203,0.12959148,0.33566040,0.00000000,0.00000000
-0.36971101,-2.10383844,-0.74618137,-0.21986140,0.51256245,0.00000000,0.00000000,-0.19548436,2.17000008,0.33186021,0.10851314,0.34699538,0.00000000,0.00000000
-0.32414395,-2.10517955,-0.73448199,-0.19708370,0.51135880,0.00000000,0.00000000,-0.16504969,2.16977763,0.33511651,0.08441921,0.35575005,0.00000000,0.00000000
-0.27309620,-2.10940051,-0.72175813,-0.17629080,0.50810111,0.00000000,0.00000000,-0.12451487,2.16614413,0.33891681,0.05815762,0.35710287,0.00000000,0.00000000
-0.22415864,-2.11605000,-0.70888603,-0.16079231,0.50347853,0.00000000,0.00000000,-0.07134195,2.15174150,0.34303761,0.03163378,0.35663456,0.00000000,0.00000000
-0.17847949,-2.12451410,-0.69614500,-0.15115310,0.49536464,0.00000000,0.00000000,-0.00777753,2.12762833,0.34717876,0.00676183,0.35414457,0.00000000,0.00000000
-0.13429503,-2.13438654,-0.68350315,-0.14669266,0.48985517,0.00000000,0.00000000,0.06498465,2.10196829,0.35116059,-0.01260578,0.34734604,0.00000000,0.00000000
-0.09111165,-2.14380908,-0.67105365,-0.14635587,0.48094538,0.00000000,0.00000000,0.14566533,2.07641506,0.35493714,-0.02636051,0.34738243,0.00000000,0.00000000
-0.04884073,-2.15347409,-0.65873349,-0.15031321,0.46447253,0.00000000,0.00000000,0.23267654,2.05361152,0.35853428,-0.03368317,0.34689856,0.00000000,0.00000000
-0.00818602,-2.16229200,-0.64660609,-0.15808500,0.44460726,0.00000000,0.00000000,0.32165241,2.03564906,0.36205587,-0.03464552,0.35155666,0.00000000,0.00000000
0.02966641,-2.16820717,-0.63485605,-0.16866775,0.41804507,0.00000000,0.00000000,0.40534499,2.02334905,0.36564884,-0.03070147,0.36002439,0.00000000,0.00000000
0.06326599,-2.16989279,-0.62382132,-0.18038628,0.38715056,0.00000000,0.00000000,0.47849458,2.01526713,0.36936444,-0.02414467,0.36961773,0.00000000,0.00000000
0.09114114,-2.17000008,-0.61384231,-0.19204745,0.35366493,0.00000000,0.00000000,0.53985238,2.01068759,0.37314564,-0.01593027,0.38417482,0.00000000,0.00000000
0.11287402,-2.17000008,-0.60523379,-0.20189407,0.32358301,0.00000000,0.00000000,0.58990031,2.00936699,0.37688255,-0.00629488,0.39426884,0.00000000,0.00000000
0.12882194,-2.17000008,-0.59815890,-0.20864117,0.28429464,0.00000000,0.00000000,0.62817901,2.01157260,0.38045138,0.00461195,0.40323740,0.00000000,0.00000000
0.13945988,-2.17000008,-0.59275305,-0.21115556,0.24830468,0.00000000,0.00000000,0.65380704,2.01743054,0.38370433,0.01651545,0.42338988,0.00000000,0.00000000
0.14488187,-2.17000008,-0.58916187,-0.20850405,0.22030374,0.00000000,0.00000000,0.66615421,2.02687931,0.38646367,0.02919258,0.44198111,0.00000000,0.00000000
0.14434399,-2.17000008,-0.58749193,-0.20062096,0.19592786,0.00000000,0.00000000,0.66427070,2.04024744,0.38851589,0.04264625,0.45513722,0.00000000,0.00000000
0.13652617,-2.17000008,-0.58777905,-0.18829736,0.17005143,0.00000000,0.00000000,0.64688200,2.05852222,0.38960126,0.05723746,0.46475101,0.00000000,0.00000000
0.12044284,-2.16989994,-0.58990628,-0.17297924,0.14292416,0.00000000,0.00000000,0.61228389,2.08188987,0.38942409,0.07276078,0.47547251,0.00000000,0.00000000
0.09615910,-2.16824508,-0.59359163,-0.15636678,0.12597658,0.00000000,0.00000000,0.55999714,2.10544038,0.38780811,0.08626301,0.48009279,0.00000000,0.00000000
0.06367758,-2.16138291,-0.59853125,-0.14041491,0.11370898,0.00000000,0.00000000,0.49509484,2.12362099,0.38491106,0.09556876,0.49315634,0.00000000,0.00000000
0.02112212,-2.14829493,-0.60457242,-0.12767306,0.10041544,0.00000000,0.00000000,0.42544603,2.13483405,0.38107648,0.10148763,0.50914866,0.00000000,0.00000000
-0.03287219,-2.13160634,-0.61158782,-0.12013694,0.09223463,0.00000000,0.00000000,0.35467696,2.14165378,0.37642148,0.10653822,0.52714789,0.00000000,0.00000000
-0.09698320,-2.11490393,-0.61933202,-0.11879899,0.07944877,0.00000000,0.00000000,0.28323650,2.14806294,0.37087321,0.11373512,0.54563516,0.00000000,0.00000000
-0.16815518,-2.10170031,-0.62747043,-0.12407072,0.06804664,0.00000000,0.00000000,0.21210153,2.15676188,0.36440945,0.12575425,0.56600320,0.00000000,0.00000000
-0.24262345,-2.09402132,-0.63564962,-0.13533953,0.05718801,0.00000000,0.00000000,0.14173402,2.16546822,0.35709593,0.14234142,0.57987374,0.00000000,0.00000000
-0.31605557,-2.09221673,-0.64347559,-0.15084739,0.04639959,0.00000000,0.00000000,0.07197027,2.16930676,0.34908134,0.16060372,0.58923548,0.00000000,0.00000000
-0.38403872,-2.09572935,-0.65051335,-0.16830517,0.03987236,0.00000000,0.00000000,0.00362076,2.16996670,0.34060258,0.17816700,0.59180790,0.00000000,0.00000000
-0.44383141,-2.10280371,-0.65646780,-0.18546838,0.03100623,0.00000000,0.00000000,-0.05914125,2.17000008,0.33234507,0.19182085,0.59741765,0.00000000,0.00000000
-0.49399287,-2.11190271,-0.66111588,-0.20077640,0.02268135,0.00000000,0.00000000,-0.11047476,2.17000008,0.32523823,0.19888277,0.60917556,0.00000000,0.00000000
-0.53265589,-2.12296247,-0.66411334,-0.21342070,0.01667429,0.00000000,0.00000000,-0.15357764,2.17000008,0.31908157,0.19891663,0.62661505,0.00000000,0.00000000
-0.55920559,-2.13450861,-0.66536921,-0.22244585,0.01471561,0.00000000,0.00000000,-0.18317689,2.17000008,0.31462038,0.19252872,0.64255852,0.00000000,0.00000000
-0.57289267,-2.14498162,-0.66482586,-0.22687212,0.01651131,0.00000000,0.00000000,-0.20052184,2.17000008,0.31182680,0.17873272,0.66035074,0.00000000,0.00000000
-0.57255363,-2.15413117,-0.66233402,-0.22625531,0.01263573,0.00000000,0.00000000,-0.20724131,2.17000008,0.31042919,0.15852265,0.67866564,0.00000000,0.00000000
-0.55887729,-2.16129470,-0.65803617,-0.22055538,0.01419232,0.00000000,0.00000000,-0.20293391,2.17000008,0.31039175,0.13179411,0.70219517,0.00000000,0.00000000
-0.53187519,-2.16594791,-0.65204829,-0.20965257,0.02060818,0.00000000,0.00000000,-0.18765980,2.16989493,0.31145099,0.09967841,0.72324550,0.00000000,0.00000000
-0.49175057,-2.16834903,-0.64450252,-0.19399783,0.03529030,0.00000000,0.00000000,-0.16167305,2.16815567,0.31319198,0.06471944,0.73923057,0.00000000,0.00000000
-0.43972608,-2.16961527,-0.63563299,-0.17489007,0.04708207,0.00000000,0.00000000,-0.12527093,2.16086221,0.31519392,0.03081937,0.75018495,0.00000000,0.00000000
-0.37928155,-2.16997671,-0.62604409,-0.15333906,0.05758424,0.00000000,0.00000000,-0.08111253,2.14617920,0.31710079,-0.00023907,0.75499594,0.00000000,0.00000000
-0.31704748,-2.17000008,-0.61655432,-0.13119785,0.06937030,0.00000000,0.00000000,-0.03014091,2.12525153,0.31869027,-0.02775359,0.76795185,0.00000000,0.00000000
-0.26111883,-2.17000008,-0.60778785,-0.11261903,0.08077511,0.00000000,0.00000000,0.03061588,2.10056019,0.31984562,-0.05031533,0.77943796,0.00000000,0.00000000
-0.21124813,-2.17000008,-0.59975719,-0.09899095,0.08937185,0.00000000,0.00000000,0.09805924,2.07359123,0.32067585,-0.06844424,0.78995526,0.00000000,0.00000000
-0.16533971,-2.17000008,-0.59242332,-0.08948042,0.09076966,0.00000000,0.00000000,0.17110538,2.04653692,0.32128078,-0.08192992,0.81050825,0.00000000,0.00000000
-0.12332635,-2.17000008,-0.58592665,-0.08190922,0.08994954,0.00000000,0.00000000,0.25213376,2.02229404,0.32160836,-0.08929425,0.83045012,0.00000000,0.00000000
-0.08412860,-2.17000008,-0.58025229,-0.07540824,0.08807196,0.00000000,0.00000000,0.33808121,2.00345469,0.32186273,-0.09015467,0.84934443,0.00000000,0.00000000
-0.04610074,-2.17000008,-0.57528156,-0.07082130,0.08895845,0.00000000,0.00000000,0.42116499,1.99350715,0.32251057,-0.08442635,0.86509979,0.00000000,0.00000000
-0.01007870,-2.17000008,-0.57104659,-0.06839283,0.08698124,0.00000000,0.00000000,0.49515808,1.99104261,0.32379442,-0.07441361,0.88326353,0.00000000,0.00000000
