isaac-sim2real/sage/motion_files/wr75s/amass/0-HumanEva_S1_Jog_3_poses_idx38.txt
l_joint1,l_joint2,l_joint3,l_joint4,l_joint5,l_joint6,l_joint7,r_joint1,r_joint2,r_joint3,r_joint4,r_joint5,r_joint6,r_joint7
0.41727161,-2.07962203,-1.40514791,-1.91569078,0.02868612,0.00000000,0.00000000,-0.73683625,2.10240483,1.44735372,1.51353264,-0.13168660,0.00000000,0.00000000
0.41979325,-2.08067822,-1.40177870,-1.91003275,0.04254159,0.00000000,0.00000000,-0.72389996,2.08537555,1.45298517,1.50663471,-0.13880272,0.00000000,0.00000000
0.42726797,-2.08129525,-1.39453852,-1.89605558,0.05695640,0.00000000,0.00000000,-0.69923848,2.06135130,1.45644343,1.49188077,-0.14120646,0.00000000,0.00000000
0.44093072,-2.08040881,-1.38406873,-1.87179255,0.06805073,0.00000000,0.00000000,-0.66212636,2.03899050,1.45401728,1.47013235,-0.14865299,0.00000000,0.00000000
0.45980689,-2.07721949,-1.37149251,-1.83750057,0.07385129,0.00000000,0.00000000,-0.61251193,2.02197742,1.44554019,1.44393647,-0.15514988,0.00000000,0.00000000
0.48058230,-2.07132435,-1.35759819,-1.79776275,0.07912848,0.00000000,0.00000000,-0.55206245,2.01211810,1.43000519,1.42085779,-0.16253483,0.00000000,0.00000000
0.49833345,-2.06323051,-1.34428060,-1.76459801,0.09005951,0.00000000,0.00000000,-0.48419914,2.01020908,1.40656984,1.41239357,-0.16976860,0.00000000,0.00000000
0.51321602,-2.05332208,-1.33213151,-1.75000334,0.10823634,0.00000000,0.00000000,-0.41441229,2.01394176,1.37866557,1.42292750,-0.18031059,0.00000000,0.00000000
0.52600139,-2.04194450,-1.32324159,-1.75341082,0.12810014,0.00000000,0.00000000,-0.34913823,2.02217817,1.34744370,1.45040548,-0.19231014,0.00000000,0.00000000
0.54011679,-2.02636838,-1.32356060,-1.75966132,0.14591269,0.00000000,0.00000000,-0.29548481,2.03575921,1.31140149,1.49089992,-0.20212495,0.00000000,0.00000000
0.55526477,-2.00753021,-1.33307636,-1.76344883,0.16008964,0.00000000,0.00000000,-0.25572163,2.05329561,1.27345812,1.53971088,-0.21356326,0.00000000,0.00000000
0.57277769,-1.98800695,-1.34694839,-1.76331091,0.17281608,0.00000000,0.00000000,-0.23176171,2.06952143,1.24103510,1.58441818,-0.22603798,0.00000000,0.00000000
0.59257525,-1.97017479,-1.36082089,-1.75935459,0.17962949,0.00000000,0.00000000,-0.21963100,2.08290887,1.21922934,1.61734700,-0.23544751,0.00000000,0.00000000
0.61257744,-1.95653021,-1.37282419,-1.75191736,0.18397146,0.00000000,0.00000000,-0.21859218,2.09551287,1.20670533,1.63599980,-0.24332286,0.00000000,0.00000000
0.63088185,-1.94772303,-1.38313699,-1.74142921,0.18614444,0.00000000,0.00000000,-0.22941859,2.10805726,1.20191908,1.63974071,-0.25283247,0.00000000,0.00000000
0.64345896,-1.94540954,-1.39267921,-1.72851443,0.19341543,0.00000000,0.00000000,-0.25101200,2.12080550,1.20397222,1.62914264,-0.26345351,0.00000000,0.00000000
0.64512873,-1.95223892,-1.40208352,-1.71443379,0.20264351,0.00000000,0.00000000,-0.28109035,2.13352609,1.21217394,1.60522437,-0.27010357,0.00000000,0.00000000
0.63375139,-1.96759176,-1.41207349,-1.70256352,0.21522868,0.00000000,0.00000000,-0.31776834,2.14413738,1.22656393,1.56907547,-0.27704483,0.00000000,0.00000000
0.61222553,-1.98774648,-1.42194891,-1.69987142,0.23468524,0.00000000,0.00000000,-0.36259055,2.15035248,1.24566591,1.52374291,-0.28101489,0.00000000,0.00000000
0.58379275,-2.01052499,-1.42984211,-1.71492016,0.25106069,0.00000000,0.00000000,-0.42075369,2.15288472,1.26363432,1.47767174,-0.29054260,0.00000000,0.00000000
0.55333364,-2.03411222,-1.43329585,-1.75041199,0.26809534,0.00000000,0.00000000,-0.48411274,2.15330839,1.28035831,1.44580173,-0.30050752,0.00000000,0.00000000
0.52464372,-2.05643225,-1.43158054,-1.79939318,0.28338781,0.00000000,0.00000000,-0.54527825,2.15377760,1.29562950,1.43342614,-0.30864143,0.00000000,0.00000000
0.50036091,-2.07272196,-1.43196487,-1.84519804,0.29603812,0.00000000,0.00000000,-0.59749460,2.15388656,1.31140196,1.43831885,-0.31301877,0.00000000,0.00000000
0.48080990,-2.08283281,-1.43652439,-1.88232577,0.30827674,0.00000000,0.00000000,-0.64002335,2.14866734,1.32850802,1.45021057,-0.32155731,0.00000000,0.00000000
0.46874115,-2.08989310,-1.44183898,-1.90856445,0.30491760,0.00000000,0.00000000,-0.67291999,2.13515663,1.34452665,1.45994878,-0.33047479,0.00000000,0.00000000
0.46660736,-2.09611344,-1.44502437,-1.92194450,0.30022401,0.00000000,0.00000000,-0.69297165,2.11563754,1.35784316,1.46326113,-0.34123734,0.00000000,0.00000000
0.47471321,-2.10217524,-1.44506025,-1.92183626,0.29609653,0.00000000,0.00000000,-0.69778526,2.09341407,1.36762547,1.45904732,-0.35093933,0.00000000,0.00000000
0.49182665,-2.10729742,-1.44210911,-1.90835834,0.28595459,0.00000000,0.00000000,-0.68566513,2.07124329,1.37326491,1.44791615,-0.36760178,0.00000000,0.00000000
0.51576251,-2.10987616,-1.43644869,-1.88224089,0.27588132,0.00000000,0.00000000,-0.65457141,2.05162358,1.37460637,1.43151176,-0.38908163,0.00000000,0.00000000
0.54468948,-2.10869527,-1.42751467,-1.84532690,0.26781219,0.00000000,0.00000000,-0.60393649,2.03715062,1.37138152,1.41268718,-0.40360102,0.00000000,0.00000000
0.57617873,-2.10326028,-1.41569889,-1.80598640,0.27004957,0.00000000,0.00000000,-0.53793377,2.03075433,1.36251581,1.39896166,-0.41952941,0.00000000,0.00000000
0.60551918,-2.09417629,-1.40397429,-1.78203344,0.27282164,0.00000000,0.00000000,-0.46375293,2.03269267,1.34762275,1.40192497,-0.43426907,0.00000000,0.00000000
0.63141781,-2.08160067,-1.39567828,-1.77900088,0.27448657,0.00000000,0.00000000,-0.38837516,2.04027104,1.32829678,1.42433691,-0.44955710,0.00000000,0.00000000
0.65317780,-2.06508875,-1.39580536,-1.79125440,0.26867539,0.00000000,0.00000000,-0.31882012,2.05189681,1.30510402,1.46321249,-0.46538341,0.00000000,0.00000000
0.67417598,-2.04597974,-1.40487981,-1.80565178,0.25852764,0.00000000,0.00000000,-0.26001456,2.06738257,1.27830386,1.51556790,-0.47718474,0.00000000,0.00000000
0.69664806,-2.02915740,-1.41796887,-1.81705534,0.25326291,0.00000000,0.00000000,-0.21401870,2.08387566,1.25263047,1.57567847,-0.49130076,0.00000000,0.00000000
0.71923661,-2.01883912,-1.43164396,-1.82482088,0.25050375,0.00000000,0.00000000,-0.18539268,2.09535718,1.23616934,1.62826598,-0.50688624,0.00000000,0.00000000
0.73509556,-2.01587605,-1.44505632,-1.82883871,0.25325558,0.00000000,0.00000000,-0.17447941,2.10230565,1.23027086,1.66510284,-0.52190977,0.00000000,0.00000000
0.73669446,-2.01912856,-1.45889258,-1.82792282,0.26448384,0.00000000,0.00000000,-0.18057626,2.10912728,1.23059022,1.68429184,-0.54424804,0.00000000,0.00000000
0.72086078,-2.02833986,-1.47433197,-1.82110465,0.27974761,0.00000000,0.00000000,-0.20171884,2.11856914,1.23444140,1.68635845,-0.56854916,0.00000000,0.00000000
0.68856710,-2.04467535,-1.49167788,-1.80928481,0.30015320,0.00000000,0.00000000,-0.23442358,2.13100529,1.24120367,1.67263615,-0.59018582,0.00000000,0.00000000
0.64510590,-2.06424594,-1.50942552,-1.79561710,0.32199144,0.00000000,0.00000000,-0.27530894,2.14419293,1.25128651,1.64428616,-0.61225224,0.00000000,0.00000000
0.59557450,-2.08028221,-1.52444100,-1.78553569,0.34121272,0.00000000,0.00000000,-0.32290313,2.15546703,1.26360250,1.60237575,-0.63486129,0.00000000,0.00000000
0.54279065,-2.09192705,-1.53345263,-1.78684998,0.35700530,0.00000000,0.00000000,-0.37834468,2.16261506,1.27672005,1.55083954,-0.65474790,0.00000000,0.00000000
0.49446806,-2.09894133,-1.53623021,-1.80379963,0.37013745,0.00000000,0.00000000,-0.44372061,2.16284752,1.29352295,1.50057614,-0.67632926,0.00000000,0.00000000
0.45344973,-2.09972954,-1.53728807,-1.83523989,0.38042429,0.00000000,0.00000000,-0.51301360,2.16106129,1.31146097,1.46505964,-0.69528317,0.00000000,0.00000000
0.41827336,-2.09319043,-1.54394782,-1.87329233,0.39356712,0.00000000,0.00000000,-0.57884514,2.15860033,1.33158040,1.44783175,-0.71071875,0.00000000,0.00000000
0.38982466,-2.08340240,-1.55369294,-1.90561366,0.41326204,0.00000000,0.00000000,-0.63431072,2.15293241,1.35474920,1.44341171,-0.72200716,0.00000000,0.00000000
0.37023234,-2.07519650,-1.56119967,-1.92706811,0.44064650,0.00000000,0.00000000,-0.67651576,2.14013171,1.37837398,1.44260156,-0.73454720,0.00000000,0.00000000
0.36109158,-2.07171726,-1.56305861,-1.93622816,0.46828192,0.00000000,0.00000000,-0.70203531,2.12170935,1.40016711,1.43857384,-0.74480635,0.00000000,0.00000000
0.36379761,-2.07366514,-1.55807781,-1.93185353,0.50953102,0.00000000,0.00000000,-0.70946360,2.10083365,1.41867602,1.42906833,-0.76073635,0.00000000,0.00000000
0.37878883,-2.07956767,-1.54665339,-1.91320729,0.55138266,0.00000000,0.00000000,-0.69869918,2.07918572,1.43280184,1.41400182,-0.77013850,0.00000000,0.00000000
0.40502557,-2.08705640,-1.52972424,-1.88045943,0.59268218,0.00000000,0.00000000,-0.66869837,2.05892086,1.44113982,1.39481914,-0.78236282,0.00000000,0.00000000
0.43905896,-2.09406805,-1.50786662,-1.83601201,0.64180470,0.00000000,0.00000000,-0.61745119,2.04377103,1.44243670,1.37530589,-0.79443103,0.00000000,0.00000000
0.47451341,-2.09943557,-1.48193312,-1.78984249,0.68986648,0.00000000,0.00000000,-0.54679370,2.03717041,1.43608248,1.36283576,-0.80792707,0.00000000,0.00000000
0.50553674,-2.10235763,-1.45536125,-1.75942445,0.73949641,0.00000000,0.00000000,-0.46625540,2.03895974,1.42196178,1.36613882,-0.82125181,0.00000000,0.00000000
0.53330237,-2.10177588,-1.43211889,-1.74976313,0.77919781,0.00000000,0.00000000,-0.38570711,2.04640222,1.40195489,1.38746226,-0.82967347,0.00000000,0.00000000
0.55978388,-2.09564590,-1.41804326,-1.75684023,0.81841117,0.00000000,0.00000000,-0.31462577,2.05611563,1.37826562,1.42256415,-0.83904177,0.00000000,0.00000000
0.58537984,-2.08324790,-1.41819239,-1.77065694,0.85342520,0.00000000,0.00000000,-0.25954631,2.06646919,1.35174084,1.46695530,-0.84255707,0.00000000,0.00000000
0.61220539,-2.07037067,-1.42637491,-1.78271997,0.89372516,0.00000000,0.00000000,-0.22091213,2.07801318,1.32280982,1.51964462,-0.84180373,0.00000000,0.00000000
0.64121240,-2.06106973,-1.43702042,-1.79137456,0.94069445,0.00000000,0.00000000,-0.20032710,2.08957434,1.29528224,1.57348025,-0.84125143,0.00000000,0.00000000
0.67071474,-2.05730057,-1.44816291,-1.79726946,0.98713899,0.00000000,0.00000000,-0.19590862,2.09756875,1.27739906,1.61569536,-0.83632648,0.00000000,0.00000000
0.69573319,-2.06049323,-1.45930946,-1.79975724,1.03014147,0.00000000,0.00000000,-0.20727730,2.10407114,1.26854670,1.64111781,-0.82683885,0.00000000,0.00000000
0.71085137,-2.06589794,-1.47110641,-1.79785550,1.06873655,0.00000000,0.00000000,-0.23413783,2.11221480,1.26575232,1.64930034,-0.81594872,0.00000000,0.00000000
0.71212149,-2.07511449,-1.48410773,-1.79171896,1.10501373,0.00000000,0.00000000,-0.27479458,2.12316847,1.26788461,1.64065754,-0.80129373,0.00000000,0.00000000
0.70120907,-2.09054303,-1.49813890,-1.78377163,1.13750708,0.00000000,0.00000000,-0.32596743,2.13597274,1.27500415,1.61623633,-0.78293765,0.00000000,0.00000000
0.67926806,-2.10930800,-1.51205468,-1.77993000,1.16449046,0.00000000,0.00000000,-0.38457066,2.14745522,1.28774762,1.57757497,-0.76435137,0.00000000,0.00000000
0.64858449,-2.12797618,-1.52326679,-1.78807187,1.19074535,0.00000000,0.00000000,-0.44888961,2.15443397,1.30570781,1.52852404,-0.74270302,0.00000000,0.00000000
0.61128873,-2.14530516,-1.52849877,-1.81407452,1.21921432,0.00000000,0.00000000,-0.51550859,2.15900493,1.32390928,1.48027456,-0.71897221,0.00000000,0.00000000
0.56995046,-2.15924811,-1.52909005,-1.85523987,1.24140632,0.00000000,0.00000000,-0.57914239,2.16316819,1.33993626,1.44823575,-0.69936758,0.00000000,0.00000000
0.52985299,-2.16714334,-1.53030217,-1.89657164,1.25903308,0.00000000,0.00000000,-0.63522118,2.16728997,1.35406291,1.43599176,-0.67876500,0.00000000,0.00000000
0.49491024,-2.16962886,-1.53293800,-1.92992389,1.27413106,0.00000000,0.00000000,-0.67864168,2.16792393,1.36982226,1.43780112,-0.65336299,0.00000000,0.00000000
0.46600696,-2.16998363,-1.53578198,-1.95380151,1.27957380,0.00000000,0.00000000,-0.70816839,2.16155434,1.38726640,1.44545722,-0.63293368,0.00000000,0.00000000
0.44477525,-2.17000008,-1.53679919,-1.96656489,1.27825582,0.00000000,0.00000000,-0.72381115,2.14747214,1.40374291,1.45159853,-0.62160170,0.00000000,0.00000000
0.43324938,-2.17000008,-1.53441393,-1.96643567,1.26530921,0.00000000,0.00000000,-0.72422701,2.12827492,1.41778862,1.45230508,-0.61177200,0.00000000,0.00000000
0.43249968,-2.17000008,-1.52795851,-1.95239091,1.24998510,0.00000000,0.00000000,-0.70879108,2.10614872,1.42933118,1.44628823,-0.61012566,0.00000000,0.00000000
0.44195235,-2.16995049,-1.51735997,-1.92440069,1.23281014,0.00000000,0.00000000,-0.67686743,2.08402491,1.43760979,1.43411350,-0.60553724,0.00000000,0.00000000
0.45940003,-2.16911292,-1.50274420,-1.88348293,1.21131504,0.00000000,0.00000000,-0.62712824,2.06542659,1.44164026,1.41833329,-0.60228419,0.00000000,0.00000000
0.48352465,-2.16537714,-1.48374033,-1.83106542,1.18815112,0.00000000,0.00000000,-0.56031805,2.05290985,1.44026303,1.40490663,-0.60080475,0.00000000,0.00000000
0.51407975,-2.15701985,-1.46164870,-1.77403164,1.16198301,0.00000000,0.00000000,-0.48258603,2.04784584,1.43195140,1.40369666,-0.60048354,0.00000000,0.00000000
0.54746026,-2.14390206,-1.44014502,-1.73001349,1.13684785,0.00000000,0.00000000,-0.40267965,2.04911017,1.41824293,1.42044806,-0.59963477,0.00000000,0.00000000
0.58075941,-2.12762213,-1.42151427,-1.70573950,1.10929918,0.00000000,0.00000000,-0.32677293,2.05481744,1.40091693,1.45444524,-0.60630774,0.00000000,0.00000000
0.60977942,-2.11007094,-1.40842497,-1.69917643,1.08505726,0.00000000,0.00000000,-0.26020309,2.06555939,1.37875187,1.50293505,-0.62042499,0.00000000,0.00000000
0.63273531,-2.09378505,-1.40120637,-1.70174050,1.06108403,0.00000000,0.00000000,-0.20805283,2.08260012,1.35013342,1.56120527,-0.63975179,0.00000000,0.00000000
0.65129954,-2.07983851,-1.40141153,-1.70633852,1.03695095,0.00000000,0.00000000,-0.17821252,2.10122013,1.32044470,1.61534798,-0.66166985,0.00000000,0.00000000
0.66524619,-2.07058072,-1.40725267,-1.71092403,1.00877941,0.00000000,0.00000000,-0.16884871,2.11684656,1.29767239,1.65480268,-0.67998868,0.00000000,0.00000000
0.67289716,-2.06634808,-1.41691589,-1.71394646,0.97651118,0.00000000,0.00000000,-0.17744927,2.13061953,1.28180277,1.67673254,-0.69929820,0.00000000,0.00000000
0.67254084,-2.06598353,-1.42959833,-1.71331108,0.94525683,0.00000000,0.00000000,-0.20145069,2.14470577,1.27071202,1.68179405,-0.72530460,0.00000000,0.00000000
0.66312605,-2.06844902,-1.44488919,-1.70802879,0.91534275,0.00000000,0.00000000,-0.23707013,2.15826416,1.26461983,1.67114973,-0.75449455,0.00000000,0.00000000
0.64453030,-2.07258153,-1.46283877,-1.69938302,0.88920629,0.00000000,0.00000000,-0.28070948,2.16732216,1.26505780,1.64570498,-0.78124291,0.00000000,0.00000000
0.61607832,-2.07698584,-1.48371601,-1.69286358,0.85841638,0.00000000,0.00000000,-0.33290088,2.16984081,1.27205122,1.60477400,-0.80998099,0.00000000,0.00000000
0.58008295,-2.08208990,-1.50408375,-1.69727612,0.82521522,0.00000000,0.00000000,-0.39656061,2.17000008,1.28505015,1.54955304,-0.84071898,0.00000000,0.00000000
0.54392952,-2.08951068,-1.51904058,-1.71921074,0.79444081,0.00000000,0.00000000,-0.46679735,2.17000008,1.30588210,1.49286032,-0.86474276,0.00000000,0.00000000
0.51282889,-2.09869814,-1.52675200,-1.75563920,0.76015252,0.00000000,0.00000000,-0.53994095,2.17000008,1.33026826,1.44830012,-0.88720018,0.00000000,0.00000000
0.48586908,-2.10660672,-1.53135633,-1.79618120,0.72652984,0.00000000,0.00000000,-0.60603666,2.17000008,1.35695899,1.42252564,-0.90797675,0.00000000,0.00000000
0.46508324,-2.11281705,-1.53279972,-1.83002698,0.69722497,0.00000000,0.00000000,-0.65647376,2.16986799,1.38604569,1.41253281,-0.92875206,0.00000000,0.00000000
0.45124352,-2.11724854,-1.53166068,-1.85328460,0.67420065,0.00000000,0.00000000,-0.69106579,2.16772771,1.41497910,1.40869331,-0.95226860,0.00000000,0.00000000
0.44547290,-2.12030029,-1.52802587,-1.86412668,0.65269053,0.00000000,0.00000000,-0.71134448,2.15929914,1.44106472,1.40378094,-0.98472464,0.00000000,0.00000000
0.44859493,-2.12281823,-1.52135110,-1.86139286,0.63548404,0.00000000,0.00000000,-0.71698660,2.14396691,1.46266437,1.39492393,-1.00945079,0.00000000,0.00000000
0.46036318,-2.12476444,-1.51150489,-1.84480894,0.62126923,0.00000000,0.00000000,-0.70672470,2.12376618,1.47869253,1.38157129,-1.02732420,0.00000000,0.00000000
0.47932115,-2.12511516,-1.49860978,-1.81496322,0.60662532,0.00000000,0.00000000,-0.67835736,2.10166740,1.48812532,1.36486304,-1.03836584,0.00000000,0.00000000
0.50301009,-2.12278175,-1.48257959,-1.77376997,0.59349185,0.00000000,0.00000000,-0.62961894,2.08195949,1.48968458,1.34840405,-1.04716861,0.00000000,0.00000000
0.52741605,-2.11766124,-1.46323347,-1.72839725,0.57929581,0.00000000,0.00000000,-0.56234926,2.06855750,1.48244274,1.33957040,-1.05518854,0.00000000,0.00000000
0.54811758,-2.11101723,-1.44120586,-1.69397795,0.56638509,0.00000000,0.00000000,-0.48405987,2.06202078,1.46691501,1.34706151,-1.06432414,0.00000000,0.00000000
0.56723440,-2.10119367,-1.42076111,-1.67853546,0.55196112,0.00000000,0.00000000,-0.40259472,2.06133938,1.44531941,1.37393367,-1.05969226,0.00000000,0.00000000
0.58511859,-2.08756328,-1.40535641,-1.68274140,0.53271872,0.00000000,0.00000000,-0.32516685,2.06551671,1.41867745,1.41801536,-1.05612576,0.00000000,0.00000000
0.60031259,-2.06988144,-1.39943588,-1.70167482,0.51396036,0.00000000,0.00000000,-0.26003653,2.07446313,1.38629162,1.47476244,-1.05398238,0.00000000,0.00000000
0.61410022,-2.05059814,-1.40314281,-1.72322738,0.49074197,0.00000000,0.00000000,-0.21231839,2.08705544,1.35000086,1.53732002,-1.04620874,0.00000000,0.00000000
0.62915546,-2.03463006,-1.41113198,-1.74075365,0.47140625,0.00000000,0.00000000,-0.18302125,2.09728479,1.31965983,1.59253836,-1.03849530,0.00000000,0.00000000
0.64518082,-2.02516651,-1.41918993,-1.75322747,0.45440245,0.00000000,0.00000000,-0.17347924,2.10552740,1.29690409,1.63097858,-1.02492118,0.00000000,0.00000000
0.65980393,-2.02244663,-1.42655861,-1.75952685,0.43799993,0.00000000,0.00000000,-0.18067245,2.11385584,1.28187823,1.65176046,-1.02142608,0.00000000,0.00000000
0.66716343,-2.02530456,-1.43420959,-1.75799310,0.41840070,0.00000000,0.00000000,-0.20236814,2.12403727,1.27390885,1.65525734,-1.02271140,0.00000000,0.00000000
0.66315788,-2.03120971,-1.44261646,-1.74837410,0.39947695,0.00000000,0.00000000,-0.23641866,2.13672757,1.27238703,1.64181590,-1.02498817,0.00000000,0.00000000
0.64866805,-2.04176545,-1.45138121,-1.73318410,0.38291138,0.00000000,0.00000000,-0.27973217,2.15019631,1.27746916,1.61216199,-1.02727544,0.00000000,0.00000000
0.62488711,-2.05517673,-1.46017206,-1.71882153,0.36510497,0.00000000,0.00000000,-0.32936785,2.16086507,1.28920829,1.56793904,-1.02892780,0.00000000,0.00000000
0.59251106,-2.06854677,-1.46869326,-1.71510088,0.34397796,0.00000000,0.00000000,-0.38615918,2.16548729,1.30656826,1.51261187,-1.03318489,0.00000000,0.00000000
0.55360848,-2.08100367,-1.47640455,-1.73073554,0.32648987,0.00000000,0.00000000,-0.45270887,2.16322136,1.32762051,1.45488143,-1.03402758,0.00000000,0.00000000
0.51202130,-2.09193134,-1.48274219,-1.76724148,0.31355259,0.00000000,0.00000000,-0.52070051,2.15861392,1.34946895,1.41226661,-1.03823972,0.00000000,0.00000000
0.47326535,-2.10205531,-1.48562038,-1.81619918,0.30248585,0.00000000,0.00000000,-0.58439237,2.15436935,1.37094212,1.39041960,-1.04913235,0.00000000,0.00000000
0.44366470,-2.11012030,-1.48783636,-1.85877538,0.29793349,0.00000000,0.00000000,-0.63793820,2.14955902,1.39383221,1.38757467,-1.05792868,0.00000000,0.00000000
0.42443791,-2.11621499,-1.48935282,-1.88873279,0.29997325,0.00000000,0.00000000,-0.67772955,2.13990569,1.41899252,1.39504731,-1.07174921,0.00000000,0.00000000
0.41643265,-2.12087798,-1.48751628,-1.90517545,0.29845837,0.00000000,0.00000000,-0.69997746,2.12263417,1.44478178,1.40277112,-1.08525920,0.00000000,0.00000000
0.42060262,-2.12405109,-1.48149252,-1.90692508,0.29624635,0.00000000,0.00000000,-0.70457506,2.10056162,1.46854234,1.40507340,-1.09844875,0.00000000,0.00000000
0.43604866,-2.12539530,-1.47185302,-1.89371026,0.29498416,0.00000000,0.00000000,-0.69336736,2.07646537,1.48810232,1.40024602,-1.10222614,0.00000000,0.00000000
0.46016514,-2.12413287,-1.45955968,-1.86620986,0.29566139,0.00000000,0.00000000,-0.66730785,2.05235124,1.50188708,1.38878977,-1.11507118,0.00000000,0.00000000
0.48942608,-2.11948037,-1.44533885,-1.82604325,0.29718181,0.00000000,0.00000000,-0.62627006,2.03114581,1.50805295,1.37338817,-1.12440944,0.00000000,0.00000000
0.51982576,-2.11140394,-1.42993307,-1.77714825,0.29692483,0.00000000,0.00000000,-0.57150906,2.01602101,1.50425375,1.36059117,-1.13116252,0.00000000,0.00000000
0.54722321,-2.10018682,-1.41548634,-1.73013043,0.30290183,0.00000000,0.00000000,-0.50772011,2.00914788,1.48939860,1.36047733,-1.13984740,0.00000000,0.00000000
0.56938010,-2.08631253,-1.40339184,-1.70002091,0.31131598,0.00000000,0.00000000,-0.44007626,2.00974965,1.46644604,1.37900448,-1.15329015,0.00000000,0.00000000
0.58628982,-2.07075882,-1.39408147,-1.69145513,0.31589925,0.00000000,0.00000000,-0.37259078,2.01633906,1.43828130,1.41647542,-1.16921806,0.00000000,0.00000000
0.59749347,-2.05437493,-1.38978410,-1.69998229,0.32585683,0.00000000,0.00000000,-0.31028169,2.02898717,1.40514302,1.47067606,-1.19158792,0.00000000,0.00000000
0.60567790,-2.03863215,-1.39150572,-1.71314549,0.34392908,0.00000000,0.00000000,-0.25991672,2.04638076,1.36891627,1.53333592,-1.21507025,0.00000000,0.00000000
0.61350703,-2.02744341,-1.39577162,-1.72511387,0.36486846,0.00000000,0.00000000,-0.22848900,2.06238794,1.33745313,1.58647513,-1.23736775,0.00000000,0.00000000
0.62097448,-2.02338409,-1.40017617,-1.73408008,0.39338344,0.00000000,0.00000000,-0.21506102,2.07573819,1.31428850,1.62340820,-1.26303983,0.00000000,0.00000000
0.62530261,-2.02811003,-1.40419531,-1.73813283,0.41580468,0.00000000,0.00000000,-0.21850601,2.08873677,1.29802275,1.64287663,-1.28040552,0.00000000,0.00000000
0.62449437,-2.04054928,-1.40830410,-1.73536575,0.43600354,0.00000000,0.00000000,-0.23758933,2.10330200,1.28719544,1.64471292,-1.29679263,0.00000000,0.00000000
0.61808902,-2.05779195,-1.41312587,-1.72489274,0.45253411,0.00000000,0.00000000,-0.26963329,2.11989474,1.28169954,1.62973809,-1.30691409,0.00000000,0.00000000
0.60676599,-2.07518148,-1.41898441,-1.70824862,0.46633422,0.00000000,0.00000000,-0.31133485,2.13691998,1.28238153,1.59907866,-1.31332994,0.00000000,0.00000000
0.58929402,-2.08937073,-1.42659461,-1.69144917,0.48122692,0.00000000,0.00000000,-0.35982278,2.15147638,1.28992617,1.55460191,-1.31557977,0.00000000,0.00000000
0.56358147,-2.09967303,-1.43732393,-1.68509853,0.48975679,0.00000000,0.00000000,-0.41495326,2.15992975,1.30535042,1.50026786,-1.31319714,0.00000000,0.00000000
0.53270102,-2.10576177,-1.45143569,-1.69761813,0.50153369,0.00000000,0.00000000,-0.47849858,2.15936542,1.32981563,1.44525564,-1.31110609,0.00000000,0.00000000
0.50016361,-2.10769820,-1.46712923,-1.73062062,0.51602846,0.00000000,0.00000000,-0.54558849,2.15541649,1.35755217,1.40450585,-1.30949497,0.00000000,0.00000000
0.46865401,-2.10649419,-1.48260391,-1.77772045,0.53042644,0.00000000,0.00000000,-0.61143637,2.15173650,1.38504088,1.38326728,-1.31492376,0.00000000,0.00000000
0.44314373,-2.10327435,-1.49749374,-1.82168579,0.54574394,0.00000000,0.00000000,-0.66838044,2.14829803,1.41202438,1.38156271,-1.31663227,0.00000000,0.00000000
0.42485493,-2.10080171,-1.50940120,-1.85680628,0.55769998,0.00000000,0.00000000,-0.71120441,2.14142656,1.43804145,1.39290011,-1.31962025,0.00000000,0.00000000
0.41551170,-2.10181022,-1.51515734,-1.88157868,0.56145716,0.00000000,0.00000000,-0.73678207,2.12835622,1.46129310,1.40807140,-1.32966137,0.00000000,0.00000000
0.41679123,-2.10745716,-1.51353860,-1.89424932,0.55658638,0.00000000,0.00000000,-0.74383855,2.11096883,1.48052919,1.42074156,-1.33795905,0.00000000,0.00000000
0.42845017,-2.11670566,-1.50517178,-1.89394581,0.55952322,0.00000000,0.00000000,-0.73360801,2.09151936,1.49516153,1.42763948,-1.34427142,0.00000000,0.00000000
0.44882917,-2.12645602,-1.49196339,-1.88025904,0.55669200,0.00000000,0.00000000,-0.70787859,2.07241488,1.50469017,1.42727613,-1.34778464,0.00000000,0.00000000
0.47586688,-2.13448739,-1.47548175,-1.85354960,0.55366915,0.00000000,0.00000000,-0.66823393,2.05601668,1.50824046,1.41964865,-1.35146594,0.00000000,0.00000000
0.50684142,-2.13979149,-1.45663178,-1.81548798,0.54440087,0.00000000,0.00000000,-0.61611718,2.04511619,1.50401556,1.40786088,-1.34562898,0.00000000,0.00000000
0.53776461,-2.14163351,-1.43755817,-1.77174389,0.52666152,0.00000000,0.00000000,-0.55495667,2.04226208,1.48936653,1.40058911,-1.33970916,0.00000000,0.00000000
0.56326735,-2.13987970,-1.42213142,-1.73560834,0.51069039,0.00000000,0.00000000,-0.48936689,2.04722595,1.46402264,1.40834808,-1.34400225,0.00000000,0.00000000
0.58413863,-2.13581395,-1.40990925,-1.71807277,0.48572770,0.00000000,0.00000000,-0.42468730,2.05752301,1.43133843,1.43426394,-1.33965611,0.00000000,0.00000000
0.59986019,-2.13018298,-1.40288353,-1.71988928,0.45678318,0.00000000,0.00000000,-0.36754063,2.07290435,1.39197814,1.47582769,-1.33136010,0.00000000,0.00000000
0.60971367,-2.12337542,-1.40559077,-1.73239398,0.43356970,0.00000000,0.00000000,-0.32120454,2.09129763,1.34980619,1.52909076,-1.32005477,0.00000000,0.00000000
0.61841500,-2.11831141,-1.41452515,-1.74489522,0.40882847,0.00000000,0.00000000,-0.28971460,2.10828233,1.31173861,1.58253372,-1.30507994,0.00000000,0.00000000
0.62819386,-2.11769915,-1.42461896,-1.75372684,0.37984765,0.00000000,0.00000000,-0.27306339,2.12187552,1.28283739,1.62419057,-1.28793609,0.00000000,0.00000000
0.63855159,-2.12190294,-1.43408000,-1.75843441,0.34627661,0.00000000,0.00000000,-0.27129266,2.13294029,1.26364326,1.64980412,-1.27365947,0.00000000,0.00000000
0.64863026,-2.12911701,-1.44356918,-1.75848305,0.31233230,0.00000000,0.00000000,-0.28393188,2.14264321,1.25335431,1.65900481,-1.25817299,0.00000000,0.00000000
0.65738976,-2.13663077,-1.45440590,-1.75354695,0.28512323,0.00000000,0.00000000,-0.30979484,2.15092921,1.25171506,1.65201008,-1.25270605,0.00000000,0.00000000
0.66234469,-2.14254951,-1.46720147,-1.74510515,0.25566977,0.00000000,0.00000000,-0.34730184,2.15655661,1.25862765,1.62918937,-1.25054955,0.00000000,0.00000000
0.65906626,-2.14573431,-1.48191965,-1.73810613,0.22606738,0.00000000,0.00000000,-0.39400399,2.15802622,1.27342689,1.59135044,-1.24941552,0.00000000,0.00000000
0.64381748,-2.14629197,-1.49821603,-1.74097753,0.20207812,0.00000000,0.00000000,-0.44812673,2.15381765,1.29499686,1.54030192,-1.25063121,0.00000000,0.00000000
0.61702150,-2.14497495,-1.51538455,-1.76226175,0.17770529,0.00000000,0.00000000,-0.50791276,2.14403725,1.32135296,1.48458683,-1.25632024,0.00000000,0.00000000
0.58331513,-2.14212680,-1.53239357,-1.80194473,0.15620603,0.00000000,0.00000000,-0.56850672,2.13320947,1.34775209,1.44236827,-1.26720166,0.00000000,0.00000000
0.55047381,-2.13824654,-1.54745054,-1.84500885,0.13328451,0.00000000,0.00000000,-0.62432182,2.12461257,1.37155104,1.42074358,-1.27235305,0.00000000,0.00000000
0.52334625,-2.13440061,-1.55820000,-1.88203669,0.10938996,0.00000000,0.00000000,-0.66908073,2.11772418,1.39346695,1.41730058,-1.27719426,0.00000000,0.00000000
0.50268412,-2.13158751,-1.56291807,-1.91023076,0.08896612,0.00000000,0.00000000,-0.69974732,2.10931277,1.41400492,1.42247379,-1.27973342,0.00000000,0.00000000
0.48993015,-2.13034558,-1.56087112,-1.92719316,0.06654059,0.00000000,0.00000000,-0.71462733,2.09825611,1.43142545,1.42755413,-1.28428054,0.00000000,0.00000000
0.48664492,-2.13062167,-1.55254853,-1.93106031,0.04306653,0.00000000,0.00000000,-0.71334869,2.08484530,1.44416606,1.42846024,-1.28553796,0.00000000,0.00000000
0.49310172,-2.13159633,-1.53907561,-1.92105818,0.02175014,0.00000000,0.00000000,-0.69621456,2.06932259,1.45162165,1.42394865,-1.27931917,0.00000000,0.00000000
0.50773156,-2.13172936,-1.52191412,-1.89758253,-0.00044575,0.00000000,0.00000000,-0.66309071,2.05227709,1.45351684,1.41412067,-1.27022541,0.00000000,0.00000000
0.52737957,-2.12940502,-1.50242639,-1.86221099,-0.02593857,0.00000000,0.00000000,-0.61304671,2.03499579,1.44997334,1.40030646,-1.25806522,0.00000000,0.00000000
0.54916251,-2.12410879,-1.48140275,-1.81774664,-0.04485353,0.00000000,0.00000000,-0.54700327,2.01945519,1.44078302,1.38655150,-1.24412179,0.00000000,0.00000000
0.57052076,-2.11587048,-1.46019816,-1.77303338,-0.06056134,0.00000000,0.00000000,-0.47000071,2.00958419,1.42422545,1.38210392,-1.23187029,0.00000000,0.00000000
0.58951628,-2.10524964,-1.44016016,-1.74409592,-0.07032561,0.00000000,0.00000000,-0.38821331,2.00811434,1.40060365,1.39538264,-1.23221016,0.00000000,0.00000000
0.60523933,-2.09207201,-1.42537391,-1.73483276,-0.07251589,0.00000000,0.00000000,-0.30791545,2.01333332,1.37275314,1.42684650,-1.23356724,0.00000000,0.00000000
0.61590004,-2.07650089,-1.42088103,-1.73880172,-0.07365235,0.00000000,0.00000000,-0.23632908,2.02477932,1.34052813,1.47268081,-1.22411978,0.00000000,0.00000000
0.62357348,-2.06325150,-1.42253160,-1.74589896,-0.06943750,0.00000000,0.00000000,-0.17851605,2.04206443,1.30431831,1.52449322,-1.21671700,0.00000000,0.00000000
0.62932599,-2.05786014,-1.42520905,-1.75181401,-0.06590459,0.00000000,0.00000000,-0.13809220,2.05896449,1.27183771,1.56486893,-1.21100116,0.00000000,0.00000000
0.63158262,-2.06379557,-1.42678308,-1.75517488,-0.06450006,0.00000000,0.00000000,-0.11528211,2.07343245,1.24684155,1.58752763,-1.20093131,0.00000000,0.00000000
0.62754369,-2.08250499,-1.42734873,-1.75515187,-0.06202268,0.00000000,0.00000000,-0.10978372,2.08641887,1.22917211,1.59222841,-1.19924855,0.00000000,0.00000000
0.61695099,-2.10847044,-1.42815077,-1.75107992,-0.05947523,0.00000000,0.00000000,-0.12021263,2.09916139,1.21798158,1.57965636,-1.19695365,0.00000000,0.00000000
0.60335535,-2.12871861,-1.43044984,-1.74247849,-0.05493450,0.00000000,0.00000000,-0.14262249,2.11211920,1.21360505,1.55181611,-1.18843973,0.00000000,0.00000000
0.58768892,-2.14011478,-1.43452644,-1.73108590,-0.05217608,0.00000000,0.00000000,-0.17610067,2.12368369,1.21642923,1.50909972,-1.17041337,0.00000000,0.00000000
0.56748366,-2.14594364,-1.43971777,-1.72231305,-0.05126663,0.00000000,0.00000000,-0.22225717,2.13073516,1.22595441,1.45088851,-1.14339495,0.00000000,0.00000000
0.54053420,-2.14936018,-1.44568145,-1.72460163,-0.04692934,0.00000000,0.00000000,-0.27893594,2.12930965,1.24303186,1.38252914,-1.11372578,0.00000000,0.00000000
0.50884116,-2.15139842,-1.45191109,-1.74616730,-0.03978705,0.00000000,0.00000000,-0.34083167,2.11869287,1.26813352,1.31922674,-1.08455849,0.00000000,0.00000000
0.47727150,-2.15298223,-1.45562160,-1.78396428,-0.03631719,0.00000000,0.00000000,-0.40523505,2.10613823,1.29490316,1.27127469,-1.05920398,0.00000000,0.00000000
0.45156071,-2.15283990,-1.45898366,-1.82139516,-0.03493905,0.00000000,0.00000000,-0.46969193,2.09654570,1.31993592,1.24190378,-1.03035951,0.00000000,0.00000000
0.43531367,-2.15159202,-1.46216619,-1.84965146,-0.03397500,0.00000000,0.00000000,-0.52914762,2.09279537,1.34221339,1.23241925,-0.99504644,0.00000000,0.00000000
0.42856893,-2.15092587,-1.46454537,-1.86732483,-0.02967281,0.00000000,0.00000000,-0.57685530,2.09427810,1.36278439,1.24025786,-0.97182411,0.00000000,0.00000000
0.43078154,-2.15158677,-1.46587157,-1.87391794,-0.02706978,0.00000000,0.00000000,-0.61158186,2.09621215,1.38191712,1.25517118,-0.94828892,0.00000000,0.00000000
0.44227219,-2.15348744,-1.46442413,-1.86849630,-0.02782102,0.00000000,0.00000000,-0.63286084,2.09432721,1.39796305,1.26686370,-0.92323595,0.00000000,0.00000000
0.46322945,-2.15548682,-1.46000504,-1.85021365,-0.02165580,0.00000000,0.00000000,-0.63991016,2.08862376,1.40972674,1.27252984,-0.89557111,0.00000000,0.00000000
0.49188992,-2.15557647,-1.45360243,-1.81943250,-0.00962058,0.00000000,0.00000000,-0.63127095,2.07997870,1.41682053,1.27310073,-0.86698508,0.00000000,0.00000000
0.52408230,-2.15196681,-1.44598150,-1.77858126,0.00676529,0.00000000,0.00000000,-0.60448647,2.06920695,1.41941774,1.27047515,-0.84415400,0.00000000,0.00000000
0.55390364,-2.14462900,-1.43707359,-1.73406601,0.02970814,0.00000000,0.00000000,-0.55863649,2.05776620,1.41780019,1.26858878,-0.82367629,0.00000000,0.00000000
0.57716793,-2.13499451,-1.42753029,-1.69770801,0.05299017,0.00000000,0.00000000,-0.49790660,2.04867244,1.41218364,1.27616668,-0.80619216,0.00000000,0.00000000
0.59553844,-2.12418246,-1.41885066,-1.68011117,0.06789012,0.00000000,0.00000000,-0.42943135,2.04493618,1.40358090,1.30176806,-0.79678202,0.00000000,0.00000000
0.61053294,-2.11275744,-1.41345692,-1.68341470,0.07742814,0.00000000,0.00000000,-0.36194921,2.04691672,1.39257824,1.34496248,-0.79327852,0.00000000,0.00000000
0.62185001,-2.10007119,-1.41602087,-1.70172787,0.09106519,0.00000000,0.00000000,-0.30342728,2.05430150,1.37916827,1.40146613,-0.78019482,0.00000000,0.00000000
0.63316482,-2.08840322,-1.42601848,-1.72126555,0.10148048,0.00000000,0.00000000,-0.25964251,2.06707549,1.36336052,1.46653998,-0.76767141,0.00000000,0.00000000
0.64674932,-2.08234167,-1.43910730,-1.73625910,0.11165453,0.00000000,0.00000000,-0.23684344,2.08273029,1.34751964,1.52952409,-0.77078938,0.00000000,0.00000000
0.66171920,-2.08394265,-1.45175135,-1.74664617,0.12164365,0.00000000,0.00000000,-0.23496266,2.09715915,1.33748257,1.57778096,-0.78103602,0.00000000,0.00000000
0.67579961,-2.09097672,-1.46303499,-1.75176430,0.13536406,0.00000000,0.00000000,-0.25059369,2.11188221,1.33267570,1.60818708,-0.78479826,0.00000000,0.00000000
0.68685591,-2.09895849,-1.47319341,-1.75087786,0.15268846,0.00000000,0.00000000,-0.27916214,2.12858558,1.33122885,1.62187517,-0.79136467,0.00000000,0.00000000
0.69208401,-2.10430288,-1.48229456,-1.74509966,0.16325204,0.00000000,0.00000000,-0.31518283,2.14552999,1.33332384,1.61989057,-0.79866821,0.00000000,0.00000000
0.68778902,-2.10569787,-1.49032414,-1.73788941,0.16726388,0.00000000,0.00000000,-0.35413882,2.15900207,1.33942950,1.60306799,-0.80360347,0.00000000,0.00000000
0.67210460,-2.10414648,-1.49691451,-1.73390543,0.16972522,0.00000000,0.00000000,-0.39517608,2.16622591,1.34953928,1.57201076,-0.81103206,0.00000000,0.00000000
0.64606237,-2.10182571,-1.50079679,-1.73921788,0.17300744,0.00000000,0.00000000,-0.44052720,2.16627955,1.36311746,1.52827930,-0.82928717,0.00000000,0.00000000
0.61289060,-2.10124326,-1.49927437,-1.76101851,0.17426188,0.00000000,0.00000000,-0.48953030,2.16064143,1.37909436,1.48110437,-0.84868288,0.00000000,0.00000000
0.57839268,-2.10102320,-1.49417794,-1.79739320,0.17762603,0.00000000,0.00000000,-0.53645808,2.15168309,1.39703441,1.44823611,-0.86429560,0.00000000,0.00000000
0.54820389,-2.09805584,-1.49111247,-1.83230627,0.18308595,0.00000000,0.00000000,-0.57538992,2.14030695,1.41759264,1.43524396,-0.87866175,0.00000000,0.00000000
0.52357543,-2.09409904,-1.48837578,-1.85980034,0.19071075,0.00000000,0.00000000,-0.60250336,2.12598610,1.44049633,1.43679595,-0.88640523,0.00000000,0.00000000
0.50409889,-2.09071183,-1.48507726,-1.87924552,0.19528115,0.00000000,0.00000000,-0.62042993,2.10644794,1.46333241,1.44304025,-0.89262116,0.00000000,0.00000000
0.49056271,-2.08802795,-1.48109448,-1.88887846,0.20013428,0.00000000,0.00000000,-0.63304758,2.08115029,1.48233068,1.44590235,-0.90486938,0.00000000,0.00000000
0.48387858,-2.08565068,-1.47586858,-1.88723040,0.20383647,0.00000000,0.00000000,-0.64022487,2.05154824,1.49544811,1.44120741,-0.91348946,0.00000000,0.00000000
0.48507673,-2.08326316,-1.46912193,-1.87316859,0.20617676,0.00000000,0.00000000,-0.63818568,2.02139091,1.50250840,1.42749703,-0.93159437,0.00000000,0.00000000
0.49385858,-2.07986164,-1.46168375,-1.84659493,0.21441324,0.00000000,0.00000000,-0.62222928,1.99436319,1.50436139,1.40617228,-0.94610178,0.00000000,0.00000000
0.50786501,-2.07452965,-1.45416760,-1.80940795,0.21785609,0.00000000,0.00000000,-0.58795905,1.97390389,1.50193393,1.38200462,-0.96033776,0.00000000,0.00000000
0.52247471,-2.06861639,-1.44721961,-1.76742435,0.21670438,0.00000000,0.00000000,-0.53554726,1.96265018,1.49520421,1.36316288,-0.97925919,0.00000000,0.00000000
0.53311759,-2.06467438,-1.44106746,-1.73255002,0.21421255,0.00000000,0.00000000,-0.47120944,1.96073651,1.48280418,1.35857272,-0.99513865,0.00000000,0.00000000
0.54291636,-2.06473613,-1.43195462,-1.71530247,0.21039875,0.00000000,0.00000000,-0.40250692,1.96829915,1.46429586,1.37292039,-1.01082432,0.00000000,0.00000000
0.55354559,-2.06730056,-1.42171323,-1.71815658,0.21087453,0.00000000,0.00000000,-0.33714226,1.98372936,1.44121850,1.40447819,-1.02034938,0.00000000,0.00000000
0.56477720,-2.06972003,-1.41618335,-1.73548830,0.21325426,0.00000000,0.00000000,-0.28194368,2.00563502,1.41525400,1.44900334,-1.02801800,0.00000000,0.00000000
0.57844633,-2.07147408,-1.41922665,-1.75251400,0.21333836,0.00000000,0.00000000,-0.24115373,2.03319073,1.38831389,1.50239551,-1.03097498,0.00000000,0.00000000
0.59650713,-2.07479286,-1.42962539,-1.76261091,0.20736638,0.00000000,0.00000000,-0.21936652,2.06316996,1.36499608,1.55520153,-1.03759897,0.00000000,0.00000000
0.61920047,-2.08164597,-1.44398713,-1.76552498,0.20437963,0.00000000,0.00000000,-0.21793883,2.09119272,1.35122252,1.59407413,-1.04633069,0.00000000,0.00000000
0.64494014,-2.09221244,-1.45985019,-1.76177430,0.20446005,0.00000000,0.00000000,-0.23775969,2.11726236,1.34555674,1.61372304,-1.04790127,0.00000000,0.00000000
0.67033064,-2.10440326,-1.47631240,-1.75160503,0.20450030,0.00000000,0.00000000,-0.27653587,2.14099193,1.34524071,1.61444676,-1.04476440,0.00000000,0.00000000
0.68872505,-2.11653423,-1.49310553,-1.73691571,0.20753892,0.00000000,0.00000000,-0.32878032,2.15890455,1.34919250,1.59770703,-1.04509282,0.00000000,0.00000000
0.69309562,-2.12826848,-1.50984931,-1.72243547,0.20755552,0.00000000,0.00000000,-0.38813946,2.16777325,1.35751510,1.56516707,-1.04645896,0.00000000,0.00000000
0.68127674,-2.13914037,-1.52577138,-1.71389985,0.21679661,0.00000000,0.00000000,-0.45131129,2.16909742,1.37057531,1.51832211,-1.04300201,0.00000000,0.00000000
0.65600669,-2.14865398,-1.53922546,-1.71678936,0.23270629,0.00000000,0.00000000,-0.51557297,2.16580749,1.38856637,1.46337891,-1.04243577,0.00000000,0.00000000
0.62185431,-2.15703726,-1.54805279,-1.73602891,0.25004780,0.00000000,0.00000000,-0.57435286,2.15849876,1.40974450,1.41672599,-1.03620672,0.00000000,0.00000000
0.58469921,-2.16388249,-1.55078077,-1.77263665,0.26778999,0.00000000,0.00000000,-0.62842780,2.14947772,1.43103921,1.38809085,-1.02488613,0.00000000,0.00000000
0.54927248,-2.16831231,-1.54674828,-1.81856501,0.28908324,0.00000000,0.00000000,-0.67497873,2.14195657,1.44955730,1.37882149,-1.01731205,0.00000000,0.00000000
0.51991367,-2.16979742,-1.53682077,-1.85994840,0.31051594,0.00000000,0.00000000,-0.70875752,2.13476038,1.46597683,1.38345230,-1.00874543,0.00000000,0.00000000
0.49692631,-2.16999197,-1.52250886,-1.89193153,0.33408588,0.00000000,0.00000000,-0.72839272,2.12483835,1.48161840,1.39347994,-0.99336332,0.00000000,0.00000000
0.48223513,-2.17000008,-1.50472116,-1.91169691,0.35658416,0.00000000,0.00000000,-0.73535627,2.11108255,1.49566650,1.40100372,-0.98604500,0.00000000,0.00000000
0.47714555,-2.17000008,-1.48477507,-1.91710460,0.38046634,0.00000000,0.00000000,-0.73060495,2.09357548,1.50702333,1.40166950,-0.97923553,0.00000000,0.00000000
0.48152888,-2.17000008,-1.46366978,-1.90738106,0.39823496,0.00000000,0.00000000,-0.71399862,2.07399726,1.51490235,1.39466476,-0.96741432,0.00000000,0.00000000
0.49409884,-2.17000008,-1.44303811,-1.88253045,0.42132330,0.00000000,0.00000000,-0.68498713,2.05498791,1.51879799,1.38128769,-0.95215636,0.00000000,0.00000000
0.51284862,-2.17000008,-1.42485237,-1.84351027,0.44216195,0.00000000,0.00000000,-0.64187717,2.03916931,1.51821923,1.36625683,-0.92984939,0.00000000,0.00000000
0.53365374,-2.17000008,-1.41270041,-1.79557621,0.45995921,0.00000000,0.00000000,-0.58411193,2.02890563,1.51217306,1.36006165,-0.90854609,0.00000000,0.00000000
0.55117548,-2.16992998,-1.41074562,-1.75214100,0.47697619,0.00000000,0.00000000,-0.51648188,2.02392411,1.50082827,1.37211120,-0.89264923,0.00000000,0.00000000
0.56828630,-2.16878653,-1.41548109,-1.72454083,0.48914269,0.00000000,0.00000000,-0.44606435,2.02246976,1.48622918,1.40376019,-0.87846196,0.00000000,0.00000000
0.58701259,-2.16417909,-1.42522681,-1.71569741,0.50116634,0.00000000,0.00000000,-0.37938207,2.02404380,1.46901906,1.45238805,-0.86501586,0.00000000,0.00000000
0.60617036,-2.15564251,-1.44157839,-1.72560966,0.50529689,0.00000000,0.00000000,-0.32414210,2.02916646,1.44828987,1.51361990,-0.85698706,0.00000000,0.00000000
0.62330282,-2.14579082,-1.46535969,-1.75001609,0.50410151,0.00000000,0.00000000,-0.28785443,2.03731537,1.42433417,1.57839322,-0.85168147,0.00000000,0.00000000
0.64075214,-2.13989592,-1.49053681,-1.77666593,0.50564539,0.00000000,0.00000000,-0.27425641,2.04586315,1.40122342,1.63131773,-0.84138715,0.00000000,0.00000000
0.66025829,-2.14095783,-1.51306236,-1.79930604,0.51716226,0.00000000,0.00000000,-0.28130385,2.05345678,1.38277364,1.66660368,-0.82778442,0.00000000,0.00000000
0.67984933,-2.14837742,-1.53211904,-1.81608725,0.52789009,0.00000000,0.00000000,-0.30554619,2.06187844,1.36848986,1.68397868,-0.80970263,0.00000000,0.00000000
0.69603574,-2.15822482,-1.54816651,-1.82553625,0.53809291,0.00000000,0.00000000,-0.34203756,2.07328629,1.35641956,1.68470752,-0.78984845,0.00000000,0.00000000
0.70516437,-2.16568184,-1.56127322,-1.82777619,0.54637462,0.00000000,0.00000000,-0.38431403,2.08740258,1.34609449,1.67059267,-0.77180696,0.00000000,0.00000000
0.70428962,-2.16916990,-1.57063508,-1.82513523,0.55339539,0.00000000,0.00000000,-0.42710236,2.10177541,1.33844948,1.64310622,-0.76148325,0.00000000,0.00000000
0.69241077,-2.16995382,-1.57534719,-1.82132351,0.56148344,0.00000000,0.00000000,-0.46865076,2.11334181,1.33412015,1.60295558,-0.75406677,0.00000000,0.00000000
0.67123139,-2.17000008,-1.57382083,-1.82220471,0.57006174,0.00000000,0.00000000,-0.51051712,2.11934471,1.33341026,1.55132127,-0.74703693,0.00000000,0.00000000
0.64342052,-2.16991496,-1.56501687,-1.83654809,0.57664073,0.00000000,0.00000000,-0.55434406,2.11945105,1.33602417,1.49605274,-0.74621612,0.00000000,0.00000000
0.61123949,-2.16855574,-1.55465186,-1.86625040,0.58423889,0.00000000,0.00000000,-0.59856647,2.11563134,1.34151912,1.45357800,-0.75071216,0.00000000,0.00000000
0.57924509,-2.16350603,-1.54925680,-1.89815915,0.59103453,0.00000000,0.00000000,-0.63969016,2.10981679,1.35036814,1.43048716,-0.75942940,0.00000000,0.00000000
0.55253708,-2.15557718,-1.54663742,-1.92287803,0.59849554,0.00000000,0.00000000,-0.67128211,2.10337877,1.36358368,1.42637157,-0.77422249,0.00000000,0.00000000
0.53186196,-2.14735103,-1.54280174,-1.93893981,0.60228109,0.00000000,0.00000000,-0.68905765,2.09597588,1.38112414,1.43379259,-0.79089540,0.00000000,0.00000000
0.51717418,-2.14046764,-1.53628159,-1.94539440,0.60183984,0.00000000,0.00000000,-0.69473630,2.08634138,1.40015519,1.44250345,-0.81414503,0.00000000,0.00000000
0.50898468,-2.13587308,-1.52656674,-1.94084346,0.60013890,0.00000000,0.00000000,-0.69091314,2.07353401,1.41764307,1.44541430,-0.84394670,0.00000000,0.00000000
0.50761086,-2.13368082,-1.51358783,-1.92444754,0.59719485,0.00000000,0.00000000,-0.67838675,2.05774784,1.43180966,1.43923593,-0.87342399,0.00000000,0.00000000
0.51302248,-2.13276863,-1.49754262,-1.89595878,0.59937602,0.00000000,0.00000000,-0.65690613,2.04053688,1.44093943,1.42366683,-0.90704292,0.00000000,0.00000000
0.52332127,-2.13124466,-1.47903717,-1.85645986,0.60827070,0.00000000,0.00000000,-0.62501192,2.02458167,1.44330513,1.40056312,-0.94139272,0.00000000,0.00000000
0.53469646,-2.12721682,-1.45913112,-1.80863822,0.61350793,0.00000000,0.00000000,-0.58087629,2.01121759,1.43928933,1.37284887,-0.97249508,0.00000000,0.00000000
0.54355264,-2.12015343,-1.43833828,-1.75729620,0.62127572,0.00000000,0.00000000,-0.52495104,2.00278759,1.42738557,1.34770525,-1.00404286,0.00000000,0.00000000
0.54761553,-2.11057782,-1.41800499,-1.71218371,0.62153310,0.00000000,0.00000000,-0.46089223,2.00191021,1.40639031,1.33583570,-1.03904974,0.00000000,0.00000000
0.54834700,-2.09908819,-1.39929271,-1.68473780,0.62131172,0.00000000,0.00000000,-0.39523765,2.00791597,1.37906301,1.34215665,-1.06828630,0.00000000,0.00000000
0.54684603,-2.08690119,-1.38289046,-1.67822528,0.62722069,0.00000000,0.00000000,-0.33298662,2.01890969,1.34856677,1.36576545,-1.09317505,0.00000000,0.00000000
0.54127496,-2.07538223,-1.37121725,-1.68938863,0.63208759,0.00000000,0.00000000,-0.27848664,2.03417015,1.31618071,1.40399504,-1.11917758,0.00000000,0.00000000
0.53162831,-2.06544781,-1.36682260,-1.70703733,0.63725668,0.00000000,0.00000000,-0.23552653,2.05361223,1.28240681,1.45395029,-1.14015019,0.00000000,0.00000000
0.52196980,-2.06025219,-1.36652422,-1.72288239,0.63964784,0.00000000,0.00000000,-0.20839113,2.07465124,1.25049067,1.50723052,-1.16208065,0.00000000,0.00000000
0.51473296,-2.06190395,-1.36827528,-1.73349047,0.64139277,0.00000000,0.00000000,-0.19976982,2.09130859,1.22797716,1.54819298,-1.18552089,0.00000000,0.00000000
0.50934625,-2.07067418,-1.37118566,-1.73803866,0.63358229,0.00000000,0.00000000,-0.20816518,2.10323954,1.21684420,1.57189238,-1.20918906,0.00000000,0.00000000
0.50469875,-2.08352232,-1.37526071,-1.73636115,0.62699169,0.00000000,0.00000000,-0.23061997,2.11265421,1.21584022,1.57917941,-1.23735535,0.00000000,0.00000000
0.49967033,-2.09593153,-1.38100410,-1.72970235,0.61834061,0.00000000,0.00000000,-0.26411447,2.12055135,1.22414303,1.57130682,-1.26339781,0.00000000,0.00000000
0.49233788,-2.10512352,-1.38898611,-1.72123206,0.60691679,0.00000000,0.00000000,-0.30556118,2.12664795,1.24142981,1.54963291,-1.29032922,0.00000000,0.00000000
0.48018754,-2.11102319,-1.39952826,-1.71547973,0.59794098,0.00000000,0.00000000,-0.35348666,2.13063574,1.26628780,1.51541173,-1.31408823,0.00000000,0.00000000
0.46084529,-2.11539698,-1.41210306,-1.71926069,0.58303535,0.00000000,0.00000000,-0.40806508,2.13197470,1.29686451,1.47155988,-1.34130764,0.00000000,0.00000000
0.43667403,-2.12047982,-1.42325962,-1.73911357,0.57705152,0.00000000,0.00000000,-0.46868187,2.13010621,1.33181548,1.42702508,-1.36836135,0.00000000,0.00000000
0.41646174,-2.12643814,-1.42930090,-1.76895046,0.56887531,0.00000000,0.00000000,-0.52787787,2.13077044,1.36470568,1.39804959,-1.38596344,0.00000000,0.00000000
0.40233165,-2.13248134,-1.43162644,-1.79619479,0.55757695,0.00000000,0.00000000,-0.57799977,2.13420892,1.39361167,1.38606632,-1.39761889,0.00000000,0.00000000
0.39225942,-2.13872933,-1.43178320,-1.81762969,0.54614890,0.00000000,0.00000000,-0.61631382,2.13333249,1.42069590,1.38226545,-1.40688372,0.00000000,0.00000000
0.38729408,-2.14588952,-1.42866683,-1.83160400,0.53003109,0.00000000,0.00000000,-0.64071524,2.12468362,1.44508147,1.37864673,-1.41157925,0.00000000,0.00000000
0.38893166,-2.15401435,-1.42169094,-1.83623409,0.51094300,0.00000000,0.00000000,-0.64973092,2.11044502,1.46482754,1.37115872,-1.41110134,0.00000000,0.00000000
0.39700246,-2.16205215,-1.41129482,-1.83101034,0.49706724,0.00000000,0.00000000,-0.64333016,2.09355879,1.47845101,1.35831499,-1.40875924,0.00000000,0.00000000
0.41039452,-2.16775131,-1.39874744,-1.81594658,0.47631758,0.00000000,0.00000000,-0.62159067,2.07718015,1.48507452,1.34012175,-1.40885842,0.00000000,0.00000000
0.42754751,-2.16920638,-1.38618100,-1.79129553,0.45961297,0.00000000,0.00000000,-0.58338511,2.06621456,1.48423421,1.31936109,-1.40268433,0.00000000,0.00000000
0.44616768,-2.16645789,-1.37569988,-1.75898695,0.43813360,0.00000000,0.00000000,-0.52772963,2.06462884,1.47608745,1.30265796,-1.39469802,0.00000000,0.00000000
0.46294096,-2.15880132,-1.36916971,-1.72754645,0.40962404,0.00000000,0.00000000,-0.45643032,2.07167649,1.46265984,1.29937685,-1.38639557,0.00000000,0.00000000
0.47614074,-2.14804149,-1.36571407,-1.71217406,0.37672627,0.00000000,0.00000000,-0.37525585,2.08432078,1.44600987,1.31575942,-1.38050783,0.00000000,0.00000000
0.48713917,-2.13634562,-1.36417782,-1.71771193,0.34617347,0.00000000,0.00000000,-0.29151371,2.09860873,1.42760587,1.35106301,-1.37574625,0.00000000,0.00000000
0.49717519,-2.12629437,-1.36434877,-1.73915422,0.31841239,0.00000000,0.00000000,-0.21444708,2.11281896,1.40607810,1.40018272,-1.36352229,0.00000000,0.00000000
0.50985187,-2.11846542,-1.36751735,-1.76127481,0.29045507,0.00000000,0.00000000,-0.15536791,2.12944674,1.37664115,1.45585907,-1.35600638,0.00000000,0.00000000
0.52571982,-2.11349010,-1.37409568,-1.77918291,0.26523986,0.00000000,0.00000000,-0.11990052,2.14602518,1.34195697,1.51055753,-1.34655726,0.00000000,0.00000000
0.54456365,-2.11228442,-1.38098609,-1.79348934,0.23810330,0.00000000,0.00000000,-0.10728592,2.15626287,1.31200039,1.55395305,-1.33644855,0.00000000,0.00000000
0.56648445,-2.11288977,-1.38643801,-1.80318975,0.21274337,0.00000000,0.00000000,-0.11529440,2.16088772,1.28852963,1.57976997,-1.32810092,0.00000000,0.00000000
0.58848345,-2.11269522,-1.39056313,-1.80655217,0.18882500,0.00000000,0.00000000,-0.13991818,2.16338563,1.26971269,1.58809841,-1.31904459,0.00000000,0.00000000
0.60396290,-2.10789680,-1.39409876,-1.80270720,0.16329564,0.00000000,0.00000000,-0.17717052,2.16625857,1.25401390,1.58052158,-1.31236601,0.00000000,0.00000000
0.61221421,-2.10277224,-1.39731300,-1.79265988,0.14293031,0.00000000,0.00000000,-0.22259890,2.16903305,1.24182892,1.55864286,-1.30453205,0.00000000,0.00000000
0.61289299,-2.09860134,-1.40061903,-1.77993143,0.12366050,0.00000000,0.00000000,-0.27197954,2.16993904,1.23578560,1.52430260,-1.29159904,0.00000000,0.00000000
0.60654694,-2.09294105,-1.40639353,-1.77026343,0.10144300,0.00000000,0.00000000,-0.32319546,2.16991711,1.24059641,1.48025501,-1.28538179,0.00000000,0.00000000
0.59257990,-2.08616614,-1.41794646,-1.77195692,0.08570722,0.00000000,0.00000000,-0.37652645,2.16858196,1.25936949,1.43408215,-1.27883065,0.00000000,0.00000000
0.57103342,-2.07985234,-1.43435967,-1.79224789,0.06755345,0.00000000,0.00000000,-0.43384472,2.16347194,1.28483713,1.39850521,-1.26605392,0.00000000,0.00000000
0.54323792,-2.07409835,-1.45511580,-1.82672548,0.04750890,0.00000000,0.00000000,-0.49419361,2.15502524,1.31176293,1.37910032,-1.24075317,0.00000000,0.00000000
0.51651734,-2.06933641,-1.47653198,-1.86128008,0.01890620,0.00000000,0.00000000,-0.55074096,2.14523435,1.33882451,1.37755466,-1.21702492,0.00000000,0.00000000
0.49497023,-2.06693840,-1.49349773,-1.88978851,-0.00589281,0.00000000,0.00000000,-0.59484142,2.13362479,1.36673987,1.38981497,-1.19559932,0.00000000,0.00000000
0.47912219,-2.06790543,-1.50418615,-1.91020811,-0.02156087,0.00000000,0.00000000,-0.62693459,2.11883259,1.39282668,1.40554285,-1.17012429,0.00000000,0.00000000
0.47071400,-2.07287550,-1.50750244,-1.92017770,-0.04442207,0.00000000,0.00000000,-0.64847767,2.10113907,1.41407180,1.41708636,-1.15550506,0.00000000,0.00000000
0.47166187,-2.08187675,-1.50309205,-1.91797340,-0.06419601,0.00000000,0.00000000,-0.65803981,2.08229756,1.42960274,1.42138147,-1.13901162,0.00000000,0.00000000
0.48233911,-2.09389782,-1.49184573,-1.90295529,-0.08546223,0.00000000,0.00000000,-0.65363055,2.06430244,1.43913126,1.41832960,-1.13038993,0.00000000,0.00000000
0.50055462,-2.10707092,-1.47556186,-1.87609005,-0.10640723,0.00000000,0.00000000,-0.63302088,2.04876709,1.44257474,1.40934443,-1.11995161,0.00000000,0.00000000
0.52247179,-2.11924958,-1.45576632,-1.84011531,-0.12290272,0.00000000,0.00000000,-0.59444308,2.03669834,1.44019651,1.39636075,-1.10750604,0.00000000,0.00000000
0.54375136,-2.12988210,-1.43206322,-1.80343032,-0.13441168,0.00000000,0.00000000,-0.53977561,2.02886796,1.43106520,1.38412678,-1.09813440,0.00000000,0.00000000
0.56097823,-2.13930106,-1.40505171,-1.78155768,-0.14422376,0.00000000,0.00000000,-0.47599769,2.02682734,1.41374075,1.38329625,-1.09428418,0.00000000,0.00000000
0.57562476,-2.14392471,-1.38267756,-1.77831304,-0.14764632,0.00000000,0.00000000,-0.41052252,2.02934504,1.39173293,1.40019107,-1.09201753,0.00000000,0.00000000
0.58776122,-2.14083743,-1.37371171,-1.78680933,-0.14526658,0.00000000,0.00000000,-0.35009852,2.03445339,1.36771107,1.43335032,-1.08999336,0.00000000,0.00000000
0.59951848,-2.13272929,-1.37767005,-1.79644597,-0.14292940,0.00000000,0.00000000,-0.29916015,2.04240346,1.34144437,1.48016655,-1.08368850,0.00000000,0.00000000
0.61205089,-2.12506485,-1.38913083,-1.80334234,-0.13752742,0.00000000,0.00000000,-0.26071912,2.05181146,1.31528664,1.53423607,-1.08462536,0.00000000,0.00000000
0.62493891,-2.12221384,-1.40355062,-1.80656993,-0.13290964,0.00000000,0.00000000,-0.24077351,2.05897880,1.29383099,1.57896185,-1.08607006,0.00000000,0.00000000
0.63542497,-2.12622714,-1.41866505,-1.80533767,-0.12873809,0.00000000,0.00000000,-0.23738730,2.06460214,1.27892399,1.60756397,-1.09311450,0.00000000,0.00000000
0.64176255,-2.13424587,-1.43373930,-1.79833615,-0.12409315,0.00000000,0.00000000,-0.24799342,2.07220006,1.26795602,1.61979628,-1.10390258,0.00000000,0.00000000
0.64357132,-2.14129519,-1.44828558,-1.78547931,-0.11528031,0.00000000,0.00000000,-0.27002153,2.08317161,1.25949645,1.61638260,-1.11265504,0.00000000,0.00000000
0.63960755,-2.14448500,-1.46178114,-1.76860404,-0.11068325,0.00000000,0.00000000,-0.30059239,2.09649825,1.25399828,1.59794211,-1.12030482,0.00000000,0.00000000
0.62757212,-2.14457035,-1.47366548,-1.75213611,-0.10930803,0.00000000,0.00000000,-0.33779454,2.10959530,1.25238097,1.56484985,-1.12282002,0.00000000,0.00000000
0.60542214,-2.14338994,-1.48413491,-1.74356353,-0.10474974,0.00000000,0.00000000,-0.38165167,2.11894560,1.25556195,1.51766312,-1.12787700,0.00000000,0.00000000
0.57412595,-2.14209199,-1.49383307,-1.75141561,-0.09885257,0.00000000,0.00000000,-0.43250731,2.12175035,1.26438475,1.46320617,-1.13591933,0.00000000,0.00000000
0.53855962,-2.14020443,-1.50264442,-1.77995348,-0.09618594,0.00000000,0.00000000,-0.48651218,2.11918354,1.27806842,1.41912508,-1.14168513,0.00000000,0.00000000
0.50426829,-2.13645101,-1.51090729,-1.82260406,-0.09278506,0.00000000,0.00000000,-0.53896052,2.11303735,1.29660833,1.39316666,-1.14330363,0.00000000,0.00000000
0.47823542,-2.12986398,-1.52026784,-1.86025715,-0.08990640,0.00000000,0.00000000,-0.58390009,2.10542154,1.31994987,1.38537037,-1.14840472,0.00000000,0.00000000
0.46154276,-2.12256551,-1.52819800,-1.88703346,-0.08078749,0.00000000,0.00000000,-0.61696059,2.09709358,1.34669244,1.38896084,-1.16562057,0.00000000,0.00000000
0.45329061,-2.11651015,-1.53254652,-1.90300226,-0.06829410,0.00000000,0.00000000,-0.63762528,2.08745861,1.37364686,1.39600635,-1.17804003,0.00000000,0.00000000
0.45407033,-2.11292601,-1.53228307,-1.90702629,-0.06376551,0.00000000,0.00000000,-0.64701188,2.07714701,1.39741218,1.40053213,-1.18955779,0.00000000,0.00000000
0.46402588,-2.11242342,-1.52713442,-1.89842272,-0.06984120,0.00000000,0.00000000,-0.64618337,2.06707716,1.41599572,1.39944267,-1.20143962,0.00000000,0.00000000
0.48249963,-2.11441898,-1.51782775,-1.87722969,-0.06194851,0.00000000,0.00000000,-0.63628221,2.05778170,1.42826498,1.39180374,-1.21050489,0.00000000,0.00000000
0.50714350,-2.11700463,-1.50606537,-1.84472764,-0.05750226,0.00000000,0.00000000,-0.61687011,2.05031419,1.43337870,1.37887299,-1.21959341,0.00000000,0.00000000
0.53332937,-2.11793947,-1.49401224,-1.80415273,-0.04731942,0.00000000,0.00000000,-0.58532596,2.04648137,1.43089616,1.36436093,-1.21724451,0.00000000,0.00000000
0.55577725,-2.11672950,-1.48263383,-1.76239848,-0.04316776,0.00000000,0.00000000,-0.53969389,2.04744053,1.42087376,1.35467219,-1.21295249,0.00000000,0.00000000
0.57075948,-2.11427498,-1.47114027,-1.73219907,-0.03954359,0.00000000,0.00000000,-0.48156223,2.05351043,1.40387464,1.35854566,-1.20500898,0.00000000,0.00000000
0.58166689,-2.11078215,-1.45917702,-1.72165000,-0.03935754,0.00000000,0.00000000,-0.41610137,2.06231022,1.38341045,1.38163102,-1.19621170,0.00000000,0.00000000
0.58957160,-2.10534573,-1.45044553,-1.73062277,-0.03428734,0.00000000,0.00000000,-0.35033593,2.07085657,1.36239791,1.42254663,-1.18229198,0.00000000,0.00000000
0.59339511,-2.09660912,-1.45121598,-1.75114429,-0.02930485,0.00000000,0.00000000,-0.29248780,2.07878184,1.34041703,1.47680616,-1.16588509,0.00000000,0.00000000
0.59677583,-2.08731675,-1.45738053,-1.77196801,-0.02506511,0.00000000,0.00000000,-0.24712779,2.08717036,1.31699395,1.53678012,-1.15056109,0.00000000,0.00000000
0.60239226,-2.07996964,-1.46363711,-1.78788316,-0.02214538,0.00000000,0.00000000,-0.21683487,2.09239054,1.29837692,1.58597577,-1.13847744,0.00000000,0.00000000
0.60966533,-2.07534599,-1.46789575,-1.79762971,-0.02081716,0.00000000,0.00000000,-0.20110303,2.09509611,1.28645635,1.61885309,-1.12457311,0.00000000,0.00000000
0.61741555,-2.07263422,-1.46966934,-1.80072248,-0.01516635,0.00000000,0.00000000,-0.19862083,2.09816885,1.27981961,1.63578951,-1.11002064,0.00000000,0.00000000
0.62473410,-2.07046103,-1.46909988,-1.79718673,-0.01495959,0.00000000,0.00000000,-0.20744538,2.10324335,1.27796030,1.63765574,-1.09373271,0.00000000,0.00000000
0.63012165,-2.06896591,-1.46668541,-1.78850925,-0.01965398,0.00000000,0.00000000,-0.22584023,2.11035919,1.28125012,1.62519288,-1.07051992,0.00000000,0.00000000
0.63094914,-2.07023191,-1.46314299,-1.77835166,-0.02416920,0.00000000,0.00000000,-0.25188085,2.11827397,1.29063952,1.59926605,-1.04884887,0.00000000,0.00000000
0.62459445,-2.07542944,-1.45985150,-1.77278602,-0.02161741,0.00000000,0.00000000,-0.28558418,2.12488556,1.30660677,1.56018925,-1.02784038,0.00000000,0.00000000
0.60976940,-2.08401227,-1.45820463,-1.78027356,-0.01585682,0.00000000,0.00000000,-0.33001503,2.12897086,1.32646632,1.51257300,-1.01467764,0.00000000,0.00000000
0.58880454,-2.09322834,-1.46049571,-1.80430102,-0.00771372,0.00000000,0.00000000,-0.38585821,2.13232827,1.34407556,1.47172606,-1.00428772,0.00000000,0.00000000
0.56690991,-2.09872842,-1.46999037,-1.83360732,-0.00137762,0.00000000,0.00000000,-0.44595793,2.13489771,1.35932541,1.44698477,-0.99775767,0.00000000,0.00000000
0.54859251,-2.10195017,-1.47964835,-1.85915303,0.01196185,0.00000000,0.00000000,-0.50084329,2.13657188,1.37270403,1.43914568,-0.98696989,0.00000000,0.00000000
0.53453714,-2.10448694,-1.48533654,-1.87910616,0.02606183,0.00000000,0.00000000,-0.54546672,2.13320160,1.38700497,1.43952930,-0.98217994,0.00000000,0.00000000
0.52372789,-2.10671878,-1.48722768,-1.89344215,0.04423021,0.00000000,0.00000000,-0.57899767,2.12202406,1.40169740,1.44142663,-0.97609824,0.00000000,0.00000000
0.51734275,-2.10892606,-1.48535192,-1.90036118,0.05855718,0.00000000,0.00000000,-0.60315633,2.10332108,1.41352201,1.44008482,-0.96553707,0.00000000,0.00000000
0.51693964,-2.11146140,-1.47938275,-1.89797080,0.07424087,0.00000000,0.00000000,-0.61880475,2.07900047,1.41976726,1.43224275,-0.95652884,0.00000000,0.00000000
0.52369934,-2.11451006,-1.46946108,-1.88471937,0.09724480,0.00000000,0.00000000,-0.62435013,2.05230808,1.41927350,1.41639030,-0.95412338,0.00000000,0.00000000
0.53773665,-2.11738682,-1.45716238,-1.85949147,0.12496454,0.00000000,0.00000000,-0.61647725,2.02763748,1.41206729,1.39313793,-0.95342046,0.00000000,0.00000000
0.55759096,-2.11927199,-1.44422936,-1.82266891,0.14400604,0.00000000,0.00000000,-0.59094018,2.00905228,1.39930546,1.36507380,-0.94785339,0.00000000,0.00000000
0.57968724,-2.11949062,-1.43295312,-1.77814233,0.17138831,0.00000000,0.00000000,-0.54672688,1.99954271,1.38203549,1.33802521,-0.94940871,0.00000000,0.00000000
0.59920102,-2.11759233,-1.42773569,-1.73656499,0.20081611,0.00000000,0.00000000,-0.48960516,2.00013733,1.36051095,1.32305825,-0.95474172,0.00000000,0.00000000
0.61346483,-2.11447024,-1.42864501,-1.71191311,0.22687034,0.00000000,0.00000000,-0.42512152,2.00798559,1.33666980,1.32760584,-0.96146333,0.00000000,0.00000000
0.62181616,-2.11127138,-1.43472564,-1.70839524,0.25592104,0.00000000,0.00000000,-0.35840976,2.01969171,1.31249297,1.35146761,-0.97241533,0.00000000,0.00000000
0.62423068,-2.10880542,-1.44641554,-1.72063911,0.28424028,0.00000000,0.00000000,-0.29596657,2.03399873,1.28760159,1.39127731,-0.97936690,0.00000000,0.00000000
0.62653214,-2.10896492,-1.46035647,-1.73486507,0.30905598,0.00000000,0.00000000,-0.24352404,2.05030298,1.26160228,1.44283831,-0.99135345,0.00000000,0.00000000
0.63210106,-2.11381006,-1.47188509,-1.74476540,0.33160082,0.00000000,0.00000000,-0.20606568,2.06534958,1.23775554,1.49652064,-1.00663948,0.00000000,0.00000000
0.63799530,-2.12139916,-1.47851884,-1.75003314,0.35137415,0.00000000,0.00000000,-0.18591341,2.07589912,1.22067726,1.53701985,-1.01900899,0.00000000,0.00000000
0.63960654,-2.12788010,-1.48005497,-1.74962282,0.37356031,0.00000000,0.00000000,-0.18191853,2.08468390,1.20908332,1.56003654,-1.03313482,0.00000000,0.00000000
0.63515896,-2.13058805,-1.47712553,-1.74247909,0.39747998,0.00000000,0.00000000,-0.19202638,2.09455943,1.20147383,1.56639457,-1.04207826,0.00000000,0.00000000
0.62510747,-2.12830496,-1.47057652,-1.72917354,0.42197710,0.00000000,0.00000000,-0.21442245,2.10583353,1.19853473,1.55672729,-1.04460096,0.00000000,0.00000000
0.61133420,-2.12198520,-1.46125412,-1.71271849,0.45263243,0.00000000,0.00000000,-0.24684657,2.11655879,1.20247018,1.53189301,-1.04876697,0.00000000,0.00000000
0.59461874,-2.11468005,-1.45062768,-1.69801939,0.49019909,0.00000000,0.00000000,-0.28675470,2.12395883,1.21548486,1.49313843,-1.05268836,0.00000000,0.00000000
0.57201660,-2.10651708,-1.44178283,-1.69118881,0.52676034,0.00000000,0.00000000,-0.33371371,2.12560678,1.23829722,1.44147158,-1.04834545,0.00000000,0.00000000
0.54181194,-2.09948659,-1.43713546,-1.70066655,0.56166029,0.00000000,0.00000000,-0.38902739,2.11960936,1.27085054,1.38282228,-1.05017257,0.00000000,0.00000000
0.50791216,-2.09459376,-1.43550563,-1.72935534,0.59701717,0.00000000,0.00000000,-0.45077759,2.10939121,1.30870402,1.33299851,-1.04805124,0.00000000,0.00000000
0.47284019,-2.09132648,-1.43701720,-1.77025664,0.62958163,0.00000000,0.00000000,-0.51371783,2.09979606,1.34727311,1.30024505,-1.04083931,0.00000000,0.00000000
0.44163683,-2.09149384,-1.43768418,-1.80967402,0.66288006,0.00000000,0.00000000,-0.56940156,2.09428191,1.38343334,1.28601408,-1.02424765,0.00000000,0.00000000
0.41647711,-2.09525776,-1.43710518,-1.84176695,0.68933147,0.00000000,0.00000000,-0.61513734,2.09026146,1.41607630,1.28395414,-1.01087070,0.00000000,0.00000000
0.40198895,-2.10084224,-1.43605995,-1.86153448,0.71982759,0.00000000,0.00000000,-0.65146691,2.08318281,1.44417417,1.28649724,-0.99416971,0.00000000,0.00000000
0.40194100,-2.10729289,-1.43356490,-1.86569226,0.74754292,0.00000000,0.00000000,-0.67582142,2.07223606,1.46704924,1.28815210,-0.97828180,0.00000000,0.00000000
0.41672516,-2.11384821,-1.42922938,-1.85359764,0.77778029,0.00000000,0.00000000,-0.68618459,2.05843091,1.48453677,1.28577316,-0.96428770,0.00000000,0.00000000
0.44412091,-2.11958742,-1.42319274,-1.82627153,0.80214459,0.00000000,0.00000000,-0.68137485,2.04249287,1.49627852,1.27861238,-0.94747704,0.00000000,0.00000000
0.47896159,-2.12313581,-1.41644382,-1.78663886,0.81966656,0.00000000,0.00000000,-0.65959793,2.02601910,1.50160956,1.26801300,-0.92897952,0.00000000,0.00000000
0.51367813,-2.12343669,-1.41056788,-1.74067891,0.83642501,0.00000000,0.00000000,-0.62009466,2.01100612,1.50018883,1.25821912,-0.91128725,0.00000000,0.00000000
0.54247934,-2.12081361,-1.40666115,-1.69938481,0.86008996,0.00000000,0.00000000,-0.56669313,1.99868417,1.49205363,1.25818121,-0.89117092,0.00000000,0.00000000
0.56471020,-2.11597371,-1.40529239,-1.67574191,0.87877423,0.00000000,0.00000000,-0.50587678,1.99038553,1.47841465,1.27608585,-0.86268479,0.00000000,0.00000000
0.58247578,-2.10908079,-1.40735829,-1.67340672,0.89902318,0.00000000,0.00000000,-0.44550273,1.98561430,1.46077335,1.31186175,-0.83024311,0.00000000,0.00000000
0.59570485,-2.10044813,-1.41412425,-1.69104016,0.92338145,0.00000000,0.00000000,-0.39326125,1.98518193,1.43823349,1.36163759,-0.80716389,0.00000000,0.00000000
0.60415655,-2.09064507,-1.42689013,-1.72073758,0.94814116,0.00000000,0.00000000,-0.35312799,1.99072182,1.40964401,1.42175651,-0.78234577,0.00000000,0.00000000
0.61376494,-2.08227491,-1.44090462,-1.74955547,0.96578801,0.00000000,0.00000000,-0.32200599,1.99947488,1.38047671,1.48628414,-0.76068944,0.00000000,0.00000000
0.62674928,-2.07722163,-1.45245802,-1.77192986,0.97858924,0.00000000,0.00000000,-0.30414152,2.00915027,1.35537684,1.53923631,-0.73526645,0.00000000,0.00000000
0.64153171,-2.07541800,-1.46092618,-1.78642595,0.99171394,0.00000000,0.00000000,-0.29909414,2.02111936,1.33508146,1.57598448,-0.70985991,0.00000000,0.00000000
0.65560365,-2.07506013,-1.46687222,-1.79203832,1.00408387,0.00000000,0.00000000,-0.30470747,2.03722334,1.31834006,1.59693360,-0.68770683,0.00000000,0.00000000
0.66645247,-2.07376003,-1.47123063,-1.78845310,1.01329923,0.00000000,0.00000000,-0.31954655,2.05730510,1.30438030,1.60202110,-0.66557860,0.00000000,0.00000000
0.67211294,-2.07061958,-1.47493410,-1.77695441,1.02109027,0.00000000,0.00000000,-0.34260681,2.07864738,1.29384184,1.59116530,-0.64972764,0.00000000,0.00000000
0.67038310,-2.06696677,-1.47896838,-1.76100731,1.02386796,0.00000000,0.00000000,-0.37261888,2.09753203,1.28832901,1.56473696,-0.64163327,0.00000000,0.00000000
0.66084743,-2.06366158,-1.48371518,-1.74748337,1.02175748,0.00000000,0.00000000,-0.41080046,2.11040401,1.28913426,1.52284753,-0.62633955,0.00000000,0.00000000
0.64379489,-2.06175494,-1.48902512,-1.74677360,1.01325023,0.00000000,0.00000000,-0.45891857,2.11494160,1.29714036,1.47083676,-0.61390966,0.00000000,0.00000000
0.62088078,-2.06073380,-1.49601269,-1.76614964,1.00684857,0.00000000,0.00000000,-0.51172441,2.11247945,1.31242716,1.42620242,-0.60949665,0.00000000,0.00000000
0.59336168,-2.05943418,-1.50568783,-1.80230820,0.99873120,0.00000000,0.00000000,-0.56544089,2.10787988,1.33055639,1.39828944,-0.60445660,0.00000000,0.00000000
0.56529701,-2.05793333,-1.51738024,-1.84112704,0.99172717,0.00000000,0.00000000,-0.61223781,2.10340571,1.35023558,1.38904870,-0.60227585,0.00000000,0.00000000
0.54024208,-2.05782890,-1.52700317,-1.87556469,0.98155373,0.00000000,0.00000000,-0.64610481,2.09718490,1.37191379,1.39253092,-0.60526901,0.00000000,0.00000000
0.51995933,-2.06057405,-1.53179812,-1.90297151,0.96789378,0.00000000,0.00000000,-0.66626436,2.08714890,1.39318478,1.40020716,-0.61427826,0.00000000,0.00000000
0.50644428,-2.06680036,-1.53045368,-1.92043984,0.95950109,0.00000000,0.00000000,-0.67303407,2.07412815,1.41082489,1.40517998,-0.62301540,0.00000000,0.00000000
0.50133193,-2.07651258,-1.52301669,-1.92567337,0.94412458,0.00000000,0.00000000,-0.66638535,2.06028366,1.42359352,1.40411448,-0.63308001,0.00000000,0.00000000
0.50490373,-2.08879232,-1.51085758,-1.91739929,0.93228602,0.00000000,0.00000000,-0.64709067,2.04703665,1.43137562,1.39608192,-0.64243013,0.00000000,0.00000000
0.51668859,-2.10163546,-1.49547541,-1.89514327,0.92121208,0.00000000,0.00000000,-0.61598969,2.03544950,1.43397009,1.38167822,-0.64934278,0.00000000,0.00000000
0.53497136,-2.11286736,-1.47800803,-1.85974431,0.91201836,0.00000000,0.00000000,-0.57331175,2.02688336,1.43056011,1.36328995,-0.66391015,0.00000000,0.00000000
0.55651057,-2.12051296,-1.45938265,-1.81435883,0.90993512,0.00000000,0.00000000,-0.51861113,2.02354383,1.41984057,1.34713733,-0.68591952,0.00000000,0.00000000
0.57854992,-2.12405038,-1.44100451,-1.76836765,0.90323430,0.00000000,0.00000000,-0.45511907,2.02707505,1.40090609,1.34236634,-0.71617997,0.00000000,0.00000000
0.59850276,-2.12280035,-1.42661822,-1.73756516,0.88755971,0.00000000,0.00000000,-0.38934392,2.03511238,1.37710798,1.35475612,-0.75033242,0.00000000,0.00000000
0.61682522,-2.11651635,-1.41874564,-1.72653830,0.87607646,0.00000000,0.00000000,-0.32705334,2.04428840,1.35216999,1.38333905,-0.79200965,0.00000000,0.00000000
0.63208038,-2.10598922,-1.41891682,-1.73248243,0.85577279,0.00000000,0.00000000,-0.27399150,2.05461383,1.32551134,1.42475605,-0.83968675,0.00000000,0.00000000
0.64284915,-2.09386468,-1.42565596,-1.74695504,0.83568263,0.00000000,0.00000000,-0.23376891,2.06816149,1.29492366,1.47649503,-0.88286269,0.00000000,0.00000000
0.65223640,-2.08300352,-1.43379974,-1.76322424,0.81641668,0.00000000,0.00000000,-0.20630161,2.08200860,1.26541471,1.53203344,-0.92460102,0.00000000,0.00000000
0.66218740,-2.07351518,-1.44080925,-1.77773774,0.80123359,0.00000000,0.00000000,-0.19262125,2.09200907,1.24333894,1.57640839,-0.96145070,0.00000000,0.00000000
0.67044139,-2.06626439,-1.44674480,-1.78792191,0.79757011,0.00000000,0.00000000,-0.19248000,2.09945583,1.22846520,1.60444784,-1.00043166,0.00000000,0.00000000
0.67273158,-2.06274605,-1.45285511,-1.79179740,0.79248291,0.00000000,0.00000000,-0.20533483,2.10688424,1.21850419,1.61605167,-1.03539073,0.00000000,0.00000000
0.66707087,-2.06312871,-1.45965922,-1.78884780,0.78662550,0.00000000,0.00000000,-0.22967391,2.11505318,1.21294153,1.61153173,-1.06395328,0.00000000,0.00000000
0.65312350,-2.06699538,-1.46709025,-1.78045166,0.78012365,0.00000000,0.00000000,-0.26244694,2.12293172,1.21295178,1.59175563,-1.08578181,0.00000000,0.00000000
0.63113868,-2.07226396,-1.47528458,-1.76994908,0.77386034,0.00000000,0.00000000,-0.30091146,2.12914681,1.21908164,1.55760050,-1.10789645,0.00000000,0.00000000
0.60195374,-2.07625461,-1.48475766,-1.76507747,0.76481223,0.00000000,0.00000000,-0.34631890,2.13147068,1.23130143,1.50915647,-1.12992549,0.00000000,0.00000000
0.56706268,-2.07755280,-1.49631572,-1.77728760,0.75752437,0.00000000,0.00000000,-0.40236327,2.12739396,1.24919164,1.45132124,-1.15350664,0.00000000,0.00000000
0.53309590,-2.07546759,-1.50898147,-1.80844998,0.75726199,0.00000000,0.00000000,-0.46576282,2.11825848,1.27145886,1.40123796,-1.17948318,0.00000000,0.00000000
0.50615716,-2.07194591,-1.51779103,-1.85065711,0.76094955,0.00000000,0.00000000,-0.52869701,2.10816717,1.29585874,1.36824441,-1.19983280,0.00000000,0.00000000
0.48877057,-2.06820536,-1.52234507,-1.88791549,0.76638913,0.00000000,0.00000000,-0.58152294,2.10000467,1.32111919,1.35215318,-1.21856666,0.00000000,0.00000000
0.47864640,-2.06510592,-1.52425766,-1.91578102,0.77019143,0.00000000,0.00000000,-0.62133539,2.08948112,1.34871757,1.34319961,-1.23289943,0.00000000,0.00000000
0.47530422,-2.06382918,-1.52271485,-1.93362439,0.77551466,0.00000000,0.00000000,-0.64775628,2.07479715,1.37598562,1.33344042,-1.24903774,0.00000000,0.00000000
0.47975972,-2.06512332,-1.51683843,-1.94005370,0.77771306,0.00000000,0.00000000,-0.66061455,2.05738831,1.39935458,1.31950068,-1.26599181,0.00000000,0.00000000
0.49242875,-2.06872916,-1.50715685,-1.93412530,0.78021288,0.00000000,0.00000000,-0.65988207,2.03937578,1.41680086,1.30090785,-1.28512859,0.00000000,0.00000000
0.51221168,-2.07319307,-1.49541163,-1.91589546,0.77779442,0.00000000,0.00000000,-0.64470190,2.02358007,1.42702508,1.27943552,-1.30116367,0.00000000,0.00000000
0.53579110,-2.07669806,-1.48373282,-1.88712287,0.77567291,0.00000000,0.00000000,-0.61286658,2.01354003,1.42901826,1.25889242,-1.31488264,0.00000000,0.00000000
0.55867732,-2.07870269,-1.47292590,-1.85141182,0.77734160,0.00000000,0.00000000,-0.56229085,2.01165700,1.42274344,1.24434340,-1.33013213,0.00000000,0.00000000
0.57832479,-2.07992077,-1.46219790,-1.81341720,0.78160381,0.00000000,0.00000000,-0.49422663,2.01895571,1.40854681,1.24112725,-1.34286213,0.00000000,0.00000000
0.59398317,-2.08144140,-1.45049357,-1.78151858,0.78027737,0.00000000,0.00000000,-0.41427886,2.03531694,1.38670278,1.25461912,-1.34361994,0.00000000,0.00000000
0.60549724,-2.08398438,-1.43781483,-1.76738644,0.78158224,0.00000000,0.00000000,-0.33211774,2.05690837,1.35922825,1.28538203,-1.33703792,0.00000000,0.00000000
0.61451733,-2.08671451,-1.42748141,-1.76954317,0.78660077,0.00000000,0.00000000,-0.25785547,2.08021212,1.32764173,1.32885718,-1.32812059,0.00000000,0.00000000
0.62348610,-2.08781552,-1.42542779,-1.77439737,0.79268831,0.00000000,0.00000000,-0.19777408,2.10327578,1.29363775,1.38064897,-1.31243908,0.00000000,0.00000000
0.63226020,-2.09010291,-1.43004453,-1.77810049,0.80202800,0.00000000,0.00000000,-0.15487526,2.12526464,1.25885260,1.43773627,-1.29830945,0.00000000,0.00000000
0.64089096,-2.09698439,-1.43745601,-1.78081977,0.81609458,0.00000000,0.00000000,-0.13183311,2.14287090,1.22794139,1.49236369,-1.28469837,0.00000000,0.00000000
0.64967710,-2.10796642,-1.44486773,-1.78269541,0.83230233,0.00000000,0.00000000,-0.12626387,2.15230393,1.20797145,1.53412414,-1.27194953,0.00000000,0.00000000
0.65680265,-2.11717820,-1.45109928,-1.78264308,0.85111415,0.00000000,0.00000000,-0.13506848,2.15530777,1.19933152,1.55981362,-1.26105940,0.00000000,0.00000000
0.65805691,-2.12039828,-1.45678329,-1.77822518,0.86428493,0.00000000,0.00000000,-0.15609430,2.15586400,1.19852471,1.56958890,-1.24696958,0.00000000,0.00000000
0.65372437,-2.12166739,-1.46228552,-1.76797271,0.88127577,0.00000000,0.00000000,-0.18677871,2.15559387,1.20389152,1.56412148,-1.23589158,0.00000000,0.00000000
0.64346880,-2.12018180,-1.46748173,-1.75268269,0.89811522,0.00000000,0.00000000,-0.22518966,2.15430188,1.21496296,1.54387116,-1.23368669,0.00000000,0.00000000
0.62735647,-2.11668253,-1.47205532,-1.73656285,0.91838878,0.00000000,0.00000000,-0.27024123,2.15122485,1.23159850,1.50971031,-1.23600078,0.00000000,0.00000000
0.60489470,-2.11260295,-1.47751474,-1.72675645,0.94087803,0.00000000,0.00000000,-0.32427305,2.14598060,1.25228631,1.46521389,-1.23505390,0.00000000,0.00000000
0.57495660,-2.10823846,-1.48691785,-1.73096144,0.96801090,0.00000000,0.00000000,-0.39206401,2.13938212,1.27310967,1.42006660,-1.23469484,0.00000000,0.00000000
0.54184234,-2.10470414,-1.49738467,-1.75371468,0.99935067,0.00000000,0.00000000,-0.46492219,2.13401413,1.29392815,1.38922143,-1.23177695,0.00000000,0.00000000
0.51123184,-2.10295558,-1.50544488,-1.78938437,1.03044546,0.00000000,0.00000000,-0.53497720,2.13105416,1.31575060,1.37731683,-1.22792447,0.00000000,0.00000000
0.48640335,-2.10317802,-1.51037490,-1.82406616,1.05194724,0.00000000,0.00000000,-0.59472954,2.13087606,1.33759725,1.38218260,-1.23019338,0.00000000,0.00000000
0.46472642,-2.10516810,-1.51277006,-1.85546267,1.07610321,0.00000000,0.00000000,-0.64146197,2.12900019,1.35785186,1.39540792,-1.22859824,0.00000000,0.00000000
0.44949523,-2.10962701,-1.50960004,-1.88056386,1.10915709,0.00000000,0.00000000,-0.67185658,2.12263203,1.37494636,1.40842605,-1.22722399,0.00000000,0.00000000
0.44521046,-2.11662102,-1.49947536,-1.89520037,1.13952267,0.00000000,0.00000000,-0.68481702,2.11312699,1.38829064,1.41660607,-1.21847725,0.00000000,0.00000000
0.45376956,-2.12543774,-1.48294520,-1.89717662,1.17351234,0.00000000,0.00000000,-0.68146926,2.10187888,1.39791894,1.41761351,-1.20851505,0.00000000,0.00000000
0.47492346,-2.13467884,-1.46175194,-1.88565576,1.20993018,0.00000000,0.00000000,-0.66346854,2.09070683,1.40374255,1.40993059,-1.19597673,0.00000000,0.00000000
0.50617427,-2.14257812,-1.43853378,-1.86140597,1.25335467,0.00000000,0.00000000,-0.63238597,2.08297491,1.40505064,1.39355326,-1.18074811,0.00000000,0.00000000
0.54252684,-2.14729309,-1.41586411,-1.82783604,1.29062760,0.00000000,0.00000000,-0.58925420,2.08230734,1.40050316,1.37208068,-1.16484034,0.00000000,0.00000000
0.57792073,-2.14789081,-1.39601994,-1.79437172,1.32396340,0.00000000,0.00000000,-0.53756398,2.09057093,1.38773346,1.35478771,-1.14568937,0.00000000,0.00000000
0.60813814,-2.14451885,-1.38191950,-1.77643037,1.35205460,0.00000000,0.00000000,-0.48273960,2.10626411,1.36667240,1.35286582,-1.12731099,0.00000000,0.00000000
0.63336879,-2.13739514,-1.37622964,-1.77793777,1.38405967,0.00000000,0.00000000,-0.42827585,2.12386465,1.34212840,1.36916816,-1.11655331,0.00000000,0.00000000
0.65296978,-2.12744570,-1.38126683,-1.79322088,1.41725302,0.00000000,0.00000000,-0.37748894,2.13969254,1.31693614,1.40186477,-1.11144996,0.00000000,0.00000000
0.67061329,-2.11670017,-1.39456093,-1.81062055,1.45185411,0.00000000,0.00000000,-0.33342329,2.15325141,1.29099882,1.44918287,-1.11091197,0.00000000,0.00000000
0.68907797,-2.10820365,-1.41135788,-1.82478654,1.47864461,0.00000000,0.00000000,-0.29793903,2.16385841,1.26612163,1.50773180,-1.11439586,0.00000000,0.00000000
0.70866364,-2.10337830,-1.42876101,-1.83405101,1.51115644,0.00000000,0.00000000,-0.27552873,2.16873932,1.24703813,1.56537390,-1.11532807,0.00000000,0.00000000
0.72695273,-2.10177803,-1.44558465,-1.83773601,1.54021871,0.00000000,0.00000000,-0.26463562,2.16986847,1.23529053,1.61245990,-1.11176002,0.00000000,0.00000000
0.74083519,-2.10309076,-1.46196866,-1.83555579,1.56102467,0.00000000,0.00000000,-0.26520807,2.16999507,1.22967398,1.64526522,-1.10688329,0.00000000,0.00000000
0.74797583,-2.10642052,-1.47778249,-1.82822597,1.58045232,0.00000000,0.00000000,-0.27657458,2.17000008,1.22934866,1.66309237,-1.10406697,0.00000000,0.00000000
0.74604338,-2.11109638,-1.49213147,-1.81798816,1.59815884,0.00000000,0.00000000,-0.29647493,2.17000008,1.23443437,1.66592026,-1.10163558,0.00000000,0.00000000
0.73319393,-2.11685538,-1.50440705,-1.80818701,1.61795914,0.00000000,0.00000000,-0.32320797,2.17000008,1.24513161,1.65347183,-1.09755993,0.00000000,0.00000000
0.70986009,-2.12349963,-1.51465094,-1.80318213,1.64091599,0.00000000,0.00000000,-0.35811490,2.17000008,1.26098394,1.62478459,-1.09543872,0.00000000,0.00000000
0.67878485,-2.13105822,-1.52251589,-1.80718243,1.66288579,0.00000000,0.00000000,-0.40499711,2.17000008,1.28003609,1.58072221,-1.09515882,0.00000000,0.00000000
0.64228213,-2.13979125,-1.52664340,-1.82397187,1.67968512,0.00000000,0.00000000,-0.46579891,2.16999149,1.29752445,1.53042507,-1.09332299,0.00000000,0.00000000
0.60517937,-2.14884353,-1.52590179,-1.85111594,1.69905579,0.00000000,0.00000000,-0.52941048,2.16985059,1.31339157,1.49255252,-1.08280289,0.00000000,0.00000000
0.57204479,-2.15532994,-1.52542162,-1.87643611,1.71119928,0.00000000,0.00000000,-0.58475864,2.16918683,1.32994378,1.47361457,-1.07661331,0.00000000,0.00000000
0.54313660,-2.15977383,-1.52497792,-1.89676630,1.72735214,0.00000000,0.00000000,-0.62751758,2.16657782,1.34692037,1.46825421,-1.07368064,0.00000000,0.00000000
0.51920038,-2.16177392,-1.52487338,-1.91065025,1.74268854,0.00000000,0.00000000,-0.65864235,2.15829253,1.36313176,1.46814561,-1.07129776,0.00000000,0.00000000
0.50315183,-2.16216874,-1.52388847,-1.91494429,1.75718343,0.00000000,0.00000000,-0.67829126,2.14280772,1.37655330,1.46594572,-1.06761980,0.00000000,0.00000000
0.49757868,-2.16268778,-1.52056432,-1.90707338,1.76211739,0.00000000,0.00000000,-0.68279254,2.12427640,1.38658059,1.45729637,-1.06741226,0.00000000,0.00000000
0.50263059,-2.16440129,-1.51490688,-1.88611817,1.77129138,0.00000000,0.00000000,-0.67036146,2.10659575,1.39326429,1.44088197,-1.07501590,0.00000000,0.00000000
0.51621306,-2.16691113,-1.50733149,-1.85274625,1.78189898,0.00000000,0.00000000,-0.64043075,2.09108615,1.39638865,1.41723847,-1.08693755,0.00000000,0.00000000
0.53421551,-2.16892290,-1.49779344,-1.80937910,1.79198289,0.00000000,0.00000000,-0.59171104,2.07865715,1.39545727,1.38871038,-1.10062706,0.00000000,0.00000000
0.55175948,-2.16958570,-1.48618531,-1.76063824,1.79924822,0.00000000,0.00000000,-0.52521914,2.07016063,1.38949358,1.36030519,-1.11675036,0.00000000,0.00000000
0.56746584,-2.16929078,-1.47268820,-1.71544957,1.81275642,0.00000000,0.00000000,-0.44748634,2.06617928,1.37712157,1.34129226,-1.13087654,0.00000000,0.00000000
0.58347052,-2.16857743,-1.45767462,-1.68618190,1.83153057,0.00000000,0.00000000,-0.36686471,2.06632471,1.35936010,1.33932734,-1.15121794,0.00000000,0.00000000
0.59761387,-2.16526484,-1.44661009,-1.67719400,1.85308528,0.00000000,0.00000000,-0.28919613,2.06815505,1.33924890,1.35426104,-1.17287195,0.00000000,0.00000000
0.60856122,-2.15841866,-1.44354033,-1.68499029,1.87295902,0.00000000,0.00000000,-0.22083668,2.07154036,1.31720185,1.38234842,-1.19418871,0.00000000,0.00000000
0.61609316,-2.15005779,-1.44816601,-1.69984400,1.89104760,0.00000000,0.00000000,-0.16633849,2.07863212,1.29149139,1.42083967,-1.21272039,0.00000000,0.00000000
0.62217653,-2.14457107,-1.45472574,-1.71636236,1.90612364,0.00000000,0.00000000,-0.12908831,2.09023976,1.26176167,1.46689939,-1.23091722,0.00000000,0.00000000
0.62814891,-2.14312220,-1.46018863,-1.73334765,1.92681646,0.00000000,0.00000000,-0.11087452,2.10412240,1.23153687,1.51341891,-1.24765193,0.00000000,0.00000000
0.63417739,-2.14248228,-1.46418476,-1.74900174,1.94439745,0.00000000,0.00000000,-0.11017311,2.11497498,1.20863390,1.54728973,-1.26576233,0.00000000,0.00000000
0.63758713,-2.14006472,-1.46686637,-1.76124811,1.96170068,0.00000000,0.00000000,-0.12611842,2.12368679,1.19281554,1.56367242,-1.28765297,0.00000000,0.00000000
0.63695532,-2.13915658,-1.46881640,-1.76859903,1.97821212,0.00000000,0.00000000,-0.15479109,2.13274813,1.18301213,1.56408918,-1.31033814,0.00000000,0.00000000
0.63175386,-2.14018726,-1.47049308,-1.77082562,1.99829471,0.00000000,0.00000000,-0.19140804,2.14244080,1.18030417,1.55044997,-1.33499348,0.00000000,0.00000000
0.62118655,-2.14241934,-1.47180152,-1.76989508,2.01920581,0.00000000,0.00000000,-0.23334961,2.15097666,1.18542039,1.52342963,-1.36524940,0.00000000,0.00000000
0.60420710,-2.14491010,-1.47300458,-1.77136362,2.03649783,0.00000000,0.00000000,-0.28010759,2.15565658,1.19849980,1.48339653,-1.39678538,0.00000000,0.00000000
0.58043158,-2.14670849,-1.47588682,-1.78371358,2.05562329,0.00000000,0.00000000,-0.33414635,2.15444183,1.21799719,1.43534052,-1.42293298,0.00000000,0.00000000
0.55222464,-2.14659715,-1.48250878,-1.81288648,2.07259417,0.00000000,0.00000000,-0.39574605,2.14873409,1.24016988,1.39467549,-1.44256020,0.00000000,0.00000000
0.52314121,-2.14442611,-1.49149489,-1.85222256,2.09311008,0.00000000,0.00000000,-0.45938158,2.14195108,1.26231301,1.37009156,-1.46465552,0.00000000,0.00000000
0.50182915,-2.14086533,-1.49972165,-1.88536668,2.10864305,0.00000000,0.00000000,-0.51529288,2.13606334,1.28480375,1.36197090,-1.49020553,0.00000000,0.00000000
0.48868081,-2.13704705,-1.50599980,-1.90828907,2.12269735,0.00000000,0.00000000,-0.56031066,2.12803555,1.30924332,1.36047089,-1.51796496,0.00000000,0.00000000
0.48237708,-2.13424325,-1.50947094,-1.92097580,2.12814188,0.00000000,0.00000000,-0.59333479,2.11683917,1.33375490,1.35849476,-1.54169655,0.00000000,0.00000000
0.48352566,-2.13340855,-1.50941038,-1.92225921,2.14049888,0.00000000,0.00000000,-0.61401010,2.10384655,1.35540235,1.35185969,-1.56230366,0.00000000,0.00000000
0.49277839,-2.13483334,-1.50574958,-1.91121733,2.15266466,0.00000000,0.00000000,-0.62163943,2.09039807,1.37287235,1.33857071,-1.58495736,0.00000000,0.00000000
0.50967985,-2.13795853,-1.49907231,-1.88777256,2.16505265,0.00000000,0.00000000,-0.61518842,2.07727194,1.38578641,1.31882882,-1.60645843,0.00000000,0.00000000
0.53200001,-2.14155030,-1.49042892,-1.85306227,2.17257762,0.00000000,0.00000000,-0.59282696,2.06552362,1.39384735,1.29473972,-1.62968373,0.00000000,0.00000000
0.55647522,-2.14467931,-1.48026478,-1.80966353,2.17845321,0.00000000,0.00000000,-0.55183107,2.05652404,1.39699399,1.27092743,-1.64313042,0.00000000,0.00000000
0.57881820,-2.14700818,-1.46889138,-1.76397598,2.18123817,0.00000000,0.00000000,-0.49175933,2.05153680,1.39530218,1.25562382,-1.65596950,0.00000000,0.00000000
0.59393138,-2.14761209,-1.45885825,-1.72895336,2.18418670,0.00000000,0.00000000,-0.41801709,2.05237603,1.38830030,1.25772595,-1.66472125,0.00000000,0.00000000
0.60240424,-2.14480591,-1.45345986,-1.71324015,2.18386483,0.00000000,0.00000000,-0.33968291,2.05787158,1.37750602,1.27887607,-1.67657197,0.00000000,0.00000000
0.60506070,-2.13813949,-1.45547533,-1.71497202,2.17929816,0.00000000,0.00000000,-0.26509267,2.06689095,1.36307907,1.31591547,-1.68563724,0.00000000,0.00000000
0.60392392,-2.12968278,-1.46467876,-1.72329414,2.16707230,0.00000000,0.00000000,-0.20020914,2.08051300,1.34348726,1.36549985,-1.69693792,0.00000000,0.00000000
0.60325146,-2.12428164,-1.47462869,-1.73057449,2.15915442,0.00000000,0.00000000,-0.14865488,2.09805870,1.31971824,1.42260587,-1.70737112,0.00000000,0.00000000
0.60472518,-2.12409234,-1.48180592,-1.73435366,2.15771317,0.00000000,0.00000000,-0.11653959,2.11609578,1.29502773,1.47391057,-1.71416390,0.00000000,0.00000000
0.60674298,-2.12839699,-1.48552358,-1.73425925,2.15421295,0.00000000,0.00000000,-0.10170004,2.13106990,1.27529287,1.51030922,-1.71873784,0.00000000,0.00000000
0.60740501,-2.13419580,-1.48620176,-1.72968209,2.15047383,0.00000000,0.00000000,-0.10245492,2.14394665,1.26016736,1.52958965,-1.73033476,0.00000000,0.00000000
0.60612828,-2.13726640,-1.48477137,-1.72011876,2.14649320,0.00000000,0.00000000,-0.11764944,2.15545011,1.24865556,1.53176260,-1.74664843,0.00000000,0.00000000
0.60159922,-2.13675642,-1.48218822,-1.70598054,2.14234066,0.00000000,0.00000000,-0.14529653,2.16428995,1.24163830,1.51707137,-1.76652360,0.00000000,0.00000000
0.59174961,-2.13398647,-1.47933769,-1.68875444,2.14479828,0.00000000,0.00000000,-0.18265481,2.16885090,1.24067688,1.48609757,-1.79004121,0.00000000,0.00000000
0.57521123,-2.12998247,-1.47658241,-1.67273629,2.14130044,0.00000000,0.00000000,-0.22867149,2.16973996,1.24665594,1.43924475,-1.82397687,0.00000000,0.00000000
0.55219680,-2.12546396,-1.47471356,-1.66649210,2.14006710,0.00000000,0.00000000,-0.28415683,2.16684175,1.26027524,1.38063788,-1.85810053,0.00000000,0.00000000
0.52785391,-2.12025094,-1.47417641,-1.67752540,2.13625216,0.00000000,0.00000000,-0.34564555,2.15754867,1.28200293,1.32519209,-1.89237189,0.00000000,0.00000000
0.50605065,-2.11540604,-1.47128689,-1.70676827,2.13269806,0.00000000,0.00000000,-0.41335952,2.14654040,1.30444121,1.28236783,-1.91978705,0.00000000,0.00000000
0.48706782,-2.10952306,-1.46837091,-1.74753296,2.12779355,0.00000000,0.00000000,-0.48039556,2.13618279,1.32647097,1.25669372,-1.94955909,0.00000000,0.00000000
0.47351593,-2.10355163,-1.46486211,-1.78530049,2.12305999,0.00000000,0.00000000,-0.53587526,2.12751222,1.34851384,1.24843824,-1.97303665,0.00000000,0.00000000
0.46372080,-2.09858418,-1.46081340,-1.81654966,2.11815739,0.00000000,0.00000000,-0.57811791,2.11895752,1.36847603,1.24968934,-2.00201941,0.00000000,0.00000000
0.45874125,-2.09557986,-1.45465863,-1.83925962,2.11466336,0.00000000,0.00000000,-0.60766602,2.10871983,1.38385952,1.25251114,-2.02985787,0.00000000,0.00000000
0.46033162,-2.09513593,-1.44490647,-1.85135889,2.11596060,0.00000000,0.00000000,-0.62295920,2.09570432,1.39399600,1.25257587,-2.05588937,0.00000000,0.00000000
0.46952251,-2.09685969,-1.43144310,-1.85179234,2.11466908,0.00000000,0.00000000,-0.62247080,2.07991314,1.39967263,1.24846160,-2.08507490,0.00000000,0.00000000
0.48577946,-2.09911704,-1.41552806,-1.84048283,2.10946488,0.00000000,0.00000000,-0.60499865,2.06262994,1.40155172,1.24077070,-2.11330342,0.00000000,0.00000000
0.50595158,-2.10006952,-1.39923191,-1.81905460,2.10317254,0.00000000,0.00000000,-0.56801701,2.04646993,1.40012836,1.23306322,-2.13374615,0.00000000,0.00000000
0.52658612,-2.09863424,-1.38443661,-1.79033113,2.09784269,0.00000000,0.00000000,-0.50972211,2.03454590,1.39608943,1.23237920,-2.15231872,0.00000000,0.00000000
0.54517478,-2.09491563,-1.37297893,-1.76201439,2.09717178,0.00000000,0.00000000,-0.43459350,2.02958441,1.38900852,1.24710703,-2.17900944,0.00000000,0.00000000
0.55779493,-2.08986926,-1.36715388,-1.74914217,2.10075712,0.00000000,0.00000000,-0.35326117,2.03213072,1.37795973,1.28069484,-2.20154428,0.00000000,0.00000000
0.56407505,-2.08326530,-1.36977243,-1.75217152,2.10335779,0.00000000,0.00000000,-0.27564886,2.04068947,1.36248672,1.33057415,-2.22159266,0.00000000,0.00000000
0.56715882,-2.07622695,-1.38014150,-1.75942016,2.10261154,0.00000000,0.00000000,-0.20935129,2.05615973,1.33984149,1.39279878,-2.23947382,0.00000000,0.00000000
0.56970835,-2.07181430,-1.39364302,-1.76514280,2.10006428,0.00000000,0.00000000,-0.15883961,2.07663417,1.31148791,1.45944715,-2.26005077,0.00000000,0.00000000
0.57261705,-2.07145572,-1.40683949,-1.76816630,2.10017967,0.00000000,0.00000000,-0.12707533,2.09528422,1.28535080,1.51394534,-2.27491617,0.00000000,0.00000000
0.57565349,-2.07431650,-1.41833103,-1.76806462,2.09604287,0.00000000,0.00000000,-0.11270858,2.11090565,1.26476109,1.55107391,-2.29333758,0.00000000,0.00000000
0.57846314,-2.07808042,-1.42811918,-1.76421428,2.09110188,0.00000000,0.00000000,-0.11404999,2.12538004,1.24925601,1.57107985,-2.31213260,0.00000000,0.00000000
0.58042383,-2.08004117,-1.43710971,-1.75619471,2.09218168,0.00000000,0.00000000,-0.13009420,2.13953185,1.23839176,1.57400441,-2.33095646,0.00000000,0.00000000
0.58050275,-2.07912016,-1.44556046,-1.74443913,2.09378600,0.00000000,0.00000000,-0.15927610,2.15276289,1.23240328,1.56008649,-2.33796835,0.00000000,0.00000000
0.57736355,-2.07689619,-1.45281339,-1.73051846,2.09232974,0.00000000,0.00000000,-0.19923677,2.16303658,1.23221099,1.52993286,-2.34430909,0.00000000,0.00000000
0.56907231,-2.07536578,-1.45923126,-1.71809661,2.08699751,0.00000000,0.00000000,-0.24875909,2.16834664,1.23875141,1.48401082,-2.34747601,0.00000000,0.00000000
0.55429947,-2.07416940,-1.46669471,-1.71456850,2.07548833,0.00000000,0.00000000,-0.30788338,2.16737247,1.25226641,1.42660844,-2.34851623,0.00000000,0.00000000
0.53376955,-2.07345963,-1.47515261,-1.72987330,2.06447220,0.00000000,0.00000000,-0.37136593,2.16062856,1.27173138,1.37361562,-2.33781767,0.00000000,0.00000000
0.50989467,-2.07445979,-1.48142111,-1.76221728,2.04895926,0.00000000,0.00000000,-0.43734306,2.15309715,1.29090095,1.33550823,-2.32536745,0.00000000,0.00000000
0.48958370,-2.07519913,-1.48584664,-1.79570079,2.03122735,0.00000000,0.00000000,-0.50026029,2.14745069,1.30815220,1.31649625,-2.31514549,0.00000000,0.00000000
0.47557965,-2.07693982,-1.48585892,-1.82415855,2.00914526,0.00000000,0.00000000,-0.55262828,2.14447927,1.32357240,1.31570852,-2.31281829,0.00000000,0.00000000
0.46659565,-2.08005691,-1.48207378,-1.84681952,1.98779273,0.00000000,0.00000000,-0.59153253,2.13851595,1.33966994,1.32379723,-2.30835390,0.00000000,0.00000000
0.46360540,-2.08426619,-1.47506654,-1.86112928,1.96944416,0.00000000,0.00000000,-0.61744577,2.12595272,1.35581982,1.33094394,-2.31044459,0.00000000,0.00000000
0.46824110,-2.08980727,-1.46475899,-1.86459875,1.95151269,0.00000000,0.00000000,-0.62976879,2.10827637,1.37024820,1.33153069,-2.30941224,0.00000000,0.00000000
0.48091370,-2.09688592,-1.45173395,-1.85611343,1.93257236,0.00000000,0.00000000,-0.62794262,2.08826351,1.38164270,1.32428122,-2.30805016,0.00000000,0.00000000
0.50013590,-2.10431242,-1.43719566,-1.83610487,1.91056824,0.00000000,0.00000000,-0.61175734,2.06817365,1.38882744,1.31034613,-2.30865097,0.00000000,0.00000000
0.52193493,-2.11046386,-1.42268670,-1.80705190,1.88327563,0.00000000,0.00000000,-0.58009410,2.05086875,1.39050603,1.29269946,-2.31191707,0.00000000,0.00000000
0.54079103,-2.11485028,-1.40869641,-1.77441764,1.85626841,0.00000000,0.00000000,-0.53150553,2.03949547,1.38533509,1.27708077,-2.32138991,0.00000000,0.00000000
0.55299050,-2.11805582,-1.39438534,-1.74804819,1.83154428,0.00000000,0.00000000,-0.46803936,2.03637767,1.37221575,1.27237630,-2.34051514,0.00000000,0.00000000
0.55803621,-2.12038445,-1.38039541,-1.73985529,1.81281769,0.00000000,0.00000000,-0.39572880,2.04168344,1.35228479,1.28596473,-2.35423946,0.00000000,0.00000000
0.55706757,-2.12104821,-1.36997938,-1.75310540,1.78987348,0.00000000,0.00000000,-0.32136926,2.05206251,1.32878649,1.31822574,-2.36467075,0.00000000,0.00000000
0.55166423,-2.11973786,-1.36678421,-1.78266144,1.76121366,0.00000000,0.00000000,-0.25272065,2.06490684,1.30318308,1.36534333,-2.37518024,0.00000000,0.00000000
0.54562372,-2.11696625,-1.37239909,-1.81493175,1.73081553,0.00000000,0.00000000,-0.19711596,2.08081603,1.27382553,1.42319810,-2.39327645,0.00000000,0.00000000
0.54248232,-2.11551118,-1.38319671,-1.84288192,1.70156682,0.00000000,0.00000000,-0.15851712,2.09827781,1.24261105,1.48540449,-2.41619182,0.00000000,0.00000000
0.54392874,-2.11685181,-1.39606822,-1.86484444,1.67314672,0.00000000,0.00000000,-0.13845406,2.11074758,1.21829021,1.53841496,-2.43464518,0.00000000,0.00000000
0.55022186,-2.12032270,-1.40868831,-1.88034868,1.65054166,0.00000000,0.00000000,-0.13792573,2.11857986,1.20174873,1.57400846,-2.45220566,0.00000000,0.00000000
0.56074584,-2.12312484,-1.42040348,-1.88867617,1.62694716,0.00000000,0.00000000,-0.15365234,2.12417507,1.19250572,1.59199035,-2.46558404,0.00000000,0.00000000
0.57324606,-2.12268472,-1.43173671,-1.88903534,1.60168707,0.00000000,0.00000000,-0.18262385,2.12936568,1.18951142,1.59334850,-2.48305058,0.00000000,0.00000000
0.58266586,-2.12263513,-1.44325280,-1.88129771,1.57345283,0.00000000,0.00000000,-0.22249550,2.13480759,1.19185805,1.57875025,-2.50003266,0.00000000,0.00000000
0.58495206,-2.12610722,-1.45519006,-1.86729848,1.54509556,0.00000000,0.00000000,-0.27057388,2.13903546,1.19945610,1.54886508,-2.51588774,0.00000000,0.00000000
0.57862639,-2.13135672,-1.46740174,-1.85190678,1.52252030,0.00000000,0.00000000,-0.32520643,2.13859272,1.21181881,1.50427020,-2.52986908,0.00000000,0.00000000
0.56467652,-2.13659859,-1.47815239,-1.84287810,1.50791359,0.00000000,0.00000000,-0.38716528,2.13151836,1.22747242,1.44735909,-2.53819823,0.00000000,0.00000000
0.54466057,-2.14329553,-1.48345280,-1.84796751,1.49974787,0.00000000,0.00000000,-0.45277998,2.11943460,1.24482167,1.38959014,-2.54594421,0.00000000,0.00000000
0.52163535,-2.15101266,-1.48264229,-1.86891973,1.48904681,0.00000000,0.00000000,-0.52051520,2.10769773,1.25862861,1.34547937,-2.55073571,0.00000000,0.00000000
0.50095785,-2.15783215,-1.47781217,-1.89399457,1.47597837,0.00000000,0.00000000,-0.58411098,2.09735179,1.27047312,1.32089579,-2.55054188,0.00000000,0.00000000
0.48511729,-2.16246772,-1.47213566,-1.91463745,1.46882606,0.00000000,0.00000000,-0.63523161,2.08793831,1.28348005,1.31452811,-2.54580212,0.00000000,0.00000000
0.47333390,-2.16514540,-1.46703327,-1.92940307,1.46283078,0.00000000,0.00000000,-0.67196399,2.07636333,1.29929709,1.31812644,-2.53795505,0.00000000,0.00000000
0.46756747,-2.16676211,-1.46169984,-1.93580699,1.45313287,0.00000000,0.00000000,-0.69477940,2.06180692,1.31669962,1.32269037,-2.53323078,0.00000000,0.00000000
0.47033429,-2.16826439,-1.45506287,-1.93129468,1.44189644,0.00000000,0.00000000,-0.70229721,2.04588985,1.33374155,1.32204437,-2.52786374,0.00000000,0.00000000
0.48180693,-2.16956091,-1.44741249,-1.91514444,1.43174839,0.00000000,0.00000000,-0.69390297,2.02957344,1.34845793,1.31453300,-2.52521706,0.00000000,0.00000000
0.49919349,-2.16997313,-1.44010317,-1.88865411,1.42730319,0.00000000,0.00000000,-0.66836905,2.01426077,1.35933173,1.30179250,-2.52717805,0.00000000,0.00000000
0.51857293,-2.17000008,-1.43333912,-1.85440755,1.42892122,0.00000000,0.00000000,-0.62367213,2.00121784,1.36571968,1.28744912,-2.52960062,0.00000000,0.00000000
0.53623998,-2.16998816,-1.42636395,-1.81732571,1.43912053,0.00000000,0.00000000,-0.56024081,1.99192154,1.36698270,1.27808893,-2.52778983,0.00000000,0.00000000
0.54836982,-2.16977358,-1.41966748,-1.78866422,1.45410037,0.00000000,0.00000000,-0.48258212,1.98843348,1.36279368,1.28326511,-2.52151418,0.00000000,0.00000000
0.55588663,-2.16855884,-1.41310930,-1.77870822,1.46711147,0.00000000,0.00000000,-0.39716995,1.99022901,1.35510123,1.30806065,-2.51235723,0.00000000,0.00000000
0.55909389,-2.16426945,-1.41195643,-1.78560781,1.47394526,0.00000000,0.00000000,-0.31251252,1.99506140,1.34496319,1.35021842,-2.50307441,0.00000000,0.00000000
0.56109184,-2.15518165,-1.42173779,-1.79636431,1.48152864,0.00000000,0.00000000,-0.23944874,2.00265861,1.33017325,1.40345180,-2.49357772,0.00000000,0.00000000
0.56422967,-2.14526916,-1.43758142,-1.80507863,1.49233627,0.00000000,0.00000000,-0.18737939,2.01351047,1.30834174,1.45716393,-2.48502755,0.00000000,0.00000000
0.57061923,-2.13878107,-1.45143318,-1.81073248,1.50643075,0.00000000,0.00000000,-0.16113338,2.02358603,1.28384936,1.49527967,-2.47529101,0.00000000,0.00000000
0.58186448,-2.13495541,-1.45946217,-1.81244969,1.52588463,0.00000000,0.00000000,-0.15783210,2.03196478,1.26078367,1.51322401,-2.46007848,0.00000000,0.00000000
0.59665203,-2.13060117,-1.46254945,-1.80893779,1.54541433,0.00000000,0.00000000,-0.17289861,2.04033518,1.24040151,1.51225865,-2.44530773,0.00000000,0.00000000
0.61100829,-2.12662983,-1.46222341,-1.79996920,1.55890298,0.00000000,0.00000000,-0.20230623,2.05025697,1.22316587,1.49373114,-2.43016768,0.00000000,0.00000000
0.62142336,-2.12234521,-1.45963562,-1.78719759,1.57574582,0.00000000,0.00000000,-0.24201860,2.06156731,1.21042752,1.45882881,-2.41613579,0.00000000,0.00000000
0.62506539,-2.11598206,-1.45630169,-1.77342784,1.59072530,0.00000000,0.00000000,-0.28735042,2.07285690,1.20383739,1.40912712,-2.39215112,0.00000000,0.00000000
0.61928099,-2.10734367,-1.45321894,-1.76409614,1.60555685,0.00000000,0.00000000,-0.33396396,2.08270669,1.20464742,1.34729838,-2.36810255,0.00000000,0.00000000
0.60342008,-2.09748816,-1.45110297,-1.76680219,1.62305176,0.00000000,0.00000000,-0.38075382,2.08835220,1.21416473,1.27802265,-2.35156155,0.00000000,0.00000000
0.57801944,-2.08777499,-1.45071328,-1.78819144,1.63869119,0.00000000,0.00000000,-0.43007806,2.08688831,1.23226380,1.20998287,-2.33879018,0.00000000,0.00000000
0.54497170,-2.07859421,-1.45361257,-1.82543075,1.65145016,0.00000000,0.00000000,-0.47987917,2.08406377,1.25312674,1.15591955,-2.33060884,0.00000000,0.00000000
0.51071054,-2.07016444,-1.46068549,-1.86436856,1.65913594,0.00000000,0.00000000,-0.52753931,2.08039784,1.27609372,1.11936402,-2.32178020,0.00000000,0.00000000
0.48184371,-2.06392097,-1.46865773,-1.89552712,1.66645157,0.00000000,0.00000000,-0.56660843,2.07462716,1.30265450,1.10038233,-2.31755900,0.00000000,0.00000000
0.46085027,-2.06203842,-1.47411120,-1.91608298,1.67847359,0.00000000,0.00000000,-0.59086317,2.06639147,1.33203053,1.09502113,-2.31640244,0.00000000,0.00000000
0.44924864,-2.06539893,-1.47590566,-1.92437375,1.69520831,0.00000000,0.00000000,-0.60096091,2.05658960,1.36021519,1.09808898,-2.31090069,0.00000000,0.00000000
0.44818369,-2.07323050,-1.47402370,-1.91926205,1.71167827,0.00000000,0.00000000,-0.59981084,2.04600859,1.38377869,1.10544860,-2.30992103,0.00000000,0.00000000
0.45760113,-2.08398938,-1.46901977,-1.90053236,1.72938824,0.00000000,0.00000000,-0.58901167,2.03467393,1.40124357,1.11402869,-2.30852938,0.00000000,0.00000000
0.47644031,-2.09557891,-1.46213031,-1.86869323,1.74735940,0.00000000,0.00000000,-0.56899250,2.02209759,1.41254818,1.12163746,-2.30673695,0.00000000,0.00000000
0.50143427,-2.10570931,-1.45521593,-1.82590592,1.76336730,0.00000000,0.00000000,-0.53904712,2.00847077,1.41809416,1.12737727,-2.29879570,0.00000000,0.00000000
0.52593857,-2.11282539,-1.44985330,-1.77781022,1.77548432,0.00000000,0.00000000,-0.49735442,1.99524188,1.41791391,1.13245833,-2.28639698,0.00000000,0.00000000
0.54416621,-2.11733294,-1.44548762,-1.73410833,1.78557956,0.00000000,0.00000000,-0.44505456,1.98610532,1.41001749,1.14126873,-2.27023673,0.00000000,0.00000000
0.55478132,-2.12099433,-1.43982422,-1.70745790,1.79438853,0.00000000,0.00000000,-0.38691077,1.98606622,1.39156592,1.16234732,-2.26406312,0.00000000,0.00000000
0.56138438,-2.12362599,-1.43394661,-1.70186484,1.79988062,0.00000000,0.00000000,-0.32879201,1.99261272,1.36578274,1.19967318,-2.26238608,0.00000000,0.00000000
0.56470662,-2.12393498,-1.43243730,-1.71410000,1.80737936,0.00000000,0.00000000,-0.27637517,2.00241375,1.33576107,1.25156331,-2.26032710,0.00000000,0.00000000
0.56442636,-2.12143779,-1.43965483,-1.73348045,1.81402087,0.00000000,0.00000000,-0.23375148,2.01540327,1.30181646,1.31562912,-2.26139259,0.00000000,0.00000000
0.56470340,-2.12027621,-1.45000052,-1.75106525,1.82262540,0.00000000,0.00000000,-0.20224532,2.03099203,1.26613832,1.38584995,-2.26262236,0.00000000,0.00000000
0.56826615,-2.12316608,-1.45869672,-1.76343894,1.82957339,0.00000000,0.00000000,-0.18494193,2.04416156,1.23527920,1.44565475,-2.26079750,0.00000000,0.00000000
0.57517272,-2.12872052,-1.46505690,-1.76950574,1.83587205,0.00000000,0.00000000,-0.18085267,2.05492973,1.21174288,1.48970044,-2.26105165,0.00000000,0.00000000
0.58454996,-2.13392878,-1.46965873,-1.76869965,1.84631956,0.00000000,0.00000000,-0.18828762,2.06588387,1.19464409,1.51832819,-2.26643491,0.00000000,0.00000000
0.59547371,-2.13627005,-1.47322845,-1.76072001,1.85463107,0.00000000,0.00000000,-0.20613587,2.07841849,1.18326986,1.53156173,-2.27328062,0.00000000,0.00000000
0.60615778,-2.13507962,-1.47615802,-1.74658942,1.86322081,0.00000000,0.00000000,-0.23327933,2.09245133,1.17755091,1.52928185,-2.28432155,0.00000000,0.00000000
0.61373907,-2.13116717,-1.47843027,-1.72969508,1.86715519,0.00000000,0.00000000,-0.26900807,2.10663915,1.17749929,1.51130068,-2.29304838,0.00000000,0.00000000
0.61482805,-2.12624216,-1.47997510,-1.71761656,1.86545360,0.00000000,0.00000000,-0.31339347,2.11830378,1.18342805,1.47786593,-2.30552077,0.00000000,0.00000000
0.60727412,-2.12210011,-1.48143566,-1.72107041,1.86484683,0.00000000,0.00000000,-0.36729181,2.12239814,1.19760978,1.43077612,-2.32448792,0.00000000,0.00000000
