isaac-sim2real/sage/motion_files/wr75s/amass/0-HumanEva_S1_Gestures_1_poses_idx35.txt
l_joint1,l_joint2,l_joint3,l_joint4,l_joint5,l_joint6,l_joint7,r_joint1,r_joint2,r_joint3,r_joint4,r_joint5,r_joint6,r_joint7
-0.05530746,-2.16366291,-0.71451861,-0.24402632,-0.02369435,0.00000000,0.00000000,-0.02560906,2.16487980,0.83478367,0.26062953,-0.05207523,0.00000000,0.00000000
-0.05645591,-2.16422462,-0.71503311,-0.24643296,-0.02918661,0.00000000,0.00000000,-0.02938252,2.16605234,0.83375901,0.26552880,-0.04987282,0.00000000,0.00000000
-0.05879830,-2.16569042,-0.71601194,-0.25102589,-0.03654489,0.00000000,0.00000000,-0.03446010,2.16879988,0.83238238,0.27372262,-0.04611595,0.00000000,0.00000000
-0.06285052,-2.16615367,-0.71768290,-0.25662538,-0.04014163,0.00000000,0.00000000,-0.03740843,2.16992235,0.83245623,0.28050029,-0.04635291,0.00000000,0.00000000
-0.06717356,-2.16669011,-0.71969914,-0.26278916,-0.04148555,0.00000000,0.00000000,-0.03727372,2.17000008,0.83412671,0.28567389,-0.04682725,0.00000000,0.00000000
-0.07094852,-2.16712689,-0.72196120,-0.26867437,-0.04284503,0.00000000,0.00000000,-0.03426087,2.16999269,0.83718085,0.28981042,-0.04580266,0.00000000,0.00000000
-0.07425847,-2.16686511,-0.72459012,-0.27357960,-0.04494230,0.00000000,0.00000000,-0.02824938,2.16987991,0.84158975,0.29328713,-0.04678284,0.00000000,0.00000000
-0.07694754,-2.16642141,-0.72759694,-0.27740300,-0.04198474,0.00000000,0.00000000,-0.01971161,2.16950536,0.84693253,0.29729924,-0.04527529,0.00000000,0.00000000
-0.07949819,-2.16520572,-0.73122269,-0.27997553,-0.04069482,0.00000000,0.00000000,-0.01005934,2.16893959,0.85239035,0.30350772,-0.04396634,0.00000000,0.00000000
-0.08257620,-2.16361547,-0.73549443,-0.28230563,-0.04348514,0.00000000,0.00000000,-0.00012402,2.16838527,0.85748780,0.31269357,-0.04135975,0.00000000,0.00000000
-0.08603293,-2.16115427,-0.74031639,-0.28465319,-0.04646650,0.00000000,0.00000000,0.00948790,2.16831923,0.86191887,0.32481253,-0.03894219,0.00000000,0.00000000
-0.08922014,-2.15869021,-0.74542582,-0.28734958,-0.04773301,0.00000000,0.00000000,0.01866594,2.16840649,0.86560661,0.33917359,-0.03661206,0.00000000,0.00000000
-0.09193356,-2.15653038,-0.75074190,-0.29026473,-0.05168195,0.00000000,0.00000000,0.02697223,2.16884708,0.86835206,0.35507199,-0.03440016,0.00000000,0.00000000
-0.09417368,-2.15389442,-0.75635344,-0.29273784,-0.05166688,0.00000000,0.00000000,0.03312359,2.16903424,0.86996979,0.37095156,-0.03102044,0.00000000,0.00000000
-0.09589260,-2.15065837,-0.76226127,-0.29460141,-0.04812218,0.00000000,0.00000000,0.03679545,2.16904449,0.87030333,0.38636839,-0.02408241,0.00000000,0.00000000
-0.09708412,-2.14782739,-0.76834112,-0.29646048,-0.04056743,0.00000000,0.00000000,0.03829305,2.16966391,0.86923337,0.40171003,-0.01502018,0.00000000,0.00000000
-0.09802659,-2.14522028,-0.77465904,-0.29854926,-0.03476590,0.00000000,0.00000000,0.03786402,2.16997528,0.86708862,0.41631466,-0.00338532,0.00000000,0.00000000
-0.09886283,-2.14287639,-0.78123683,-0.30134842,-0.02966405,0.00000000,0.00000000,0.03554324,2.17000008,0.86421525,0.42945683,0.00652421,0.00000000,0.00000000
-0.09948254,-2.14029574,-0.78811097,-0.30492136,-0.02823512,0.00000000,0.00000000,0.03159788,2.17000008,0.86114591,0.44029462,0.01605931,0.00000000,0.00000000
-0.09917745,-2.13744879,-0.79515696,-0.30882004,-0.02151718,0.00000000,0.00000000,0.02626278,2.17000008,0.85826743,0.44820943,0.02599414,0.00000000,0.00000000
-0.09719143,-2.13523483,-0.80211478,-0.31298926,-0.01770303,0.00000000,0.00000000,0.02071847,2.17000008,0.85609162,0.45336938,0.03886645,0.00000000,0.00000000
-0.09323903,-2.13347292,-0.80894226,-0.31707743,-0.01775395,0.00000000,0.00000000,0.01668156,2.17000008,0.85546088,0.45602423,0.04202620,0.00000000,0.00000000
-0.08790281,-2.13088298,-0.81587481,-0.32043546,-0.00671004,0.00000000,0.00000000,0.01499900,2.17000008,0.85692376,0.45606852,0.03052379,0.00000000,0.00000000
-0.08166956,-2.12767076,-0.82292682,-0.32299086,0.00000960,0.00000000,0.00000000,0.01537975,2.17000008,0.85982352,0.45464504,0.01849961,0.00000000,0.00000000
-0.07439327,-2.12509632,-0.82987827,-0.32502058,0.01107380,0.00000000,0.00000000,0.01719273,2.17000008,0.86329436,0.45294678,0.00550576,0.00000000,0.00000000
-0.06630251,-2.12273645,-0.83680952,-0.32642058,0.02710177,0.00000000,0.00000000,0.02039634,2.17000008,0.86764795,0.45020264,-0.00706789,0.00000000,0.00000000
-0.05734342,-2.12084222,-0.84365857,-0.32730448,0.04471154,0.00000000,0.00000000,0.02430926,2.16999865,0.87237030,0.44680670,-0.01908366,0.00000000,0.00000000
-0.04827308,-2.11930537,-0.85052568,-0.32798854,0.06567544,0.00000000,0.00000000,0.02796956,2.16998172,0.87655967,0.44360340,-0.02613729,0.00000000,0.00000000
-0.04058967,-2.11759782,-0.85768169,-0.32888958,0.08468793,0.00000000,0.00000000,0.03153555,2.16995525,0.87993658,0.44093394,-0.03549813,0.00000000,0.00000000
-0.03245645,-2.11748815,-0.86458713,-0.32984588,0.10065731,0.00000000,0.00000000,0.03480884,2.16998172,0.88220370,0.43877798,-0.04459627,0.00000000,0.00000000
-0.02430869,-2.11970377,-0.87116581,-0.33141494,0.11869249,0.00000000,0.00000000,0.03760503,2.16999865,0.88328272,0.43666399,-0.04989441,0.00000000,0.00000000
-0.01693472,-2.12336588,-0.87763095,-0.33357117,0.13258764,0.00000000,0.00000000,0.04012960,2.16999650,0.88330585,0.43418932,-0.06003330,0.00000000,0.00000000
-0.01017175,-2.12817454,-0.88398147,-0.33603731,0.15121970,0.00000000,0.00000000,0.04259304,2.16996479,0.88225198,0.43142253,-0.07485331,0.00000000,0.00000000
-0.00479640,-2.13333726,-0.89042246,-0.33882797,0.17740215,0.00000000,0.00000000,0.04504590,2.16991520,0.88022578,0.42806673,-0.09172844,0.00000000,0.00000000
-0.00149385,-2.13890743,-0.89701200,-0.34233677,0.19918132,0.00000000,0.00000000,0.04713726,2.16996527,0.87705576,0.42414713,-0.10376333,0.00000000,0.00000000
-0.00057236,-2.14427543,-0.90386951,-0.34664664,0.21767522,0.00000000,0.00000000,0.04885152,2.16999769,0.87298363,0.41920570,-0.11055519,0.00000000,0.00000000
-0.00208483,-2.14912581,-0.91102952,-0.35204589,0.24338479,0.00000000,0.00000000,0.05048992,2.17000008,0.86837041,0.41289160,-0.11973217,0.00000000,0.00000000
-0.00546480,-2.15227342,-0.91856647,-0.35817081,0.26478967,0.00000000,0.00000000,0.05244606,2.17000008,0.86386001,0.40420857,-0.13370737,0.00000000,0.00000000
-0.00895596,-2.15403676,-0.92611665,-0.36460215,0.27998793,0.00000000,0.00000000,0.05420069,2.16994476,0.85952222,0.39260069,-0.14172199,0.00000000,0.00000000
-0.01164742,-2.15580797,-0.93323833,-0.37193647,0.29170769,0.00000000,0.00000000,0.05590035,2.16908216,0.85539883,0.37817609,-0.15222362,0.00000000,0.00000000
-0.01280573,-2.15868807,-0.93954611,-0.38058382,0.29310298,0.00000000,0.00000000,0.05826915,2.16610932,0.85135472,0.36204639,-0.16029197,0.00000000,0.00000000
-0.01264742,-2.16269541,-0.94496423,-0.39066991,0.29672220,0.00000000,0.00000000,0.06185834,2.16186070,0.84698945,0.34590846,-0.16739057,0.00000000,0.00000000
-0.01266164,-2.16635203,-0.94988459,-0.40217409,0.30367061,0.00000000,0.00000000,0.06664592,2.15723515,0.84209859,0.33046350,-0.17684235,0.00000000,0.00000000
-0.01169115,-2.16894579,-0.95428395,-0.41356358,0.31867996,0.00000000,0.00000000,0.07179538,2.15244269,0.83659589,0.31545037,-0.18520504,0.00000000,0.00000000
-0.00986549,-2.16985917,-0.95853245,-0.42385575,0.33198032,0.00000000,0.00000000,0.07670237,2.14749932,0.83047044,0.30075440,-0.19663544,0.00000000,0.00000000
-0.00751427,-2.16996217,-0.96269608,-0.43303362,0.34496745,0.00000000,0.00000000,0.08065734,2.14317298,0.82358927,0.28662610,-0.20818539,0.00000000,0.00000000
-0.00397430,-2.16998672,-0.96640170,-0.44108480,0.35051110,0.00000000,0.00000000,0.08317780,2.14033008,0.81584293,0.27344003,-0.20218532,0.00000000,0.00000000
0.00049712,-2.16999912,-0.96986419,-0.44768560,0.35584977,0.00000000,0.00000000,0.08436606,2.13905454,0.80730373,0.26152465,-0.19351152,0.00000000,0.00000000
0.00569116,-2.17000008,-0.97328067,-0.45257285,0.36049375,0.00000000,0.00000000,0.08497497,2.13889909,0.79819673,0.25129548,-0.18099816,0.00000000,0.00000000
0.01182910,-2.17000008,-0.97636807,-0.45610434,0.36181721,0.00000000,0.00000000,0.08548835,2.14012432,0.78862900,0.24331014,-0.17456050,0.00000000,0.00000000
0.01772302,-2.17000008,-0.97961384,-0.45874575,0.36406940,0.00000000,0.00000000,0.08542562,2.14259887,0.77864039,0.23770399,-0.16699533,0.00000000,0.00000000
0.02295410,-2.16999173,-0.98335475,-0.46060807,0.35016334,0.00000000,0.00000000,0.08368994,2.14574480,0.76824278,0.23413464,-0.15892492,0.00000000,0.00000000
0.02790915,-2.16986728,-0.98683769,-0.46276802,0.33216065,0.00000000,0.00000000,0.08053112,2.15015912,0.75743604,0.23301229,-0.14482126,0.00000000,0.00000000
0.03174038,-2.16950130,-0.98989505,-0.46623567,0.31539410,0.00000000,0.00000000,0.07641479,2.15512729,0.74634326,0.23422369,-0.13532269,0.00000000,0.00000000
0.03587149,-2.16936827,-0.99179006,-0.47080377,0.29569268,0.00000000,0.00000000,0.07170893,2.16046858,0.73501992,0.23793964,-0.12912025,0.00000000,0.00000000
0.04057135,-2.16978073,-0.99227238,-0.47652084,0.27462608,0.00000000,0.00000000,0.06676665,2.16579604,0.72353482,0.24435820,-0.12252907,0.00000000,0.00000000
0.04400089,-2.16998553,-0.99237227,-0.48331669,0.25358415,0.00000000,0.00000000,0.06200454,2.16909552,0.71222830,0.25257090,-0.10813014,0.00000000,0.00000000
0.04596173,-2.17000008,-0.99304974,-0.48986694,0.22763716,0.00000000,0.00000000,0.05782062,2.16994762,0.70160538,0.26089269,-0.09295380,0.00000000,0.00000000
0.04734877,-2.17000008,-0.99438238,-0.49528944,0.20991200,0.00000000,0.00000000,0.05487694,2.17000008,0.69209212,0.26804832,-0.07983942,0.00000000,0.00000000
0.04859630,-2.17000008,-0.99579060,-0.50011402,0.19573557,0.00000000,0.00000000,0.05432296,2.17000008,0.68402225,0.27344674,-0.07489265,0.00000000,0.00000000
0.04957592,-2.17000008,-0.99728727,-0.50442457,0.17390323,0.00000000,0.00000000,0.05617900,2.17000008,0.67752528,0.27634344,-0.06859447,0.00000000,0.00000000
0.05024779,-2.17000008,-0.99914378,-0.50777304,0.15743412,0.00000000,0.00000000,0.05958260,2.17000008,0.67247313,0.27634010,-0.05464945,0.00000000,0.00000000
0.05066599,-2.17000008,-1.00127900,-0.51007420,0.14677298,0.00000000,0.00000000,0.06367170,2.17000008,0.66852194,0.27404186,-0.05178536,0.00000000,0.00000000
0.05073781,-2.17000008,-1.00335503,-0.51178133,0.14157169,0.00000000,0.00000000,0.06801325,2.17000008,0.66530335,0.27057743,-0.04179465,0.00000000,0.00000000
0.05029768,-2.17000008,-1.00525558,-0.51316947,0.14090449,0.00000000,0.00000000,0.07240520,2.17000008,0.66260219,0.26658586,-0.03750559,0.00000000,0.00000000
0.04985670,-2.17000008,-1.00676501,-0.51411045,0.14385846,0.00000000,0.00000000,0.07633889,2.17000008,0.66017252,0.26258102,-0.03777508,0.00000000,0.00000000
0.04986230,-2.17000008,-1.00768936,-0.51453698,0.14138930,0.00000000,0.00000000,0.07961090,2.17000008,0.65786111,0.25893274,-0.03827385,0.00000000,0.00000000
0.05032963,-2.17000008,-1.00792372,-0.51467788,0.14161815,0.00000000,0.00000000,0.08242309,2.17000008,0.65561575,0.25591773,-0.04028538,0.00000000,0.00000000
0.05104956,-2.17000008,-1.00735593,-0.51500815,0.14307670,0.00000000,0.00000000,0.08491994,2.17000008,0.65335214,0.25393245,-0.03036065,0.00000000,0.00000000
0.05202141,-2.17000008,-1.00607324,-0.51547360,0.14505881,0.00000000,0.00000000,0.08715990,2.17000008,0.65101552,0.25310868,-0.02195931,0.00000000,0.00000000
0.05259433,-2.17000008,-1.00532138,-0.51490974,0.14721981,0.00000000,0.00000000,0.08888777,2.17000008,0.64875948,0.25215498,-0.01585788,0.00000000,0.00000000
0.05229789,-2.17000008,-1.00539398,-0.51352471,0.15038981,0.00000000,0.00000000,0.09002429,2.17000008,0.64657724,0.25085935,-0.01281976,0.00000000,0.00000000
0.05138024,-2.17000008,-1.00578463,-0.51208889,0.14714403,0.00000000,0.00000000,0.09059817,2.17000008,0.64433759,0.24981549,-0.01283191,0.00000000,0.00000000
0.05127851,-2.17000008,-1.00582600,-0.51046765,0.14089559,0.00000000,0.00000000,0.09079304,2.17000008,0.64199394,0.24940640,-0.00176703,0.00000000,0.00000000
0.05065568,-2.17000008,-1.00601292,-0.50979340,0.13132077,0.00000000,0.00000000,0.09047012,2.17000008,0.63960886,0.24918909,0.00037699,0.00000000,0.00000000
0.04957892,-2.17000008,-1.00636137,-0.50992310,0.12793103,0.00000000,0.00000000,0.08962871,2.17000008,0.63714898,0.24934822,-0.00398770,0.00000000,0.00000000
0.04930059,-2.17000008,-1.00638115,-0.50998920,0.12874602,0.00000000,0.00000000,0.08848223,2.17000008,0.63453501,0.25048709,-0.00871989,0.00000000,0.00000000
0.04902610,-2.17000008,-1.00637710,-0.51033622,0.12708421,0.00000000,0.00000000,0.08662182,2.17000008,0.63169897,0.25253004,-0.01018496,0.00000000,0.00000000
0.04947897,-2.17000008,-1.00592172,-0.51091546,0.12505281,0.00000000,0.00000000,0.08383924,2.17000008,0.62852848,0.25584611,-0.01275084,0.00000000,0.00000000
0.04987608,-2.17000008,-1.00562990,-0.51172793,0.12338310,0.00000000,0.00000000,0.08005187,2.17000008,0.62513345,0.25970697,-0.01652938,0.00000000,0.00000000
0.05024495,-2.17000008,-1.00575686,-0.51236558,0.11948067,0.00000000,0.00000000,0.07527634,2.17000008,0.62161559,0.26355451,-0.02588805,0.00000000,0.00000000
0.05077333,-2.17000008,-1.00617492,-0.51288748,0.11818352,0.00000000,0.00000000,0.07040560,2.17000008,0.61819959,0.26712841,-0.03360022,0.00000000,0.00000000
0.05122023,-2.17000008,-1.00705028,-0.51342529,0.10963313,0.00000000,0.00000000,0.06643305,2.17000008,0.61525106,0.26955298,-0.04098980,0.00000000,0.00000000
0.05184121,-2.17000008,-1.00845659,-0.51361316,0.09905923,0.00000000,0.00000000,0.06396071,2.17000008,0.61304384,0.27001578,-0.04696780,0.00000000,0.00000000
0.05241761,-2.17000008,-1.00992656,-0.51444572,0.09584902,0.00000000,0.00000000,0.06335071,2.17000008,0.61153370,0.26913983,-0.05251960,0.00000000,0.00000000
0.05257426,-2.17000008,-1.01133966,-0.51630485,0.08811439,0.00000000,0.00000000,0.06429382,2.17000008,0.61047888,0.26794139,-0.06143031,0.00000000,0.00000000
0.05249206,-2.17000008,-1.01323831,-0.51776695,0.07905744,0.00000000,0.00000000,0.06614410,2.17000008,0.60981703,0.26611531,-0.06787227,0.00000000,0.00000000
0.05251119,-2.17000008,-1.01563048,-0.51826930,0.06984041,0.00000000,0.00000000,0.06843431,2.17000008,0.60942441,0.26383823,-0.07284855,0.00000000,0.00000000
0.05239408,-2.17000008,-1.01811028,-0.51863116,0.06062161,0.00000000,0.00000000,0.07079673,2.17000008,0.60903358,0.26215291,-0.07474036,0.00000000,0.00000000
0.05278209,-2.17000008,-1.02039003,-0.51865548,0.04823347,0.00000000,0.00000000,0.07263696,2.17000008,0.60844767,0.26148051,-0.06757047,0.00000000,0.00000000
0.05309866,-2.17000008,-1.02232563,-0.51933467,0.03422419,0.00000000,0.00000000,0.07377775,2.17000008,0.60758728,0.26203832,-0.06083124,0.00000000,0.00000000
0.05338094,-2.17000008,-1.02367520,-0.52112168,0.01800304,0.00000000,0.00000000,0.07439412,2.17000008,0.60646558,0.26390564,-0.06333183,0.00000000,0.00000000
0.05373179,-2.17000008,-1.02495158,-0.52315396,-0.00122935,0.00000000,0.00000000,0.07476665,2.17000008,0.60532439,0.26603901,-0.06776702,0.00000000,0.00000000
0.05369600,-2.17000008,-1.02619934,-0.52589554,-0.02328360,0.00000000,0.00000000,0.07493599,2.17000008,0.60420877,0.26825354,-0.06688545,0.00000000,0.00000000
0.05335686,-2.17000008,-1.02777493,-0.52853543,-0.04614867,0.00000000,0.00000000,0.07504843,2.17000008,0.60323685,0.27006292,-0.06906545,0.00000000,0.00000000
0.05351977,-2.17000008,-1.02960277,-0.53011310,-0.07320287,0.00000000,0.00000000,0.07531746,2.17000008,0.60248315,0.27127346,-0.07363360,0.00000000,0.00000000
0.05334250,-2.17000008,-1.03185439,-0.53123617,-0.09786255,0.00000000,0.00000000,0.07585640,2.17000008,0.60201961,0.27155411,-0.08525186,0.00000000,0.00000000
0.05331300,-2.17000008,-1.03392982,-0.53224158,-0.12221950,0.00000000,0.00000000,0.07673838,2.17000008,0.60174704,0.27142200,-0.10328869,0.00000000,0.00000000
0.05257016,-2.17000008,-1.03648496,-0.53304577,-0.14737351,0.00000000,0.00000000,0.07745108,2.17000008,0.60165906,0.27026361,-0.11706159,0.00000000,0.00000000
0.05219981,-2.17000008,-1.03859913,-0.53370863,-0.16716953,0.00000000,0.00000000,0.07810387,2.17000008,0.60155123,0.26921231,-0.12597285,0.00000000,0.00000000
0.05235280,-2.17000008,-1.04001427,-0.53437662,-0.19153219,0.00000000,0.00000000,0.07865017,2.17000008,0.60132492,0.26870349,-0.13608825,0.00000000,0.00000000
0.05207354,-2.17000008,-1.04096830,-0.53565633,-0.21105257,0.00000000,0.00000000,0.07911439,2.17000008,0.60099179,0.26866132,-0.14908959,0.00000000,0.00000000
0.05244254,-2.17000008,-1.04083645,-0.53718632,-0.22481872,0.00000000,0.00000000,0.07973965,2.17000008,0.60046136,0.26983225,-0.16163754,0.00000000,0.00000000
0.05301784,-2.17000008,-1.04037476,-0.53828156,-0.23573539,0.00000000,0.00000000,0.08043031,2.17000008,0.59984648,0.27149954,-0.17216069,0.00000000,0.00000000
0.05252647,-2.17000008,-1.04117501,-0.53814381,-0.25479877,0.00000000,0.00000000,0.08047762,2.17000008,0.59935379,0.27178830,-0.18281823,0.00000000,0.00000000
0.05182600,-2.17000008,-1.04169416,-0.53805155,-0.27755877,0.00000000,0.00000000,0.08048783,2.17000008,0.59878308,0.27235055,-0.19694887,0.00000000,0.00000000
0.05173562,-2.17000008,-1.04121113,-0.53826511,-0.29572332,0.00000000,0.00000000,0.08069073,2.17000008,0.59809327,0.27354977,-0.21236993,0.00000000,0.00000000
0.05232829,-2.17000008,-1.03997147,-0.53843701,-0.31260985,0.00000000,0.00000000,0.08113094,2.17000008,0.59737432,0.27488863,-0.22135988,0.00000000,0.00000000
0.05244547,-2.17000008,-1.03906441,-0.53826928,-0.33145696,0.00000000,0.00000000,0.08155605,2.17000008,0.59676665,0.27533734,-0.22650091,0.00000000,0.00000000
0.05159266,-2.17000008,-1.03906858,-0.53759009,-0.35347503,0.00000000,0.00000000,0.08161732,2.17000008,0.59630781,0.27434760,-0.22774763,0.00000000,0.00000000
0.05079844,-2.17000008,-1.03887546,-0.53694576,-0.37256423,0.00000000,0.00000000,0.08153816,2.17000008,0.59579438,0.27326161,-0.22163820,0.00000000,0.00000000
0.05063762,-2.17000008,-1.03788543,-0.53658748,-0.39006758,0.00000000,0.00000000,0.08163262,2.17000008,0.59513205,0.27288923,-0.22104174,0.00000000,0.00000000
0.05034422,-2.17000008,-1.03647768,-0.53682154,-0.40660763,0.00000000,0.00000000,0.08171668,2.17000008,0.59428865,0.27314001,-0.21679668,0.00000000,0.00000000
0.04997634,-2.17000008,-1.03488040,-0.53735477,-0.41807565,0.00000000,0.00000000,0.08130822,2.17000008,0.59322488,0.27359852,-0.22169054,0.00000000,0.00000000
0.04899712,-2.17000008,-1.03349793,-0.53817040,-0.42027003,0.00000000,0.00000000,0.08110970,2.17000008,0.59214854,0.27387157,-0.22350593,0.00000000,0.00000000
0.04798750,-2.17000008,-1.03230107,-0.53866619,-0.42869934,0.00000000,0.00000000,0.08123933,2.17000008,0.59109455,0.27384639,-0.21680801,0.00000000,0.00000000
0.04717535,-2.17000008,-1.03094399,-0.53911817,-0.43339726,0.00000000,0.00000000,0.08162529,2.17000008,0.58997309,0.27385312,-0.21027015,0.00000000,0.00000000
0.04591688,-2.17000008,-1.02968454,-0.53984582,-0.43365774,0.00000000,0.00000000,0.08216034,2.17000008,0.58876312,0.27380732,-0.20960437,0.00000000,0.00000000
0.04487525,-2.17000008,-1.02862716,-0.54000968,-0.43176395,0.00000000,0.00000000,0.08276585,2.17000008,0.58747327,0.27350226,-0.20632607,0.00000000,0.00000000
0.04379126,-2.17000008,-1.02807546,-0.53959394,-0.42075142,0.00000000,0.00000000,0.08332778,2.17000008,0.58612633,0.27260849,-0.20408826,0.00000000,0.00000000
0.04244171,-2.17000008,-1.02762389,-0.53953278,-0.40592560,0.00000000,0.00000000,0.08384564,2.17000008,0.58459729,0.27170449,-0.19558620,0.00000000,0.00000000
0.04161423,-2.17000008,-1.02688193,-0.53952372,-0.39163277,0.00000000,0.00000000,0.08435224,2.17000008,0.58279461,0.27117306,-0.18410663,0.00000000,0.00000000
0.04112827,-2.17000008,-1.02591801,-0.53970981,-0.37305719,0.00000000,0.00000000,0.08473628,2.17000008,0.58070701,0.27073765,-0.17007874,0.00000000,0.00000000
0.04104754,-2.17000008,-1.02478302,-0.53996623,-0.35954371,0.00000000,0.00000000,0.08506691,2.17000008,0.57832968,0.27030936,-0.15792382,0.00000000,0.00000000
0.04142345,-2.17000008,-1.02357793,-0.54005706,-0.34276047,0.00000000,0.00000000,0.08556428,2.17000008,0.57566309,0.26992896,-0.14291929,0.00000000,0.00000000
0.04194854,-2.17000008,-1.02249753,-0.54002273,-0.32646048,0.00000000,0.00000000,0.08625238,2.17000008,0.57268995,0.26945996,-0.12235910,0.00000000,0.00000000
0.04251351,-2.17000008,-1.02155864,-0.53994060,-0.30989563,0.00000000,0.00000000,0.08715580,2.17000008,0.56934673,0.26901150,-0.09607294,0.00000000,0.00000000
0.04306962,-2.17000008,-1.02073050,-0.53988820,-0.28965652,0.00000000,0.00000000,0.08827092,2.17000008,0.56554896,0.26875752,-0.06738262,0.00000000,0.00000000
0.04348519,-2.17000008,-1.02008474,-0.53988045,-0.26424354,0.00000000,0.00000000,0.08949523,2.17000008,0.56120610,0.26875085,-0.02933648,0.00000000,0.00000000
0.04360356,-2.17000008,-1.01981390,-0.53978908,-0.23303229,0.00000000,0.00000000,0.09078784,2.17000008,0.55627441,0.26882744,0.01337793,0.00000000,0.00000000
0.04331549,-2.17000008,-1.02009928,-0.53949189,-0.19945607,0.00000000,0.00000000,0.09226935,2.17000008,0.55079466,0.26842713,0.05422523,0.00000000,0.00000000
0.04282331,-2.17000008,-1.02075291,-0.53909910,-0.16809058,0.00000000,0.00000000,0.09419245,2.17000008,0.54477125,0.26734737,0.09024476,0.00000000,0.00000000
0.04233520,-2.17000008,-1.02157640,-0.53865224,-0.13524826,0.00000000,0.00000000,0.09640867,2.17000008,0.53805453,0.26584321,0.12201899,0.00000000,0.00000000
0.04198416,-2.17000008,-1.02233696,-0.53830379,-0.10214470,0.00000000,0.00000000,0.09861606,2.17000008,0.53042775,0.26438725,0.14897013,0.00000000,0.00000000
0.04185119,-2.17000008,-1.02283609,-0.53824401,-0.06999189,0.00000000,0.00000000,0.10078306,2.17000008,0.52175850,0.26327243,0.17121921,0.00000000,0.00000000
0.04188056,-2.17000008,-1.02313530,-0.53841728,-0.04157361,0.00000000,0.00000000,0.10298607,2.17000008,0.51200116,0.26231721,0.18659581,0.00000000,0.00000000
0.04212630,-2.17000008,-1.02320611,-0.53875804,-0.01526161,0.00000000,0.00000000,0.10525808,2.17000008,0.50107765,0.26143536,0.18987760,0.00000000,0.00000000
0.04262666,-2.17000008,-1.02305138,-0.53915101,-0.00068916,0.00000000,0.00000000,0.10753467,2.17000008,0.48888427,0.26056448,0.19686426,0.00000000,0.00000000
0.04317952,-2.17000008,-1.02291071,-0.53934950,0.01020267,0.00000000,0.00000000,0.10959256,2.17000008,0.47529960,0.25955182,0.19991413,0.00000000,0.00000000
0.04365595,-2.17000008,-1.02282631,-0.53930527,0.01643436,0.00000000,0.00000000,0.11169672,2.17000008,0.46026310,0.25836229,0.20272228,0.00000000,0.00000000
0.04398118,-2.17000008,-1.02281725,-0.53898358,0.02392291,0.00000000,0.00000000,0.11389561,2.17000008,0.44368237,0.25682929,0.20395060,0.00000000,0.00000000
0.04404918,-2.17000008,-1.02291644,-0.53830981,0.03221267,0.00000000,0.00000000,0.11643117,2.17000008,0.42548782,0.25479361,0.20878159,0.00000000,0.00000000
0.04374708,-2.17000008,-1.02301943,-0.53741878,0.03505627,0.00000000,0.00000000,0.11943414,2.17000008,0.40556538,0.25229183,0.20729741,0.00000000,0.00000000
0.04308679,-2.17000008,-1.02303672,-0.53629810,0.03479931,0.00000000,0.00000000,0.12287937,2.17000008,0.38377824,0.24929036,0.21097292,0.00000000,0.00000000
0.04204131,-2.17000008,-1.02285504,-0.53495878,0.03823451,0.00000000,0.00000000,0.12664561,2.17000008,0.35995206,0.24594663,0.21102458,0.00000000,0.00000000
0.04068860,-2.17000008,-1.02232742,-0.53334171,0.04358439,0.00000000,0.00000000,0.13077335,2.17000008,0.33390972,0.24270485,0.20918605,0.00000000,0.00000000
0.03917717,-2.17000008,-1.02140141,-0.53132457,0.04656311,0.00000000,0.00000000,0.13553464,2.17000008,0.30554149,0.23957177,0.20463493,0.00000000,0.00000000
0.03759980,-2.17000008,-1.02002466,-0.52896672,0.05005415,0.00000000,0.00000000,0.14089780,2.17000008,0.27471587,0.23631944,0.19951400,0.00000000,0.00000000
0.03602973,-2.17000008,-1.01807249,-0.52645987,0.05008684,0.00000000,0.00000000,0.14682415,2.17000008,0.24129795,0.23272578,0.19439982,0.00000000,0.00000000
0.03422150,-2.17000008,-1.01562214,-0.52392447,0.05283387,0.00000000,0.00000000,0.15401329,2.17000008,0.20528467,0.22814795,0.18895146,0.00000000,0.00000000
0.03209914,-2.16999865,-1.01249909,-0.52160966,0.05856879,0.00000000,0.00000000,0.16245084,2.17000008,0.16657913,0.22145708,0.18444291,0.00000000,0.00000000
0.02987155,-2.16997981,-1.00895429,-0.51891899,0.05365475,0.00000000,0.00000000,0.17230345,2.17000008,0.12519008,0.20912705,0.17972338,0.00000000,0.00000000
0.02732142,-2.16995096,-1.00529432,-0.51568067,0.04984004,0.00000000,0.00000000,0.18575855,2.17000008,0.08129213,0.19024298,0.16583836,0.00000000,0.00000000
0.02501540,-2.16998005,-1.00023544,-0.51329154,0.03955605,0.00000000,0.00000000,0.20206533,2.17000008,0.03459097,0.16532855,0.15213326,0.00000000,0.00000000
0.02265751,-2.16999865,-0.99416310,-0.51178801,0.02593313,0.00000000,0.00000000,0.22076361,2.17000008,-0.01509739,0.13088737,0.14320466,0.00000000,0.00000000
0.01997683,-2.17000008,-0.98783344,-0.51075178,0.00939997,0.00000000,0.00000000,0.23733929,2.17000008,-0.06814343,0.08161401,0.13482757,0.00000000,0.00000000
0.01678475,-2.17000008,-0.98188400,-0.50992471,-0.00901218,0.00000000,0.00000000,0.25067133,2.17000008,-0.12432936,0.01591620,0.13307603,0.00000000,0.00000000
0.01326634,-2.17000008,-0.97670084,-0.50919282,-0.02869442,0.00000000,0.00000000,0.26103744,2.17000008,-0.18298703,-0.06630384,0.12994052,0.00000000,0.00000000
0.00969130,-2.17000008,-0.97235626,-0.50851303,-0.05725334,0.00000000,0.00000000,0.26785722,2.17000008,-0.24308354,-0.16447839,0.12240168,0.00000000,0.00000000
0.00574028,-2.17000008,-0.96922261,-0.50744969,-0.08301494,0.00000000,0.00000000,0.27008185,2.16979384,-0.30305976,-0.27703676,0.11874044,0.00000000,0.00000000
0.00145554,-2.16999698,-0.96710306,-0.50630933,-0.10371325,0.00000000,0.00000000,0.26648906,2.16630936,-0.36080360,-0.40135503,0.12179877,0.00000000,0.00000000
-0.00275188,-2.16995597,-0.96512580,-0.50642532,-0.11321237,0.00000000,0.00000000,0.25589189,2.15088797,-0.41377094,-0.53412426,0.12807295,0.00000000,0.00000000
-0.00599206,-2.16989279,-0.96216094,-0.50941908,-0.12208838,0.00000000,0.00000000,0.23776524,2.11786485,-0.45929107,-0.67191833,0.13498518,0.00000000,0.00000000
-0.00796237,-2.16995621,-0.95804095,-0.51512516,-0.12094765,0.00000000,0.00000000,0.21248585,2.06837678,-0.49491742,-0.81133515,0.13925077,0.00000000,0.00000000
-0.01257342,-2.16999722,-0.95531422,-0.52060115,-0.11939878,0.00000000,0.00000000,0.18095556,2.00523496,-0.51870257,-0.94903040,0.14581199,0.00000000,0.00000000
-0.02037241,-2.17000008,-0.95472956,-0.52498877,-0.11563490,0.00000000,0.00000000,0.14356880,1.93091404,-0.52937007,-1.08163762,0.15779872,0.00000000,0.00000000
-0.03039843,-2.17000008,-0.95643634,-0.52923214,-0.10260136,0.00000000,0.00000000,0.09920063,1.84708714,-0.52638638,-1.20596492,0.17363550,0.00000000,0.00000000
-0.04136094,-2.17000008,-0.96128136,-0.53321546,-0.09114026,0.00000000,0.00000000,0.04580826,1.75500107,-0.51001430,-1.31933641,0.19058654,0.00000000,0.00000000
-0.04989395,-2.17000008,-0.96992248,-0.53518158,-0.07682209,0.00000000,0.00000000,-0.01874419,1.65697289,-0.48125544,-1.41943145,0.21380378,0.00000000,0.00000000
-0.05375231,-2.17000008,-0.98245633,-0.53409046,-0.06739687,0.00000000,0.00000000,-0.09467578,1.55667353,-0.44151157,-1.50444305,0.23899412,0.00000000,0.00000000
-0.05175833,-2.17000008,-0.99825621,-0.52992797,-0.05282501,0.00000000,0.00000000,-0.18020850,1.45760942,-0.39221016,-1.57325697,0.26306996,0.00000000,0.00000000
-0.04388097,-2.17000008,-1.01615834,-0.52389324,-0.04467373,0.00000000,0.00000000,-0.27279079,1.36191189,-0.33486912,-1.62562978,0.28821671,0.00000000,0.00000000
-0.03254013,-2.16996527,-1.03494525,-0.51861334,-0.03296026,0.00000000,0.00000000,-0.37002411,1.26995313,-0.27121893,-1.66238558,0.31751803,0.00000000,0.00000000
-0.02035896,-2.16944575,-1.05328131,-0.51646978,-0.01768274,0.00000000,0.00000000,-0.46981668,1.18028665,-0.20273478,-1.68595183,0.34198713,0.00000000,0.00000000
-0.00899305,-2.16794157,-1.07056725,-0.51794630,-0.01190762,0.00000000,0.00000000,-0.57043904,1.09010625,-0.13021913,-1.70155644,0.35985830,0.00000000,0.00000000
0.00145134,-2.16693115,-1.08588243,-0.52304834,-0.00081329,0.00000000,0.00000000,-0.67243099,0.99845034,-0.05625966,-1.71702528,0.37130082,0.00000000,0.00000000
0.01162405,-2.16766214,-1.09854484,-0.53145546,0.01755508,0.00000000,0.00000000,-0.77620173,0.90559053,0.01717867,-1.74140620,0.38819367,0.00000000,0.00000000
0.02167309,-2.16932774,-1.10895455,-0.54233962,0.04143634,0.00000000,0.00000000,-0.87960309,0.81395268,0.09102984,-1.77235603,0.40215835,0.00000000,0.00000000
0.03148041,-2.16995716,-1.11848199,-0.55445570,0.06236396,0.00000000,0.00000000,-0.97871143,0.73079234,0.16811241,-1.79402137,0.41556171,0.00000000,0.00000000
0.04137130,-2.17000008,-1.12796772,-0.56696200,0.08716520,0.00000000,0.00000000,-1.06978011,0.65996015,0.25118959,-1.79976189,0.42905888,0.00000000,0.00000000
0.05157735,-2.17000008,-1.13779259,-0.57917136,0.10375310,0.00000000,0.00000000,-1.15106285,0.60261357,0.34120518,-1.78910089,0.43089691,0.00000000,0.00000000
0.06215140,-2.17000008,-1.14768028,-0.59110135,0.12612599,0.00000000,0.00000000,-1.22260916,0.55858332,0.43753928,-1.76257539,0.43552381,0.00000000,0.00000000
0.07286494,-2.17000008,-1.15706527,-0.60298753,0.15621468,0.00000000,0.00000000,-1.28554904,0.52607822,0.53861213,-1.72199130,0.44932696,0.00000000,0.00000000
0.08315741,-2.17000008,-1.16567457,-0.61439925,0.18086475,0.00000000,0.00000000,-1.34159946,0.50137037,0.64208359,-1.67133307,0.47151777,0.00000000,0.00000000
0.09222794,-2.17000008,-1.17363989,-0.62471509,0.20198733,0.00000000,0.00000000,-1.39287841,0.47882849,0.74475390,-1.61749423,0.49508965,0.00000000,0.00000000
0.10009442,-2.17000008,-1.18111038,-0.63342178,0.21512426,0.00000000,0.00000000,-1.44155240,0.45322609,0.84306437,-1.56843817,0.51183879,0.00000000,0.00000000
0.10726085,-2.17000008,-1.18900502,-0.63986343,0.22728546,0.00000000,0.00000000,-1.48906767,0.42184746,0.93423206,-1.53049123,0.52140749,0.00000000,0.00000000
0.11430867,-2.17000008,-1.19874454,-0.64311755,0.23300260,0.00000000,0.00000000,-1.53608310,0.38449520,1.01653802,-1.50686836,0.53368253,0.00000000,0.00000000
0.12151224,-2.17000008,-1.21098125,-0.64287126,0.23662491,0.00000000,0.00000000,-1.58296382,0.34209061,1.08874464,-1.49844694,0.54043120,0.00000000,0.00000000
0.12851201,-2.17000008,-1.22411489,-0.64094931,0.23803180,0.00000000,0.00000000,-1.63017118,0.29568872,1.14957237,-1.50479865,0.54131198,0.00000000,0.00000000
0.13484301,-2.17000008,-1.23676383,-0.63896298,0.23086335,0.00000000,0.00000000,-1.67789054,0.24639526,1.19799292,-1.52468646,0.54138708,0.00000000,0.00000000
0.13943575,-2.17000008,-1.24872506,-0.63751650,0.22871545,0.00000000,0.00000000,-1.72545147,0.19589931,1.23408329,-1.55577421,0.54147458,0.00000000,0.00000000
0.14148724,-2.17000008,-1.26034915,-0.63670182,0.21615276,0.00000000,0.00000000,-1.77031505,0.14795917,1.26112938,-1.59297383,0.54469723,0.00000000,0.00000000
0.14186072,-2.17000008,-1.27253437,-0.63590235,0.20010780,0.00000000,0.00000000,-1.80823278,0.10842577,1.28671813,-1.62838769,0.54913390,0.00000000,0.00000000
0.14178163,-2.16997528,-1.28600836,-0.63408822,0.17778647,0.00000000,0.00000000,-1.83667731,0.08000802,1.31831777,-1.65595150,0.55610293,0.00000000,0.00000000
0.14132504,-2.16964149,-1.29923010,-0.63218099,0.16723843,0.00000000,0.00000000,-1.85603797,0.06052926,1.36028790,-1.67306530,0.56447428,0.00000000,0.00000000
0.13993295,-2.16906643,-1.30993533,-0.63255411,0.15987335,0.00000000,0.00000000,-1.86778939,0.04690380,1.41359365,-1.67907357,0.56292981,0.00000000,0.00000000
0.13805690,-2.16946697,-1.31682599,-0.63592386,0.14463361,0.00000000,0.00000000,-1.87360740,0.03711384,1.47631705,-1.67437160,0.56983036,0.00000000,0.00000000
0.13727760,-2.16990185,-1.32012057,-0.63972402,0.13225335,0.00000000,0.00000000,-1.87545371,0.02981882,1.54343331,-1.66131508,0.58545107,0.00000000,0.00000000
0.13702510,-2.16999507,-1.32062352,-0.64363927,0.11655211,0.00000000,0.00000000,-1.87609661,0.02330674,1.60673547,-1.64542651,0.60385227,0.00000000,0.00000000
0.13692035,-2.17000008,-1.31918859,-0.64792377,0.09466825,0.00000000,0.00000000,-1.87864614,0.01626711,1.65814233,-1.63345551,0.61902714,0.00000000,0.00000000
0.13761429,-2.17000008,-1.31603205,-0.65279949,0.07035986,0.00000000,0.00000000,-1.88588226,0.00838474,1.69311297,-1.62923527,0.63801044,0.00000000,0.00000000
0.13963862,-2.17000008,-1.31162524,-0.65833730,0.04970124,0.00000000,0.00000000,-1.89935791,0.00008237,1.71002650,-1.63377118,0.65406001,0.00000000,0.00000000
0.14314994,-2.17000008,-1.30631447,-0.66458762,0.02996095,0.00000000,0.00000000,-1.91945744,-0.00830126,1.70860267,-1.64689803,0.67263675,0.00000000,0.00000000
0.14754725,-2.17000008,-1.30039656,-0.67148149,0.01990127,0.00000000,0.00000000,-1.94548607,-0.01671984,1.68968868,-1.66807210,0.69922650,0.00000000,0.00000000
0.15160109,-2.17000008,-1.29474831,-0.67864555,0.01291334,0.00000000,0.00000000,-1.97461784,-0.02452752,1.65723729,-1.69591486,0.72612542,0.00000000,0.00000000
0.15467474,-2.17000008,-1.29027593,-0.68577445,0.00362053,0.00000000,0.00000000,-2.00181913,-0.02989869,1.62110043,-1.72635281,0.74703211,0.00000000,0.00000000
0.15662205,-2.17000008,-1.28779721,-0.69242030,-0.00354032,0.00000000,0.00000000,-2.02322769,-0.03179139,1.59347928,-1.75390279,0.76109844,0.00000000,0.00000000
0.15704745,-2.17000008,-1.28754115,-0.69845855,-0.01224335,0.00000000,0.00000000,-2.03831267,-0.03115080,1.58124220,-1.77501738,0.78232050,0.00000000,0.00000000
0.15567164,-2.17000008,-1.28920305,-0.70397967,-0.01609129,0.00000000,0.00000000,-2.04807925,-0.02935795,1.58625185,-1.78784060,0.80679822,0.00000000,0.00000000
0.15332283,-2.17000008,-1.29237354,-0.70845020,-0.02552984,0.00000000,0.00000000,-2.05395794,-0.02724619,1.60821652,-1.79088092,0.83984619,0.00000000,0.00000000
0.15103251,-2.17000008,-1.29645765,-0.71153420,-0.03356700,0.00000000,0.00000000,-2.05781293,-0.02522378,1.64572966,-1.78258204,0.87321520,0.00000000,0.00000000
0.14952095,-2.17000008,-1.30074060,-0.71303558,-0.04023700,0.00000000,0.00000000,-2.06220484,-0.02348392,1.69608498,-1.76141632,0.90331149,0.00000000,0.00000000
0.14889905,-2.17000008,-1.30461693,-0.71298277,-0.04269992,0.00000000,0.00000000,-2.07022047,-0.02228206,1.75486088,-1.72648597,0.93350798,0.00000000,0.00000000
0.14944710,-2.17000008,-1.30780458,-0.71124339,-0.04813986,0.00000000,0.00000000,-2.08489418,-0.02237961,1.81572330,-1.67871451,0.95855802,0.00000000,0.00000000
0.15098257,-2.17000008,-1.31002867,-0.70861286,-0.05048773,0.00000000,0.00000000,-2.10916686,-0.02566148,1.87019467,-1.62148130,0.97969675,0.00000000,0.00000000
0.15351695,-2.17000008,-1.31119835,-0.70564038,-0.04646217,0.00000000,0.00000000,-2.14429140,-0.03381648,1.91141260,-1.55975974,0.99592352,0.00000000,0.00000000
0.15743335,-2.17000008,-1.31020272,-0.70330262,-0.03448273,0.00000000,0.00000000,-2.18951344,-0.04785870,1.93571460,-1.49837172,1.00743675,0.00000000,0.00000000
0.16307256,-2.17000008,-1.30675340,-0.70219976,-0.02255690,0.00000000,0.00000000,-2.24161220,-0.06772978,1.94257247,-1.44168794,1.01616681,0.00000000,0.00000000
0.16935971,-2.17000008,-1.30273843,-0.70153564,-0.01772438,0.00000000,0.00000000,-2.29549837,-0.09239059,1.93389440,-1.39338791,1.02419043,0.00000000,0.00000000
0.17477052,-2.17000008,-1.29849064,-0.70050609,-0.01714314,0.00000000,0.00000000,-2.34671092,-0.12140052,1.91295779,-1.35467553,1.03273487,0.00000000,0.00000000
0.17859407,-2.17000008,-1.29454637,-0.69817001,-0.01154281,0.00000000,0.00000000,-2.39177537,-0.15333802,1.88539243,-1.32298934,1.03573620,0.00000000,0.00000000
0.18089965,-2.17000008,-1.29067028,-0.69465220,-0.00521281,0.00000000,0.00000000,-2.42894125,-0.18714480,1.85672283,-1.29435027,1.03309238,0.00000000,0.00000000
0.18234900,-2.17000008,-1.28550506,-0.69122648,0.00244704,0.00000000,0.00000000,-2.45717978,-0.22214636,1.83024108,-1.26667976,1.03742325,0.00000000,0.00000000
0.18357731,-2.17000008,-1.27869320,-0.68905711,0.00398552,0.00000000,0.00000000,-2.47420621,-0.25638944,1.80789280,-1.24102700,1.04175282,0.00000000,0.00000000
0.18457627,-2.17000008,-1.27172971,-0.68777055,0.01042299,0.00000000,0.00000000,-2.47890711,-0.28714842,1.78958702,-1.21906996,1.04397941,0.00000000,0.00000000
0.18578663,-2.17000008,-1.26773632,-0.68459392,0.01622737,0.00000000,0.00000000,-2.47266102,-0.31196684,1.77356446,-1.20163703,1.04352891,0.00000000,0.00000000
0.18471788,-2.17000008,-1.26533198,-0.68260533,0.01872580,0.00000000,0.00000000,-2.45547819,-0.33053795,1.76124918,-1.19011188,1.03988397,0.00000000,0.00000000
0.17989975,-2.17000008,-1.26508772,-0.68244642,0.01563236,0.00000000,0.00000000,-2.42835593,-0.34277233,1.75052667,-1.18841517,1.04020822,0.00000000,0.00000000
0.17117046,-2.17000008,-1.26643741,-0.68613487,0.00496687,0.00000000,0.00000000,-2.39174867,-0.35119236,1.73738492,-1.20572555,1.04134810,0.00000000,0.00000000
0.16412826,-2.17000008,-1.26671422,-0.69360328,-0.00959818,0.00000000,0.00000000,-2.35012627,-0.35879773,1.72003126,-1.24392509,1.04643345,0.00000000,0.00000000
0.16118816,-2.17000008,-1.26585877,-0.70307398,-0.02411850,0.00000000,0.00000000,-2.30674696,-0.36693260,1.69880009,-1.30191779,1.04904652,0.00000000,0.00000000
0.16128212,-2.17000008,-1.26539969,-0.71272516,-0.03286861,0.00000000,0.00000000,-2.26341987,-0.37600082,1.67504179,-1.37894917,1.04513848,0.00000000,0.00000000
0.16363780,-2.17000008,-1.26509225,-0.72200561,-0.04846174,0.00000000,0.00000000,-2.22129130,-0.38551378,1.65198469,-1.46957791,1.04220009,0.00000000,0.00000000
0.16778247,-2.17000008,-1.26346934,-0.73114634,-0.05803533,0.00000000,0.00000000,-2.18141651,-0.39313102,1.63653505,-1.55856454,1.03733909,0.00000000,0.00000000
0.17251548,-2.17000008,-1.25990880,-0.74031860,-0.06402782,0.00000000,0.00000000,-2.14863133,-0.39950588,1.62942588,-1.63570619,1.02517712,0.00000000,0.00000000
0.17669706,-2.17000008,-1.25518310,-0.74928123,-0.07647949,0.00000000,0.00000000,-2.12582111,-0.40549511,1.62868023,-1.69740009,1.01299059,0.00000000,0.00000000
0.17952704,-2.17000008,-1.25006795,-0.75809687,-0.10139677,0.00000000,0.00000000,-2.11343646,-0.41086778,1.63238871,-1.74204922,0.99824357,0.00000000,0.00000000
0.18139322,-2.17000008,-1.24491680,-0.76606947,-0.11350296,0.00000000,0.00000000,-2.11016822,-0.41486323,1.63884103,-1.76908672,0.99326795,0.00000000,0.00000000
0.18303286,-2.17000008,-1.24074101,-0.77141589,-0.13110816,0.00000000,0.00000000,-2.11376381,-0.41700938,1.64651549,-1.77865601,0.98902953,0.00000000,0.00000000
0.18407743,-2.17000008,-1.23891616,-0.77311516,-0.14990616,0.00000000,0.00000000,-2.12210441,-0.41728982,1.65422046,-1.77131987,0.98486513,0.00000000,0.00000000
0.18391868,-2.17000008,-1.23933482,-0.77150345,-0.17052814,0.00000000,0.00000000,-2.13384104,-0.41601786,1.66108477,-1.74798369,0.98664242,0.00000000,0.00000000
0.18200926,-2.17000008,-1.24196613,-0.76693428,-0.18827376,0.00000000,0.00000000,-2.14853692,-0.41352752,1.66637599,-1.71008086,0.99735129,0.00000000,0.00000000
0.17835678,-2.17000008,-1.24669898,-0.75968176,-0.20025586,0.00000000,0.00000000,-2.16615510,-0.41011286,1.66967523,-1.66002500,1.01087677,0.00000000,0.00000000
0.17332977,-2.17000008,-1.25266016,-0.75084323,-0.21213293,0.00000000,0.00000000,-2.18440771,-0.40591139,1.67158806,-1.60310555,1.02887750,0.00000000,0.00000000
0.16782391,-2.17000008,-1.25980926,-0.74081010,-0.22653845,0.00000000,0.00000000,-2.19859791,-0.40146551,1.67194879,-1.55083799,1.04277170,0.00000000,0.00000000
0.16324273,-2.16999125,-1.26697409,-0.73017621,-0.24275678,0.00000000,0.00000000,-2.20762181,-0.39872125,1.66918194,-1.51700842,1.05169213,0.00000000,0.00000000
0.16043262,-2.16987395,-1.27181804,-0.72059947,-0.25690120,0.00000000,0.00000000,-2.21440268,-0.39854601,1.66354215,-1.50511467,1.05646884,0.00000000,0.00000000
0.15957598,-2.16969299,-1.27314937,-0.71360570,-0.26147309,0.00000000,0.00000000,-2.21990061,-0.40088260,1.65591741,-1.51496136,1.06717515,0.00000000,0.00000000
0.16103856,-2.16987419,-1.27053261,-0.70955211,-0.26885208,0.00000000,0.00000000,-2.22292876,-0.40583786,1.64669383,-1.54693496,1.07552052,0.00000000,0.00000000
0.16450575,-2.16999149,-1.26561058,-0.70713031,-0.27728581,0.00000000,0.00000000,-2.21967173,-0.41245785,1.63707638,-1.60046744,1.08211803,0.00000000,0.00000000
0.16863880,-2.17000008,-1.26084960,-0.70474774,-0.28487095,0.00000000,0.00000000,-2.20737910,-0.41868266,1.62968171,-1.66781211,1.08388638,0.00000000,0.00000000
0.17204633,-2.17000008,-1.25686288,-0.70210987,-0.29472131,0.00000000,0.00000000,-2.19289279,-0.42414063,1.62528539,-1.73384321,1.08097327,0.00000000,0.00000000
0.17440183,-2.17000008,-1.25249600,-0.69995296,-0.30081052,0.00000000,0.00000000,-2.18127942,-0.42904064,1.62314975,-1.78942704,1.07337868,0.00000000,0.00000000
0.17536941,-2.17000008,-1.24773216,-0.69852060,-0.30349037,0.00000000,0.00000000,-2.17309403,-0.43300018,1.62248588,-1.83078289,1.05875361,0.00000000,0.00000000
0.17468975,-2.17000008,-1.24372065,-0.69704521,-0.30368981,0.00000000,0.00000000,-2.16752696,-0.43539989,1.62288010,-1.85603595,1.04353917,0.00000000,0.00000000
0.17262869,-2.17000008,-1.24047089,-0.69539511,-0.30427095,0.00000000,0.00000000,-2.16384530,-0.43613049,1.62420630,-1.86440194,1.03046656,0.00000000,0.00000000
0.16939193,-2.17000008,-1.23804200,-0.69342172,-0.29695183,0.00000000,0.00000000,-2.16187692,-0.43510538,1.62634659,-1.85579097,1.01827073,0.00000000,0.00000000
0.16496065,-2.17000008,-1.23691666,-0.69104564,-0.28884554,0.00000000,0.00000000,-2.16207552,-0.43233377,1.62902558,-1.83059132,1.00511074,0.00000000,0.00000000
0.16025862,-2.17000008,-1.23604882,-0.68839103,-0.28205350,0.00000000,0.00000000,-2.16553068,-0.42829284,1.63182640,-1.78963768,0.99604088,0.00000000,0.00000000
0.15541939,-2.17000008,-1.23543942,-0.68547487,-0.27291641,0.00000000,0.00000000,-2.17320442,-0.42345965,1.63424301,-1.73481870,0.99366713,0.00000000,0.00000000
0.15002798,-2.17000008,-1.23664176,-0.68181980,-0.25813299,0.00000000,0.00000000,-2.18464136,-0.41801658,1.63597739,-1.66977477,0.98895240,0.00000000,0.00000000
0.14458326,-2.17000008,-1.23936927,-0.67775494,-0.24959604,0.00000000,0.00000000,-2.19546843,-0.41151348,1.63802862,-1.60243559,0.98477775,0.00000000,0.00000000
0.13957095,-2.17000008,-1.24254167,-0.67401665,-0.23448271,0.00000000,0.00000000,-2.19990635,-0.40327185,1.64158154,-1.54632437,0.97827256,0.00000000,0.00000000
0.13559602,-2.17000008,-1.24477792,-0.67214096,-0.22258972,0.00000000,0.00000000,-2.20247889,-0.39558876,1.64397812,-1.50968480,0.97658795,0.00000000,0.00000000
0.13342939,-2.17000008,-1.24544096,-0.67271185,-0.21123266,0.00000000,0.00000000,-2.20642495,-0.38964820,1.64390278,-1.49377143,0.97249359,0.00000000,0.00000000
0.13362846,-2.17000008,-1.24492800,-0.67510062,-0.20104763,0.00000000,0.00000000,-2.21161532,-0.38563207,1.64127004,-1.49863970,0.96915948,0.00000000,0.00000000
0.13636021,-2.17000008,-1.24400187,-0.67848170,-0.18997347,0.00000000,0.00000000,-2.21738625,-0.38381475,1.63595045,-1.52463269,0.96094227,0.00000000,0.00000000
0.14137045,-2.17000008,-1.24311507,-0.68229485,-0.17169395,0.00000000,0.00000000,-2.22276711,-0.38459867,1.62766552,-1.57227778,0.94894814,0.00000000,0.00000000
0.14792770,-2.17000008,-1.24299157,-0.68571109,-0.15438135,0.00000000,0.00000000,-2.22463679,-0.38767725,1.61681783,-1.64108229,0.93768507,0.00000000,0.00000000
0.15541375,-2.17000008,-1.24377918,-0.68831617,-0.13658215,0.00000000,0.00000000,-2.22025633,-0.39113393,1.60601473,-1.72301877,0.92671984,0.00000000,0.00000000
0.16331083,-2.17000008,-1.24383903,-0.69113505,-0.12118999,0.00000000,0.00000000,-2.21775460,-0.39395827,1.59718084,-1.80105913,0.91386342,0.00000000,0.00000000
0.17138456,-2.17000008,-1.24307752,-0.69461608,-0.11090615,0.00000000,0.00000000,-2.22251964,-0.39552483,1.59129643,-1.86595201,0.89986545,0.00000000,0.00000000
0.17919707,-2.17000008,-1.24291456,-0.69812578,-0.10773205,0.00000000,0.00000000,-2.23502898,-0.39525476,1.58827245,-1.91508293,0.88128942,0.00000000,0.00000000
0.18586852,-2.17000008,-1.24519193,-0.70038831,-0.10833040,0.00000000,0.00000000,-2.25474286,-0.39262709,1.58767211,-1.94754374,0.86535668,0.00000000,0.00000000
0.19115135,-2.17000008,-1.25033975,-0.70095062,-0.11005418,0.00000000,0.00000000,-2.28131866,-0.38711733,1.58886611,-1.96326542,0.85576123,0.00000000,0.00000000
0.19504148,-2.17000008,-1.25730145,-0.70019770,-0.10613829,0.00000000,0.00000000,-2.31452322,-0.37840751,1.59118736,-1.96300364,0.84382492,0.00000000,0.00000000
0.19686744,-2.17000008,-1.26437545,-0.69915789,-0.10857405,0.00000000,0.00000000,-2.35344815,-0.36656612,1.59418452,-1.94857872,0.83410245,0.00000000,0.00000000
0.19640744,-2.17000008,-1.27131760,-0.69785559,-0.11371280,0.00000000,0.00000000,-2.39590669,-0.35176185,1.59775960,-1.92289639,0.82633162,0.00000000,0.00000000
0.19418627,-2.17000008,-1.27736378,-0.69701374,-0.11815663,0.00000000,0.00000000,-2.43918753,-0.33431479,1.60205722,-1.88914311,0.82334232,0.00000000,0.00000000
0.19113508,-2.17000008,-1.28198528,-0.69647211,-0.12779216,0.00000000,0.00000000,-2.48046494,-0.31422889,1.60784841,-1.85009837,0.81629980,0.00000000,0.00000000
0.18774298,-2.17000008,-1.28489327,-0.69611067,-0.13892311,0.00000000,0.00000000,-2.51668787,-0.29123828,1.61678731,-1.80772710,0.80917525,0.00000000,0.00000000
0.18462466,-2.17000008,-1.28589869,-0.69614923,-0.15015723,0.00000000,0.00000000,-2.54415250,-0.26491311,1.63109851,-1.76378644,0.80611354,0.00000000,0.00000000
0.18190823,-2.17000008,-1.28724051,-0.69588876,-0.16353653,0.00000000,0.00000000,-2.55806518,-0.23505874,1.65261436,-1.72078669,0.79888386,0.00000000,0.00000000
0.17996776,-2.17000008,-1.28930497,-0.69513375,-0.17606822,0.00000000,0.00000000,-2.55401182,-0.20244813,1.68238413,-1.68105805,0.79510528,0.00000000,0.00000000
0.17902149,-2.17000008,-1.29040754,-0.69417483,-0.18625636,0.00000000,0.00000000,-2.52951050,-0.16825581,1.72010863,-1.64575338,0.79950243,0.00000000,0.00000000
0.17883876,-2.17000008,-1.29092610,-0.69209844,-0.19732291,0.00000000,0.00000000,-2.48429179,-0.13346767,1.76377988,-1.61511254,0.79848021,0.00000000,0.00000000
0.17902018,-2.17000008,-1.29240763,-0.68752718,-0.21619526,0.00000000,0.00000000,-2.42119646,-0.09862492,1.80998933,-1.58853650,0.80214030,0.00000000,0.00000000
0.17875835,-2.17000008,-1.29594016,-0.67993718,-0.22892949,0.00000000,0.00000000,-2.34592509,-0.06428530,1.85401571,-1.56511438,0.80233163,0.00000000,0.00000000
0.17705245,-2.17000008,-1.30127394,-0.67038572,-0.24353644,0.00000000,0.00000000,-2.26542377,-0.03188656,1.89045191,-1.54445660,0.80305821,0.00000000,0.00000000
0.17395239,-2.17000008,-1.30739987,-0.66001433,-0.26112077,0.00000000,0.00000000,-2.18546104,-0.00274463,1.91523325,-1.52685809,0.79362154,0.00000000,0.00000000
0.17004736,-2.17000008,-1.31280959,-0.65002728,-0.28420132,0.00000000,0.00000000,-2.11120439,0.02196614,1.92444301,-1.51368690,0.79066402,0.00000000,0.00000000
0.16579321,-2.17000008,-1.31639290,-0.64158082,-0.31645316,0.00000000,0.00000000,-2.04610920,0.04163685,1.91522491,-1.50701714,0.78650081,0.00000000,0.00000000
0.16107164,-2.17000008,-1.31771135,-0.63574028,-0.34663674,0.00000000,0.00000000,-1.99193978,0.05624565,1.88632047,-1.50900280,0.78495401,0.00000000,0.00000000
0.15568641,-2.17000008,-1.31676543,-0.63291723,-0.37498251,0.00000000,0.00000000,-1.94912589,0.06616021,1.83828306,-1.52269793,0.78811741,0.00000000,0.00000000
0.14999405,-2.17000008,-1.31332636,-0.63264418,-0.40184009,0.00000000,0.00000000,-1.91858375,0.07130345,1.77394509,-1.54940391,0.79557735,0.00000000,0.00000000
0.14474887,-2.17000008,-1.30706859,-0.63430250,-0.42846406,0.00000000,0.00000000,-1.90201366,0.07127697,1.69805622,-1.58568704,0.79595876,0.00000000,0.00000000
0.14060895,-2.17000008,-1.29848552,-0.63722205,-0.44795880,0.00000000,0.00000000,-1.89704418,0.06778485,1.61834204,-1.62549973,0.80199379,0.00000000,0.00000000
0.13795961,-2.17000008,-1.28850889,-0.64059728,-0.46497113,0.00000000,0.00000000,-1.89600432,0.06525148,1.54793453,-1.65748167,0.80822563,0.00000000,0.00000000
0.13654767,-2.17000008,-1.27821100,-0.64319897,-0.48069823,0.00000000,0.00000000,-1.89286852,0.06501552,1.49499905,-1.67838705,0.81023902,0.00000000,0.00000000
0.13581012,-2.17000008,-1.26818907,-0.64436108,-0.48525757,0.00000000,0.00000000,-1.88626063,0.06619943,1.46096456,-1.68822002,0.81896836,0.00000000,0.00000000
0.13524219,-2.17000008,-1.25880527,-0.64408302,-0.48266530,0.00000000,0.00000000,-1.87610781,0.06823554,1.44565487,-1.68671870,0.82420892,0.00000000,0.00000000
0.13457291,-2.17000008,-1.25061607,-0.64223814,-0.48084065,0.00000000,0.00000000,-1.86253989,0.07093385,1.44861341,-1.67362130,0.83389813,0.00000000,0.00000000
0.13400169,-2.17000008,-1.24449587,-0.63801980,-0.48300937,0.00000000,0.00000000,-1.84521556,0.07427310,1.46901798,-1.64949548,0.83951759,0.00000000,0.00000000
0.13383898,-2.17000008,-1.24076807,-0.63097191,-0.47796944,0.00000000,0.00000000,-1.82470512,0.07809041,1.50364804,-1.61581361,0.84861058,0.00000000,0.00000000
0.13343589,-2.17000008,-1.23945165,-0.62193948,-0.47822535,0.00000000,0.00000000,-1.80307794,0.08168058,1.54379714,-1.57839262,0.86131531,0.00000000,0.00000000
0.13246165,-2.17000008,-1.24043071,-0.61198723,-0.48441032,0.00000000,0.00000000,-1.78364348,0.08397699,1.57685852,-1.54834425,0.87621552,0.00000000,0.00000000
0.13138814,-2.17000008,-1.24268675,-0.60252738,-0.49654168,0.00000000,0.00000000,-1.77052438,0.08422263,1.59487569,-1.53154635,0.89246368,0.00000000,0.00000000
0.13089654,-2.17000008,-1.24563408,-0.59444296,-0.51116943,0.00000000,0.00000000,-1.76510382,0.08274117,1.59580553,-1.52860498,0.90322781,0.00000000,0.00000000
0.13088641,-2.17000008,-1.24923575,-0.58809775,-0.52602106,0.00000000,0.00000000,-1.76711082,0.07990688,1.57963550,-1.53881824,0.91357607,0.00000000,0.00000000
0.13084872,-2.17000008,-1.25359404,-0.58351594,-0.53711689,0.00000000,0.00000000,-1.77515054,0.07614274,1.54797757,-1.56053436,0.92276865,0.00000000,0.00000000
0.13086669,-2.17000008,-1.25855327,-0.58031416,-0.55418456,0.00000000,0.00000000,-1.78612280,0.07274353,1.50665891,-1.58898127,0.93125647,0.00000000,0.00000000
0.13139603,-2.17000008,-1.26309872,-0.57830274,-0.57117796,0.00000000,0.00000000,-1.79648674,0.07097734,1.46600318,-1.61633551,0.93083435,0.00000000,0.00000000
0.13224457,-2.17000008,-1.26585054,-0.57765412,-0.58273941,0.00000000,0.00000000,-1.80326557,0.07053467,1.43529189,-1.63696897,0.92710769,0.00000000,0.00000000
0.13282375,-2.17000008,-1.26610172,-0.57840484,-0.59072524,0.00000000,0.00000000,-1.80474901,0.07043629,1.41910410,-1.64867187,0.92736024,0.00000000,0.00000000
0.13280633,-2.17000008,-1.26369774,-0.58050418,-0.59475970,0.00000000,0.00000000,-1.80055904,0.07001210,1.41855466,-1.65064561,0.92929661,0.00000000,0.00000000
0.13258304,-2.17000008,-1.25867021,-0.58368134,-0.59528100,0.00000000,0.00000000,-1.79114437,0.06910251,1.43295240,-1.64265132,0.93262619,0.00000000,0.00000000
0.13247530,-2.17000008,-1.25176954,-0.58741879,-0.59768367,0.00000000,0.00000000,-1.77781916,0.06806929,1.45952427,-1.62527454,0.93541086,0.00000000,0.00000000
0.13235855,-2.17000008,-1.24478936,-0.59082174,-0.60578579,0.00000000,0.00000000,-1.76301777,0.06765732,1.49225926,-1.60090005,0.93702692,0.00000000,0.00000000
0.13198525,-2.17000008,-1.23954034,-0.59319204,-0.62259883,0.00000000,0.00000000,-1.74957764,0.06822127,1.52258575,-1.57499576,0.93438137,0.00000000,0.00000000
0.13114540,-2.17000008,-1.23693705,-0.59438419,-0.63169110,0.00000000,0.00000000,-1.73970199,0.06883594,1.54228497,-1.55539703,0.92713243,0.00000000,0.00000000
0.12996887,-2.17000008,-1.23714888,-0.59451747,-0.64332962,0.00000000,0.00000000,-1.73483360,0.06858842,1.54719865,-1.54734707,0.91334713,0.00000000,0.00000000
0.12875748,-2.17000008,-1.23951674,-0.59421641,-0.65230858,0.00000000,0.00000000,-1.73579812,0.06708091,1.53613365,-1.55243099,0.89277589,0.00000000,0.00000000
0.12783907,-2.17000008,-1.24283564,-0.59444565,-0.66314137,0.00000000,0.00000000,-1.74253440,0.06404746,1.50940716,-1.57037449,0.87906218,0.00000000,0.00000000
0.12733637,-2.17000008,-1.24646008,-0.59560049,-0.68814003,0.00000000,0.00000000,-1.75326991,0.05979401,1.46983147,-1.59929907,0.85667026,0.00000000,0.00000000
0.12737857,-2.17000008,-1.25018728,-0.59750092,-0.71636677,0.00000000,0.00000000,-1.76489341,0.05579913,1.42442667,-1.63374174,0.84137022,0.00000000,0.00000000
0.12794854,-2.17000008,-1.25353277,-0.59994489,-0.74339724,0.00000000,0.00000000,-1.77518427,0.05347963,1.38228428,-1.66610360,0.82378328,0.00000000,0.00000000
0.12901543,-2.17000008,-1.25572371,-0.60289788,-0.76817113,0.00000000,0.00000000,-1.78279996,0.05299389,1.35032547,-1.69134474,0.81527388,0.00000000,0.00000000
0.13030559,-2.17000008,-1.25653434,-0.60612595,-0.79730922,0.00000000,0.00000000,-1.78678632,0.05385930,1.33226681,-1.70742846,0.81046528,0.00000000,0.00000000
0.13147588,-2.17000008,-1.25589800,-0.60951531,-0.82221586,0.00000000,0.00000000,-1.78683758,0.05549596,1.32939208,-1.71354437,0.79855537,0.00000000,0.00000000
0.13252702,-2.17000008,-1.25422215,-0.61229455,-0.84830171,0.00000000,0.00000000,-1.78307438,0.05752047,1.34167421,-1.70936346,0.78205240,0.00000000,0.00000000
0.13354115,-2.17000008,-1.25175405,-0.61399823,-0.87291867,0.00000000,0.00000000,-1.77597582,0.05966038,1.36809349,-1.69490409,0.76837963,0.00000000,0.00000000
0.13443828,-2.17000008,-1.24895453,-0.61440223,-0.89432502,0.00000000,0.00000000,-1.76650155,0.06181161,1.40633261,-1.67077124,0.75070858,0.00000000,0.00000000
0.13514289,-2.17000008,-1.24664569,-0.61321938,-0.92201084,0.00000000,0.00000000,-1.75604451,0.06401617,1.45238245,-1.63878298,0.73271757,0.00000000,0.00000000
0.13555460,-2.17000008,-1.24540794,-0.61060250,-0.95438820,0.00000000,0.00000000,-1.74634826,0.06628098,1.50039995,-1.60253167,0.71735394,0.00000000,0.00000000
0.13560276,-2.17000008,-1.24551594,-0.60709894,-0.97619134,0.00000000,0.00000000,-1.73914444,0.06831895,1.54350090,-1.56759524,0.69865096,0.00000000,0.00000000
0.13549717,-2.17000008,-1.24686849,-0.60339350,-1.00103903,0.00000000,0.00000000,-1.73589778,0.06950225,1.57551217,-1.54047310,0.68300480,0.00000000,0.00000000
0.13561465,-2.17000008,-1.24913514,-0.60022956,-1.02792859,0.00000000,0.00000000,-1.73783720,0.06938630,1.59287262,-1.52555454,0.66732138,0.00000000,0.00000000
0.13642478,-2.17000008,-1.25179255,-0.59842825,-1.05507159,0.00000000,0.00000000,-1.74570811,0.06794515,1.59425366,-1.52426815,0.65496415,0.00000000,0.00000000
0.13813432,-2.17000008,-1.25444734,-0.59847248,-1.08288789,0.00000000,0.00000000,-1.75967336,0.06536023,1.57937527,-1.53640151,0.63787949,0.00000000,0.00000000
0.13996071,-2.17000008,-1.25752294,-0.60009784,-1.11390078,0.00000000,0.00000000,-1.77834237,0.06210424,1.54951453,-1.56176400,0.62150568,0.00000000,0.00000000
0.14155236,-2.17000008,-1.26136935,-0.60258055,-1.14054799,0.00000000,0.00000000,-1.79919565,0.05908582,1.50825691,-1.59829354,0.60084462,0.00000000,0.00000000
0.14302032,-2.17000008,-1.26600337,-0.60519731,-1.16386306,0.00000000,0.00000000,-1.81943548,0.05773956,1.46283245,-1.64006782,0.57912588,0.00000000,0.00000000
0.14447977,-2.17000008,-1.27051449,-0.60797220,-1.18275154,0.00000000,0.00000000,-1.83733630,0.05877164,1.42234886,-1.67924500,0.55653131,0.00000000,0.00000000
0.14589182,-2.17000008,-1.27368140,-0.61124718,-1.20942855,0.00000000,0.00000000,-1.85180116,0.06158420,1.39358699,-1.71070731,0.53265142,0.00000000,0.00000000
0.14730692,-2.17000008,-1.27462971,-0.61523938,-1.23589957,0.00000000,0.00000000,-1.86236429,0.06515720,1.37951040,-1.73219645,0.51645350,0.00000000,0.00000000
0.14850487,-2.17000008,-1.27331591,-0.62002474,-1.26042628,0.00000000,0.00000000,-1.86897504,0.06863175,1.38080287,-1.74275172,0.50580060,0.00000000,0.00000000
0.14892942,-2.17000008,-1.27060366,-0.62548476,-1.27411973,0.00000000,0.00000000,-1.87161148,0.07140007,1.39717031,-1.74208868,0.48813090,0.00000000,0.00000000
0.14925827,-2.17000008,-1.26648140,-0.63082027,-1.27638161,0.00000000,0.00000000,-1.87053502,0.07309432,1.42757857,-1.73026216,0.47665328,0.00000000,0.00000000
0.14973867,-2.17000008,-1.26125133,-0.63558608,-1.27498472,0.00000000,0.00000000,-1.86634207,0.07355036,1.46995211,-1.70792091,0.45669264,0.00000000,0.00000000
0.15045318,-2.17000008,-1.25596666,-0.63876224,-1.26687074,0.00000000,0.00000000,-1.86015034,0.07281024,1.52072501,-1.67671502,0.43626469,0.00000000,0.00000000
0.15108486,-2.17000008,-1.25202918,-0.63971573,-1.26354504,0.00000000,0.00000000,-1.85380995,0.07125586,1.57433534,-1.63993931,0.41111121,0.00000000,0.00000000
0.15133475,-2.17000008,-1.25079143,-0.63813752,-1.25881076,0.00000000,0.00000000,-1.84967875,0.06918801,1.62336349,-1.60318494,0.38027242,0.00000000,0.00000000
0.15107794,-2.17000008,-1.25234604,-0.63480091,-1.25900292,0.00000000,0.00000000,-1.85026169,0.06624544,1.66061842,-1.57322919,0.35630223,0.00000000,0.00000000
0.15087967,-2.17000008,-1.25586319,-0.63091969,-1.25150597,0.00000000,0.00000000,-1.85747266,0.06194442,1.68195605,-1.55485797,0.33164358,0.00000000,0.00000000
0.15159389,-2.17000008,-1.26041889,-0.62748319,-1.24619710,0.00000000,0.00000000,-1.87208927,0.05614028,1.68608344,-1.54964054,0.30524307,0.00000000,0.00000000
0.15352207,-2.17000008,-1.26510406,-0.62509686,-1.23974288,0.00000000,0.00000000,-1.89408183,0.04847316,1.67293262,-1.55756748,0.28040168,0.00000000,0.00000000
0.15627809,-2.17000008,-1.26946783,-0.62369841,-1.23054016,0.00000000,0.00000000,-1.92250192,0.03845946,1.64356947,-1.57749128,0.25648069,0.00000000,0.00000000
0.15915352,-2.17000008,-1.27358258,-0.62274259,-1.22031915,0.00000000,0.00000000,-1.95504487,0.02604495,1.60198104,-1.60551095,0.23229755,0.00000000,0.00000000
0.16174017,-2.17000008,-1.27677333,-0.62231165,-1.21800423,0.00000000,0.00000000,-1.98881960,0.01131357,1.55591917,-1.63455987,0.20380089,0.00000000,0.00000000
0.16353905,-2.17000008,-1.27803862,-0.62272745,-1.21732736,0.00000000,0.00000000,-2.02121282,-0.00626601,1.51342797,-1.65843880,0.17882358,0.00000000,0.00000000
0.16392332,-2.17000008,-1.27678192,-0.62416756,-1.21723115,0.00000000,0.00000000,-2.05024934,-0.02747828,1.47968757,-1.67394841,0.15786415,0.00000000,0.00000000
0.16263489,-2.17000008,-1.27265084,-0.62659150,-1.21987259,0.00000000,0.00000000,-2.07484221,-0.05289074,1.45694590,-1.67982280,0.12866707,0.00000000,0.00000000
0.15960805,-2.17000008,-1.26536727,-0.63026148,-1.22272754,0.00000000,0.00000000,-2.09443736,-0.08251348,1.44575548,-1.67564726,0.09456518,0.00000000,0.00000000
0.15506509,-2.17000008,-1.25496840,-0.63525218,-1.21782136,0.00000000,0.00000000,-2.10882401,-0.11581057,1.44563854,-1.66133308,0.05683758,0.00000000,0.00000000
0.14911863,-2.17000008,-1.24223351,-0.64123029,-1.21313894,0.00000000,0.00000000,-2.11820769,-0.15139429,1.45524621,-1.63704669,0.02361871,0.00000000,0.00000000
0.14212388,-2.17000008,-1.22819650,-0.64765525,-1.20734835,0.00000000,0.00000000,-2.12349629,-0.18703943,1.47269642,-1.60308206,-0.00456426,0.00000000,0.00000000
0.13460626,-2.17000008,-1.21403527,-0.65390432,-1.19574010,0.00000000,0.00000000,-2.12650537,-0.22014083,1.49576902,-1.55973959,-0.02862717,0.00000000,0.00000000
0.12694865,-2.17000008,-1.20115137,-0.65890998,-1.18133855,0.00000000,0.00000000,-2.12891221,-0.24824063,1.52239096,-1.50790608,-0.04412415,0.00000000,0.00000000
0.11975467,-2.17000008,-1.18973911,-0.66261405,-1.16395545,0.00000000,0.00000000,-2.13184905,-0.27011821,1.55063748,-1.44906974,-0.06157946,0.00000000,0.00000000
0.11360446,-2.17000008,-1.17888808,-0.66624844,-1.14909363,0.00000000,0.00000000,-2.13588858,-0.28632897,1.57809353,-1.38551843,-0.07687458,0.00000000,0.00000000
0.10860213,-2.17000008,-1.17012942,-0.66901654,-1.13951230,0.00000000,0.00000000,-2.14037800,-0.29637441,1.60497308,-1.32115722,-0.08861319,0.00000000,0.00000000
0.10523704,-2.17000008,-1.16420054,-0.67089063,-1.13548696,0.00000000,0.00000000,-2.14500093,-0.30103356,1.63082957,-1.26456916,-0.10200282,0.00000000,0.00000000
0.10415639,-2.17000008,-1.16132891,-0.67214417,-1.14153993,0.00000000,0.00000000,-2.15251255,-0.30497089,1.65160036,-1.22317600,-0.10756335,0.00000000,0.00000000
0.10526834,-2.16999054,-1.16303861,-0.67154342,-1.15402734,0.00000000,0.00000000,-2.16289306,-0.30880520,1.66731405,-1.19947147,-0.11561598,0.00000000,0.00000000
0.10831328,-2.16986537,-1.17026210,-0.66834539,-1.16216910,0.00000000,0.00000000,-2.17329240,-0.31146571,1.67926967,-1.19485617,-0.12680273,0.00000000,0.00000000
0.11339071,-2.16967249,-1.18107343,-0.66436291,-1.16920269,0.00000000,0.00000000,-2.18213129,-0.31371474,1.68672276,-1.21008503,-0.13869667,0.00000000,0.00000000
0.12095708,-2.16986561,-1.19152689,-0.66265261,-1.16934395,0.00000000,0.00000000,-2.18938375,-0.31785104,1.68743229,-1.24524748,-0.15116030,0.00000000,0.00000000
0.13023412,-2.16999102,-1.20403695,-0.66142792,-1.17338169,0.00000000,0.00000000,-2.19330955,-0.32284027,1.68288243,-1.30138302,-0.16478211,0.00000000,0.00000000
0.14082524,-2.17000008,-1.21880996,-0.65987521,-1.17036724,0.00000000,0.00000000,-2.19113445,-0.32846713,1.67367887,-1.37911439,-0.18086044,0.00000000,0.00000000
0.15235312,-2.17000008,-1.23420954,-0.65845168,-1.16883731,0.00000000,0.00000000,-2.17922854,-0.33340132,1.66149330,-1.47447956,-0.20117764,0.00000000,0.00000000
0.16376340,-2.17000008,-1.24865639,-0.65783399,-1.16530287,0.00000000,0.00000000,-2.16155505,-0.33660671,1.64905822,-1.57452369,-0.21776895,0.00000000,0.00000000
0.17411870,-2.16999984,-1.26065874,-0.65874606,-1.15945339,0.00000000,0.00000000,-2.14372540,-0.33861896,1.63761687,-1.66937792,-0.23677710,0.00000000,0.00000000
0.18323068,-2.16999984,-1.26944399,-0.66096574,-1.14741564,0.00000000,0.00000000,-2.12911725,-0.34017798,1.62799907,-1.75350785,-0.24868949,0.00000000,0.00000000
0.19081791,-2.16999960,-1.27494562,-0.66403830,-1.13315642,0.00000000,0.00000000,-2.11948347,-0.34184566,1.62090600,-1.82343173,-0.26524305,0.00000000,0.00000000
0.19615443,-2.17000008,-1.27719092,-0.66807389,-1.12180793,0.00000000,0.00000000,-2.11539054,-0.34400791,1.61654806,-1.87731493,-0.28041378,0.00000000,0.00000000
0.19917749,-2.17000008,-1.27637386,-0.67273521,-1.11031473,0.00000000,0.00000000,-2.11664581,-0.34674510,1.61469901,-1.91433907,-0.29270723,0.00000000,0.00000000
0.19981354,-2.17000008,-1.27294803,-0.67771506,-1.10004008,0.00000000,0.00000000,-2.12271428,-0.34997973,1.61489248,-1.93418074,-0.29814363,0.00000000,0.00000000
0.19808947,-2.17000008,-1.26786923,-0.68244350,-1.09521782,0.00000000,0.00000000,-2.13267779,-0.35340354,1.61691427,-1.93695831,-0.29645634,0.00000000,0.00000000
0.19388451,-2.17000008,-1.26194477,-0.68680769,-1.09622073,0.00000000,0.00000000,-2.14567471,-0.35661283,1.62046850,-1.92317450,-0.29808244,0.00000000,0.00000000
0.18767852,-2.17000008,-1.25575745,-0.69044477,-1.09813356,0.00000000,0.00000000,-2.16111302,-0.35911253,1.62524271,-1.89377964,-0.29919013,0.00000000,0.00000000
0.17991886,-2.17000008,-1.24984181,-0.69321752,-1.10156727,0.00000000,0.00000000,-2.17844009,-0.36046338,1.63128281,-1.85036814,-0.30041182,0.00000000,0.00000000
0.17106095,-2.17000008,-1.24435377,-0.69530541,-1.11632180,0.00000000,0.00000000,-2.19725490,-0.36061206,1.63849485,-1.79553425,-0.29693124,0.00000000,0.00000000
0.16193923,-2.17000008,-1.23889363,-0.69681323,-1.13578546,0.00000000,0.00000000,-2.21639895,-0.35966644,1.64629018,-1.73380089,-0.28995204,0.00000000,0.00000000
0.15323730,-2.17000008,-1.23288691,-0.69817132,-1.15678060,0.00000000,0.00000000,-2.23221254,-0.35786498,1.65393138,-1.67508292,-0.27941534,0.00000000,0.00000000
0.14576128,-2.17000008,-1.22587788,-0.69960445,-1.18515205,0.00000000,0.00000000,-2.24182200,-0.35594910,1.65998113,-1.63396537,-0.26116607,0.00000000,0.00000000
0.13998286,-2.17000008,-1.21796036,-0.70133096,-1.21286285,0.00000000,0.00000000,-2.24912167,-0.35477975,1.66396117,-1.61498868,-0.23988374,0.00000000,0.00000000
0.13629171,-2.17000008,-1.20961368,-0.70348066,-1.23216951,0.00000000,0.00000000,-2.25657630,-0.35488641,1.66576719,-1.61789751,-0.22393531,0.00000000,0.00000000
0.13494904,-2.17000008,-1.20129323,-0.70614058,-1.25172794,0.00000000,0.00000000,-2.26413202,-0.35679886,1.66486669,-1.64276516,-0.20536716,0.00000000,0.00000000
0.13571297,-2.17000008,-1.19388127,-0.70884860,-1.27017283,0.00000000,0.00000000,-2.27050400,-0.36078364,1.66044784,-1.69003677,-0.18302000,0.00000000,0.00000000
0.13796604,-2.17000008,-1.18807411,-0.71098685,-1.29563630,0.00000000,0.00000000,-2.27278209,-0.36612222,1.65232050,-1.75779951,-0.15501808,0.00000000,0.00000000
0.14097559,-2.17000008,-1.18418300,-0.71216524,-1.32358992,0.00000000,0.00000000,-2.26938915,-0.37084010,1.64281988,-1.83622634,-0.13153714,0.00000000,0.00000000
0.14425294,-2.17000008,-1.18253732,-0.71205741,-1.34616864,0.00000000,0.00000000,-2.26488924,-0.37421587,1.63408673,-1.91229808,-0.10750460,0.00000000,0.00000000
0.14777793,-2.17000008,-1.18332410,-0.71070367,-1.37163377,0.00000000,0.00000000,-2.26223254,-0.37630865,1.62732530,-1.97846282,-0.07983475,0.00000000,0.00000000
0.15143804,-2.17000008,-1.18596447,-0.70836520,-1.39467919,0.00000000,0.00000000,-2.26141620,-0.37688136,1.62334800,-2.03136897,-0.04794510,0.00000000,0.00000000
0.15488435,-2.17000008,-1.18997991,-0.70487100,-1.41126525,0.00000000,0.00000000,-2.26196694,-0.37600133,1.62223125,-2.06928682,-0.02286299,0.00000000,0.00000000
0.15789264,-2.17000008,-1.19484735,-0.70059592,-1.43069410,0.00000000,0.00000000,-2.26349592,-0.37369820,1.62378013,-2.09145403,0.00376391,0.00000000,0.00000000
0.16057575,-2.17000008,-1.19986141,-0.69620442,-1.45296204,0.00000000,0.00000000,-2.26605415,-0.37014955,1.62772655,-2.09773850,0.03179628,0.00000000,0.00000000
0.16300358,-2.17000008,-1.20454240,-0.69193083,-1.47858942,0.00000000,0.00000000,-2.26983953,-0.36560500,1.63377070,-2.08852267,0.06460550,0.00000000,0.00000000
0.16490628,-2.17000008,-1.20875847,-0.68786889,-1.49895930,0.00000000,0.00000000,-2.27503037,-0.36025921,1.64171469,-2.06466770,0.09840561,0.00000000,0.00000000
0.16618086,-2.17000008,-1.21240234,-0.68394804,-1.51252997,0.00000000,0.00000000,-2.28166962,-0.35427478,1.65147543,-2.02750039,0.13133414,0.00000000,0.00000000
0.16718987,-2.17000008,-1.21503103,-0.68018794,-1.52238500,0.00000000,0.00000000,-2.28982043,-0.34814632,1.66303921,-1.97869718,0.15977766,0.00000000,0.00000000
0.16775334,-2.17000008,-1.21624255,-0.67692059,-1.53197181,0.00000000,0.00000000,-2.30001855,-0.34210578,1.67615902,-1.91985917,0.17732379,0.00000000,0.00000000
0.16643602,-2.16992712,-1.21755338,-0.67319715,-1.54244351,0.00000000,0.00000000,-2.31347203,-0.33586076,1.69014919,-1.85208273,0.19945954,0.00000000,0.00000000
0.16191889,-2.16895247,-1.22062004,-0.66799557,-1.54697120,0.00000000,0.00000000,-2.33148098,-0.32906649,1.70400643,-1.77610302,0.21877825,0.00000000,0.00000000
0.15512571,-2.16745138,-1.22243237,-0.66328192,-1.55825424,0.00000000,0.00000000,-2.35382152,-0.32149139,1.71732605,-1.69367802,0.23399255,0.00000000,0.00000000
0.14920855,-2.16895247,-1.21947384,-0.66097701,-1.55809009,0.00000000,0.00000000,-2.37843060,-0.31346220,1.72946990,-1.61066270,0.24578802,0.00000000,0.00000000
0.14402664,-2.16992760,-1.21328044,-0.66132987,-1.55231047,0.00000000,0.00000000,-2.40702152,-0.30772915,1.73742175,-1.53520668,0.25637206,0.00000000,0.00000000
0.13984799,-2.17000008,-1.20579696,-0.66380781,-1.54628146,0.00000000,0.00000000,-2.43392062,-0.30219489,1.74519980,-1.47797847,0.25730863,0.00000000,0.00000000
0.13747656,-2.17000008,-1.19973397,-0.66649514,-1.53319597,0.00000000,0.00000000,-2.45041990,-0.29260325,1.75894034,-1.44050157,0.25398690,0.00000000,0.00000000
0.13730788,-2.17000008,-1.19655049,-0.66831541,-1.52307463,0.00000000,0.00000000,-2.45315576,-0.27749780,1.78113437,-1.41685677,0.25025561,0.00000000,0.00000000
0.13899903,-2.17000008,-1.19710469,-0.66838032,-1.51643968,0.00000000,0.00000000,-2.44150686,-0.25758722,1.81055999,-1.40386665,0.25246185,0.00000000,0.00000000
0.14164585,-2.17000008,-1.20162368,-0.66625851,-1.51090384,0.00000000,0.00000000,-2.41606474,-0.23395753,1.84424460,-1.40049517,0.25157160,0.00000000,0.00000000
0.14375828,-2.17000008,-1.20999193,-0.66170454,-1.50404704,0.00000000,0.00000000,-2.37918472,-0.20781629,1.87768662,-1.40581095,0.24923187,0.00000000,0.00000000
0.14520252,-2.17000008,-1.22184646,-0.65417111,-1.48704565,0.00000000,0.00000000,-2.33354712,-0.17995535,1.90719950,-1.41897798,0.24605092,0.00000000,0.00000000
0.14638895,-2.17000008,-1.23443377,-0.64553511,-1.47057521,0.00000000,0.00000000,-2.28283906,-0.15172070,1.92920613,-1.43853462,0.24958077,0.00000000,0.00000000
0.14758207,-2.16998696,-1.24659514,-0.63710344,-1.45549572,0.00000000,0.00000000,-2.23050451,-0.12401621,1.94087434,-1.46332037,0.25740275,0.00000000,0.00000000
0.14846846,-2.16981483,-1.25812817,-0.62892437,-1.43495464,0.00000000,0.00000000,-2.18046331,-0.09786903,1.93982124,-1.49149191,0.26515248,0.00000000,0.00000000
0.14896779,-2.16954923,-1.26743472,-0.62255502,-1.41786611,0.00000000,0.00000000,-2.13624263,-0.07438673,1.92430186,-1.52139366,0.27558166,0.00000000,0.00000000
0.14937632,-2.16980648,-1.27364016,-0.61873096,-1.40852964,0.00000000,0.00000000,-2.09990549,-0.05407722,1.89365375,-1.55223477,0.28691617,0.00000000,0.00000000
0.14963813,-2.16986942,-1.27839136,-0.61644363,-1.39682364,0.00000000,0.00000000,-2.07127452,-0.03615281,1.84825575,-1.58515835,0.29707611,0.00000000,0.00000000
0.14993881,-2.16971350,-1.28152525,-0.61585522,-1.38443577,0.00000000,0.00000000,-2.05059934,-0.02056063,1.78901172,-1.62101710,0.30731270,0.00000000,0.00000000
0.15034305,-2.16988230,-1.28177404,-0.61745769,-1.36720681,0.00000000,0.00000000,-2.03802609,-0.00762908,1.71921206,-1.65939534,0.31492567,0.00000000,0.00000000
0.15037577,-2.16999197,-1.27996516,-0.62049603,-1.35490930,0.00000000,0.00000000,-2.03196120,0.00298466,1.64513254,-1.69873667,0.32152778,0.00000000,0.00000000
0.14980339,-2.17000008,-1.27738261,-0.62402797,-1.34230947,0.00000000,0.00000000,-2.02950001,0.01189614,1.57469261,-1.73508286,0.33078209,0.00000000,0.00000000
0.14846419,-2.17000008,-1.27584338,-0.62701422,-1.33065891,0.00000000,0.00000000,-2.02784729,0.01960671,1.51503372,-1.76266623,0.34221286,0.00000000,0.00000000
0.14662613,-2.17000008,-1.27510774,-0.62940621,-1.31655979,0.00000000,0.00000000,-2.02465010,0.02651646,1.47098923,-1.77937436,0.35952500,0.00000000,0.00000000
0.14501919,-2.16999197,-1.27310944,-0.63200998,-1.30118191,0.00000000,0.00000000,-2.01844049,0.03232588,1.44437385,-1.78538954,0.37786970,0.00000000,0.00000000
0.14370458,-2.16988611,-1.26990759,-0.63467580,-1.29104877,0.00000000,0.00000000,-2.00835967,0.03677456,1.43552089,-1.78118289,0.39512816,0.00000000,0.00000000
0.14272080,-2.16972303,-1.26583195,-0.63721108,-1.27209687,0.00000000,0.00000000,-1.99466908,0.03974752,1.44370747,-1.76653457,0.41778517,0.00000000,0.00000000
0.14272283,-2.16988611,-1.25995004,-0.63978744,-1.25359404,0.00000000,0.00000000,-1.97839475,0.04106476,1.46709371,-1.74102640,0.43858740,0.00000000,0.00000000
0.14304578,-2.16999245,-1.25382555,-0.64188641,-1.23850429,0.00000000,0.00000000,-1.96063900,0.04101956,1.50285876,-1.70529091,0.46243384,0.00000000,0.00000000
0.14346038,-2.17000008,-1.24830854,-0.64320278,-1.22082865,0.00000000,0.00000000,-1.94300115,0.04025554,1.54644752,-1.66117644,0.49105924,0.00000000,0.00000000
0.14392659,-2.17000008,-1.24406111,-0.64354265,-1.20903742,0.00000000,0.00000000,-1.92730510,0.03970314,1.59199166,-1.61180782,0.50964880,0.00000000,0.00000000
0.14424230,-2.17000008,-1.24193883,-0.64264870,-1.20108473,0.00000000,0.00000000,-1.91461694,0.04004353,1.63315332,-1.56232882,0.52853262,0.00000000,0.00000000
0.14434047,-2.17000008,-1.24228227,-0.64058983,-1.19551742,0.00000000,0.00000000,-1.90524220,0.04101334,1.66419363,-1.52004063,0.54580224,0.00000000,0.00000000
0.14436713,-2.17000008,-1.24469519,-0.63798565,-1.18377852,0.00000000,0.00000000,-1.90011168,0.04160430,1.68098629,-1.49169040,0.57136589,0.00000000,0.00000000
0.14437789,-2.17000008,-1.24933541,-0.63488495,-1.17179024,0.00000000,0.00000000,-1.89969122,0.04158486,1.68241847,-1.48002625,0.59415847,0.00000000,0.00000000
0.14448786,-2.17000008,-1.25601864,-0.63144177,-1.16880178,0.00000000,0.00000000,-1.90378344,0.04105824,1.66869330,-1.48575473,0.61489731,0.00000000,0.00000000
0.14481714,-2.17000008,-1.26346433,-0.62852824,-1.16145647,0.00000000,0.00000000,-1.91193628,0.03986905,1.64021945,-1.50900209,0.62668455,0.00000000,0.00000000
0.14552048,-2.17000008,-1.27053273,-0.62670326,-1.15650403,0.00000000,0.00000000,-1.92235339,0.03853783,1.59930062,-1.54780293,0.63371897,0.00000000,0.00000000
0.14670897,-2.17000008,-1.27717888,-0.62561810,-1.15666854,0.00000000,0.00000000,-1.93235385,0.03902175,1.55211949,-1.59493983,0.63492334,0.00000000,0.00000000
0.14863223,-2.17000008,-1.28260040,-0.62541038,-1.15641320,0.00000000,0.00000000,-1.94106328,0.04219434,1.50592887,-1.64200437,0.63642305,0.00000000,0.00000000
0.15126576,-2.17000008,-1.28591311,-0.62626743,-1.15226698,0.00000000,0.00000000,-1.94754589,0.04772421,1.46707284,-1.68368566,0.63445777,0.00000000,0.00000000
0.15421614,-2.17000008,-1.28685737,-0.62805188,-1.14734709,0.00000000,0.00000000,-1.95095456,0.05468756,1.43964851,-1.71706581,0.63945103,0.00000000,0.00000000
0.15719087,-2.17000008,-1.28583741,-0.63014573,-1.14510977,0.00000000,0.00000000,-1.95092487,0.06214936,1.42548442,-1.74050629,0.64220911,0.00000000,0.00000000
0.16035125,-2.17000008,-1.28231776,-0.63268751,-1.14694941,0.00000000,0.00000000,-1.94758022,0.06912753,1.42476666,-1.75295675,0.65469337,0.00000000,0.00000000
0.16326824,-2.17000008,-1.27730334,-0.63502324,-1.14405549,0.00000000,0.00000000,-1.94101536,0.07490414,1.43697929,-1.75400388,0.66718775,0.00000000,0.00000000
0.16500346,-2.17000008,-1.27319384,-0.63595676,-1.15001607,0.00000000,0.00000000,-1.93137991,0.07915589,1.46113193,-1.74374294,0.67772382,0.00000000,0.00000000
0.16555481,-2.17000008,-1.27047348,-0.63515306,-1.16023970,0.00000000,0.00000000,-1.91919625,0.08171160,1.49547565,-1.72273755,0.68697214,0.00000000,0.00000000
0.16518350,-2.17000008,-1.26855767,-0.63314861,-1.17279100,0.00000000,0.00000000,-1.90562868,0.08262628,1.53707957,-1.69220042,0.70333427,0.00000000,0.00000000
0.16419058,-2.17000008,-1.26701009,-0.63060904,-1.18715763,0.00000000,0.00000000,-1.89212418,0.08233198,1.58199942,-1.65447617,0.71905607,0.00000000,0.00000000
0.16293585,-2.17000008,-1.26570404,-0.62787968,-1.20742440,0.00000000,0.00000000,-1.88033497,0.08156645,1.62532246,-1.61327958,0.73325384,0.00000000,0.00000000
0.16129784,-2.17000008,-1.26494658,-0.62495452,-1.22425115,0.00000000,0.00000000,-1.87180746,0.08073849,1.66133666,-1.57426262,0.74489576,0.00000000,0.00000000
0.15913916,-2.17000008,-1.26494992,-0.62215889,-1.23976004,0.00000000,0.00000000,-1.86777306,0.07965068,1.68487680,-1.54409170,0.75150973,0.00000000,0.00000000
0.15687083,-2.17000008,-1.26525402,-0.62038851,-1.25644863,0.00000000,0.00000000,-1.86952209,0.07791588,1.69295037,-1.52710509,0.75079453,0.00000000,0.00000000
0.15480702,-2.17000008,-1.26585424,-0.61985457,-1.27512026,0.00000000,0.00000000,-1.87719536,0.07570922,1.68502080,-1.52535319,0.74961853,0.00000000,0.00000000
0.15302905,-2.17000008,-1.26697898,-0.62019825,-1.29017425,0.00000000,0.00000000,-1.89004683,0.07343265,1.66161728,-1.53978240,0.75460130,0.00000000,0.00000000
0.15163937,-2.17000008,-1.26785874,-0.62156349,-1.30901253,0.00000000,0.00000000,-1.90712607,0.07111236,1.62371683,-1.57036352,0.75894392,0.00000000,0.00000000
0.15073530,-2.17000008,-1.26750088,-0.62429243,-1.31934786,0.00000000,0.00000000,-1.92662323,0.06949919,1.57504594,-1.61316121,0.75975901,0.00000000,0.00000000
0.15026188,-2.17000008,-1.26640630,-0.62782657,-1.32691181,0.00000000,0.00000000,-1.94695520,0.07046535,1.52356195,-1.65806639,0.75618601,0.00000000,0.00000000
0.15007704,-2.17000008,-1.26605940,-0.63091683,-1.33803403,0.00000000,0.00000000,-1.96637154,0.07476974,1.47750652,-1.69786668,0.75458348,0.00000000,0.00000000
0.15068060,-2.17000008,-1.26533353,-0.63388693,-1.34615374,0.00000000,0.00000000,-1.98355353,0.08134842,1.44276726,-1.72881770,0.75657779,0.00000000,0.00000000
0.15210967,-2.17000008,-1.26414573,-0.63672787,-1.36457586,0.00000000,0.00000000,-1.99667120,0.08865649,1.42284083,-1.74992502,0.76117516,0.00000000,0.00000000
0.15411782,-2.17000008,-1.26255286,-0.63923752,-1.38647342,0.00000000,0.00000000,-2.00443316,0.09506461,1.41895580,-1.76106930,0.76532608,0.00000000,0.00000000
0.15639503,-2.17000008,-1.26062870,-0.64108497,-1.40832675,0.00000000,0.00000000,-2.00632834,0.09932571,1.43099082,-1.76217186,0.78018647,0.00000000,0.00000000
0.15862094,-2.17000008,-1.25909269,-0.64147437,-1.42913544,0.00000000,0.00000000,-2.00244999,0.10084209,1.45807648,-1.75325990,0.78888458,0.00000000,0.00000000
0.16049114,-2.17000008,-1.25883663,-0.63978177,-1.44651484,0.00000000,0.00000000,-1.99349141,0.09959505,1.49843872,-1.73475397,0.79590559,0.00000000,0.00000000
0.16174538,-2.17000008,-1.25989580,-0.63640434,-1.46270633,0.00000000,0.00000000,-1.98088264,0.09597370,1.54887509,-1.70784354,0.79640406,0.00000000,0.00000000
0.16249439,-2.17000008,-1.26161373,-0.63220310,-1.47859502,0.00000000,0.00000000,-1.96677816,0.09066650,1.60453665,-1.67492342,0.79850149,0.00000000,0.00000000
0.16298470,-2.17000008,-1.26344991,-0.62781513,-1.48428392,0.00000000,0.00000000,-1.95378363,0.08444928,1.65916502,-1.63986945,0.79442900,0.00000000,0.00000000
0.16313471,-2.17000008,-1.26561785,-0.62328124,-1.49261940,0.00000000,0.00000000,-1.94429398,0.07774414,1.70604897,-1.60827076,0.78395510,0.00000000,0.00000000
0.16288173,-2.17000008,-1.26811028,-0.61902368,-1.50068796,0.00000000,0.00000000,-1.94020665,0.07032474,1.73972416,-1.58642888,0.77711016,0.00000000,0.00000000
0.16253723,-2.17000008,-1.27023292,-0.61628538,-1.50368834,0.00000000,0.00000000,-1.94360781,0.06175691,1.75691748,-1.57783806,0.77467793,0.00000000,0.00000000
0.16234767,-2.17000008,-1.27140641,-0.61584681,-1.50024331,0.00000000,0.00000000,-1.95593488,0.05187546,1.75625885,-1.58307707,0.76779914,0.00000000,0.00000000
0.16221747,-2.17000008,-1.27175665,-0.61735302,-1.49580729,0.00000000,0.00000000,-1.97734690,0.04070254,1.73765779,-1.60261393,0.76055998,0.00000000,0.00000000
0.16168615,-2.17000008,-1.27152109,-0.62011671,-1.48836863,0.00000000,0.00000000,-2.00704575,0.02795950,1.70186031,-1.63703954,0.75158542,0.00000000,0.00000000
0.16019066,-2.17000008,-1.27097726,-0.62354720,-1.49031782,0.00000000,0.00000000,-2.04246569,0.01383535,1.65321290,-1.68303645,0.74870920,0.00000000,0.00000000
0.15818039,-2.17000008,-1.26962972,-0.62755805,-1.48959839,0.00000000,0.00000000,-2.08032322,-0.00079649,1.60260737,-1.72878003,0.75142318,0.00000000,0.00000000
0.15622202,-2.17000008,-1.26697350,-0.63168639,-1.48932552,0.00000000,0.00000000,-2.11825466,-0.01659856,1.56028509,-1.76594961,0.75209415,0.00000000,0.00000000
0.15457155,-2.17000008,-1.26312518,-0.63473576,-1.48896301,0.00000000,0.00000000,-2.15491581,-0.03499595,1.53115010,-1.79197228,0.75438929,0.00000000,0.00000000
0.15272407,-2.17000008,-1.25791168,-0.63688177,-1.48675454,0.00000000,0.00000000,-2.18982100,-0.05734115,1.51619828,-1.80612946,0.75272948,0.00000000,0.00000000
0.15045492,-2.17000008,-1.25099659,-0.63875943,-1.48289645,0.00000000,0.00000000,-2.22269320,-0.08455752,1.51479828,-1.80819273,0.74825245,0.00000000,0.00000000
0.14791918,-2.17000008,-1.24255478,-0.64054918,-1.47937143,0.00000000,0.00000000,-2.25321317,-0.11667021,1.52527606,-1.79809868,0.74496025,0.00000000,0.00000000
0.14501777,-2.17000008,-1.23375261,-0.64211822,-1.47799158,0.00000000,0.00000000,-2.28060269,-0.15216982,1.54495990,-1.77610385,0.74354035,0.00000000,0.00000000
0.14200173,-2.17000008,-1.22556901,-0.64325261,-1.47674453,0.00000000,0.00000000,-2.30380630,-0.18808693,1.57053506,-1.74300849,0.74096191,0.00000000,0.00000000
0.13950683,-2.17000008,-1.21788406,-0.64449149,-1.47165287,0.00000000,0.00000000,-2.32205009,-0.22135173,1.59872329,-1.70029604,0.73337311,0.00000000,0.00000000
0.13795200,-2.17000008,-1.21050763,-0.64638042,-1.46358836,0.00000000,0.00000000,-2.33581519,-0.24989620,1.62634218,-1.64946210,0.72584319,0.00000000,0.00000000
0.13697018,-2.17000008,-1.20434380,-0.64843440,-1.44704986,0.00000000,0.00000000,-2.34565806,-0.27271575,1.65155709,-1.59248734,0.72197390,0.00000000,0.00000000
0.13591924,-2.17000008,-1.20009422,-0.65032446,-1.42520368,0.00000000,0.00000000,-2.35189962,-0.28991163,1.67300570,-1.53239357,0.71693641,0.00000000,0.00000000
0.13415089,-2.17000008,-1.19821668,-0.65200692,-1.40312541,0.00000000,0.00000000,-2.35309315,-0.30220240,1.68993890,-1.47451329,0.71427011,0.00000000,0.00000000
0.13202891,-2.17000008,-1.19876194,-0.65341008,-1.38950968,0.00000000,0.00000000,-2.34679317,-0.31119177,1.70171726,-1.42776477,0.71876717,0.00000000,0.00000000
0.13124442,-2.17000008,-1.20096576,-0.65477639,-1.37927556,0.00000000,0.00000000,-2.33576107,-0.32051340,1.70627677,-1.40019774,0.72242349,0.00000000,0.00000000
0.13305326,-2.17000008,-1.20353663,-0.65733546,-1.36332607,0.00000000,0.00000000,-2.32416129,-0.33171695,1.70420682,-1.39333475,0.72063124,0.00000000,0.00000000
0.13745561,-2.17000008,-1.20596218,-0.66203547,-1.35752058,0.00000000,0.00000000,-2.31237650,-0.34422976,1.69733596,-1.40728366,0.71840918,0.00000000,0.00000000
0.14439791,-2.17000008,-1.20810425,-0.66902453,-1.34665263,0.00000000,0.00000000,-2.29956579,-0.35783872,1.68629527,-1.44247139,0.72316587,0.00000000,0.00000000
0.15348110,-2.17000008,-1.21068037,-0.67694199,-1.33425820,0.00000000,0.00000000,-2.28477049,-0.37282020,1.67081785,-1.49923050,0.72312737,0.00000000,0.00000000
0.16344096,-2.17000008,-1.21486282,-0.68426836,-1.32990766,0.00000000,0.00000000,-2.26570606,-0.38809183,1.65248644,-1.57398808,0.72263181,0.00000000,0.00000000
0.17265427,-2.17000008,-1.22086859,-0.69041800,-1.33091235,0.00000000,0.00000000,-2.24364948,-0.40098256,1.63617206,-1.65245986,0.72091317,0.00000000,0.00000000
0.17988199,-2.16997743,-1.22804463,-0.69554818,-1.33039784,0.00000000,0.00000000,-2.22523165,-0.41121244,1.62389147,-1.72186196,0.71762961,0.00000000,0.00000000
0.18487300,-2.16967678,-1.23540771,-0.70002204,-1.33071434,0.00000000,0.00000000,-2.21348166,-0.41930854,1.61571264,-1.77692568,0.71447682,0.00000000,0.00000000
0.18863969,-2.16921329,-1.24129117,-0.70423806,-1.32268333,0.00000000,0.00000000,-2.20829296,-0.42558935,1.61141372,-1.81581807,0.70224476,0.00000000,0.00000000
0.19095390,-2.16967678,-1.24400353,-0.70992666,-1.32274544,0.00000000,0.00000000,-2.20904160,-0.43054518,1.61051953,-1.83778548,0.68517089,0.00000000,0.00000000
0.19233382,-2.16997766,-1.24486053,-0.71518195,-1.31873548,0.00000000,0.00000000,-2.21504855,-0.43412387,1.61260915,-1.84274673,0.67485809,0.00000000,0.00000000
0.19250771,-2.17000008,-1.24545324,-0.71871185,-1.31348538,0.00000000,0.00000000,-2.22586894,-0.43603486,1.61724424,-1.83107424,0.66791350,0.00000000,0.00000000
0.19111134,-2.17000008,-1.24613297,-0.72067136,-1.30812228,0.00000000,0.00000000,-2.24125552,-0.43613699,1.62390232,-1.80365002,0.66542405,0.00000000,0.00000000
0.18865630,-2.17000008,-1.24667501,-0.72116637,-1.30183232,0.00000000,0.00000000,-2.26084948,-0.43446809,1.63209367,-1.76216459,0.65779448,0.00000000,0.00000000
0.18545738,-2.17000008,-1.24679101,-0.72060245,-1.30332434,0.00000000,0.00000000,-2.28373289,-0.43112767,1.64154243,-1.70955169,0.64659756,0.00000000,0.00000000
0.18147443,-2.17000008,-1.24680352,-0.71920210,-1.30601108,0.00000000,0.00000000,-2.30737019,-0.42598227,1.65229034,-1.65103805,0.63331437,0.00000000,0.00000000
0.17704818,-2.17000008,-1.24710989,-0.71719825,-1.30818117,0.00000000,0.00000000,-2.32702088,-0.41924715,1.66384637,-1.59766912,0.62127584,0.00000000,0.00000000
0.17325294,-2.17000008,-1.24746692,-0.71501189,-1.31235576,0.00000000,0.00000000,-2.34192467,-0.41287017,1.67351472,-1.56282568,0.60916495,0.00000000,0.00000000
0.17101981,-2.17000008,-1.24688804,-0.71337551,-1.31485808,0.00000000,0.00000000,-2.35543299,-0.40815660,1.68023455,-1.54973531,0.59584868,0.00000000,0.00000000
0.17060585,-2.17000008,-1.24495482,-0.71248364,-1.32174635,0.00000000,0.00000000,-2.36865282,-0.40538913,1.68410015,-1.55812192,0.58234018,0.00000000,0.00000000
0.17218669,-2.17000008,-1.24189889,-0.71221650,-1.33198643,0.00000000,0.00000000,-2.38125110,-0.40477434,1.68461156,-1.58815777,0.56401831,0.00000000,0.00000000
0.17565940,-2.17000008,-1.23856115,-0.71213031,-1.34234703,0.00000000,0.00000000,-2.39086390,-0.40600944,1.68126190,-1.64025223,0.54328305,0.00000000,0.00000000
0.18002103,-2.17000008,-1.23585355,-0.71187252,-1.34845650,0.00000000,0.00000000,-2.39340758,-0.40751621,1.67554486,-1.71084988,0.52030903,0.00000000,0.00000000
0.18396759,-2.17000008,-1.23386407,-0.71169305,-1.35041535,0.00000000,0.00000000,-2.39066291,-0.40811646,1.67029858,-1.78771675,0.49919116,0.00000000,0.00000000
0.18705308,-2.17000008,-1.23237216,-0.71160728,-1.35317838,0.00000000,0.00000000,-2.38683581,-0.40781608,1.66702259,-1.86140835,0.48273122,0.00000000,0.00000000
0.18934225,-2.17000008,-1.23097253,-0.71154684,-1.35584819,0.00000000,0.00000000,-2.38471699,-0.40692213,1.66617155,-1.92679930,0.46660033,0.00000000,0.00000000
0.19090870,-2.17000008,-1.22943056,-0.71149725,-1.36476028,0.00000000,0.00000000,-2.38574076,-0.40550727,1.66775453,-1.98046064,0.44280398,0.00000000,0.00000000
0.19192193,-2.17000008,-1.22763515,-0.71114707,-1.37029195,0.00000000,0.00000000,-2.39073324,-0.40339860,1.67130566,-2.01988435,0.42746732,0.00000000,0.00000000
0.19225648,-2.17000008,-1.22572136,-0.71015435,-1.37141573,0.00000000,0.00000000,-2.40021539,-0.39999357,1.67626107,-2.04338574,0.40872881,0.00000000,0.00000000
0.19176930,-2.17000008,-1.22416317,-0.70818931,-1.36891651,0.00000000,0.00000000,-2.41444588,-0.39445189,1.68211865,-2.05017567,0.38682121,0.00000000,0.00000000
0.19048558,-2.17000008,-1.22306681,-0.70528132,-1.36601436,0.00000000,0.00000000,-2.43347955,-0.38617876,1.68840456,-2.04017210,0.36822918,0.00000000,0.00000000
0.18817873,-2.17000008,-1.22228861,-0.70176888,-1.35869491,0.00000000,0.00000000,-2.45674777,-0.37514976,1.69500625,-2.01388812,0.35237232,0.00000000,0.00000000
0.18459746,-2.17000008,-1.22202289,-0.69765896,-1.35629046,0.00000000,0.00000000,-2.48306036,-0.36132461,1.70224833,-1.97246528,0.34011960,0.00000000,0.00000000
0.17992674,-2.17000008,-1.22278070,-0.69239676,-1.34940636,0.00000000,0.00000000,-2.51064372,-0.34480616,1.71084070,-1.91790318,0.33483002,0.00000000,0.00000000
0.17457819,-2.17000008,-1.22458005,-0.68589258,-1.34798002,0.00000000,0.00000000,-2.53751135,-0.32634103,1.72172296,-1.85319638,0.33093730,0.00000000,0.00000000
0.16881284,-2.17000008,-1.22699070,-0.67882049,-1.34517229,0.00000000,0.00000000,-2.56101131,-0.30703923,1.73630035,-1.78243721,0.32910982,0.00000000,0.00000000
0.16316529,-2.17000008,-1.22994304,-0.67147744,-1.34444499,0.00000000,0.00000000,-2.57820058,-0.28726456,1.75589776,-1.71047342,0.32932103,0.00000000,0.00000000
0.15828155,-2.17000008,-1.23313022,-0.66411179,-1.34398377,0.00000000,0.00000000,-2.58609533,-0.26699260,1.78061092,-1.64277458,0.32797158,0.00000000,0.00000000
0.15485790,-2.17000008,-1.23563457,-0.65760332,-1.33532619,0.00000000,0.00000000,-2.58268547,-0.24638987,1.80925953,-1.58359134,0.33179080,0.00000000,0.00000000
0.15299715,-2.17000008,-1.23755264,-0.65203387,-1.32857096,0.00000000,0.00000000,-2.56716704,-0.22530444,1.84091568,-1.53506589,0.33317515,0.00000000,0.00000000
0.15251411,-2.17000008,-1.23983181,-0.64694089,-1.32187414,0.00000000,0.00000000,-2.53992653,-0.20370239,1.87299407,-1.49918962,0.33661938,0.00000000,0.00000000
0.15287606,-2.17000008,-1.24329484,-0.64190686,-1.31198645,0.00000000,0.00000000,-2.50307703,-0.18176948,1.90202963,-1.47621310,0.34611037,0.00000000,0.00000000
0.15356894,-2.17000008,-1.24817884,-0.63678271,-1.30209756,0.00000000,0.00000000,-2.45909929,-0.15961903,1.92496610,-1.46605372,0.35730800,0.00000000,0.00000000
0.15440366,-2.17000008,-1.25397837,-0.63188684,-1.29668510,0.00000000,0.00000000,-2.41073585,-0.13740975,1.93958580,-1.46743798,0.36588851,0.00000000,0.00000000
0.15535559,-2.17000008,-1.25978756,-0.62776780,-1.28899431,0.00000000,0.00000000,-2.36098433,-0.11583336,1.94464779,-1.47686040,0.38217744,0.00000000,0.00000000
0.15672478,-2.17000008,-1.26420712,-0.62527543,-1.27866054,0.00000000,0.00000000,-2.31214237,-0.09573280,1.93982840,-1.49113977,0.40258837,0.00000000,0.00000000
0.15825289,-2.17000008,-1.26780701,-0.62399822,-1.26887786,0.00000000,0.00000000,-2.26531219,-0.07699727,1.92561531,-1.50863612,0.42441496,0.00000000,0.00000000
0.15990818,-2.17000008,-1.27056944,-0.62381327,-1.25954497,0.00000000,0.00000000,-2.22195220,-0.05986012,1.90249395,-1.52747679,0.44890723,0.00000000,0.00000000
0.16162205,-2.17000008,-1.27222323,-0.62459457,-1.24690509,0.00000000,0.00000000,-2.18238330,-0.04422712,1.87214375,-1.54650259,0.47065139,0.00000000,0.00000000
0.16341220,-2.17000008,-1.27273142,-0.62616032,-1.23119450,0.00000000,0.00000000,-2.14542556,-0.02968280,1.83756852,-1.56542778,0.48927000,0.00000000,0.00000000
0.16511771,-2.17000008,-1.27249682,-0.62808162,-1.21235192,0.00000000,0.00000000,-2.11098170,-0.01638732,1.80115211,-1.58260834,0.51080459,0.00000000,0.00000000
0.16650110,-2.17000008,-1.27197826,-0.62993199,-1.19086647,0.00000000,0.00000000,-2.07905102,-0.00424096,1.76435089,-1.59757578,0.52735919,0.00000000,0.00000000
0.16741191,-2.17000008,-1.27166414,-0.63144046,-1.16304970,0.00000000,0.00000000,-2.04942060,0.00704039,1.72707248,-1.61178565,0.54094779,0.00000000,0.00000000
0.16808470,-2.17000008,-1.27142084,-0.63286579,-1.14584017,0.00000000,0.00000000,-2.02330875,0.01714530,1.68802440,-1.62554479,0.55168825,0.00000000,0.00000000
0.16883005,-2.17000008,-1.27044046,-0.63477623,-1.12955725,0.00000000,0.00000000,-2.00219560,0.02565655,1.64562678,-1.64085925,0.56015575,0.00000000,0.00000000
0.16965571,-2.17000008,-1.26820898,-0.63747621,-1.11488700,0.00000000,0.00000000,-1.98742390,0.03193121,1.59911311,-1.65927804,0.56843549,0.00000000,0.00000000
0.17015705,-2.17000008,-1.26497865,-0.64072376,-1.09379530,0.00000000,0.00000000,-1.97937322,0.03607693,1.55083585,-1.67896307,0.58047402,0.00000000,0.00000000
0.17004034,-2.17000008,-1.26140571,-0.64388990,-1.07746327,0.00000000,0.00000000,-1.97620070,0.03876004,1.50562000,-1.69631374,0.59576333,0.00000000,0.00000000
0.16956751,-2.17000008,-1.25843382,-0.64625841,-1.05492949,0.00000000,0.00000000,-1.97387457,0.04098365,1.46905899,-1.70791471,0.60722911,0.00000000,0.00000000
0.16911727,-2.17000008,-1.25643706,-0.64753950,-1.03717101,0.00000000,0.00000000,-1.96969295,0.04353368,1.44532204,-1.71077430,0.61554384,0.00000000,0.00000000
0.16881847,-2.17000008,-1.25514078,-0.64769679,-1.01554728,0.00000000,0.00000000,-1.96241140,0.04656553,1.43635929,-1.70407784,0.62155151,0.00000000,0.00000000
0.16879824,-2.17000008,-1.25433493,-0.64648324,-0.99762690,0.00000000,0.00000000,-1.95178699,0.04999278,1.44245756,-1.68775403,0.63287550,0.00000000,0.00000000
0.16915740,-2.17000008,-1.25404203,-0.64364892,-0.98821694,0.00000000,0.00000000,-1.93870831,0.05369025,1.46194780,-1.66182578,0.64747566,0.00000000,0.00000000
0.16958357,-2.17000008,-1.25398135,-0.63979411,-0.98084813,0.00000000,0.00000000,-1.92550147,0.05735737,1.49013948,-1.62721574,0.66294950,0.00000000,0.00000000
0.16973566,-2.17000008,-1.25421226,-0.63540751,-0.97429776,0.00000000,0.00000000,-1.91422212,0.06091646,1.52040398,-1.58769715,0.67947042,0.00000000,0.00000000
0.16954131,-2.17000008,-1.25537956,-0.63054150,-0.97907406,0.00000000,0.00000000,-1.90500176,0.06417283,1.54589868,-1.55219686,0.68787122,0.00000000,0.00000000
0.16923618,-2.17000008,-1.25757062,-0.62551337,-0.97710890,0.00000000,0.00000000,-1.89973247,0.06521787,1.55924535,-1.53068638,0.69802451,0.00000000,0.00000000
0.16889746,-2.17000008,-1.26057673,-0.62092870,-0.97317415,0.00000000,0.00000000,-1.90039766,0.06327785,1.55715704,-1.52562511,0.71121615,0.00000000,0.00000000
0.16815500,-2.17000008,-1.26405108,-0.61764586,-0.97893029,0.00000000,0.00000000,-1.90709758,0.05830329,1.53934026,-1.53615558,0.72154701,0.00000000,0.00000000
0.16671473,-2.17000008,-1.26770592,-0.61611217,-0.98535824,0.00000000,0.00000000,-1.91803777,0.05071148,1.50798047,-1.55988908,0.72422594,0.00000000,0.00000000
0.16486268,-2.17000008,-1.27142906,-0.61561435,-0.99696398,0.00000000,0.00000000,-1.92986846,0.04224989,1.46950543,-1.59092498,0.72789854,0.00000000,0.00000000
0.16297753,-2.16999912,-1.27411532,-0.61613744,-1.00935566,0.00000000,0.00000000,-1.94076729,0.03426049,1.43164480,-1.62192285,0.72779965,0.00000000,0.00000000
0.16086353,-2.16998816,-1.27503645,-0.61798882,-1.03130841,0.00000000,0.00000000,-1.94904876,0.02753827,1.40157175,-1.64794326,0.72933513,0.00000000,0.00000000
0.15799347,-2.16997099,-1.27532959,-0.62068450,-1.05575037,0.00000000,0.00000000,-1.95334339,0.02272324,1.38417125,-1.66653132,0.73033875,0.00000000,0.00000000
0.15539026,-2.16998816,-1.27352178,-0.62479180,-1.07393765,0.00000000,0.00000000,-1.95403910,0.01972406,1.38130069,-1.67570841,0.73076051,0.00000000,0.00000000
0.15394691,-2.16999936,-1.26926720,-0.62989855,-1.09796619,0.00000000,0.00000000,-1.95201254,0.01837632,1.39281845,-1.67423809,0.73306888,0.00000000,0.00000000
0.15408771,-2.17000008,-1.26314414,-0.63540578,-1.12645078,0.00000000,0.00000000,-1.94856966,0.01878996,1.41717565,-1.66137123,0.74102169,0.00000000,0.00000000
0.15557311,-2.17000008,-1.25668752,-0.64048702,-1.14602673,0.00000000,0.00000000,-1.94530737,0.02135514,1.45134318,-1.63726699,0.75156617,0.00000000,0.00000000
0.15805937,-2.17000008,-1.25200856,-0.64394963,-1.16660666,0.00000000,0.00000000,-1.94341016,0.02637269,1.49041712,-1.60433269,0.76097840,0.00000000,0.00000000
0.16105303,-2.17000008,-1.25029385,-0.64537418,-1.18308127,0.00000000,0.00000000,-1.94323111,0.03320576,1.52754664,-1.56901300,0.76827687,0.00000000,0.00000000
0.16376622,-2.17000008,-1.25223184,-0.64494997,-1.20782006,0.00000000,0.00000000,-1.94445848,0.03990242,1.55569386,-1.54175055,0.77097964,0.00000000,0.00000000
0.16602494,-2.17000008,-1.25816226,-0.64276296,-1.22729349,0.00000000,0.00000000,-1.94870663,0.04476831,1.57024670,-1.52974892,0.76179004,0.00000000,0.00000000
0.16848435,-2.17000008,-1.26663601,-0.63977951,-1.24355817,0.00000000,0.00000000,-1.95752895,0.04716216,1.56967545,-1.53473139,0.75348938,0.00000000,0.00000000
0.17146850,-2.17000008,-1.27546036,-0.63754141,-1.26126075,0.00000000,0.00000000,-1.97113311,0.04678269,1.55393660,-1.55637205,0.73917359,0.00000000,0.00000000
0.17429371,-2.17000008,-1.28370988,-0.63702899,-1.28109324,0.00000000,0.00000000,-1.98774481,0.04389882,1.52483284,-1.59332359,0.72303224,0.00000000,0.00000000
0.17633425,-2.17000008,-1.29119694,-0.63801545,-1.29012001,0.00000000,0.00000000,-2.00451899,0.03959302,1.48733282,-1.64081192,0.70503706,0.00000000,0.00000000
0.17740740,-2.17000008,-1.29747462,-0.64035642,-1.29772484,0.00000000,0.00000000,-2.01968193,0.03518249,1.44896173,-1.69054377,0.68201500,0.00000000,0.00000000
0.17785731,-2.17000008,-1.30169678,-0.64425588,-1.30190802,0.00000000,0.00000000,-2.03220081,0.03120761,1.41684115,-1.73579252,0.66136569,0.00000000,0.00000000
0.17777540,-2.17000008,-1.30379725,-0.64933306,-1.30630684,0.00000000,0.00000000,-2.04146862,0.02737629,1.39570892,-1.77283216,0.63701618,0.00000000,0.00000000
0.17723060,-2.17000008,-1.30409789,-0.65509969,-1.29918897,0.00000000,0.00000000,-2.04749393,0.02317915,1.38799846,-1.79962230,0.61419672,0.00000000,0.00000000
0.17662708,-2.17000008,-1.30236411,-0.66154200,-1.29671061,0.00000000,0.00000000,-2.05085135,0.01811390,1.39450085,-1.81481302,0.58926189,0.00000000,0.00000000
0.17613958,-2.17000008,-1.29867291,-0.66851515,-1.29334164,0.00000000,0.00000000,-2.05218530,0.01163708,1.41504538,-1.81760931,0.55843174,0.00000000,0.00000000
0.17572430,-2.17000008,-1.29403627,-0.67519253,-1.27889585,0.00000000,0.00000000,-2.05221844,0.00343986,1.44903278,-1.80750370,0.52417868,0.00000000,0.00000000
0.17580076,-2.17000008,-1.28947043,-0.68028551,-1.26114082,0.00000000,0.00000000,-2.05175877,-0.00654550,1.49541223,-1.78433371,0.50200361,0.00000000,0.00000000
0.17656057,-2.17000008,-1.28654861,-0.68248087,-1.23930752,0.00000000,0.00000000,-2.05194139,-0.01799184,1.55207849,-1.74851513,0.47966564,0.00000000,0.00000000
0.17812695,-2.17000008,-1.28575909,-0.68143010,-1.22031772,0.00000000,0.00000000,-2.05500913,-0.03047531,1.61440575,-1.70170236,0.45811674,0.00000000,0.00000000
0.17978846,-2.17000008,-1.28618348,-0.67900324,-1.19454646,0.00000000,0.00000000,-2.06299567,-0.04447495,1.67350864,-1.65165925,0.43836728,0.00000000,0.00000000
0.18174006,-2.17000008,-1.28752625,-0.67628533,-1.16884363,0.00000000,0.00000000,-2.07596374,-0.06134052,1.72005212,-1.61243725,0.42067084,0.00000000,0.00000000
0.18416119,-2.17000008,-1.28981841,-0.67386377,-1.15543365,0.00000000,0.00000000,-2.09464097,-0.08142418,1.75052559,-1.58712828,0.40153903,0.00000000,0.00000000
0.18706469,-2.17000008,-1.29183888,-0.67298472,-1.14021325,0.00000000,0.00000000,-2.11913991,-0.10385385,1.76628423,-1.56923151,0.37578893,0.00000000,0.00000000
0.19052549,-2.17000008,-1.29242539,-0.67437708,-1.12137926,0.00000000,0.00000000,-2.15001822,-0.12818983,1.77007985,-1.55172980,0.34800172,0.00000000,0.00000000
0.19405159,-2.17000008,-1.29163432,-0.67775691,-1.10586798,0.00000000,0.00000000,-2.18646312,-0.15433376,1.76465142,-1.53160560,0.31562078,0.00000000,0.00000000
0.19706294,-2.17000008,-1.29032242,-0.68220317,-1.08986127,0.00000000,0.00000000,-2.22456026,-0.18068659,1.75599134,-1.50738108,0.27941915,0.00000000,0.00000000
0.19854900,-2.17000008,-1.28889894,-0.68771660,-1.08219290,0.00000000,0.00000000,-2.26063704,-0.20548379,1.74930596,-1.47856116,0.24035524,0.00000000,0.00000000
0.19803330,-2.17000008,-1.28761840,-0.69415277,-1.07026076,0.00000000,0.00000000,-2.29266453,-0.22747982,1.74745202,-1.44528198,0.20533599,0.00000000,0.00000000
0.19611897,-2.17000008,-1.28675139,-0.70097059,-1.05867612,0.00000000,0.00000000,-2.32006216,-0.24517076,1.75137496,-1.40839779,0.17495762,0.00000000,0.00000000
0.19396971,-2.17000008,-1.28573060,-0.70816106,-1.05223560,0.00000000,0.00000000,-2.34300375,-0.25722998,1.76063859,-1.36971962,0.14499363,0.00000000,0.00000000
0.19263941,-2.17000008,-1.28434432,-0.71525526,-1.03812277,0.00000000,0.00000000,-2.35982370,-0.26287866,1.77310228,-1.33482528,0.11839096,0.00000000,0.00000000
0.19267263,-2.17000008,-1.28265238,-0.72182906,-1.02108002,0.00000000,0.00000000,-2.36785817,-0.26292095,1.78480899,-1.31431580,0.08994310,0.00000000,0.00000000
0.19451605,-2.17000008,-1.28048861,-0.72744691,-1.00885773,0.00000000,0.00000000,-2.37130857,-0.26235840,1.78949797,-1.31402004,0.06291670,0.00000000,0.00000000
0.19883819,-2.17000008,-1.27837813,-0.73098123,-0.99574447,0.00000000,0.00000000,-2.37260652,-0.26249355,1.78538609,-1.33466077,0.03608761,0.00000000,0.00000000
0.20560600,-2.17000008,-1.27577448,-0.73352891,-0.98314840,0.00000000,0.00000000,-2.37159443,-0.26363447,1.77187574,-1.37621903,0.00379630,0.00000000,0.00000000
0.21457797,-2.17000008,-1.27255392,-0.73646969,-0.96933395,0.00000000,0.00000000,-2.36674881,-0.26673850,1.74880147,-1.43870628,-0.02089498,0.00000000,0.00000000
0.22425401,-2.17000008,-1.27081406,-0.73922461,-0.96526366,0.00000000,0.00000000,-2.35536432,-0.27226919,1.71883368,-1.51762962,-0.03640635,0.00000000,0.00000000
0.23270442,-2.17000008,-1.27410889,-0.73952371,-0.96226573,0.00000000,0.00000000,-2.34026909,-0.27793032,1.68889761,-1.59852970,-0.05055297,0.00000000,0.00000000
0.23841785,-2.17000008,-1.28246605,-0.73762238,-0.96131927,0.00000000,0.00000000,-2.32691693,-0.28306773,1.66380954,-1.66945875,-0.05858861,0.00000000,0.00000000
0.24149759,-2.17000008,-1.29311883,-0.73501849,-0.96649027,0.00000000,0.00000000,-2.31726527,-0.28769127,1.64540935,-1.72561574,-0.06235468,0.00000000,0.00000000
0.24352700,-2.17000008,-1.30171394,-0.73313206,-0.97336185,0.00000000,0.00000000,-2.31114864,-0.29154885,1.63407207,-1.76547277,-0.07098064,0.00000000,0.00000000
0.24533257,-2.17000008,-1.30700946,-0.73181146,-0.98799980,0.00000000,0.00000000,-2.30832195,-0.29438427,1.62947273,-1.78842318,-0.08142182,0.00000000,0.00000000
0.24642253,-2.17000008,-1.30974638,-0.73093122,-1.00132453,0.00000000,0.00000000,-2.30888581,-0.29599568,1.63091135,-1.79421937,-0.09157760,0.00000000,0.00000000
