isaac-sim2real/sage/motion_files/wr75s/amass/0-HumanEva_S1_Jog_1_poses_idx36.txt
l_joint1,l_joint2,l_joint3,l_joint4,l_joint5,l_joint6,l_joint7,r_joint1,r_joint2,r_joint3,r_joint4,r_joint5,r_joint6,r_joint7
0.27286267,-2.01232886,-1.42670441,-1.67714918,0.09352467,0.00000000,0.00000000,-0.37382358,2.01418471,1.18863988,1.08442843,0.00075234,0.00000000,0.00000000
0.25932214,-2.01042295,-1.43074358,-1.69818342,0.10829876,0.00000000,0.00000000,-0.40197358,2.00878334,1.17719364,1.07722676,-0.00972388,0.00000000,0.00000000
0.24154350,-2.00958943,-1.42784429,-1.72853947,0.12579161,0.00000000,0.00000000,-0.43594897,1.99923837,1.15859258,1.06701410,-0.01635914,0.00000000,0.00000000
0.22642766,-2.01021624,-1.41425860,-1.75832093,0.14547086,0.00000000,0.00000000,-0.46739435,1.98331249,1.13450325,1.05259585,-0.02498941,0.00000000,0.00000000
0.21532635,-2.01228881,-1.39162779,-1.78390300,0.15652907,0.00000000,0.00000000,-0.49255919,1.95970023,1.10588920,1.03229547,-0.03678173,0.00000000,0.00000000
0.20935974,-2.01602554,-1.36298454,-1.80286062,0.16976790,0.00000000,0.00000000,-0.51061267,1.92772555,1.07350051,1.00444996,-0.04607489,0.00000000,0.00000000
0.21107222,-2.02059436,-1.33170080,-1.81166422,0.18168874,0.00000000,0.00000000,-0.52656579,1.88610685,1.03670859,0.96586502,-0.04751007,0.00000000,0.00000000
0.22173564,-2.02436566,-1.30135274,-1.80779922,0.19252299,0.00000000,0.00000000,-0.54757679,1.83210039,0.99472344,0.91285962,-0.05225113,0.00000000,0.00000000
0.23945065,-2.02629805,-1.27537560,-1.79152405,0.20613268,0.00000000,0.00000000,-0.58039707,1.76114917,0.94747573,0.84212101,-0.05637870,0.00000000,0.00000000
0.26126403,-2.02672243,-1.25554395,-1.76454639,0.21421108,0.00000000,0.00000000,-0.63142979,1.66748333,0.89539516,0.75095046,-0.06202367,0.00000000,0.00000000
0.28928426,-2.02511716,-1.24221432,-1.72507679,0.22020109,0.00000000,0.00000000,-0.70699322,1.54725289,0.83845872,0.63801646,-0.06492900,0.00000000,0.00000000
0.32433575,-2.01897264,-1.23850763,-1.67526531,0.22955887,0.00000000,0.00000000,-0.81122917,1.40043402,0.77650392,0.50357151,-0.06965709,0.00000000,0.00000000
0.35956374,-2.00777864,-1.24694753,-1.63221669,0.24122685,0.00000000,0.00000000,-0.94431049,1.23057556,0.70981520,0.34929335,-0.07863101,0.00000000,0.00000000
0.39725992,-1.99201190,-1.26349235,-1.60585713,0.25654435,0.00000000,0.00000000,-1.10161757,1.04380941,0.63942504,0.17856182,-0.08717062,0.00000000,0.00000000
0.43641999,-1.97378266,-1.28593814,-1.60017228,0.27081409,0.00000000,0.00000000,-1.27484226,0.84843910,0.56725281,-0.00334487,-0.09338181,0.00000000,0.00000000
0.47399303,-1.95449865,-1.31529939,-1.61152685,0.27714476,0.00000000,0.00000000,-1.45380223,0.65390462,0.49603796,-0.18987288,-0.11320722,0.00000000,0.00000000
0.51155508,-1.93542075,-1.35078657,-1.62531185,0.27715638,0.00000000,0.00000000,-1.62832618,0.46932384,0.42896724,-0.37426779,-0.12908126,0.00000000,0.00000000
0.55113083,-1.92031944,-1.38719046,-1.63729024,0.27351198,0.00000000,0.00000000,-1.78995585,0.30288506,0.36911297,-0.55031234,-0.13535918,0.00000000,0.00000000
0.59298557,-1.91194558,-1.42106557,-1.64817345,0.26921734,0.00000000,0.00000000,-1.93317926,0.16088292,0.31883091,-0.71290803,-0.14189458,0.00000000,0.00000000
0.63542062,-1.91223073,-1.45180070,-1.65746582,0.26438636,0.00000000,0.00000000,-2.05602503,0.04693764,0.27920038,-0.85827428,-0.14262991,0.00000000,0.00000000
0.67409289,-1.92315805,-1.48031843,-1.66383600,0.25913179,0.00000000,0.00000000,-2.16002035,-0.03826806,0.24958187,-0.98387861,-0.13896249,0.00000000,0.00000000
0.70282000,-1.94541776,-1.50795472,-1.66684532,0.25070676,0.00000000,0.00000000,-2.24923730,-0.09683082,0.22762513,-1.08854413,-0.12952191,0.00000000,0.00000000
0.71565861,-1.97791684,-1.53597343,-1.66788960,0.25067207,0.00000000,0.00000000,-2.32842636,-0.13280164,0.21008895,-1.17255437,-0.11002756,0.00000000,0.00000000
0.71157587,-2.01538944,-1.56503975,-1.67017257,0.24826913,0.00000000,0.00000000,-2.40108347,-0.15048356,0.19421995,-1.23717070,-0.09371661,0.00000000,0.00000000
0.69635326,-2.04751372,-1.59427285,-1.67844057,0.24385086,0.00000000,0.00000000,-2.46954012,-0.15252702,0.17813991,-1.28366995,-0.08976243,0.00000000,0.00000000
0.67160964,-2.07183385,-1.62165916,-1.69834363,0.23846120,0.00000000,0.00000000,-2.53763866,-0.13995501,0.15920013,-1.31289375,-0.08135330,0.00000000,0.00000000
0.63721097,-2.09017634,-1.64427626,-1.73496652,0.24590777,0.00000000,0.00000000,-2.60683036,-0.11730089,0.13637698,-1.33017671,-0.07225675,0.00000000,0.00000000
0.59543025,-2.10276842,-1.66155553,-1.78652799,0.25074080,0.00000000,0.00000000,-2.66953897,-0.09477103,0.11499383,-1.34804976,-0.06471043,0.00000000,0.00000000
0.55299562,-2.11023498,-1.67333615,-1.84122241,0.25456029,0.00000000,0.00000000,-2.72138286,-0.07404169,0.09870558,-1.36566532,-0.06437145,0.00000000,0.00000000
0.51420599,-2.11341763,-1.68157697,-1.89200342,0.26609626,0.00000000,0.00000000,-2.76237965,-0.05216095,0.08799852,-1.37587953,-0.05437923,0.00000000,0.00000000
0.48453772,-2.11478305,-1.68753850,-1.93282914,0.27655080,0.00000000,0.00000000,-2.79263639,-0.03078063,0.08288877,-1.37783933,-0.05008217,0.00000000,0.00000000
0.46850750,-2.11678028,-1.69143832,-1.95901990,0.28770196,0.00000000,0.00000000,-2.81422305,-0.01172386,0.08191223,-1.37185097,-0.04563849,0.00000000,0.00000000
0.46804431,-2.12084365,-1.69302499,-1.96842039,0.29993695,0.00000000,0.00000000,-2.82871819,0.00360289,0.08396798,-1.35808003,-0.03779199,0.00000000,0.00000000
0.48339099,-2.12734389,-1.69244647,-1.96016681,0.30607346,0.00000000,0.00000000,-2.83631182,0.01325141,0.08890924,-1.33732593,-0.02837449,0.00000000,0.00000000
0.51293427,-2.13510990,-1.69059968,-1.93457234,0.30795765,0.00000000,0.00000000,-2.83568954,0.01512690,0.09761936,-1.31076014,-0.01205068,0.00000000,0.00000000
0.55335075,-2.14274406,-1.68755221,-1.89348769,0.30906340,0.00000000,0.00000000,-2.82399082,0.00779374,0.11203980,-1.27968347,0.00258628,0.00000000,0.00000000
0.60112232,-2.14933109,-1.68134248,-1.84088778,0.30894378,0.00000000,0.00000000,-2.79896140,-0.00960516,0.13358192,-1.24633169,0.01023872,0.00000000,0.00000000
0.65037954,-2.15340281,-1.67054510,-1.78862596,0.31356749,0.00000000,0.00000000,-2.76135087,-0.03972410,0.16146183,-1.21902966,0.03589543,0.00000000,0.00000000
0.69374466,-2.15241313,-1.65939832,-1.75549829,0.32422450,0.00000000,0.00000000,-2.71387148,-0.08214843,0.19394897,-1.21012461,0.05591621,0.00000000,0.00000000
0.73022628,-2.14578843,-1.65293062,-1.74687171,0.33014300,0.00000000,0.00000000,-2.66040969,-0.12880591,0.22906145,-1.22051883,0.06603844,0.00000000,0.00000000
0.76152980,-2.13537812,-1.65314376,-1.75555253,0.32846531,0.00000000,0.00000000,-2.60922337,-0.17473441,0.26130682,-1.24688017,0.07489220,0.00000000,0.00000000
0.79249996,-2.12610722,-1.65625858,-1.76607311,0.32489482,0.00000000,0.00000000,-2.56570196,-0.21438546,0.28719825,-1.28469217,0.08136252,0.00000000,0.00000000
0.82332158,-2.12168097,-1.66030812,-1.77353084,0.31881574,0.00000000,0.00000000,-2.53107619,-0.24197422,0.30609667,-1.32934272,0.08478770,0.00000000,0.00000000
0.84955126,-2.12248993,-1.66567075,-1.77957654,0.31034717,0.00000000,0.00000000,-2.51042438,-0.25704736,0.31367385,-1.37694585,0.08806875,0.00000000,0.00000000
0.86782974,-2.12603116,-1.67280328,-1.78477538,0.30335212,0.00000000,0.00000000,-2.50578141,-0.26191616,0.30714828,-1.42277265,0.08714268,0.00000000,0.00000000
0.87532157,-2.12824535,-1.68089592,-1.78952110,0.29758304,0.00000000,0.00000000,-2.51428294,-0.25729576,0.28783187,-1.45958769,0.08590077,0.00000000,0.00000000
0.87024844,-2.12712312,-1.68992758,-1.79452288,0.29011750,0.00000000,0.00000000,-2.53018641,-0.24164066,0.26008770,-1.48207510,0.09578803,0.00000000,0.00000000
0.85162055,-2.12324524,-1.70008409,-1.80188620,0.28234515,0.00000000,0.00000000,-2.54801178,-0.21519814,0.22807822,-1.48920047,0.10022261,0.00000000,0.00000000
0.82006329,-2.11791849,-1.71071112,-1.81493986,0.26243234,0.00000000,0.00000000,-2.56607294,-0.17803058,0.19331190,-1.48086870,0.11223134,0.00000000,0.00000000
0.77886367,-2.11253738,-1.72000921,-1.83627903,0.24307095,0.00000000,0.00000000,-2.58927202,-0.13233416,0.15213645,-1.46329355,0.12697273,0.00000000,0.00000000
0.73245132,-2.10817719,-1.72623909,-1.86557877,0.22974408,0.00000000,0.00000000,-2.62008643,-0.08701051,0.10262572,-1.45550811,0.13825673,0.00000000,0.00000000
0.68620890,-2.10542345,-1.72645414,-1.89923346,0.20168376,0.00000000,0.00000000,-2.65546656,-0.04709396,0.04808693,-1.46634507,0.14600810,0.00000000,0.00000000
0.64730608,-2.10564089,-1.71466660,-1.93179750,0.17304926,0.00000000,0.00000000,-2.69047928,-0.01302420,-0.00670084,-1.49040365,0.15617126,0.00000000,0.00000000
0.61946809,-2.10707998,-1.69478297,-1.95611036,0.15103477,0.00000000,0.00000000,-2.71275401,0.02525287,-0.05096402,-1.50823009,0.17229512,0.00000000,0.00000000
0.60235852,-2.10862231,-1.67132390,-1.97001171,0.13063782,0.00000000,0.00000000,-2.72254014,0.06440417,-0.08432779,-1.51600349,0.18500200,0.00000000,0.00000000
0.59593111,-2.11030936,-1.64686096,-1.97257614,0.11513694,0.00000000,0.00000000,-2.72343564,0.09877436,-0.10922810,-1.51622093,0.19284174,0.00000000,0.00000000
0.59970361,-2.11190724,-1.62345338,-1.96344066,0.10072742,0.00000000,0.00000000,-2.71702838,0.12769926,-0.12666285,-1.50852180,0.19996426,0.00000000,0.00000000
0.61286134,-2.11295462,-1.60286558,-1.94252026,0.08537515,0.00000000,0.00000000,-2.70422459,0.15125917,-0.13723713,-1.49225748,0.21069814,0.00000000,0.00000000
0.63468927,-2.11304855,-1.58643615,-1.90959084,0.06931151,0.00000000,0.00000000,-2.68531322,0.16828497,-0.14110655,-1.46797872,0.22820599,0.00000000,0.00000000
0.66329813,-2.11091733,-1.57555830,-1.86552882,0.05236661,0.00000000,0.00000000,-2.65949941,0.17646800,-0.13760149,-1.43737233,0.23763803,0.00000000,0.00000000
0.69427288,-2.10520124,-1.57032752,-1.81448805,0.02244496,0.00000000,0.00000000,-2.62490463,0.17281429,-0.12523183,-1.40347695,0.24708237,0.00000000,0.00000000
0.72199917,-2.09686780,-1.56625295,-1.76765358,-0.00034630,0.00000000,0.00000000,-2.58174658,0.15111923,-0.10403820,-1.37540627,0.25681749,0.00000000,0.00000000
0.74437797,-2.08716249,-1.55897021,-1.74046266,-0.01621705,0.00000000,0.00000000,-2.53269339,0.10914385,-0.07629347,-1.36534941,0.26394525,0.00000000,0.00000000
0.76428419,-2.07438874,-1.55235147,-1.73752844,-0.03084787,0.00000000,0.00000000,-2.47893453,0.05854699,-0.04400431,-1.37456286,0.26893914,0.00000000,0.00000000
0.78477126,-2.05799770,-1.55055642,-1.75229597,-0.04362913,0.00000000,0.00000000,-2.42434502,0.01058259,-0.01127609,-1.39865279,0.27080077,0.00000000,0.00000000
0.80679518,-2.03996587,-1.55436778,-1.76982558,-0.04719209,0.00000000,0.00000000,-2.37283611,-0.03038660,0.01794082,-1.43491423,0.26996022,0.00000000,0.00000000
0.82996023,-2.02517796,-1.55929434,-1.78474844,-0.05130437,0.00000000,0.00000000,-2.32490134,-0.06138620,0.04235930,-1.48109412,0.27323604,0.00000000,0.00000000
0.85237992,-2.01628828,-1.56425905,-1.79608667,-0.05108296,0.00000000,0.00000000,-2.28342080,-0.07816395,0.05868793,-1.53203964,0.28160381,0.00000000,0.00000000
0.86962903,-2.01244831,-1.56981993,-1.80378318,-0.05476771,0.00000000,0.00000000,-2.25472546,-0.08104473,0.06057997,-1.58027494,0.29293895,0.00000000,0.00000000
0.87614787,-2.01019454,-1.57623887,-1.80875695,-0.06116735,0.00000000,0.00000000,-2.23804617,-0.07185406,0.04773734,-1.61751986,0.30853185,0.00000000,0.00000000
0.86847854,-2.00697923,-1.58362091,-1.81224012,-0.05270231,0.00000000,0.00000000,-2.23035049,-0.05490239,0.02195781,-1.64234984,0.31870446,0.00000000,0.00000000
0.84538579,-2.00201440,-1.59212947,-1.81588829,-0.04824986,0.00000000,0.00000000,-2.22875905,-0.03349872,-0.01469641,-1.65555048,0.32403383,0.00000000,0.00000000
0.80770481,-1.99464142,-1.60148919,-1.82173157,-0.04533298,0.00000000,0.00000000,-2.22925282,-0.00874265,-0.05874024,-1.65651190,0.33761156,0.00000000,0.00000000
0.75935507,-1.98466086,-1.60938096,-1.83211267,-0.03144860,0.00000000,0.00000000,-2.23214245,0.02045172,-0.11039364,-1.64447069,0.35263982,0.00000000,0.00000000
0.70694083,-1.97365689,-1.61109686,-1.84852982,-0.01923767,0.00000000,0.00000000,-2.24319744,0.05421330,-0.17438596,-1.62378860,0.37144643,0.00000000,0.00000000
0.65660405,-1.96451318,-1.60285485,-1.87018704,-0.00992023,0.00000000,0.00000000,-2.26449037,0.08610000,-0.25139382,-1.61015666,0.38580278,0.00000000,0.00000000
0.61180145,-1.95793629,-1.58607256,-1.89322162,0.00334198,0.00000000,0.00000000,-2.29031610,0.11763969,-0.33622929,-1.61139941,0.39086634,0.00000000,0.00000000
0.57401490,-1.95315540,-1.56469798,-1.91312456,0.01557711,0.00000000,0.00000000,-2.31369448,0.15318610,-0.42355734,-1.62646377,0.39960176,0.00000000,0.00000000
0.54230011,-1.94889271,-1.54399228,-1.92715812,0.03323433,0.00000000,0.00000000,-2.32717299,0.19497830,-0.50773913,-1.65099382,0.40285361,0.00000000,0.00000000
0.51728714,-1.94525123,-1.52435148,-1.93317819,0.05261908,0.00000000,0.00000000,-2.32514548,0.23987429,-0.58356029,-1.68012130,0.40407419,0.00000000,0.00000000
0.49894965,-1.94266748,-1.50417304,-1.93097568,0.07516883,0.00000000,0.00000000,-2.30904961,0.28594413,-0.65196043,-1.70692158,0.39825100,0.00000000,0.00000000
0.48664954,-1.94107890,-1.48306978,-1.92030191,0.10004957,0.00000000,0.00000000,-2.27931476,0.33143935,-0.71298403,-1.72659254,0.39474285,0.00000000,0.00000000
0.48018944,-1.94044328,-1.46057212,-1.90036678,0.13091852,0.00000000,0.00000000,-2.23677826,0.37389600,-0.76680118,-1.73808992,0.38826793,0.00000000,0.00000000
0.47964451,-1.94021094,-1.43597865,-1.87034822,0.16049257,0.00000000,0.00000000,-2.17523313,0.41289830,-0.80830735,-1.74477768,0.37752160,0.00000000,0.00000000
0.48420787,-1.93871880,-1.40920579,-1.83042264,0.18670073,0.00000000,0.00000000,-2.09387493,0.44942853,-0.83731467,-1.75591052,0.37286976,0.00000000,0.00000000
0.48995546,-1.93384099,-1.38241291,-1.78404009,0.20869243,0.00000000,0.00000000,-1.99426317,0.48571804,-0.85584694,-1.77351034,0.36851677,0.00000000,0.00000000
0.49367356,-1.92414403,-1.35886586,-1.74005222,0.23127206,0.00000000,0.00000000,-1.88306880,0.52502787,-0.87032819,-1.79926002,0.36827952,0.00000000,0.00000000
0.49450973,-1.90991068,-1.33773768,-1.71411026,0.25268546,0.00000000,0.00000000,-1.76654649,0.57101667,-0.88675517,-1.83357203,0.37101099,0.00000000,0.00000000
0.49263248,-1.89147818,-1.31914115,-1.71023893,0.26864311,0.00000000,0.00000000,-1.64847624,0.62644196,-0.90869290,-1.87495232,0.37051284,0.00000000,0.00000000
0.48722899,-1.86981750,-1.30454504,-1.72075045,0.28171504,0.00000000,0.00000000,-1.53153694,0.69302887,-0.93837404,-1.92078114,0.37003118,0.00000000,0.00000000
0.48460445,-1.84670782,-1.29216754,-1.73002636,0.29924873,0.00000000,0.00000000,-1.41779292,0.77152491,-0.97694749,-1.96783686,0.35992131,0.00000000,0.00000000
0.48533779,-1.82538962,-1.28089654,-1.73479009,0.31514952,0.00000000,0.00000000,-1.30910110,0.86187387,-1.02470720,-2.01252913,0.35388228,0.00000000,0.00000000
0.48682702,-1.80955327,-1.27138782,-1.73681378,0.32331118,0.00000000,0.00000000,-1.20734107,0.96314985,-1.08123410,-2.05111909,0.34608045,0.00000000,0.00000000
0.48696536,-1.80183613,-1.26508093,-1.73675442,0.32714260,0.00000000,0.00000000,-1.11457336,1.07376635,-1.14554667,-2.07950711,0.34075937,0.00000000,0.00000000
0.48437726,-1.80313277,-1.26321256,-1.73449945,0.33337867,0.00000000,0.00000000,-1.03264976,1.19148076,-1.21576869,-2.09332442,0.32893011,0.00000000,0.00000000
0.47841313,-1.81266749,-1.26578951,-1.73025215,0.33317962,0.00000000,0.00000000,-0.96305633,1.31333315,-1.28917909,-2.08876061,0.32085097,0.00000000,0.00000000
0.46877208,-1.82825255,-1.27176917,-1.72594500,0.34164244,0.00000000,0.00000000,-0.90699816,1.43592274,-1.36253345,-2.06383872,0.31543452,0.00000000,0.00000000
0.45444867,-1.84721994,-1.28132629,-1.72725809,0.35197473,0.00000000,0.00000000,-0.86531615,1.55555689,-1.43221486,-2.01969004,0.31085846,0.00000000,0.00000000
0.43297634,-1.86716592,-1.29696500,-1.74455678,0.35884124,0.00000000,0.00000000,-0.83815831,1.66856563,-1.49454987,-1.96116590,0.31432286,0.00000000,0.00000000
0.40701580,-1.88521385,-1.31866527,-1.78315234,0.36959150,0.00000000,0.00000000,-0.82523072,1.77178919,-1.54673433,-1.89456475,0.31620398,0.00000000,0.00000000
0.38218907,-1.90080953,-1.34326863,-1.83600974,0.37235886,0.00000000,0.00000000,-0.82547379,1.86216867,-1.58655608,-1.82503521,0.31934100,0.00000000,0.00000000
0.36446553,-1.91244245,-1.37182546,-1.88377762,0.37168697,0.00000000,0.00000000,-0.83559757,1.93636560,-1.61176062,-1.75743306,0.33071670,0.00000000,0.00000000
0.35782054,-1.92156386,-1.40144873,-1.91870558,0.37522480,0.00000000,0.00000000,-0.84779418,1.99117029,-1.61987352,-1.69761324,0.34552491,0.00000000,0.00000000
0.36347970,-1.92954397,-1.42828703,-1.94048381,0.37137777,0.00000000,0.00000000,-0.85150468,2.02582693,-1.61166120,-1.64939296,0.35346824,0.00000000,0.00000000
0.38088083,-1.93717635,-1.44948971,-1.94916713,0.37419400,0.00000000,0.00000000,-0.84175950,2.04362464,-1.59424090,-1.60809779,0.36607587,0.00000000,0.00000000
0.40815580,-1.94429851,-1.46426630,-1.94404125,0.38378361,0.00000000,0.00000000,-0.81787884,2.04867458,-1.57568657,-1.56991136,0.38474235,0.00000000,0.00000000
0.44301322,-1.95049238,-1.47224760,-1.92534947,0.39386261,0.00000000,0.00000000,-0.77806956,2.04460025,-1.56106377,-1.53381884,0.39800578,0.00000000,0.00000000
0.48128647,-1.95425999,-1.47383571,-1.89535666,0.40923896,0.00000000,0.00000000,-0.71814859,2.03646636,-1.55351806,-1.50112152,0.40824342,0.00000000,0.00000000
0.51809120,-1.95518005,-1.46927917,-1.85980964,0.42620116,0.00000000,0.00000000,-0.63610852,2.02851081,-1.55414140,-1.47520053,0.42210099,0.00000000,0.00000000
0.55095708,-1.95513999,-1.45821333,-1.82846940,0.44386163,0.00000000,0.00000000,-0.53729713,2.02447987,-1.56426775,-1.46048462,0.43309951,0.00000000,0.00000000
0.57734120,-1.95593369,-1.44226277,-1.81287277,0.45701757,0.00000000,0.00000000,-0.42966741,2.02814245,-1.58527148,-1.46158314,0.44441572,0.00000000,0.00000000
0.59627521,-1.95737612,-1.42609656,-1.81645167,0.46780428,0.00000000,0.00000000,-0.32203791,2.04062176,-1.61593091,-1.47984624,0.44815019,0.00000000,0.00000000
0.61002505,-1.95879364,-1.41479349,-1.82905769,0.47936693,0.00000000,0.00000000,-0.22251152,2.06038594,-1.65118909,-1.50495040,0.44926661,0.00000000,0.00000000
0.62391049,-1.96009386,-1.41118479,-1.83955193,0.49105379,0.00000000,0.00000000,-0.13999280,2.08045530,-1.67856765,-1.51673305,0.44957703,0.00000000,0.00000000
0.63976246,-1.96322954,-1.41374803,-1.84554017,0.50201946,0.00000000,0.00000000,-0.07684790,2.09735560,-1.69094026,-1.50971603,0.44480130,0.00000000,0.00000000
0.65462989,-1.96984577,-1.42089939,-1.84851098,0.52367514,0.00000000,0.00000000,-0.03223479,2.11104822,-1.68685269,-1.48485506,0.43974638,0.00000000,0.00000000
0.66271347,-1.97956860,-1.43260050,-1.84874094,0.54213148,0.00000000,0.00000000,-0.00531231,2.12319112,-1.66737771,-1.44213295,0.44223890,0.00000000,0.00000000
0.65986162,-1.99264646,-1.44856179,-1.84599769,0.55756849,0.00000000,0.00000000,0.00553310,2.13511968,-1.63338482,-1.38199580,0.43870640,0.00000000,0.00000000
0.64390570,-2.00977540,-1.46788180,-1.84112060,0.56549150,0.00000000,0.00000000,0.00257461,2.14732623,-1.58519602,-1.30540037,0.43582025,0.00000000,0.00000000
0.61521852,-2.03225017,-1.48917329,-1.83746195,0.56774062,0.00000000,0.00000000,-0.01093620,2.15912485,-1.52292824,-1.21352077,0.43439490,0.00000000,0.00000000
0.57749194,-2.06002593,-1.51063704,-1.84086156,0.56330919,0.00000000,0.00000000,-0.02937390,2.16744709,-1.44636571,-1.10797977,0.43311515,0.00000000,0.00000000
0.53165621,-2.08833742,-1.53078425,-1.85827994,0.55794495,0.00000000,0.00000000,-0.04667798,2.16984701,-1.35504544,-0.99073660,0.43772507,0.00000000,0.00000000
0.47979224,-2.11379457,-1.54692066,-1.89585984,0.55505902,0.00000000,0.00000000,-0.06005435,2.17000008,-1.24864089,-0.86417633,0.44425532,0.00000000,0.00000000
0.43019053,-2.13568354,-1.55359125,-1.95028579,0.55210179,0.00000000,0.00000000,-0.06746306,2.17000008,-1.12804449,-0.73134792,0.44452402,0.00000000,0.00000000
0.38978240,-2.15279102,-1.55146205,-2.00798631,0.54096413,0.00000000,0.00000000,-0.06738246,2.16997242,-0.99567765,-0.59512252,0.44176018,0.00000000,0.00000000
0.36583385,-2.16354275,-1.54714656,-2.05111170,0.54031765,0.00000000,0.00000000,-0.05964478,2.16926527,-0.85479319,-0.45771191,0.44672844,0.00000000,0.00000000
0.35945034,-2.16824961,-1.54670596,-2.07567334,0.53234774,0.00000000,0.00000000,-0.04456244,2.16332531,-0.70867783,-0.32065228,0.44822425,0.00000000,0.00000000
0.37021086,-2.16870832,-1.55206740,-2.08233380,0.51769572,0.00000000,0.00000000,-0.02230851,2.14432168,-0.56004876,-0.18478316,0.45182541,0.00000000,0.00000000
0.39770383,-2.16624165,-1.56312108,-2.07143378,0.50788188,0.00000000,0.00000000,0.00695698,2.11338830,-0.41075975,-0.05031876,0.46043950,0.00000000,0.00000000
0.44008362,-2.16123366,-1.57995462,-2.04426455,0.49980643,0.00000000,0.00000000,0.04284596,2.07620192,-0.26193926,0.08325996,0.46928984,0.00000000,0.00000000
0.49382055,-2.15405893,-1.60214972,-2.00340080,0.48645964,0.00000000,0.00000000,0.08522037,2.03915286,-0.11431184,0.21713939,0.47307703,0.00000000,0.00000000
0.55360717,-2.14620972,-1.62768567,-1.95336950,0.46963921,0.00000000,0.00000000,0.13405466,2.00834250,0.03146287,0.35263041,0.48353207,0.00000000,0.00000000
0.61364609,-2.14016747,-1.65185952,-1.90212691,0.45034587,0.00000000,0.00000000,0.18815994,1.98847246,0.17417350,0.49048832,0.49951223,0.00000000,0.00000000
0.66920042,-2.13716221,-1.66852641,-1.86156118,0.43795216,0.00000000,0.00000000,0.24320196,1.98249805,0.31105790,0.63047051,0.52900767,0.00000000,0.00000000
0.71851772,-2.13557053,-1.67534840,-1.83935058,0.43207139,0.00000000,0.00000000,0.29158723,1.99021661,0.43762621,0.77063590,0.57135051,0.00000000,0.00000000
0.76080668,-2.13374138,-1.67385757,-1.83572245,0.42748091,0.00000000,0.00000000,0.32606220,2.00869012,0.54966050,0.90782779,0.61055076,0.00000000,0.00000000
0.79760343,-2.13199902,-1.66559291,-1.84314084,0.41777766,0.00000000,0.00000000,0.34136483,2.03380680,0.64481574,1.03786600,0.65942955,0.00000000,0.00000000
0.83058977,-2.13030314,-1.65364194,-1.85279977,0.40970030,0.00000000,0.00000000,0.33475929,2.06057239,0.72345251,1.15576041,0.70855284,0.00000000,0.00000000
0.85779506,-2.12732148,-1.64210403,-1.85976124,0.39827663,0.00000000,0.00000000,0.30694848,2.08477402,0.78861392,1.25724006,0.75077337,0.00000000,0.00000000
0.87566501,-2.12205625,-1.63392913,-1.86219895,0.39443153,0.00000000,0.00000000,0.26131693,2.10570645,0.84405512,1.34067893,0.79551041,0.00000000,0.00000000
0.88147783,-2.11516333,-1.63017476,-1.86012483,0.39011768,0.00000000,0.00000000,0.20124491,2.12427616,0.89306545,1.40585017,0.84212977,0.00000000,0.00000000
0.87416464,-2.10739422,-1.63143456,-1.85404527,0.39104769,0.00000000,0.00000000,0.12996672,2.14089537,0.93875533,1.45269144,0.88837463,0.00000000,0.00000000
0.85389036,-2.09965301,-1.63770854,-1.84530413,0.39939186,0.00000000,0.00000000,0.05072747,2.15486097,0.98385680,1.48111403,0.93824613,0.00000000,0.00000000
0.82052761,-2.09258318,-1.64840627,-1.83733964,0.40958562,0.00000000,0.00000000,-0.03236692,2.16455221,1.03039575,1.49143624,0.97886926,0.00000000,0.00000000
0.77423292,-2.08563352,-1.66306996,-1.83681834,0.41785192,0.00000000,0.00000000,-0.11819929,2.16820049,1.07900953,1.48432088,1.02252686,0.00000000,0.00000000
0.71788681,-2.07727575,-1.67996716,-1.85275161,0.42880422,0.00000000,0.00000000,-0.20962861,2.16405559,1.12984276,1.46186972,1.06784093,0.00000000,0.00000000
0.66020697,-2.06812692,-1.69145429,-1.89006090,0.44870260,0.00000000,0.00000000,-0.30254662,2.15188193,1.18271017,1.43513203,1.11596632,0.00000000,0.00000000
0.61024648,-2.05939174,-1.69186211,-1.93980861,0.46631637,0.00000000,0.00000000,-0.38555694,2.13924384,1.23345923,1.42295551,1.16412044,0.00000000,0.00000000
0.56980234,-2.05043125,-1.68716121,-1.98432398,0.48852921,0.00000000,0.00000000,-0.45519099,2.12677336,1.27978718,1.42402077,1.20807278,0.00000000,0.00000000
0.54053354,-2.04207230,-1.68028700,-2.01557684,0.51843464,0.00000000,0.00000000,-0.51109791,2.11017537,1.32158434,1.42820764,1.25310373,0.00000000,0.00000000
0.52468973,-2.03613210,-1.66994178,-2.03108692,0.54238027,0.00000000,0.00000000,-0.55143511,2.08857250,1.35861206,1.42916095,1.29361761,0.00000000,0.00000000
0.52190214,-2.03432298,-1.65537226,-2.03021479,0.55806267,0.00000000,0.00000000,-0.57410848,2.06325889,1.39094436,1.42417622,1.33541000,0.00000000,0.00000000
0.53063416,-2.03750038,-1.63712871,-2.01270008,0.58082831,0.00000000,0.00000000,-0.57752925,2.03593254,1.41868889,1.41241729,1.37670577,0.00000000,0.00000000
0.54895478,-2.04496288,-1.61664855,-1.97854316,0.60636193,0.00000000,0.00000000,-0.56038576,2.00871277,1.44130731,1.39434576,1.40839577,0.00000000,0.00000000
0.57496899,-2.05397916,-1.59585643,-1.92825079,0.63929617,0.00000000,0.00000000,-0.52196288,1.98491323,1.45711613,1.37127638,1.43683302,0.00000000,0.00000000
0.60661095,-2.06068659,-1.57593381,-1.86316359,0.66165709,0.00000000,0.00000000,-0.46336684,1.96890807,1.46383500,1.34513307,1.45243776,0.00000000,0.00000000
0.64007777,-2.06115222,-1.55878818,-1.79009271,0.67977494,0.00000000,0.00000000,-0.39052325,1.96544397,1.45867765,1.32211518,1.46840632,0.00000000,0.00000000
0.67062867,-2.05253744,-1.54972565,-1.72556877,0.69984955,0.00000000,0.00000000,-0.31138831,1.97475398,1.44143307,1.31532288,1.48148930,0.00000000,0.00000000
0.70112139,-2.03600335,-1.54666030,-1.68033159,0.72743827,0.00000000,0.00000000,-0.23015296,1.99168503,1.41809368,1.33011663,1.49394715,0.00000000,0.00000000
0.73221850,-2.01297641,-1.54897892,-1.65724647,0.74925476,0.00000000,0.00000000,-0.15031157,2.01313853,1.39268970,1.36518264,1.50639045,0.00000000,0.00000000
0.76285678,-1.98735452,-1.55405903,-1.65288961,0.77322847,0.00000000,0.00000000,-0.07580537,2.03821254,1.36635709,1.41800642,1.51315784,0.00000000,0.00000000
0.79343867,-1.96584094,-1.55604696,-1.65500474,0.78992075,0.00000000,0.00000000,-0.01064001,2.06592917,1.34015369,1.48534703,1.50723112,0.00000000,0.00000000
0.82245368,-1.95291352,-1.55457175,-1.65831578,0.80813688,0.00000000,0.00000000,0.03712509,2.09241247,1.31717229,1.55771780,1.49072337,0.00000000,0.00000000
0.84195632,-1.95154297,-1.55182874,-1.66406071,0.82948786,0.00000000,0.00000000,0.05683372,2.11393809,1.29909229,1.61832380,1.47133148,0.00000000,0.00000000
0.84103674,-1.95987678,-1.55004239,-1.67319357,0.84654230,0.00000000,0.00000000,0.04728685,2.12947512,1.28697908,1.65671802,1.44671738,0.00000000,0.00000000
0.81576949,-1.97387373,-1.54951727,-1.68616331,0.86087543,0.00000000,0.00000000,0.01049579,2.14208341,1.27694297,1.67111349,1.43004608,0.00000000,0.00000000
0.76930887,-1.99367630,-1.55167615,-1.70360947,0.87737769,0.00000000,0.00000000,-0.04891915,2.15304732,1.26773345,1.66312993,1.40110719,0.00000000,0.00000000
0.70683444,-2.01600766,-1.55625737,-1.72677267,0.89096785,0.00000000,0.00000000,-0.12374020,2.16196370,1.26035738,1.63583064,1.37443376,0.00000000,0.00000000
0.63370985,-2.03556037,-1.56234491,-1.75657380,0.89702260,0.00000000,0.00000000,-0.20745766,2.16785622,1.25582469,1.59332526,1.35192478,0.00000000,0.00000000
0.55730867,-2.04862189,-1.57182145,-1.79398096,0.90517473,0.00000000,0.00000000,-0.29494882,2.16977215,1.25945723,1.54505694,1.32614887,0.00000000,0.00000000
0.48854893,-2.05413246,-1.58460164,-1.84467018,0.90655696,0.00000000,0.00000000,-0.38331854,2.16999197,1.27628410,1.50752497,1.30677915,0.00000000,0.00000000
0.43365523,-2.05476665,-1.59533846,-1.90410388,0.90986508,0.00000000,0.00000000,-0.46802476,2.17000008,1.30441928,1.48743856,1.28855538,0.00000000,0.00000000
0.39520419,-2.05213571,-1.60348690,-1.95289910,0.91478163,0.00000000,0.00000000,-0.54204619,2.16992211,1.34103537,1.47988832,1.26849389,0.00000000,0.00000000
0.37239131,-2.04786015,-1.60804164,-1.98523843,0.92604530,0.00000000,0.00000000,-0.60336918,2.16860962,1.38134217,1.47633958,1.24510694,0.00000000,0.00000000
0.36632565,-2.04355431,-1.60661912,-2.00048971,0.93471891,0.00000000,0.00000000,-0.64869308,2.16285372,1.42178202,1.46954083,1.22938526,0.00000000,0.00000000
0.37794757,-2.03965783,-1.59843242,-1.99774218,0.94086909,0.00000000,0.00000000,-0.67617381,2.15101647,1.45971763,1.45568717,1.21641171,0.00000000,0.00000000
0.40649807,-2.03520513,-1.58418596,-1.97662091,0.94000649,0.00000000,0.00000000,-0.68541217,2.13512588,1.49266708,1.43372250,1.20332289,0.00000000,0.00000000
0.44898856,-2.02837443,-1.56540418,-1.93761992,0.95192236,0.00000000,0.00000000,-0.67475128,2.11859417,1.51789689,1.40516269,1.19603181,0.00000000,0.00000000
0.49984318,-2.01782727,-1.54354656,-1.88279521,0.95712900,0.00000000,0.00000000,-0.64138013,2.10433388,1.53216124,1.37433684,1.18579590,0.00000000,0.00000000
0.55365431,-2.00336266,-1.52035618,-1.81554794,0.96024513,0.00000000,0.00000000,-0.58593196,2.09414148,1.53341532,1.34884644,1.17633700,0.00000000,0.00000000
0.60583240,-1.98551226,-1.50070286,-1.74496210,0.95899844,0.00000000,0.00000000,-0.51579452,2.08934855,1.52310133,1.33965373,1.16845822,0.00000000,0.00000000
0.64918661,-1.96464241,-1.48809242,-1.68997097,0.95740169,0.00000000,0.00000000,-0.43638477,2.09082174,1.50436223,1.35330749,1.15748990,0.00000000,0.00000000
0.68443191,-1.94348371,-1.47816002,-1.65949297,0.95624638,0.00000000,0.00000000,-0.35328737,2.09836364,1.47916269,1.38988519,1.15263104,0.00000000,0.00000000
0.71270126,-1.92406952,-1.46929073,-1.65214026,0.96144027,0.00000000,0.00000000,-0.27510068,2.11232018,1.44721603,1.44565427,1.16361916,0.00000000,0.00000000
0.73272842,-1.90701687,-1.46463394,-1.65854013,0.97076625,0.00000000,0.00000000,-0.20992249,2.13199329,1.40866828,1.51568818,1.17701697,0.00000000,0.00000000
0.74870962,-1.89525890,-1.46268284,-1.66784632,0.97326589,0.00000000,0.00000000,-0.16312723,2.15137267,1.37088847,1.59076369,1.19200170,0.00000000,0.00000000
0.76070362,-1.89108241,-1.46291351,-1.67721033,0.97885919,0.00000000,0.00000000,-0.13733476,2.16327715,1.34422767,1.65413725,1.20808065,0.00000000,0.00000000
0.76510578,-1.89477098,-1.46585357,-1.68716550,0.97692132,0.00000000,0.00000000,-0.13481645,2.16835117,1.32768273,1.69699252,1.21963394,0.00000000,0.00000000
0.75850445,-1.90484226,-1.47186029,-1.69782257,0.96992898,0.00000000,0.00000000,-0.15366207,2.16978407,1.31763089,1.71875679,1.24454355,0.00000000,0.00000000
0.73975050,-1.91947305,-1.48077774,-1.70914412,0.96928203,0.00000000,0.00000000,-0.19070119,2.16999054,1.31263423,1.72039092,1.26800716,0.00000000,0.00000000
0.70862234,-1.93725848,-1.49224830,-1.72237694,0.96401364,0.00000000,0.00000000,-0.24193507,2.17000008,1.31279480,1.70323110,1.28715658,0.00000000,0.00000000
0.66542017,-1.95624244,-1.50669217,-1.73983216,0.95131117,0.00000000,0.00000000,-0.30339164,2.17000008,1.31881595,1.66888094,1.31725109,0.00000000,0.00000000
0.61317909,-1.97346961,-1.52498615,-1.76320934,0.94318247,0.00000000,0.00000000,-0.37429026,2.17000008,1.33297420,1.61882091,1.34070599,0.00000000,0.00000000
0.55585784,-1.98593736,-1.54945183,-1.79369462,0.92857558,0.00000000,0.00000000,-0.45239460,2.17000008,1.35710156,1.56234670,1.36401784,0.00000000,0.00000000
0.49930629,-1.99239647,-1.57726419,-1.83517718,0.91149986,0.00000000,0.00000000,-0.53060186,2.17000008,1.38596666,1.52072632,1.39376998,0.00000000,0.00000000
0.44966760,-1.99669909,-1.59567440,-1.88502026,0.89273995,0.00000000,0.00000000,-0.59982276,2.17000008,1.41540122,1.50172389,1.43200278,0.00000000,0.00000000
0.41273507,-1.99840868,-1.60510647,-1.92693782,0.87901652,0.00000000,0.00000000,-0.65355623,2.16999364,1.44669938,1.49910569,1.46388721,0.00000000,0.00000000
0.39037281,-1.99718404,-1.60825253,-1.95422494,0.86253715,0.00000000,0.00000000,-0.69131899,2.16971087,1.47903991,1.50321186,1.48643672,0.00000000,0.00000000
0.38291049,-1.99483573,-1.60456204,-1.96637046,0.84984338,0.00000000,0.00000000,-0.71354020,2.16641879,1.50940132,1.50696135,1.50874031,0.00000000,0.00000000
0.39031765,-1.99343801,-1.59364116,-1.96292555,0.83088660,0.00000000,0.00000000,-0.71989256,2.15456295,1.53652966,1.50553572,1.52071750,0.00000000,0.00000000
0.41177943,-1.99414349,-1.57569838,-1.94361329,0.81519938,0.00000000,0.00000000,-0.70984405,2.13412833,1.55918038,1.49645507,1.53269601,0.00000000,0.00000000
0.44524327,-1.99616289,-1.55160248,-1.90878963,0.79844624,0.00000000,0.00000000,-0.68200469,2.10926270,1.57493567,1.47946334,1.54749465,0.00000000,0.00000000
0.48693153,-1.99696136,-1.52296543,-1.86031628,0.78328955,0.00000000,0.00000000,-0.63331258,2.08739614,1.58073115,1.45728970,1.56418550,0.00000000,0.00000000
0.53009534,-1.99392593,-1.49330020,-1.80458117,0.77417386,0.00000000,0.00000000,-0.56418806,2.07530236,1.57431066,1.43700957,1.58760059,0.00000000,0.00000000
0.56758255,-1.98557138,-1.46834445,-1.75547516,0.76568574,0.00000000,0.00000000,-0.48379064,2.07277441,1.55532908,1.42960191,1.60687709,0.00000000,0.00000000
0.59805787,-1.97275531,-1.44895399,-1.72732985,0.75579548,0.00000000,0.00000000,-0.39911288,2.07836890,1.52615666,1.44317842,1.61681521,0.00000000,0.00000000
0.62083119,-1.95681715,-1.43605447,-1.72267604,0.74073631,0.00000000,0.00000000,-0.31726757,2.09074736,1.48860133,1.47731018,1.63061690,0.00000000,0.00000000
0.63703561,-1.93851459,-1.43265617,-1.73181546,0.73449427,0.00000000,0.00000000,-0.24795449,2.10913110,1.44344103,1.52645087,1.64117062,0.00000000,0.00000000
0.65387934,-1.92226624,-1.43360913,-1.74053240,0.72399729,0.00000000,0.00000000,-0.19513801,2.12991405,1.39670718,1.58466113,1.65180671,0.00000000,0.00000000
0.67323929,-1.91228902,-1.43525100,-1.74550784,0.72063565,0.00000000,0.00000000,-0.15764573,2.14584899,1.36070943,1.64177918,1.66258919,0.00000000,0.00000000
0.69095898,-1.90845263,-1.43729925,-1.74791420,0.71924084,0.00000000,0.00000000,-0.14100279,2.15511680,1.33802319,1.68274462,1.67038774,0.00000000,0.00000000
0.69888389,-1.90716541,-1.44043589,-1.74713278,0.71157199,0.00000000,0.00000000,-0.14627114,2.16142797,1.32296157,1.70235717,1.67790663,0.00000000,0.00000000
0.69449991,-1.91016042,-1.44531000,-1.74287486,0.70909292,0.00000000,0.00000000,-0.16998820,2.16645718,1.31271148,1.70114422,1.68305421,0.00000000,0.00000000
0.67807949,-1.91656613,-1.45238614,-1.73683584,0.71146792,0.00000000,0.00000000,-0.20822553,2.16926384,1.30775607,1.67990434,1.67662978,0.00000000,0.00000000
0.64907533,-1.92372930,-1.46200323,-1.73361337,0.71769398,0.00000000,0.00000000,-0.25751215,2.16995811,1.30930805,1.63941658,1.67756879,0.00000000,0.00000000
0.60766321,-1.92996728,-1.47448373,-1.74150336,0.72417516,0.00000000,0.00000000,-0.31732264,2.17000008,1.31885314,1.58070624,1.66763103,0.00000000,0.00000000
0.55731058,-1.93457496,-1.48995209,-1.76991177,0.73441637,0.00000000,0.00000000,-0.38720834,2.16998601,1.33862567,1.51242805,1.65722764,0.00000000,0.00000000
0.50385469,-1.93590188,-1.50848377,-1.81797326,0.74731869,0.00000000,0.00000000,-0.46083686,2.16980052,1.36570954,1.45623648,1.63686323,0.00000000,0.00000000
0.45185271,-1.93390858,-1.52912331,-1.87072146,0.75394291,0.00000000,0.00000000,-0.53135586,2.16951442,1.39463913,1.42259717,1.62019932,0.00000000,0.00000000
0.41195935,-1.93053114,-1.54664493,-1.91223705,0.76045907,0.00000000,0.00000000,-0.59176695,2.16975474,1.42303813,1.41166234,1.60907626,0.00000000,0.00000000
0.38735080,-1.92819262,-1.55933166,-1.93763173,0.76602513,0.00000000,0.00000000,-0.63908118,2.16908360,1.45032477,1.41497087,1.59664226,0.00000000,0.00000000
0.37779462,-1.92902946,-1.56609356,-1.94660974,0.76925552,0.00000000,0.00000000,-0.67193294,2.16431808,1.47610104,1.42142010,1.59987986,0.00000000,0.00000000
0.38353419,-1.93404818,-1.56556940,-1.93899679,0.77167392,0.00000000,0.00000000,-0.68718857,2.15182185,1.50046194,1.42391777,1.60079587,0.00000000,0.00000000
0.40429455,-1.94272971,-1.55766165,-1.91451466,0.77621633,0.00000000,0.00000000,-0.68335533,2.13198543,1.52268374,1.41968274,1.59987020,0.00000000,0.00000000
0.43811676,-1.95339346,-1.54332268,-1.87356889,0.78320342,0.00000000,0.00000000,-0.65983236,2.10734320,1.54091370,1.40822244,1.59837091,0.00000000,0.00000000
0.47885185,-1.96251523,-1.52511954,-1.81910610,0.78514749,0.00000000,0.00000000,-0.61461747,2.08186984,1.55242467,1.39143276,1.59449613,0.00000000,0.00000000
0.51617563,-1.96620238,-1.50626159,-1.76077354,0.79745567,0.00000000,0.00000000,-0.54774535,2.05943918,1.55359316,1.37519348,1.59314024,0.00000000,0.00000000
0.54278374,-1.96367908,-1.48929596,-1.71419168,0.81122792,0.00000000,0.00000000,-0.46779010,2.04223108,1.54091501,1.36925769,1.59392786,0.00000000,0.00000000
0.56147891,-1.95645082,-1.47395790,-1.69031978,0.82518643,0.00000000,0.00000000,-0.38412580,2.03329158,1.51449418,1.38179290,1.59420276,0.00000000,0.00000000
0.57695913,-1.94589019,-1.46053028,-1.69059956,0.83381891,0.00000000,0.00000000,-0.30442289,2.03264737,1.47753739,1.41376615,1.60021722,0.00000000,0.00000000
0.59254605,-1.93234038,-1.45195067,-1.71008515,0.84954429,0.00000000,0.00000000,-0.23611748,2.03829384,1.43477726,1.46090221,1.60772491,0.00000000,0.00000000
0.60983521,-1.91498613,-1.45416236,-1.73612559,0.86243087,0.00000000,0.00000000,-0.18344696,2.04570389,1.39416111,1.51817930,1.61990190,0.00000000,0.00000000
0.63398659,-1.89994967,-1.46064067,-1.75550938,0.87814945,0.00000000,0.00000000,-0.15215904,2.05554056,1.35655832,1.57651019,1.63337684,0.00000000,0.00000000
0.66298586,-1.89275551,-1.46642387,-1.76869965,0.89388460,0.00000000,0.00000000,-0.14569432,2.06488204,1.32702684,1.61891103,1.63785982,0.00000000,0.00000000
0.69238377,-1.89501739,-1.47052836,-1.77831435,0.91014022,0.00000000,0.00000000,-0.16236323,2.07373834,1.30718672,1.63950467,1.64468229,0.00000000,0.00000000
0.71468997,-1.90532172,-1.47319067,-1.78456128,0.92579633,0.00000000,0.00000000,-0.19903219,2.08477926,1.29487562,1.63888788,1.65209413,0.00000000,0.00000000
0.72599739,-1.91886067,-1.47528982,-1.78731394,0.93485588,0.00000000,0.00000000,-0.25185376,2.09922504,1.28918386,1.61887574,1.65236533,0.00000000,0.00000000
0.72792339,-1.93071032,-1.47777736,-1.78795624,0.94207573,0.00000000,0.00000000,-0.31524971,2.11517644,1.29106319,1.58228159,1.65308440,0.00000000,0.00000000
0.71878815,-1.94344115,-1.48183811,-1.78978729,0.95127779,0.00000000,0.00000000,-0.38239610,2.12834859,1.30118906,1.53290558,1.65304005,0.00000000,0.00000000
0.69964778,-1.95260441,-1.48924148,-1.79820764,0.96058983,0.00000000,0.00000000,-0.44818944,2.13535738,1.31940079,1.47893929,1.66755891,0.00000000,0.00000000
0.67134219,-1.95721269,-1.50048423,-1.82112694,0.98032242,0.00000000,0.00000000,-0.50973487,2.13570333,1.34496152,1.43630731,1.67835236,0.00000000,0.00000000
0.63710707,-1.95804095,-1.51472974,-1.86078298,1.00238240,0.00000000,0.00000000,-0.56902319,2.13281751,1.37215865,1.41455472,1.68716955,0.00000000,0.00000000
0.60227358,-1.95436883,-1.53274083,-1.90345240,1.02945983,0.00000000,0.00000000,-0.62296927,2.12758207,1.40069926,1.41453373,1.69978690,0.00000000,0.00000000
0.57314998,-1.94934368,-1.54826200,-1.93957472,1.05986345,0.00000000,0.00000000,-0.66532117,2.12060332,1.43060195,1.43045270,1.71119881,0.00000000,0.00000000
0.55081123,-1.94666111,-1.55778432,-1.96744430,1.09075618,0.00000000,0.00000000,-0.69791478,2.10988092,1.45914459,1.45127749,1.72352540,0.00000000,0.00000000
0.53572303,-1.94823658,-1.55981052,-1.98541760,1.13160133,0.00000000,0.00000000,-0.72198445,2.09281921,1.48382235,1.46871233,1.73822629,0.00000000,0.00000000
0.52884293,-1.95417476,-1.55374742,-1.99144113,1.16597390,0.00000000,0.00000000,-0.73592329,2.06949711,1.50288451,1.47797799,1.74335647,0.00000000,0.00000000
0.53124321,-1.96329451,-1.54015136,-1.98376632,1.20114923,0.00000000,0.00000000,-0.73714679,2.04307270,1.51533151,1.47734869,1.75098312,0.00000000,0.00000000
0.54329413,-1.97332311,-1.52045703,-1.96133685,1.22589791,0.00000000,0.00000000,-0.72360283,2.01795721,1.52064013,1.46727002,1.76257145,0.00000000,0.00000000
0.56267333,-1.98120832,-1.49696255,-1.92483997,1.25156879,0.00000000,0.00000000,-0.69257754,1.99832511,1.51870477,1.45026100,1.77643120,0.00000000,0.00000000
0.58431143,-1.98463345,-1.47221088,-1.87757468,1.28418446,0.00000000,0.00000000,-0.64059865,1.98795640,1.50952828,1.43134916,1.78824234,0.00000000,0.00000000
0.60258973,-1.98311949,-1.44948149,-1.82712781,1.31812239,0.00000000,0.00000000,-0.56895161,1.98959136,1.49198830,1.41862869,1.78961647,0.00000000,0.00000000
0.61261594,-1.97771740,-1.43269193,-1.78829086,1.35171247,0.00000000,0.00000000,-0.48533553,2.00272322,1.46533215,1.42266059,1.78595984,0.00000000,0.00000000
0.61854202,-1.96967220,-1.42075050,-1.77116287,1.38903975,0.00000000,0.00000000,-0.39854291,2.02375460,1.43266606,1.44846034,1.77651620,0.00000000,0.00000000
0.62346977,-1.95947456,-1.41441607,-1.77673578,1.42587662,0.00000000,0.00000000,-0.31697500,2.04776406,1.39844596,1.49325252,1.76029313,0.00000000,0.00000000
0.62776893,-1.94689858,-1.41751444,-1.79708695,1.46823180,0.00000000,0.00000000,-0.24849662,2.07127786,1.36530542,1.55142927,1.75132895,0.00000000,0.00000000
0.63581860,-1.93492174,-1.42733502,-1.81448483,1.50985730,0.00000000,0.00000000,-0.19593740,2.09239531,1.33593667,1.61670744,1.74431646,0.00000000,0.00000000
0.64887547,-1.92764676,-1.43894506,-1.82314622,1.55426824,0.00000000,0.00000000,-0.16110258,2.10722971,1.31741428,1.67478013,1.73422885,0.00000000,0.00000000
0.66332793,-1.92683756,-1.44980407,-1.82409418,1.59821308,0.00000000,0.00000000,-0.14832085,2.11778617,1.30770659,1.71313930,1.72958815,0.00000000,0.00000000
0.67427367,-1.93144619,-1.45980656,-1.81804681,1.64163661,0.00000000,0.00000000,-0.15645246,2.12816930,1.30258691,1.72988474,1.73276746,0.00000000,0.00000000
0.67946559,-1.93849838,-1.46978652,-1.80537677,1.67691433,0.00000000,0.00000000,-0.18241622,2.14017725,1.30068851,1.72610056,1.72934675,0.00000000,0.00000000
0.67844945,-1.94501066,-1.48050880,-1.78732502,1.71144938,0.00000000,0.00000000,-0.22302970,2.15282226,1.30284572,1.70264709,1.71539080,0.00000000,0.00000000
0.66979462,-1.95016265,-1.49237752,-1.76807356,1.73120868,0.00000000,0.00000000,-0.27471867,2.16318321,1.31066334,1.66056991,1.70264900,0.00000000,0.00000000
0.65140814,-1.95412290,-1.50575447,-1.75584674,1.74727309,0.00000000,0.00000000,-0.33575338,2.16859269,1.32460773,1.60112083,1.69510555,0.00000000,0.00000000
0.62302744,-1.95702994,-1.52095485,-1.76111054,1.76300013,0.00000000,0.00000000,-0.40638226,2.16938162,1.34458971,1.53123772,1.68595803,0.00000000,0.00000000
0.58929038,-1.95892179,-1.53652012,-1.79001260,1.77620971,0.00000000,0.00000000,-0.48229322,2.16749763,1.37115073,1.47002983,1.67692733,0.00000000,0.00000000
0.55516827,-1.96029198,-1.54947519,-1.83653188,1.79158771,0.00000000,0.00000000,-0.55483431,2.16405582,1.39943588,1.43091595,1.66598535,0.00000000,0.00000000
0.52481890,-1.96003127,-1.56178355,-1.88195777,1.79689229,0.00000000,0.00000000,-0.61666834,2.15938616,1.42869806,1.41460896,1.65331686,0.00000000,0.00000000
0.50029713,-1.95961154,-1.57252061,-1.91856360,1.80610895,0.00000000,0.00000000,-0.66522348,2.15183377,1.45791030,1.41224897,1.63807571,0.00000000,0.00000000
0.48291492,-1.96192360,-1.57951796,-1.94421780,1.82061505,0.00000000,0.00000000,-0.70149010,2.13679314,1.48430955,1.41348279,1.61357152,0.00000000,0.00000000
0.47458860,-1.96907651,-1.58096302,-1.95672929,1.83531964,0.00000000,0.00000000,-0.72371715,2.11156297,1.50683999,1.41141844,1.58828199,0.00000000,0.00000000
0.47741425,-1.98136592,-1.57657230,-1.95390737,1.84530485,0.00000000,0.00000000,-0.72929925,2.07792473,1.52524555,1.40316606,1.56065929,0.00000000,0.00000000
0.49202570,-1.99739301,-1.56714058,-1.93459821,1.85070014,0.00000000,0.00000000,-0.71605498,2.03915000,1.53905797,1.38834703,1.52747011,0.00000000,0.00000000
0.51698267,-2.01427293,-1.55391669,-1.89910543,1.85835469,0.00000000,0.00000000,-0.68091941,1.99966025,1.54744887,1.36850619,1.50032067,0.00000000,0.00000000
0.54991728,-2.02821660,-1.53837562,-1.84926140,1.85323942,0.00000000,0.00000000,-0.62157398,1.96623731,1.54967952,1.34766185,1.47913015,0.00000000,0.00000000
0.58637542,-2.03655791,-1.52273750,-1.79437804,1.83932197,0.00000000,0.00000000,-0.54216897,1.94658935,1.54415047,1.33392704,1.46266294,0.00000000,0.00000000
0.61787260,-2.03912735,-1.50926960,-1.75553870,1.82391238,0.00000000,0.00000000,-0.45318353,1.94045401,1.52822864,1.33716786,1.44594204,0.00000000,0.00000000
0.64355397,-2.03687119,-1.49875474,-1.74115002,1.81028378,0.00000000,0.00000000,-0.36393917,1.94460905,1.50188911,1.36116123,1.42770052,0.00000000,0.00000000
0.66344601,-2.03144765,-1.49239528,-1.75123954,1.80113757,0.00000000,0.00000000,-0.28202900,1.95585001,1.46662796,1.40361929,1.41125584,0.00000000,0.00000000
0.67879158,-2.02570462,-1.49003685,-1.77883124,1.78960109,0.00000000,0.00000000,-0.21376754,1.97142100,1.42449570,1.46050858,1.40693498,0.00000000,0.00000000
0.69482678,-2.02240777,-1.49035144,-1.80698001,1.78283691,0.00000000,0.00000000,-0.16246943,1.98843598,1.37912583,1.52838826,1.40758550,0.00000000,0.00000000
0.71128881,-2.02427435,-1.49270475,-1.82967389,1.77367389,0.00000000,0.00000000,-0.13039050,2.00281763,1.33690786,1.59859741,1.40642238,0.00000000,0.00000000
0.72246051,-2.03268123,-1.49711907,-1.84634185,1.77321541,0.00000000,0.00000000,-0.12005353,2.01033163,1.30466402,1.65371788,1.40412772,0.00000000,0.00000000
0.72111404,-2.04677200,-1.50276124,-1.85638189,1.77039552,0.00000000,0.00000000,-0.13138877,2.01389170,1.28030479,1.68681991,1.40366793,0.00000000,0.00000000
0.70455450,-2.06300998,-1.50869191,-1.85892463,1.77334535,0.00000000,0.00000000,-0.16083299,2.01759553,1.26131403,1.69884408,1.40210509,0.00000000,0.00000000
0.67801547,-2.07530141,-1.51391470,-1.85370851,1.78287959,0.00000000,0.00000000,-0.20319776,2.02338409,1.24786162,1.69183469,1.40708315,0.00000000,0.00000000
0.64903808,-2.08150864,-1.51739526,-1.84277904,1.79440236,0.00000000,0.00000000,-0.25322264,2.03174663,1.24090326,1.66786063,1.40259516,0.00000000,0.00000000
0.61805868,-2.08233905,-1.51950097,-1.83176506,1.80433953,0.00000000,0.00000000,-0.30770463,2.04247546,1.24103940,1.62871206,1.39409316,0.00000000,0.00000000
0.58343738,-2.07932687,-1.52117133,-1.83116996,1.81268549,0.00000000,0.00000000,-0.36766377,2.05272198,1.24961352,1.57577360,1.39225149,0.00000000,0.00000000
0.55017233,-2.07326531,-1.52197313,-1.85069668,1.81915796,0.00000000,0.00000000,-0.43327385,2.05748534,1.27018321,1.51768136,1.38633120,0.00000000,0.00000000
0.51914304,-2.06336999,-1.52558422,-1.88825619,1.82846391,0.00000000,0.00000000,-0.50359589,2.06054664,1.29526591,1.47288740,1.38803566,0.00000000,0.00000000
0.48868629,-2.04946160,-1.53668952,-1.92983246,1.82951140,0.00000000,0.00000000,-0.57144886,2.06469369,1.32087517,1.44983256,1.38655949,0.00000000,0.00000000
0.46307999,-2.03481579,-1.54971957,-1.96531951,1.83003581,0.00000000,0.00000000,-0.62657791,2.06887507,1.34731257,1.44663358,1.39530027,0.00000000,0.00000000
0.44549364,-2.02271032,-1.55942059,-1.99173009,1.83570671,0.00000000,0.00000000,-0.66890287,2.06978345,1.37128484,1.45285809,1.40373814,0.00000000,0.00000000
0.43670070,-2.01535535,-1.56287265,-2.00818443,1.83747375,0.00000000,0.00000000,-0.69990045,2.06313515,1.39032018,1.45915508,1.42074132,0.00000000,0.00000000
0.43716121,-2.01402450,-1.55852520,-2.01364946,1.83745599,0.00000000,0.00000000,-0.71737909,2.04723024,1.40446424,1.46090138,1.44248831,0.00000000,0.00000000
0.44731444,-2.01870632,-1.54624951,-2.00705075,1.84739625,0.00000000,0.00000000,-0.71884978,2.02227783,1.41525185,1.45603764,1.46000445,0.00000000,0.00000000
0.46691525,-2.02696395,-1.52739060,-1.98730457,1.85487592,0.00000000,0.00000000,-0.70339227,1.99188673,1.42184246,1.44430280,1.47923791,0.00000000,0.00000000
0.49436769,-2.03500319,-1.50426900,-1.95419466,1.86791468,0.00000000,0.00000000,-0.67007768,1.96117389,1.42302024,1.42775500,1.50219262,0.00000000,0.00000000
0.52631468,-2.04020214,-1.47931039,-1.90960824,1.87903035,0.00000000,0.00000000,-0.61773366,1.93598545,1.41796410,1.41150606,1.52777040,0.00000000,0.00000000
0.55954731,-2.04129720,-1.45627940,-1.85847175,1.88288987,0.00000000,0.00000000,-0.54806650,1.92093635,1.40705407,1.40439641,1.54464471,0.00000000,0.00000000
0.58953798,-2.03776264,-1.44043338,-1.81395590,1.88431931,0.00000000,0.00000000,-0.46653339,1.91691554,1.39137244,1.41689444,1.55066025,0.00000000,0.00000000
0.61903816,-2.03073096,-1.43036592,-1.78875339,1.88379025,0.00000000,0.00000000,-0.38248390,1.92091632,1.37331593,1.45139360,1.55574214,0.00000000,0.00000000
0.64920926,-2.02138281,-1.42584562,-1.78620148,1.88766086,0.00000000,0.00000000,-0.30560973,1.93064404,1.35275185,1.50404346,1.55893672,0.00000000,0.00000000
0.67826259,-2.01008868,-1.43051338,-1.80062163,1.88029373,0.00000000,0.00000000,-0.24265662,1.94481719,1.32875013,1.57065654,1.56175077,0.00000000,0.00000000
0.70723617,-1.99882901,-1.44375050,-1.81710470,1.87264872,0.00000000,0.00000000,-0.19443676,1.96090913,1.30399120,1.64626396,1.56919324,0.00000000,0.00000000
0.73795682,-1.99132240,-1.45990312,-1.82972133,1.86806226,0.00000000,0.00000000,-0.16758105,1.97452605,1.28186297,1.71330905,1.57577932,0.00000000,0.00000000
0.76814443,-1.99010718,-1.47552371,-1.83923721,1.86316574,0.00000000,0.00000000,-0.16134241,1.98325908,1.26651478,1.76090527,1.57665479,0.00000000,0.00000000
0.79275203,-1.99438727,-1.49106669,-1.84546053,1.84889686,0.00000000,0.00000000,-0.17431954,1.98935378,1.25501633,1.78747809,1.58219302,0.00000000,0.00000000
0.80766934,-2.00181770,-1.50750685,-1.84691262,1.83488345,0.00000000,0.00000000,-0.20389634,1.99513412,1.24439323,1.79441726,1.58678102,0.00000000,0.00000000
0.80905485,-2.01138210,-1.52504718,-1.84287071,1.82288098,0.00000000,0.00000000,-0.24641798,2.00030637,1.23377717,1.78284073,1.58103740,0.00000000,0.00000000
0.79466873,-2.02133346,-1.54341471,-1.83524346,1.81450796,0.00000000,0.00000000,-0.29700729,2.00158381,1.22329915,1.75376582,1.58202183,0.00000000,0.00000000
0.76591593,-2.02912760,-1.56171024,-1.82883012,1.80132389,0.00000000,0.00000000,-0.35257679,1.99426830,1.21336186,1.70808387,1.58425713,0.00000000,0.00000000
0.72723877,-2.03315473,-1.57790422,-1.82981527,1.78919971,0.00000000,0.00000000,-0.41537300,1.97476184,1.20332944,1.64627147,1.59167087,0.00000000,0.00000000
0.68166435,-2.03528333,-1.58876061,-1.84367216,1.77193868,0.00000000,0.00000000,-0.48687518,1.94348335,1.19060278,1.57651305,1.58301950,0.00000000,0.00000000
0.63168252,-2.03641701,-1.59207296,-1.87401485,1.75354886,0.00000000,0.00000000,-0.56050593,1.90409684,1.17407179,1.52094257,1.57368314,0.00000000,0.00000000
0.58314729,-2.03651762,-1.58610773,-1.91764808,1.73836291,0.00000000,0.00000000,-0.63201845,1.85474861,1.15734446,1.48677230,1.57091117,0.00000000,0.00000000
0.54034233,-2.03534126,-1.57386899,-1.96057832,1.72343862,0.00000000,0.00000000,-0.70187968,1.78917480,1.14411628,1.46460891,1.56231523,0.00000000,0.00000000
0.50560105,-2.03368950,-1.55992198,-1.99507511,1.70914757,0.00000000,0.00000000,-0.77665281,1.69864237,1.13670933,1.43063509,1.55219650,0.00000000,0.00000000
0.48042256,-2.03253007,-1.54762983,-2.01823688,1.69738173,0.00000000,0.00000000,-0.86320931,1.58164179,1.13175440,1.37473953,1.53760946,0.00000000,0.00000000
0.46524906,-2.03251529,-1.53803992,-2.02873945,1.68582606,0.00000000,0.00000000,-0.96512127,1.43900716,1.12621295,1.29578233,1.52200186,0.00000000,0.00000000
0.46046087,-2.03494501,-1.53031361,-2.02556992,1.66723180,0.00000000,0.00000000,-1.08420682,1.27171016,1.11835301,1.19373941,1.50162733,0.00000000,0.00000000
0.46685404,-2.04074383,-1.52370715,-2.00761771,1.65545762,0.00000000,0.00000000,-1.22107434,1.08206856,1.10643065,1.06923926,1.48187196,0.00000000,0.00000000
0.48549190,-2.04952121,-1.51825476,-1.97388041,1.64310944,0.00000000,0.00000000,-1.37421811,0.87396091,1.08887982,0.92355472,1.46641588,0.00000000,0.00000000
0.51706493,-2.05937791,-1.51461077,-1.92393351,1.63360727,0.00000000,0.00000000,-1.53943622,0.65303308,1.06457567,0.75868177,1.44819510,0.00000000,0.00000000
0.55910641,-2.06703329,-1.51406097,-1.86312366,1.62485516,0.00000000,0.00000000,-1.70995140,0.42759421,1.03287041,0.57774025,1.43900156,0.00000000,0.00000000
0.60304582,-2.07040167,-1.51757836,-1.80960262,1.62220347,0.00000000,0.00000000,-1.87683833,0.20851357,0.99407029,0.38521108,1.44336712,0.00000000,0.00000000
0.64695525,-2.06896448,-1.52487886,-1.77598798,1.62678850,0.00000000,0.00000000,-2.03041387,0.00673365,0.95008218,0.18644717,1.45010293,0.00000000,0.00000000
0.68765432,-2.06332660,-1.53682721,-1.76642621,1.62602115,0.00000000,0.00000000,-2.16276574,-0.16909225,0.90430301,-0.01284748,1.46468031,0.00000000,0.00000000
0.72305906,-2.05619979,-1.55206740,-1.77803063,1.61894238,0.00000000,0.00000000,-2.26953769,-0.31381664,0.86078322,-0.20721014,1.47895396,0.00000000,0.00000000
0.75524366,-2.05170631,-1.56607449,-1.79905665,1.61217844,0.00000000,0.00000000,-2.35052919,-0.42625439,0.82316715,-0.39188653,1.50049329,0.00000000,0.00000000
0.78745466,-2.05276895,-1.57542396,-1.82194781,1.61392248,0.00000000,0.00000000,-2.41046953,-0.50749916,0.79372770,-0.56227899,1.52343750,0.00000000,0.00000000
0.81860423,-2.06006265,-1.58132339,-1.84391606,1.61120272,0.00000000,0.00000000,-2.45754552,-0.56084818,0.77270114,-0.71451449,1.54997540,0.00000000,0.00000000
0.84300661,-2.07239866,-1.58740699,-1.86261439,1.60584748,0.00000000,0.00000000,-2.50016809,-0.59231585,0.75818294,-0.84640265,1.57476771,0.00000000,0.00000000
0.85272151,-2.08824372,-1.59634507,-1.87626052,1.60968804,0.00000000,0.00000000,-2.54381728,-0.60868371,0.74717206,-0.95756233,1.60506785,0.00000000,0.00000000
0.84829581,-2.10571337,-1.60928476,-1.88468468,1.61593592,0.00000000,0.00000000,-2.59028292,-0.61349458,0.73727953,-1.04834926,1.64806104,0.00000000,0.00000000
0.83420968,-2.12170196,-1.62633860,-1.88993168,1.62939644,0.00000000,0.00000000,-2.63925934,-0.60729200,0.72694504,-1.11918759,1.69316936,0.00000000,0.00000000
0.81383026,-2.13454771,-1.64608788,-1.89607358,1.65226960,0.00000000,0.00000000,-2.69176292,-0.58903962,0.71434933,-1.17009330,1.73491943,0.00000000,0.00000000
0.78809673,-2.14467788,-1.66599727,-1.90891671,1.67684245,0.00000000,0.00000000,-2.75077915,-0.55700421,0.69741672,-1.20083880,1.77151728,0.00000000,0.00000000
0.75722432,-2.15270329,-1.68229103,-1.93244541,1.69732499,0.00000000,0.00000000,-2.81696248,-0.51234806,0.67416424,-1.21317995,1.81493449,0.00000000,0.00000000
0.72306901,-2.15819979,-1.69201136,-1.96536779,1.71566749,0.00000000,0.00000000,-2.88395715,-0.45956582,0.64542985,-1.21172762,1.85580015,0.00000000,0.00000000
0.68872690,-2.16049886,-1.69611776,-2.00164223,1.74048650,0.00000000,0.00000000,-2.94050765,-0.40394911,0.61521685,-1.20193279,1.89927423,0.00000000,0.00000000
0.65682751,-2.15932202,-1.69803703,-2.03551579,1.76509547,0.00000000,0.00000000,-2.98007250,-0.35029870,0.58577698,-1.18705857,1.94158161,0.00000000,0.00000000
0.63056332,-2.15628266,-1.69883883,-2.06185389,1.79463315,0.00000000,0.00000000,-3.00197911,-0.30139616,0.55739129,-1.16749907,1.98616028,0.00000000,0.00000000
0.61184961,-2.15407968,-1.69823563,-2.07710958,1.82020414,0.00000000,0.00000000,-3.00898242,-0.25893998,0.53115582,-1.14337349,2.03263044,0.00000000,0.00000000
0.60135549,-2.15477467,-1.69583142,-2.07915854,1.84228444,0.00000000,0.00000000,-3.00995588,-0.22471949,0.50895202,-1.11551905,2.08453918,0.00000000,0.00000000
0.59944242,-2.15853286,-1.69204021,-2.06663394,1.85691583,0.00000000,0.00000000,-3.00999999,-0.20055582,0.49235803,-1.08500957,2.13263297,0.00000000,0.00000000
0.60591048,-2.16376758,-1.68758380,-2.03930283,1.86868775,0.00000000,0.00000000,-3.00964761,-0.18844226,0.48232216,-1.05318534,2.17670059,0.00000000,0.00000000
0.61962628,-2.16795230,-1.68202448,-1.99849725,1.88222122,0.00000000,0.00000000,-3.00384355,-0.19000863,0.47916403,-1.02139080,2.21784663,0.00000000,0.00000000
0.63835597,-2.16862154,-1.67243135,-1.94881427,1.89069307,0.00000000,0.00000000,-2.97994184,-0.20563394,0.48221299,-0.99092001,2.25146866,0.00000000,0.00000000
0.65669054,-2.16433334,-1.65520811,-1.90262210,1.90278816,0.00000000,0.00000000,-2.93301535,-0.23530978,0.48960161,-0.96514601,2.27912927,0.00000000,0.00000000
0.66930753,-2.15427041,-1.63065457,-1.87517476,1.92376769,0.00000000,0.00000000,-2.86460710,-0.27903074,0.50003010,-0.95118040,2.30515742,0.00000000,0.00000000
0.67440343,-2.13810015,-1.60382748,-1.86983979,1.95433700,0.00000000,0.00000000,-2.77977729,-0.33264399,0.51220566,-0.95096219,2.32790565,0.00000000,0.00000000
0.67325711,-2.11584258,-1.58130538,-1.87696612,1.98450887,0.00000000,0.00000000,-2.69404054,-0.38543403,0.52089214,-0.94947815,2.34833574,0.00000000,0.00000000
0.67190212,-2.09006286,-1.56225646,-1.88376260,2.02070022,0.00000000,0.00000000,-2.61498785,-0.42043272,0.52658266,-0.92997277,2.37212467,0.00000000,0.00000000
0.67187971,-2.06427574,-1.54462957,-1.88637960,2.05960202,0.00000000,0.00000000,-2.53866529,-0.43014604,0.53334963,-0.88746351,2.39029145,0.00000000,0.00000000
0.67180884,-2.04159617,-1.52771294,-1.88463104,2.09044933,0.00000000,0.00000000,-2.46133566,-0.41237804,0.54370296,-0.82118994,2.40203166,0.00000000,0.00000000
0.67002302,-2.02398372,-1.51131439,-1.87903094,2.12039900,0.00000000,0.00000000,-2.37954998,-0.36613885,0.55919963,-0.73135459,2.40645552,0.00000000,0.00000000
0.66378635,-2.01366234,-1.49550498,-1.87115252,2.13941002,0.00000000,0.00000000,-2.28895307,-0.29079324,0.58114338,-0.61905205,2.41214252,0.00000000,0.00000000
0.65013951,-2.01297092,-1.48055506,-1.86280763,2.14475346,0.00000000,0.00000000,-2.18548584,-0.18639053,0.61028528,-0.48610219,2.41901708,0.00000000,0.00000000
0.62795746,-2.02283287,-1.46715140,-1.85549998,2.14837384,0.00000000,0.00000000,-2.06639481,-0.05384228,0.64663732,-0.33499277,2.41718864,0.00000000,0.00000000
0.59874171,-2.04043698,-1.45687091,-1.85061014,2.15667057,0.00000000,0.00000000,-1.93061674,0.10512201,0.68940783,-0.16896597,2.40734792,0.00000000,0.00000000
0.56447405,-2.05971885,-1.45241475,-1.84974098,2.16744423,0.00000000,0.00000000,-1.77921641,0.28757340,0.73693413,0.00770335,2.40040016,0.00000000,0.00000000
0.52670211,-2.07654357,-1.45378661,-1.85779572,2.18012977,0.00000000,0.00000000,-1.61608303,0.48818421,0.78677166,0.18937792,2.38997364,0.00000000,0.00000000
0.48875892,-2.08975959,-1.45477164,-1.88280118,2.18944860,0.00000000,0.00000000,-1.44797540,0.69835913,0.83626056,0.36932749,2.38130689,0.00000000,0.00000000
0.45285368,-2.09791899,-1.45400107,-1.92163372,2.19256639,0.00000000,0.00000000,-1.28320944,0.90754008,0.88337994,0.54090464,2.37288308,0.00000000,0.00000000
0.42304927,-2.09945202,-1.45554256,-1.95757949,2.19708252,0.00000000,0.00000000,-1.12942851,1.10523224,0.92727005,0.69856799,2.36878276,0.00000000,0.00000000
0.40307096,-2.09550214,-1.46046507,-1.98155510,2.20814610,0.00000000,0.00000000,-0.99175107,1.28282881,0.96819419,0.83837515,2.35519791,0.00000000,0.00000000
0.39280626,-2.08872199,-1.46859717,-1.99319434,2.22403193,0.00000000,0.00000000,-0.87194437,1.43486011,1.00712681,0.95809150,2.33949661,0.00000000,0.00000000
0.39253497,-2.08137178,-1.47852767,-1.99202824,2.23599792,0.00000000,0.00000000,-0.76876271,1.55954909,1.04511929,1.05700624,2.32126069,0.00000000,0.00000000
0.40380874,-2.07487297,-1.48829937,-1.97638738,2.24755788,0.00000000,0.00000000,-0.67917985,1.65865493,1.08252120,1.13568985,2.30022812,0.00000000,0.00000000
0.42704481,-2.07014370,-1.49671566,-1.94539821,2.26283455,0.00000000,0.00000000,-0.59932590,1.73604345,1.11888337,1.19564533,2.28229880,0.00000000,0.00000000
0.46096253,-2.06625676,-1.50287569,-1.89965725,2.27864361,0.00000000,0.00000000,-0.52389765,1.79632127,1.15359199,1.23943007,2.26586437,0.00000000,0.00000000
0.50221765,-2.06078053,-1.50566566,-1.84189248,2.28376341,0.00000000,0.00000000,-0.44676852,1.84468782,1.18558848,1.27094173,2.24703956,0.00000000,0.00000000
0.54761523,-2.05342269,-1.50189722,-1.77887297,2.28373218,0.00000000,0.00000000,-0.36559153,1.88583863,1.21247077,1.29518270,2.22562551,0.00000000,0.00000000
0.59231722,-2.04541540,-1.48965669,-1.72624266,2.27607226,0.00000000,0.00000000,-0.28134197,1.92582798,1.23125505,1.32341790,2.20272946,0.00000000,0.00000000
0.63515562,-2.03511691,-1.47464490,-1.69493866,2.27215362,0.00000000,0.00000000,-0.19646858,1.96669364,1.24361944,1.36910677,2.17283106,0.00000000,0.00000000
0.67349112,-2.02107930,-1.46399033,-1.68640816,2.26602364,0.00000000,0.00000000,-0.11723231,2.00689340,1.25112009,1.43293190,2.14775968,0.00000000,0.00000000
0.70362723,-2.00335670,-1.46357322,-1.69387686,2.25754094,0.00000000,0.00000000,-0.05172333,2.04563832,1.25287938,1.50906909,2.12318110,0.00000000,0.00000000
0.72823578,-1.98742664,-1.46944606,-1.70577919,2.26093078,0.00000000,0.00000000,-0.00403468,2.07966042,1.25284088,1.58755624,2.10061002,0.00000000,0.00000000
0.74707305,-1.97932684,-1.47700739,-1.71763456,2.27017713,0.00000000,0.00000000,0.01688742,2.10404587,1.25573480,1.64775240,2.07546949,0.00000000,0.00000000
0.75631076,-1.98195553,-1.48412824,-1.72814810,2.28052855,0.00000000,0.00000000,0.00860052,2.12088823,1.26046479,1.68335128,2.04405022,0.00000000,0.00000000
0.75290281,-1.99458992,-1.49040604,-1.73586714,2.29179192,0.00000000,0.00000000,-0.02608118,2.13409376,1.26529157,1.69559765,2.01558447,0.00000000,0.00000000
0.73538083,-2.01489305,-1.49593925,-1.74014127,2.30110168,0.00000000,0.00000000,-0.08269332,2.14615035,1.26939476,1.68630707,1.99368048,0.00000000,0.00000000
0.70323592,-2.04058862,-1.50139403,-1.74177301,2.31231308,0.00000000,0.00000000,-0.15422210,2.15727782,1.27380180,1.65809464,1.97689474,0.00000000,0.00000000
0.65744823,-2.06815434,-1.50777519,-1.74341881,2.32853389,0.00000000,0.00000000,-0.23272105,2.16557312,1.28090775,1.61390638,1.95940638,0.00000000,0.00000000
0.60200572,-2.09242725,-1.51618814,-1.74784362,2.34731174,0.00000000,0.00000000,-0.31281441,2.16922712,1.29388726,1.55735433,1.94439292,0.00000000,0.00000000
0.54275173,-2.11201811,-1.52518511,-1.75797117,2.36905909,0.00000000,0.00000000,-0.38835740,2.16995907,1.31579745,1.49971056,1.92827189,0.00000000,0.00000000
0.48765069,-2.12727118,-1.53099263,-1.77947521,2.39271331,0.00000000,0.00000000,-0.45474386,2.17000008,1.34632742,1.45902848,1.90937841,0.00000000,0.00000000
0.44371295,-2.13587070,-1.53602910,-1.81526649,2.41875768,0.00000000,0.00000000,-0.51824832,2.17000008,1.38172364,1.44031250,1.89407051,0.00000000,0.00000000
0.40989840,-2.13631201,-1.54507291,-1.86117029,2.44520593,0.00000000,0.00000000,-0.58057201,2.16989017,1.41861248,1.44055390,1.88048708,0.00000000,0.00000000
0.38664505,-2.13092637,-1.55716991,-1.89941025,2.46769953,0.00000000,0.00000000,-0.63229203,2.16807151,1.45658720,1.45179498,1.87152970,0.00000000,0.00000000
0.37406009,-2.12477899,-1.56537139,-1.92401624,2.48587823,0.00000000,0.00000000,-0.66646278,2.16052055,1.49334097,1.46524286,1.86663139,0.00000000,0.00000000
0.37234658,-2.12064362,-1.56706929,-1.93442237,2.50030375,0.00000000,0.00000000,-0.68371743,2.14636421,1.52635956,1.47395122,1.85961783,0.00000000,0.00000000
0.38177359,-2.11889148,-1.56313062,-1.92956769,2.51075768,0.00000000,0.00000000,-0.68542999,2.12875056,1.55416930,1.47476208,1.85562646,0.00000000,0.00000000
0.40206438,-2.11896515,-1.55487788,-1.90882814,2.52578068,0.00000000,0.00000000,-0.67294776,2.10991549,1.57592678,1.46681345,1.85106277,0.00000000,0.00000000
0.43236208,-2.11984396,-1.54340494,-1.87226868,2.54310012,0.00000000,0.00000000,-0.64601821,2.09245968,1.59095645,1.45075798,1.84728408,0.00000000,0.00000000
0.46996123,-2.11939096,-1.53027165,-1.82158601,2.55893517,0.00000000,0.00000000,-0.60227340,2.08083868,1.59837198,1.42994511,1.84610164,0.00000000,0.00000000
0.50924003,-2.11547971,-1.51679206,-1.76511109,2.56915188,0.00000000,0.00000000,-0.54285902,2.07671690,1.59650791,1.41179371,1.84511936,0.00000000,0.00000000
0.54377860,-2.10732174,-1.50326288,-1.72071671,2.58799577,0.00000000,0.00000000,-0.47411194,2.07816935,1.58319342,1.40792370,1.84607935,0.00000000,0.00000000
0.57390863,-2.09304309,-1.49284279,-1.69858730,2.61398578,0.00000000,0.00000000,-0.40258527,2.08258319,1.56016743,1.42500854,1.84625018,0.00000000,0.00000000
0.60023421,-2.07256603,-1.48679996,-1.70055509,2.63038301,0.00000000,0.00000000,-0.33496633,2.08819628,1.52934182,1.46204269,1.84329295,0.00000000,0.00000000
0.62206757,-2.04646826,-1.48709738,-1.72146904,2.64920378,0.00000000,0.00000000,-0.27979764,2.09501958,1.49024665,1.51423240,1.84038043,0.00000000,0.00000000
0.64233160,-2.01808691,-1.49177802,-1.74686050,2.66799045,0.00000000,0.00000000,-0.24094370,2.10275769,1.44499552,1.57612574,1.84708512,0.00000000,0.00000000
0.66479832,-1.99160099,-1.49731755,-1.76908195,2.67925453,0.00000000,0.00000000,-0.21727721,2.10655856,1.40576553,1.63689840,1.85766542,0.00000000,0.00000000
0.68906069,-1.97043359,-1.50182939,-1.78676927,2.69046926,0.00000000,0.00000000,-0.21180968,2.10726810,1.37726700,1.68220580,1.86634684,0.00000000,0.00000000
0.71044081,-1.95739460,-1.50559723,-1.79921913,2.69763875,0.00000000,0.00000000,-0.22321822,2.10908461,1.35868096,1.70844591,1.87516201,0.00000000,0.00000000
0.72404313,-1.95289660,-1.50979006,-1.80544484,2.69847250,0.00000000,0.00000000,-0.24881387,2.11582184,1.34769523,1.71593344,1.88925159,0.00000000,0.00000000
0.72733742,-1.95600915,-1.51493728,-1.80544162,2.70123911,0.00000000,0.00000000,-0.28617489,2.12890840,1.34293950,1.70494878,1.90403473,0.00000000,0.00000000
0.71914554,-1.96613157,-1.52029812,-1.80161452,2.70755816,0.00000000,0.00000000,-0.33261344,2.14617801,1.34386635,1.67610347,1.91377258,0.00000000,0.00000000
0.69916064,-1.98196316,-1.52521908,-1.79844546,2.71382141,0.00000000,0.00000000,-0.38601080,2.16132116,1.35023212,1.63053000,1.91830873,0.00000000,0.00000000
0.66994202,-2.00015140,-1.52931082,-1.80159712,2.71608615,0.00000000,0.00000000,-0.44687220,2.16844821,1.36172175,1.57038414,1.92738426,0.00000000,0.00000000
0.63340724,-2.01862502,-1.53227985,-1.81805384,2.71770072,0.00000000,0.00000000,-0.51305336,2.16991711,1.37738204,1.50578105,1.94152939,0.00000000,0.00000000
0.59229624,-2.03529882,-1.53468680,-1.85221505,2.72583485,0.00000000,0.00000000,-0.57809526,2.17000008,1.39570475,1.45732760,1.94578815,0.00000000,0.00000000
0.55242902,-2.04859805,-1.53592145,-1.89479351,2.74428105,0.00000000,0.00000000,-0.63631940,2.17000008,1.41618836,1.43294811,1.94671118,0.00000000,0.00000000
0.51860410,-2.05640388,-1.53911304,-1.93111849,2.76705098,0.00000000,0.00000000,-0.68187249,2.16995621,1.43826461,1.43100953,1.94757283,0.00000000,0.00000000
0.49170458,-2.05956936,-1.54374731,-1.95754695,2.79339886,0.00000000,0.00000000,-0.71420062,2.16906691,1.45908260,1.44242895,1.94509900,0.00000000,0.00000000
0.47329748,-2.05998349,-1.54812443,-1.97234631,2.81641960,0.00000000,0.00000000,-0.73535115,2.16344881,1.47825110,1.45552313,1.94151056,0.00000000,0.00000000
0.46515873,-2.05993032,-1.54971492,-1.97365725,2.83509994,0.00000000,0.00000000,-0.74391389,2.14846873,1.49562502,1.46234429,1.93346131,0.00000000,0.00000000
0.46860075,-2.06089687,-1.54737425,-1.95988619,2.85337019,0.00000000,0.00000000,-0.73629200,2.12757659,1.51093483,1.45942998,1.92256391,0.00000000,0.00000000
0.48247278,-2.06262040,-1.54175723,-1.93083608,2.87266183,0.00000000,0.00000000,-0.71042538,2.10631371,1.52311003,1.44735837,1.91768515,0.00000000,0.00000000
0.50282532,-2.06374931,-1.53367674,-1.88838589,2.87979317,0.00000000,0.00000000,-0.66440606,2.08884811,1.53063858,1.42948198,1.91569889,0.00000000,0.00000000
0.52595735,-2.06319284,-1.52319777,-1.83576059,2.87979317,0.00000000,0.00000000,-0.59958994,2.07739091,1.53191221,1.41023850,1.91514897,0.00000000,0.00000000
0.54953843,-2.06106400,-1.50944459,-1.78190613,2.87979317,0.00000000,0.00000000,-0.52282405,2.07312918,1.52411699,1.39776731,1.91728127,0.00000000,0.00000000
0.57078564,-2.05865121,-1.49119091,-1.74498332,2.87979317,0.00000000,0.00000000,-0.44086781,2.07621264,1.50631702,1.40325689,1.92338943,0.00000000,0.00000000
0.58961380,-2.05388546,-1.47374785,-1.73149109,2.87979317,0.00000000,0.00000000,-0.36168942,2.08175778,1.48364305,1.42839539,1.92944813,0.00000000,0.00000000
0.60506713,-2.04394317,-1.46479583,-1.73591888,2.87979317,0.00000000,0.00000000,-0.29274142,2.08704662,1.45879579,1.46942699,1.93289483,0.00000000,0.00000000
0.61918551,-2.02937341,-1.46513164,-1.74348748,2.87979317,0.00000000,0.00000000,-0.23910718,2.09367633,1.43007469,1.52300382,1.93666303,0.00000000,0.00000000
0.63550037,-2.01384044,-1.46871448,-1.74749124,2.87979317,0.00000000,0.00000000,-0.20349588,2.10123253,1.40021157,1.58238602,1.94194412,0.00000000,0.00000000
0.65378833,-1.99992132,-1.47227502,-1.74805236,2.87979317,0.00000000,0.00000000,-0.18307494,2.10563850,1.37929857,1.63528776,1.95123458,0.00000000,0.00000000
0.66976011,-1.98976707,-1.47479057,-1.74673772,2.87979317,0.00000000,0.00000000,-0.18037003,2.10881996,1.36643660,1.67053008,1.95963097,0.00000000,0.00000000
0.67743564,-1.98542154,-1.47614741,-1.74494696,2.87979317,0.00000000,0.00000000,-0.19532171,2.11408615,1.35771453,1.68616617,1.97904754,0.00000000,0.00000000
0.67373455,-1.98623598,-1.47679245,-1.74359512,2.87979317,0.00000000,0.00000000,-0.22534323,2.12278390,1.35161853,1.68337715,2.00725865,0.00000000,0.00000000
0.65818411,-1.99131620,-1.47635782,-1.74399817,2.87979317,0.00000000,0.00000000,-0.26703769,2.13448358,1.34818816,1.66339481,2.03164196,0.00000000,0.00000000
0.63153720,-2.00015378,-1.47464371,-1.74746311,2.87979317,0.00000000,0.00000000,-0.31643131,2.14718390,1.34812880,1.62782884,2.05526114,0.00000000,0.00000000
0.59515107,-2.01091266,-1.47254241,-1.75606537,2.87979317,0.00000000,0.00000000,-0.37221602,2.15837073,1.35124135,1.57864630,2.08376503,0.00000000,0.00000000
0.55295539,-2.02109790,-1.47156620,-1.77296340,2.87979317,0.00000000,0.00000000,-0.43454871,2.16606092,1.35768998,1.52437735,2.10661817,0.00000000,0.00000000
0.51627815,-2.02770495,-1.47202909,-1.80094516,2.87979317,0.00000000,0.00000000,-0.49906504,2.16931391,1.37028825,1.48414910,2.13395405,0.00000000,0.00000000
0.48803493,-2.02978921,-1.47378600,-1.83872676,2.87979317,0.00000000,0.00000000,-0.55984449,2.16989660,1.39036345,1.46435809,2.16417646,0.00000000,0.00000000
0.46805826,-2.02788234,-1.47815895,-1.87220240,2.87979317,0.00000000,0.00000000,-0.61032116,2.16977525,1.41693735,1.46004164,2.19903493,0.00000000,0.00000000
0.45174339,-2.02385688,-1.48615801,-1.89921248,2.87979317,0.00000000,0.00000000,-0.65216476,2.16882491,1.44445717,1.46180820,2.24320364,0.00000000,0.00000000
0.43985370,-2.02015400,-1.49330425,-1.91963911,2.87979317,0.00000000,0.00000000,-0.68614024,2.16390181,1.46860516,1.46207106,2.29507923,0.00000000,0.00000000
0.43522575,-2.01923752,-1.49472284,-1.93179452,2.87979317,0.00000000,0.00000000,-0.71016711,2.15265989,1.48649883,1.45591354,2.34862256,0.00000000,0.00000000
0.44003272,-2.02325630,-1.48862779,-1.93347383,2.87979317,0.00000000,0.00000000,-0.72060186,2.13676953,1.49692452,1.44147062,2.40185356,0.00000000,0.00000000
0.45600331,-2.03057194,-1.47582591,-1.92243624,2.87979317,0.00000000,0.00000000,-0.71529007,2.12060046,1.50067079,1.42080545,2.45605040,0.00000000,0.00000000
0.48312134,-2.03853011,-1.45914280,-1.89771438,2.87979317,0.00000000,0.00000000,-0.69140399,2.10951400,1.49964082,1.40027595,2.50577068,0.00000000,0.00000000
0.51763278,-2.04480338,-1.44253790,-1.86126018,2.87979317,0.00000000,0.00000000,-0.64519542,2.10602236,1.49679208,1.38787293,2.55183196,0.00000000,0.00000000
0.55395210,-2.04816008,-1.42963827,-1.81936657,2.87979317,0.00000000,0.00000000,-0.57634205,2.10956883,1.49463773,1.39101398,2.59554672,0.00000000,0.00000000
0.58584815,-2.04777145,-1.42398739,-1.78585100,2.87979317,0.00000000,0.00000000,-0.49082407,2.11876416,1.49293983,1.41535866,2.63932991,0.00000000,0.00000000
0.61497611,-2.04396844,-1.42432582,-1.77245355,2.87979317,0.00000000,0.00000000,-0.40264159,2.13069987,1.48951244,1.46076429,2.68128371,0.00000000,0.00000000
0.64062732,-2.03662086,-1.43283808,-1.77865899,2.87979317,0.00000000,0.00000000,-0.32437938,2.14079380,1.48245442,1.52166688,2.71972966,0.00000000,0.00000000
0.66114128,-2.02728128,-1.44946027,-1.79400754,2.87979317,0.00000000,0.00000000,-0.26375315,2.14921284,1.46608829,1.59267831,2.75166488,0.00000000,0.00000000
0.68043011,-2.01923704,-1.46759272,-1.80907404,2.87979317,0.00000000,0.00000000,-0.22234878,2.15390587,1.44236255,1.66673720,2.78322244,0.00000000,0.00000000
0.69940555,-2.01401544,-1.48277891,-1.82082629,2.87979317,0.00000000,0.00000000,-0.20204456,2.15110636,1.41997027,1.72633719,2.80757451,0.00000000,0.00000000
0.71517396,-2.01122665,-1.49399495,-1.82835126,2.87979317,0.00000000,0.00000000,-0.20082588,2.14423704,1.39999402,1.76619732,2.82582045,0.00000000,0.00000000
0.72414374,-2.01002932,-1.50182307,-1.83173370,2.87979317,0.00000000,0.00000000,-0.21678175,2.13875031,1.37981856,1.78691268,2.85150170,0.00000000,0.00000000
0.72375220,-2.00947309,-1.50689864,-1.83256114,2.87979317,0.00000000,0.00000000,-0.24726290,2.13735080,1.35914803,1.78912020,2.87709379,0.00000000,0.00000000
0.71287251,-2.00912476,-1.50971019,-1.83309257,2.87979317,0.00000000,0.00000000,-0.28908491,2.13966179,1.33971751,1.77346408,2.87979317,0.00000000,0.00000000
0.69084615,-2.00976038,-1.51099610,-1.83554804,2.87979317,0.00000000,0.00000000,-0.33931071,2.14349222,1.32330906,1.74086809,2.87979317,0.00000000,0.00000000
0.65857852,-2.01216173,-1.51214278,-1.84182274,2.87979317,0.00000000,0.00000000,-0.39514932,2.14561701,1.31255198,1.69310343,2.87979317,0.00000000,0.00000000
0.61922228,-2.01471710,-1.51580429,-1.85280311,2.87979317,0.00000000,0.00000000,-0.45475909,2.14359736,1.31079555,1.63459861,2.87979317,0.00000000,0.00000000
0.57497424,-2.01595330,-1.52500105,-1.87155771,2.87979317,0.00000000,0.00000000,-0.51375210,2.13664174,1.31985116,1.57858050,2.87979317,0.00000000,0.00000000
0.52824008,-2.01520610,-1.54074764,-1.90165484,2.87979317,0.00000000,0.00000000,-0.57088971,2.12736797,1.33542621,1.54039085,2.87979317,0.00000000,0.00000000
0.48233095,-2.01154327,-1.56381202,-1.93331444,2.87979317,0.00000000,0.00000000,-0.62065053,2.11828876,1.35613894,1.52435136,2.87979317,0.00000000,0.00000000
0.44115165,-2.00690866,-1.58916605,-1.95864499,2.87979317,0.00000000,0.00000000,-0.65851754,2.11120415,1.37918878,1.52434838,2.87979317,0.00000000,0.00000000
0.40701032,-2.00395393,-1.61168933,-1.97624731,2.87979317,0.00000000,0.00000000,-0.68533736,2.10452700,1.40076935,1.53095555,2.87979317,0.00000000,0.00000000
0.38396797,-2.00475001,-1.62609065,-1.98418832,2.87979317,0.00000000,0.00000000,-0.70154399,2.09704232,1.41818511,1.53659582,2.87979317,0.00000000,0.00000000
0.37560427,-2.01025510,-1.62904048,-1.98041749,2.87979317,0.00000000,0.00000000,-0.70575333,2.08971977,1.43062305,1.53641701,2.87979317,0.00000000,0.00000000
0.38339385,-2.01994681,-1.62002861,-1.96348572,2.87979317,0.00000000,0.00000000,-0.69679081,2.08331990,1.43805242,1.52804506,2.87979317,0.00000000,0.00000000
0.40675896,-2.03181529,-1.60068250,-1.93238592,2.87979317,0.00000000,0.00000000,-0.67385989,2.07832551,1.44074261,1.51114833,2.87979317,0.00000000,0.00000000
0.44221893,-2.04281306,-1.57406378,-1.88771534,2.87979317,0.00000000,0.00000000,-0.63489407,2.07692313,1.43863404,1.48787558,2.87979317,0.00000000,0.00000000
0.48353392,-2.05034709,-1.54326570,-1.83323205,2.87979317,0.00000000,0.00000000,-0.57767320,2.08097005,1.43139601,1.46336031,2.87979317,0.00000000,0.00000000
0.52558035,-2.05367517,-1.51104975,-1.77890241,2.87979317,0.00000000,0.00000000,-0.50491166,2.09118724,1.41836357,1.44691646,2.87979317,0.00000000,0.00000000
0.56472582,-2.05248666,-1.48105967,-1.74270368,2.87979317,0.00000000,0.00000000,-0.42142999,2.10674405,1.40123475,1.45071030,2.87979317,0.00000000,0.00000000
0.60186279,-2.04563737,-1.45731699,-1.72955501,2.87979317,0.00000000,0.00000000,-0.33474717,2.12350655,1.38388431,1.47693968,2.87979317,0.00000000,0.00000000
0.63691807,-2.03267264,-1.44394040,-1.73575568,2.87979317,0.00000000,0.00000000,-0.25291693,2.13834786,1.36794031,1.52165043,2.87979317,0.00000000,0.00000000
0.66858971,-2.01409745,-1.44508123,-1.75079823,2.87979317,0.00000000,0.00000000,-0.18413921,2.15077496,1.35173035,1.57962596,2.87979317,0.00000000,0.00000000
0.69858372,-1.99691272,-1.45196736,-1.76716197,2.83792067,0.00000000,0.00000000,-0.13291316,2.16134572,1.33436096,1.64249659,2.87979317,0.00000000,0.00000000
0.72718716,-1.98630595,-1.45826817,-1.78195155,2.79728913,0.00000000,0.00000000,-0.10295657,2.16534233,1.32381988,1.69123363,2.87979317,0.00000000,0.00000000
0.74792546,-1.98427665,-1.46308780,-1.79439712,2.75797009,0.00000000,0.00000000,-0.09589566,2.16490483,1.31767750,1.71847534,2.87979317,0.00000000,0.00000000
0.75329828,-1.99014783,-1.46762288,-1.80355644,2.71098232,0.00000000,0.00000000,-0.11056814,2.16462374,1.31017506,1.72496605,2.87979317,0.00000000,0.00000000
0.74135941,-2.00083470,-1.47326672,-1.80829227,2.66664362,0.00000000,0.00000000,-0.14359322,2.16628790,1.29983306,1.71245301,2.87979317,0.00000000,0.00000000
0.71538383,-2.01342869,-1.48044407,-1.80871940,2.62466383,0.00000000,0.00000000,-0.19024928,2.16857457,1.28887546,1.68263662,2.87979317,0.00000000,0.00000000
0.67807388,-2.02680421,-1.48874307,-1.80728102,2.57631254,0.00000000,0.00000000,-0.24518995,2.16973805,1.28022933,1.63750696,2.87979317,0.00000000,0.00000000
0.63187140,-2.03948498,-1.49713254,-1.80827057,2.53340387,0.00000000,0.00000000,-0.30511299,2.16988182,1.27631271,1.57882357,2.87979317,0.00000000,0.00000000
0.57864910,-2.04879308,-1.50660801,-1.81682146,2.49118352,0.00000000,0.00000000,-0.36834371,2.16974497,1.27694917,1.51475978,2.87979317,0.00000000,0.00000000
0.52223253,-2.05171943,-1.52128255,-1.83757555,2.44891167,0.00000000,0.00000000,-0.42989755,2.16989517,1.28128338,1.46566415,2.87979317,0.00000000,0.00000000
0.47116199,-2.04867196,-1.53777087,-1.87089682,2.40959167,0.00000000,0.00000000,-0.48785576,2.16999292,1.29470313,1.43717778,2.87979317,0.00000000,0.00000000
0.43063629,-2.04114032,-1.55389714,-1.90720856,2.37473893,0.00000000,0.00000000,-0.53757602,2.17000008,1.31896353,1.42663944,2.87979317,0.00000000,0.00000000
0.40379143,-2.03205848,-1.56739295,-1.93361783,2.34233522,0.00000000,0.00000000,-0.57787621,2.17000008,1.34888077,1.42509723,2.87979317,0.00000000,0.00000000
0.38918942,-2.02429867,-1.57643247,-1.94833970,2.31635857,0.00000000,0.00000000,-0.60819280,2.16992450,1.37963259,1.42674398,2.87979317,0.00000000,0.00000000
0.38598767,-2.02017379,-1.57823014,-1.95270729,2.29510903,0.00000000,0.00000000,-0.62747997,2.16860223,1.40771532,1.42828619,2.87979317,0.00000000,0.00000000
0.39457390,-2.02097106,-1.57079625,-1.94692838,2.27398014,0.00000000,0.00000000,-0.63514864,2.16224360,1.43082154,1.42664742,2.87979317,0.00000000,0.00000000
0.41509104,-2.02637601,-1.55457544,-1.93014753,2.25679040,0.00000000,0.00000000,-0.63141209,2.14810228,1.44753921,1.42043066,2.87979317,0.00000000,0.00000000
0.44648924,-2.03491783,-1.53148782,-1.90179145,2.24629354,0.00000000,0.00000000,-0.61670578,2.12981153,1.45656872,1.41027915,2.87979317,0.00000000,0.00000000
0.48626518,-2.04421616,-1.50490975,-1.86219358,2.24552393,0.00000000,0.00000000,-0.58860224,2.11461592,1.45743382,1.39922583,2.87979317,0.00000000,0.00000000
0.52878374,-2.05121946,-1.47973394,-1.81551170,2.24759674,0.00000000,0.00000000,-0.54388273,2.10713673,1.45107436,1.39284396,2.87979317,0.00000000,0.00000000
0.56883025,-2.05374670,-1.46069312,-1.77270710,2.25642419,0.00000000,0.00000000,-0.48479187,2.10593677,1.43963194,1.39948583,2.87979317,0.00000000,0.00000000
0.60630524,-2.05183029,-1.44737232,-1.74868453,2.26390362,0.00000000,0.00000000,-0.41713890,2.10884428,1.42479408,1.42776573,2.87979317,0.00000000,0.00000000
0.63939768,-2.04506063,-1.44228315,-1.74707782,2.26754141,0.00000000,0.00000000,-0.35015067,2.11348915,1.40665829,1.47701740,2.87979317,0.00000000,0.00000000
0.66516501,-2.03329039,-1.44962060,-1.76140928,2.27026558,0.00000000,0.00000000,-0.29260719,2.11871815,1.38425052,1.54253626,2.87979317,0.00000000,0.00000000
0.68488657,-2.02083874,-1.46361470,-1.78163218,2.27336502,0.00000000,0.00000000,-0.24600235,2.12426710,1.35911942,1.61734247,2.87979317,0.00000000,0.00000000
0.69863874,-2.01209402,-1.47722292,-1.80250931,2.27964592,0.00000000,0.00000000,-0.21009094,2.12669539,1.33917558,1.68436325,2.87979317,0.00000000,0.00000000
0.70370132,-2.00833416,-1.48738837,-1.82192409,2.28741336,0.00000000,0.00000000,-0.18730119,2.12897563,1.32261610,1.73556840,2.87979317,0.00000000,0.00000000
0.69893956,-2.00871873,-1.49453378,-1.83791685,2.29971433,0.00000000,0.00000000,-0.17893884,2.13445139,1.30668700,1.76958752,2.87979317,0.00000000,0.00000000
0.68558240,-2.01152039,-1.50063396,-1.84831750,2.31598115,0.00000000,0.00000000,-0.18495119,2.14341950,1.29225528,1.78560472,2.87979317,0.00000000,0.00000000
0.66513288,-2.01648736,-1.50658464,-1.85201621,2.32645416,0.00000000,0.00000000,-0.20489644,2.15423107,1.28111780,1.78306127,2.87979317,0.00000000,0.00000000
0.63820577,-2.02488875,-1.51247597,-1.84922111,2.34425235,0.00000000,0.00000000,-0.23754831,2.16351748,1.27532160,1.76190376,2.87979317,0.00000000,0.00000000
0.60467154,-2.03680491,-1.51798582,-1.84277749,2.36606073,0.00000000,0.00000000,-0.28089142,2.16864634,1.27574658,1.72269821,2.87979317,0.00000000,0.00000000
0.56401783,-2.05102587,-1.52227104,-1.84008372,2.38721538,0.00000000,0.00000000,-0.33461773,2.16986799,1.28222227,1.66622531,2.87979317,0.00000000,0.00000000
0.51657683,-2.06593776,-1.52328062,-1.85135889,2.41010261,0.00000000,0.00000000,-0.39753875,2.16921806,1.29195285,1.60128176,2.87979317,0.00000000,0.00000000
0.46925557,-2.07867575,-1.51989508,-1.87606072,2.42682409,0.00000000,0.00000000,-0.46286103,2.16809750,1.30009413,1.55055678,2.87979317,0.00000000,0.00000000
0.42883673,-2.08326697,-1.51988304,-1.89937794,2.43746996,0.00000000,0.00000000,-0.52439213,2.16921806,1.30852389,1.52282465,2.86688089,0.00000000,0.00000000
0.39379367,-2.08318734,-1.52156854,-1.92526257,2.44208765,0.00000000,0.00000000,-0.57422674,2.16994572,1.32299244,1.51601696,2.85277605,0.00000000,0.00000000
0.36185002,-2.08092999,-1.52618802,-1.95165348,2.44901896,0.00000000,0.00000000,-0.61100417,2.17000008,1.34359181,1.52212334,2.84517574,0.00000000,0.00000000
0.33554792,-2.07797217,-1.53416908,-1.97063422,2.45992231,0.00000000,0.00000000,-0.63687211,2.16998029,1.36655176,1.53267133,2.83613110,0.00000000,0.00000000
0.32076001,-2.07668614,-1.54060304,-1.97678196,2.47843695,0.00000000,0.00000000,-0.65110695,2.16958356,1.38813603,1.54056299,2.83031607,0.00000000,0.00000000
0.32230225,-2.07898498,-1.53984225,-1.96763420,2.48959136,0.00000000,0.00000000,-0.65050942,2.16717458,1.40664089,1.54116309,2.82642651,0.00000000,0.00000000
0.34068295,-2.08481860,-1.53140056,-1.94255984,2.50095510,0.00000000,0.00000000,-0.63342851,2.16161752,1.42310357,1.53266716,2.82432437,0.00000000,0.00000000
0.37293577,-2.09260511,-1.51782060,-1.90263331,2.51204824,0.00000000,0.00000000,-0.59901130,2.15657496,1.43996024,1.51722741,2.81735682,0.00000000,0.00000000
0.41409710,-2.09974861,-1.50316918,-1.85079181,2.51898503,0.00000000,0.00000000,-0.54794282,2.15499663,1.45680189,1.49919355,2.81055474,0.00000000,0.00000000
0.45662245,-2.10403156,-1.49226487,-1.79571915,2.52146506,0.00000000,0.00000000,-0.48114139,2.15635872,1.47354996,1.48716092,2.80712938,0.00000000,0.00000000
0.49427611,-2.10517907,-1.48607516,-1.75347614,2.52206707,0.00000000,0.00000000,-0.40141189,2.15822530,1.48960185,1.49230099,2.79906058,0.00000000,0.00000000
0.53127915,-2.10319662,-1.48316813,-1.73225009,2.51692772,0.00000000,0.00000000,-0.32053423,2.15851307,1.50199854,1.51753080,2.78765607,0.00000000,0.00000000
0.56687057,-2.09763598,-1.48403358,-1.73399031,2.51326394,0.00000000,0.00000000,-0.25007176,2.15646362,1.50728476,1.55837739,2.78133869,0.00000000,0.00000000
0.59724861,-2.08887959,-1.48965001,-1.75371659,2.50160885,0.00000000,0.00000000,-0.19590877,2.15298128,1.50227165,1.61065924,2.77416754,0.00000000,0.00000000
0.62700933,-2.07993031,-1.49652064,-1.77543116,2.48919749,0.00000000,0.00000000,-0.16083376,2.14956975,1.48550427,1.67024052,2.77222681,0.00000000,0.00000000
0.65844995,-2.07345271,-1.50125098,-1.79256308,2.47886467,0.00000000,0.00000000,-0.14829390,2.14609838,1.46163523,1.72653604,2.77058411,0.00000000,0.00000000
0.68828398,-2.06881928,-1.50286579,-1.80650032,2.46977568,0.00000000,0.00000000,-0.14906268,2.14107752,1.44139457,1.77258658,2.76678324,0.00000000,0.00000000
0.71282083,-2.06556153,-1.50157571,-1.81754851,2.45035553,0.00000000,0.00000000,-0.16348933,2.13759160,1.42482734,1.80236995,2.76755595,0.00000000,0.00000000
0.72854847,-2.06438589,-1.49810266,-1.82481670,2.42848706,0.00000000,0.00000000,-0.19158347,2.13837123,1.41037953,1.81421661,2.77960801,0.00000000,0.00000000
0.73079336,-2.06611466,-1.49338984,-1.82807553,2.39869857,0.00000000,0.00000000,-0.23110043,2.14398241,1.39718616,1.80803812,2.79103661,0.00000000,0.00000000
0.71517092,-2.07113385,-1.48816955,-1.82887161,2.36973667,0.00000000,0.00000000,-0.27802402,2.15301752,1.38488483,1.78434038,2.80182409,0.00000000,0.00000000
0.68090457,-2.07854366,-1.48336494,-1.83040547,2.33931446,0.00000000,0.00000000,-0.32815713,2.16237235,1.37444913,1.74428856,2.81480694,0.00000000,0.00000000
0.63270229,-2.08637643,-1.47941530,-1.83729577,2.30893230,0.00000000,0.00000000,-0.38229007,2.16830373,1.36730337,1.68906784,2.82947779,0.00000000,0.00000000
0.57672054,-2.09317017,-1.47661424,-1.85623693,2.27832723,0.00000000,0.00000000,-0.44247121,2.16967249,1.36446154,1.62691188,2.83770037,0.00000000,0.00000000
0.52049798,-2.09704590,-1.47646236,-1.88959551,2.25200939,0.00000000,0.00000000,-0.50296056,2.16870689,1.36756551,1.57893538,2.83532667,0.00000000,0.00000000
0.47073939,-2.09722161,-1.47869706,-1.92797244,2.21949053,0.00000000,0.00000000,-0.55698335,2.16585302,1.37692595,1.55414271,2.83529472,0.00000000,0.00000000
0.43174675,-2.09462571,-1.48079979,-1.96569574,2.18890238,0.00000000,0.00000000,-0.59991348,2.16086221,1.39411294,1.54923153,2.83380985,0.00000000,0.00000000
0.40440983,-2.08938050,-1.48499382,-1.99351907,2.16842389,0.00000000,0.00000000,-0.63249969,2.15514684,1.41463542,1.55377090,2.83075476,0.00000000,0.00000000
0.38961503,-2.08309293,-1.48930323,-2.00718808,2.14450765,0.00000000,0.00000000,-0.65690422,2.14913416,1.43284917,1.55880141,2.82663393,0.00000000,0.00000000
0.38764077,-2.07796788,-1.48934555,-2.00701761,2.12524199,0.00000000,0.00000000,-0.67204416,2.14197397,1.44669628,1.55835140,2.82107401,0.00000000,0.00000000
0.39840364,-2.07499719,-1.48302829,-1.99300718,2.10896754,0.00000000,0.00000000,-0.67462236,2.13305998,1.45626009,1.54867876,2.82052708,0.00000000,0.00000000
0.42073876,-2.07364297,-1.47121322,-1.96492028,2.09499311,0.00000000,0.00000000,-0.66210055,2.12297297,1.46190405,1.52896082,2.82186794,0.00000000,0.00000000
0.45119044,-2.07191920,-1.45665443,-1.92369485,2.07544231,0.00000000,0.00000000,-0.63286346,2.11450744,1.46358514,1.50165570,2.82289505,0.00000000,0.00000000
0.48466179,-2.06778288,-1.44203472,-1.87233710,2.06409192,0.00000000,0.00000000,-0.58592832,2.11038280,1.46052277,1.47287261,2.82322717,0.00000000,0.00000000
0.51584089,-2.06069398,-1.42999625,-1.81790876,2.05170774,0.00000000,0.00000000,-0.52360952,2.11248469,1.45049179,1.45291817,2.82239795,0.00000000,0.00000000
0.53994828,-2.05167913,-1.42257595,-1.77474856,2.04894805,0.00000000,0.00000000,-0.45238337,2.12168288,1.43163669,1.45225286,2.81140232,0.00000000,0.00000000
0.56145644,-2.04300642,-1.41624081,-1.75307071,2.04632974,0.00000000,0.00000000,-0.38213804,2.13493371,1.40610647,1.47230017,2.80328679,0.00000000,0.00000000
0.58170861,-2.03554368,-1.41176152,-1.75158715,2.04303122,0.00000000,0.00000000,-0.32082567,2.14842844,1.37634695,1.50946283,2.79631901,0.00000000,0.00000000
0.59778833,-2.02838063,-1.41533613,-1.75923300,2.03833032,0.00000000,0.00000000,-0.27330527,2.16016364,1.34343052,1.56022394,2.78988791,0.00000000,0.00000000
0.61356169,-2.02215099,-1.42623186,-1.76448286,2.03741717,0.00000000,0.00000000,-0.23554528,2.16774178,1.31493342,1.62103021,2.77952218,0.00000000,0.00000000
0.62936556,-2.01931667,-1.43814540,-1.76553619,2.04166460,0.00000000,0.00000000,-0.20790538,2.16983080,1.29726505,1.67681813,2.76407266,0.00000000,0.00000000
0.64024478,-2.02022219,-1.44619274,-1.76522851,2.05311489,0.00000000,0.00000000,-0.19882204,2.16998529,1.28124559,1.71569526,2.74941468,0.00000000,0.00000000
0.64603084,-2.02332282,-1.45125878,-1.76268506,2.06012034,0.00000000,0.00000000,-0.20413055,2.16999912,1.27046251,1.73745966,2.73439932,0.00000000,0.00000000
0.64574760,-2.02637482,-1.45473218,-1.75719619,2.07393575,0.00000000,0.00000000,-0.22101954,2.17000008,1.26611888,1.74212897,2.71612597,0.00000000,0.00000000
0.63784468,-2.02765179,-1.45708632,-1.74923742,2.08948493,0.00000000,0.00000000,-0.24911621,2.17000008,1.26661944,1.72879803,2.69800735,0.00000000,0.00000000
0.62113714,-2.02709770,-1.45850635,-1.74073768,2.10169101,0.00000000,0.00000000,-0.28699771,2.17000008,1.27191532,1.69728708,2.67710447,0.00000000,0.00000000
0.59525049,-2.02560663,-1.45962524,-1.73554444,2.11125135,0.00000000,0.00000000,-0.33453313,2.17000008,1.28279710,1.64729953,2.65746284,0.00000000,0.00000000
0.56026989,-2.02299476,-1.46360886,-1.73932528,2.12334037,0.00000000,0.00000000,-0.39361957,2.16993046,1.30101192,1.58149219,2.63546276,0.00000000,0.00000000
0.51621705,-2.01764536,-1.47522855,-1.75916922,2.12846565,0.00000000,0.00000000,-0.46003950,2.16888285,1.32929194,1.51520956,2.62055135,0.00000000,0.00000000
0.46892601,-2.01030922,-1.49066913,-1.79738510,2.12459373,0.00000000,0.00000000,-0.53143090,2.16575289,1.36248326,1.46326733,2.60185242,0.00000000,0.00000000
0.42544535,-2.00400162,-1.50302589,-1.84623182,2.12125254,0.00000000,0.00000000,-0.59911788,2.16296959,1.39637291,1.43309367,2.58449554,0.00000000,0.00000000
0.38762969,-1.99955094,-1.51332307,-1.89293540,2.11982346,0.00000000,0.00000000,-0.65523356,2.16101217,1.43006372,1.42165422,2.56306291,0.00000000,0.00000000
0.35707211,-1.99745452,-1.52277553,-1.93082345,2.12092257,0.00000000,0.00000000,-0.70023489,2.15534329,1.46139920,1.41880679,2.53602934,0.00000000,0.00000000
0.33847269,-1.99963617,-1.52651572,-1.95650029,2.12836909,0.00000000,0.00000000,-0.73238695,2.14248610,1.48725462,1.41661692,2.50624895,0.00000000,0.00000000
0.33553952,-2.00645018,-1.52184880,-1.96713269,2.13854337,0.00000000,0.00000000,-0.74781156,2.12399817,1.50615621,1.41100824,2.47840786,0.00000000,0.00000000
0.34909725,-2.01641917,-1.50955451,-1.96082056,2.14236188,0.00000000,0.00000000,-0.74456805,2.10240531,1.51848745,1.39965451,2.45008039,0.00000000,0.00000000
0.37748566,-2.02729344,-1.49103236,-1.93716919,2.14965701,0.00000000,0.00000000,-0.72105902,2.08242273,1.52412677,1.38282371,2.41746092,0.00000000,0.00000000
0.41679719,-2.03634238,-1.46862018,-1.89725304,2.15444016,0.00000000,0.00000000,-0.67491198,2.07007456,1.52274787,1.36638033,2.39750028,0.00000000,0.00000000
0.46204910,-2.04123521,-1.44555855,-1.84436727,2.16118240,0.00000000,0.00000000,-0.60573417,2.06812906,1.51456821,1.36028421,2.37468004,0.00000000,0.00000000
0.50853401,-2.04036736,-1.42628348,-1.78905988,2.16069293,0.00000000,0.00000000,-0.52016926,2.07494521,1.50041699,1.37369001,2.35009360,0.00000000,0.00000000
0.55157286,-2.03363872,-1.41321349,-1.75100505,2.16122818,0.00000000,0.00000000,-0.42860633,2.08687258,1.48278832,1.40966034,2.32883644,0.00000000,0.00000000
0.59035921,-2.02289343,-1.40606141,-1.73714781,2.16349006,0.00000000,0.00000000,-0.34103855,2.10114574,1.46287680,1.46498799,2.31051660,0.00000000,0.00000000
0.62372804,-2.00970101,-1.40694225,-1.74492502,2.16267896,0.00000000,0.00000000,-0.26844397,2.11717701,1.43917847,1.53297377,2.28856874,0.00000000,0.00000000
0.65074450,-1.99547517,-1.41871130,-1.76371229,2.15875769,0.00000000,0.00000000,-0.21846917,2.13260460,1.41375721,1.60358846,2.26598620,0.00000000,0.00000000
0.67758274,-1.98313653,-1.43641055,-1.78050697,2.15433669,0.00000000,0.00000000,-0.19534849,2.14191151,1.39500892,1.66060376,2.24228930,0.00000000,0.00000000
0.70447385,-1.97381341,-1.45530033,-1.79007757,2.14225388,0.00000000,0.00000000,-0.19556592,2.14639640,1.38401163,1.69720399,2.22469354,0.00000000,0.00000000
0.72516197,-1.96849465,-1.47381282,-1.79102862,2.13014174,0.00000000,0.00000000,-0.21583164,2.15043044,1.37521660,1.71327531,2.21206498,0.00000000,0.00000000
0.73582059,-1.97010064,-1.49163508,-1.78400326,2.11014223,0.00000000,0.00000000,-0.25264442,2.15155554,1.37012172,1.70954025,2.20108509,0.00000000,0.00000000
0.73654211,-1.97358072,-1.51022089,-1.76899040,2.09501076,0.00000000,0.00000000,-0.30164084,2.14974451,1.36903048,1.68712950,2.19048572,0.00000000,0.00000000
0.72729653,-1.97035742,-1.53071630,-1.74690998,2.08042073,0.00000000,0.00000000,-0.35695177,2.14904809,1.36944532,1.64836609,2.17972541,0.00000000,0.00000000
0.70612580,-1.96280825,-1.55259156,-1.72371650,2.06075454,0.00000000,0.00000000,-0.41366839,2.14884472,1.37209332,1.59608126,2.16561055,0.00000000,0.00000000
0.67324907,-1.95522678,-1.57461929,-1.71072972,2.04185176,0.00000000,0.00000000,-0.46989825,2.14675951,1.37935126,1.53816712,2.16027069,0.00000000,0.00000000
0.63173556,-1.94942522,-1.59522164,-1.71936929,2.02549577,0.00000000,0.00000000,-0.52256531,2.14108586,1.39394021,1.49223125,2.15241098,0.00000000,0.00000000
0.58711147,-1.94501305,-1.61365771,-1.75226533,2.00640297,0.00000000,0.00000000,-0.57348239,2.13468719,1.41125536,1.46772885,2.14820051,0.00000000,0.00000000
0.54452664,-1.94207811,-1.62734163,-1.80509925,1.98889363,0.00000000,0.00000000,-0.62049228,2.12871575,1.43031394,1.46651900,2.13805938,0.00000000,0.00000000
0.50668848,-1.94113588,-1.63499629,-1.86660588,1.96250403,0.00000000,0.00000000,-0.65692097,2.12331104,1.45146930,1.48603082,2.13059402,0.00000000,0.00000000
0.47891799,-1.94284999,-1.63817143,-1.91965151,1.94238114,0.00000000,0.00000000,-0.68391550,2.11684990,1.47337198,1.51445770,2.12287664,0.00000000,0.00000000
0.46280405,-1.94791889,-1.63687718,-1.95883441,1.92575514,0.00000000,0.00000000,-0.70453656,2.10785127,1.49307990,1.54017687,2.12061715,0.00000000,0.00000000
0.45829111,-1.95696890,-1.62933779,-1.98354793,1.90369880,0.00000000,0.00000000,-0.71677005,2.09536862,1.50899553,1.55582988,2.12233377,0.00000000,0.00000000
0.46547788,-1.96969175,-1.61505747,-1.99271595,1.88052881,0.00000000,0.00000000,-0.71725124,2.07999444,1.52019691,1.55863941,2.11295033,0.00000000,0.00000000
0.48381996,-1.98431206,-1.59521127,-1.98549855,1.84938347,0.00000000,0.00000000,-0.70486516,2.06336617,1.52604496,1.54909158,2.10447121,0.00000000,0.00000000
0.51106721,-1.99798977,-1.57165420,-1.96214092,1.82334459,0.00000000,0.00000000,-0.67718613,2.04863954,1.52593255,1.52997494,2.10483503,0.00000000,0.00000000
0.54375988,-2.00770116,-1.54662681,-1.92445910,1.80150938,0.00000000,0.00000000,-0.63233930,2.03932023,1.51857936,1.50683510,2.10651684,0.00000000,0.00000000
0.57793945,-2.01150870,-1.52438223,-1.87853944,1.77105391,0.00000000,0.00000000,-0.57549268,2.03690672,1.50126326,1.48953378,2.10978293,0.00000000,0.00000000
0.60723138,-2.00863838,-1.51067352,-1.83991361,1.73315227,0.00000000,0.00000000,-0.51313090,2.04112577,1.47300887,1.49014735,2.11800194,0.00000000,0.00000000
0.63229936,-2.00061917,-1.50330698,-1.82227421,1.70550704,0.00000000,0.00000000,-0.45083341,2.04830313,1.43848467,1.51272845,2.11996794,0.00000000,0.00000000
0.65440142,-1.98937464,-1.50055301,-1.82898271,1.67837644,0.00000000,0.00000000,-0.39471766,2.05510688,1.40128219,1.55483747,2.12019610,0.00000000,0.00000000
0.67524183,-1.97614264,-1.50412476,-1.85207152,1.64809656,0.00000000,0.00000000,-0.34951231,2.05955338,1.36465847,1.61255026,2.11677122,0.00000000,0.00000000
0.70162624,-1.96304536,-1.51259553,-1.87110102,1.61288416,0.00000000,0.00000000,-0.31572026,2.05911231,1.33584297,1.67755485,2.10116243,0.00000000,0.00000000
0.73341656,-1.95317125,-1.52218115,-1.88022316,1.58038425,0.00000000,0.00000000,-0.29741186,2.05416870,1.31820464,1.73048806,2.08127737,0.00000000,0.00000000
0.76487428,-1.94861519,-1.53112090,-1.88035619,1.54565263,0.00000000,0.00000000,-0.29526901,2.04986835,1.30818903,1.76427054,2.06895018,0.00000000,0.00000000
0.78919470,-1.94997621,-1.53938770,-1.87174368,1.51508868,0.00000000,0.00000000,-0.30683753,2.05098248,1.30183709,1.77922010,2.06227446,0.00000000,0.00000000
0.80140090,-1.95575285,-1.54756856,-1.85471380,1.48839700,0.00000000,0.00000000,-0.32861716,2.05928636,1.29759014,1.77613688,2.06177402,0.00000000,0.00000000
0.79811382,-1.96382535,-1.55595994,-1.83136368,1.46226454,0.00000000,0.00000000,-0.35714474,2.07356930,1.29492462,1.75576508,2.05988026,0.00000000,0.00000000
0.77752548,-1.97303438,-1.56412292,-1.80576897,1.44143057,0.00000000,0.00000000,-0.38887411,2.09002137,1.29438293,1.71912444,2.05875897,0.00000000,0.00000000
0.74063641,-1.98327816,-1.57138574,-1.78397644,1.41176331,0.00000000,0.00000000,-0.42202562,2.10349178,1.29788840,1.66744387,2.05985951,0.00000000,0.00000000
0.69092637,-1.99475968,-1.57687247,-1.77370644,1.38175333,0.00000000,0.00000000,-0.45827159,2.11195755,1.30473375,1.60623848,2.07102728,0.00000000,0.00000000
0.63281500,-2.00768995,-1.57983780,-1.78250003,1.36019397,0.00000000,0.00000000,-0.49897861,2.11885524,1.30886996,1.55136442,2.08065629,0.00000000,0.00000000
0.57544380,-2.02035975,-1.58080602,-1.81222498,1.33318591,0.00000000,0.00000000,-0.54083753,2.12232757,1.31545293,1.51518834,2.08741927,0.00000000,0.00000000
0.52651823,-2.03135991,-1.57978106,-1.85690165,1.29989302,0.00000000,0.00000000,-0.58031523,2.12250400,1.32779419,1.50117517,2.08771825,0.00000000,0.00000000
0.48618215,-2.03931022,-1.58017933,-1.90597665,1.27206302,0.00000000,0.00000000,-0.61112714,2.12133789,1.34592259,1.50800383,2.09208846,0.00000000,0.00000000
0.45495781,-2.04523849,-1.58228099,-1.94738138,1.24043393,0.00000000,0.00000000,-0.63118362,2.11925888,1.36641443,1.52590799,2.09760308,0.00000000,0.00000000
0.43604741,-2.05075383,-1.58301246,-1.97493243,1.21297896,0.00000000,0.00000000,-0.64344800,2.11497450,1.38533652,1.54472983,2.10011315,0.00000000,0.00000000
0.42926544,-2.05624151,-1.58065784,-1.98865819,1.18450725,0.00000000,0.00000000,-0.64928877,2.10761666,1.40063810,1.55853558,2.09228039,0.00000000,0.00000000
0.43441892,-2.06139255,-1.57451212,-1.98837543,1.15341616,0.00000000,0.00000000,-0.64822572,2.09678578,1.41156161,1.56393754,2.08567429,0.00000000,0.00000000
0.45155403,-2.06561661,-1.56457222,-1.97333980,1.12260008,0.00000000,0.00000000,-0.63857281,2.08355856,1.41756785,1.55947709,2.07166386,0.00000000,0.00000000
0.47880843,-2.06791615,-1.55188167,-1.94400871,1.09490788,0.00000000,0.00000000,-0.61699939,2.07138729,1.41811490,1.54585767,2.05086732,0.00000000,0.00000000
0.51223719,-2.06702304,-1.53807998,-1.90260720,1.05395818,0.00000000,0.00000000,-0.57987201,2.06400704,1.41357183,1.52578163,2.03076267,0.00000000,0.00000000
0.54886723,-2.06268382,-1.52544916,-1.85283983,1.01537323,0.00000000,0.00000000,-0.52825975,2.06343865,1.40424073,1.50545454,2.00725698,0.00000000,0.00000000
0.58530354,-2.05468822,-1.51757550,-1.80595565,0.98872185,0.00000000,0.00000000,-0.46671796,2.06926513,1.39023983,1.49719274,1.98916817,0.00000000,0.00000000
0.62249738,-2.04420233,-1.51351535,-1.77715468,0.96146870,0.00000000,0.00000000,-0.40213650,2.07847285,1.37490737,1.50965464,1.97840285,0.00000000,0.00000000
0.65852326,-2.03197336,-1.51440036,-1.77171361,0.94360781,0.00000000,0.00000000,-0.34143779,2.08990860,1.35924757,1.54247725,1.97310972,0.00000000,0.00000000
0.69017398,-2.01949167,-1.52154160,-1.78522730,0.92740858,0.00000000,0.00000000,-0.29215035,2.10452914,1.34018826,1.59169257,1.95768237,0.00000000,0.00000000
0.71899199,-2.01146388,-1.52912211,-1.80453646,0.90646052,0.00000000,0.00000000,-0.25724363,2.12245822,1.31699049,1.64979231,1.94433498,0.00000000,0.00000000
0.74591708,-2.01121259,-1.53414726,-1.82246709,0.89035457,0.00000000,0.00000000,-0.23628116,2.13816547,1.29877174,1.70009911,1.92279720,0.00000000,0.00000000
0.76843125,-2.01808882,-1.53954971,-1.83588588,0.87618709,0.00000000,0.00000000,-0.23461676,2.14854574,1.28911841,1.73104668,1.89768815,0.00000000,0.00000000
0.78299344,-2.02941942,-1.54667056,-1.84346199,0.85860890,0.00000000,0.00000000,-0.25120747,2.15615702,1.28504336,1.74205124,1.87622941,0.00000000,0.00000000
0.78725392,-2.04199934,-1.55579793,-1.84450829,0.84704226,0.00000000,0.00000000,-0.28248718,2.16280890,1.28440285,1.73452127,1.85139894,0.00000000,0.00000000
