isaac-sim2real/sage/motion_files/wr75s/amass/0-KIT_674_wash_front03_poses_idx9.txt
l_joint1,l_joint2,l_joint3,l_joint4,l_joint5,l_joint6,l_joint7,r_joint1,r_joint2,r_joint3,r_joint4,r_joint5,r_joint6,r_joint7
0.00535094,-1.61479962,-0.24232776,-0.02456186,0.17742793,0.00000000,0.00000000,0.06586069,1.63986409,0.36534122,-0.08150581,0.08962657,0.00000000,0.00000000
0.00533461,-1.61539662,-0.24299921,-0.02611185,0.19058950,0.00000000,0.00000000,0.06720471,1.64081776,0.36577663,-0.08082449,0.09426911,0.00000000,0.00000000
0.00534933,-1.61669815,-0.24429627,-0.02918893,0.20279603,0.00000000,0.00000000,0.06977321,1.64272916,0.36662328,-0.07947122,0.09642611,0.00000000,0.00000000
0.00543919,-1.61900568,-0.24621256,-0.03395593,0.21665870,0.00000000,0.00000000,0.07354890,1.64582908,0.36788672,-0.07730416,0.09855456,0.00000000,0.00000000
0.00563211,-1.62277424,-0.24873452,-0.04065989,0.22916478,0.00000000,0.00000000,0.07853633,1.65054941,0.36957175,-0.07404798,0.09999597,0.00000000,0.00000000
0.00594948,-1.62854040,-0.25184309,-0.04959602,0.24219957,0.00000000,0.00000000,0.08471225,1.65752137,0.37168550,-0.06930833,0.09818564,0.00000000,0.00000000
0.00644186,-1.63683820,-0.25551113,-0.06104210,0.25591171,0.00000000,0.00000000,0.09182163,1.66773438,0.37424558,-0.06253387,0.09339151,0.00000000,0.00000000
0.00725443,-1.64808631,-0.25969857,-0.07517306,0.27064502,0.00000000,0.00000000,0.09989440,1.68267417,0.37725553,-0.05274795,0.08810368,0.00000000,0.00000000
0.00858437,-1.66249526,-0.26435333,-0.09201634,0.28581160,0.00000000,0.00000000,0.10961618,1.70290601,0.38067001,-0.03922362,0.08192427,0.00000000,0.00000000
0.01047293,-1.68004560,-0.26942539,-0.11149162,0.30054808,0.00000000,0.00000000,0.11971228,1.72718108,0.38447994,-0.02289814,0.07653744,0.00000000,0.00000000
0.01274091,-1.70059752,-0.27487686,-0.13349631,0.31623039,0.00000000,0.00000000,0.12983030,1.75511491,0.38863164,-0.00407945,0.07132699,0.00000000,0.00000000
0.01515078,-1.72385800,-0.28067479,-0.15784678,0.32986718,0.00000000,0.00000000,0.13990262,1.78628540,0.39304739,0.01692841,0.06621510,0.00000000,0.00000000
0.01784916,-1.74927580,-0.28675240,-0.18413119,0.34294701,0.00000000,0.00000000,0.14946720,1.81987166,0.39764315,0.03946284,0.06081751,0.00000000,0.00000000
0.02141702,-1.77613866,-0.29299217,-0.21175814,0.35756999,0.00000000,0.00000000,0.15805726,1.85510790,0.40232682,0.06286599,0.05475445,0.00000000,0.00000000
0.02660299,-1.80366278,-0.29924336,-0.24004903,0.37200645,0.00000000,0.00000000,0.16549098,1.89106750,0.40701538,0.08643362,0.04890094,0.00000000,0.00000000
0.03407459,-1.83105934,-0.30535147,-0.26832068,0.38662529,0.00000000,0.00000000,0.17184581,1.92667937,0.41164839,0.10941020,0.04182020,0.00000000,0.00000000
0.04406669,-1.85768044,-0.31121722,-0.29603663,0.40210831,0.00000000,0.00000000,0.17715943,1.96123660,0.41617024,0.13121293,0.03271541,0.00000000,0.00000000
0.05601827,-1.88290536,-0.31688386,-0.32279858,0.41652557,0.00000000,0.00000000,0.18146574,1.99444318,0.42052999,0.15150940,0.02551149,0.00000000,0.00000000
0.06867764,-1.90586245,-0.32256091,-0.34817338,0.42784429,0.00000000,0.00000000,0.18575494,2.02563667,0.42479193,0.17010202,0.01690835,0.00000000,0.00000000
0.08086903,-1.92541051,-0.32849905,-0.37157762,0.43821239,0.00000000,0.00000000,0.19169161,2.05340719,0.42914665,0.18671380,0.00784654,0.00000000,0.00000000
0.09193650,-1.94063163,-0.33486646,-0.39249986,0.44804811,0.00000000,0.00000000,0.19931780,2.07688498,0.43363118,0.20101546,-0.00035534,0.00000000,0.00000000
0.10139544,-1.95124900,-0.34177700,-0.41080052,0.45849058,0.00000000,0.00000000,0.20781788,2.09610844,0.43815148,0.21288714,-0.00823614,0.00000000,0.00000000
0.10872256,-1.95738649,-0.34933895,-0.42660391,0.47156435,0.00000000,0.00000000,0.21609072,2.11119008,0.44256589,0.22211303,-0.01612096,0.00000000,0.00000000
0.11348557,-1.95919466,-0.35764587,-0.44004765,0.48722267,0.00000000,0.00000000,0.22243096,2.12202787,0.44666377,0.22815019,-0.02111557,0.00000000,0.00000000
0.11537259,-1.95672238,-0.36677521,-0.45119089,0.50261033,0.00000000,0.00000000,0.22439784,2.12862229,0.45013058,0.23023841,-0.02540836,0.00000000,0.00000000
0.11401404,-1.94985425,-0.37683681,-0.46000978,0.51722765,0.00000000,0.00000000,0.21941724,2.13187647,0.45258281,0.22804840,-0.02921572,0.00000000,0.00000000
0.10867222,-1.93855762,-0.38803235,-0.46661595,0.53477532,0.00000000,0.00000000,0.20597146,2.13362932,0.45373130,0.22218736,-0.03301693,0.00000000,0.00000000
0.09799357,-1.92344058,-0.40066397,-0.47165370,0.55254543,0.00000000,0.00000000,0.18471745,2.13554358,0.45359319,0.21384116,-0.03563775,0.00000000,0.00000000
0.08044932,-1.90598500,-0.41498479,-0.47633547,0.56923467,0.00000000,0.00000000,0.15823586,2.13896179,0.45245165,0.20454895,-0.03806219,0.00000000,0.00000000
0.05536463,-1.88808274,-0.43096432,-0.48189977,0.58628833,0.00000000,0.00000000,0.12938614,2.14442706,0.45066300,0.19555865,-0.04083459,0.00000000,0.00000000
0.02314899,-1.87133956,-0.44830349,-0.48913655,0.60493487,0.00000000,0.00000000,0.09992646,2.15058351,0.44854581,0.18692587,-0.04645581,0.00000000,0.00000000
-0.01532080,-1.85671258,-0.46663803,-0.49829155,0.62416410,0.00000000,0.00000000,0.07056344,2.15595675,0.44629478,0.17854048,-0.05272510,0.00000000,0.00000000
-0.05896626,-1.84515429,-0.48553333,-0.50949782,0.64227259,0.00000000,0.00000000,0.04177234,2.16097784,0.44397837,0.17135675,-0.06193751,0.00000000,0.00000000
-0.10647768,-1.83774316,-0.50445378,-0.52284533,0.66025627,0.00000000,0.00000000,0.01411683,2.16578817,0.44167835,0.16596328,-0.07230709,0.00000000,0.00000000
-0.15631920,-1.83519590,-0.52282441,-0.53810370,0.67456806,0.00000000,0.00000000,-0.01178842,2.16903639,0.43954158,0.16195466,-0.08124319,0.00000000,0.00000000
-0.20672534,-1.83761656,-0.54007632,-0.55460775,0.68899894,0.00000000,0.00000000,-0.03509348,2.16994286,0.43775323,0.15860619,-0.09488418,0.00000000,0.00000000
-0.25565225,-1.84443164,-0.55566472,-0.57125175,0.70524520,0.00000000,0.00000000,-0.05509178,2.17000008,0.43651104,0.15462893,-0.10771644,0.00000000,0.00000000
-0.30090624,-1.85443568,-0.56912047,-0.58656466,0.72125596,0.00000000,0.00000000,-0.07163928,2.17000008,0.43599543,0.14775722,-0.11960488,0.00000000,0.00000000
-0.34082499,-1.86621916,-0.58019668,-0.59912443,0.73740298,0.00000000,0.00000000,-0.08226082,2.16999769,0.43644866,0.13789691,-0.12948553,0.00000000,0.00000000
-0.37430492,-1.87855768,-0.58881241,-0.60780430,0.75067222,0.00000000,0.00000000,-0.08625764,2.16988397,0.43784657,0.12625691,-0.13699226,0.00000000,0.00000000
-0.40021160,-1.89072299,-0.59481043,-0.61182386,0.76338202,0.00000000,0.00000000,-0.08424687,2.16852045,0.44003537,0.11419690,-0.14655301,0.00000000,0.00000000
-0.41732103,-1.90227330,-0.59796846,-0.61061996,0.77415228,0.00000000,0.00000000,-0.07691492,2.16370153,0.44287902,0.10290538,-0.15447646,0.00000000,0.00000000
-0.42487401,-1.91267729,-0.59823781,-0.60381001,0.78434348,0.00000000,0.00000000,-0.06526079,2.15565705,0.44625908,0.09307763,-0.16442046,0.00000000,0.00000000
-0.42281625,-1.92165756,-0.59575337,-0.59153444,0.79383832,0.00000000,0.00000000,-0.05069569,2.14539742,0.45006773,0.08492326,-0.17399032,0.00000000,0.00000000
-0.41150412,-1.92867529,-0.59082788,-0.57405883,0.80287325,0.00000000,0.00000000,-0.03462371,2.13375807,0.45421723,0.07850285,-0.18123503,0.00000000,0.00000000
-0.39131403,-1.93349087,-0.58370697,-0.55178380,0.81041861,0.00000000,0.00000000,-0.01790263,2.12162733,0.45865297,0.07401991,-0.18989410,0.00000000,0.00000000
-0.36233357,-1.93576133,-0.57453001,-0.52455121,0.81595868,0.00000000,0.00000000,-0.00069609,2.11030054,0.46334389,0.07204352,-0.20249368,0.00000000,0.00000000
-0.32458958,-1.93498993,-0.56342351,-0.49192047,0.82208568,0.00000000,0.00000000,0.01721611,2.10123968,0.46826732,0.07330938,-0.21713646,0.00000000,0.00000000
-0.27847007,-1.93166208,-0.55047441,-0.45457819,0.82834917,0.00000000,0.00000000,0.03596269,2.09558296,0.47339490,0.07835431,-0.22938950,0.00000000,0.00000000
-0.22502691,-1.92656922,-0.53592569,-0.41403770,0.83339202,0.00000000,0.00000000,0.05548015,2.09362245,0.47869468,0.08721641,-0.24128270,0.00000000,0.00000000
-0.16677041,-1.92014301,-0.52041835,-0.37205830,0.83488423,0.00000000,0.00000000,0.07649940,2.09481120,0.48418197,0.09967910,-0.25265351,0.00000000,0.00000000
-0.10831498,-1.91352892,-0.50490308,-0.33114558,0.83322829,0.00000000,0.00000000,0.10170811,2.09843564,0.48997813,0.11593767,-0.26191720,0.00000000,0.00000000
-0.05332182,-1.90645409,-0.49021041,-0.29247826,0.83180195,0.00000000,0.00000000,0.13302548,2.10441089,0.49616408,0.13633320,-0.27289897,0.00000000,0.00000000
-0.00221978,-1.89906013,-0.47649997,-0.25636631,0.82642865,0.00000000,0.00000000,0.17030801,2.11266208,0.50270319,0.16065536,-0.28231946,0.00000000,0.00000000
0.04547879,-1.89211535,-0.46372291,-0.22315837,0.82023263,0.00000000,0.00000000,0.21188685,2.12310052,0.50942224,0.18825816,-0.29142952,0.00000000,0.00000000
0.08953830,-1.88649476,-0.45192626,-0.19342837,0.80962658,0.00000000,0.00000000,0.25493085,2.13531137,0.51601189,0.21800593,-0.30445820,0.00000000,0.00000000
0.12814176,-1.88264287,-0.44133347,-0.16787931,0.79704225,0.00000000,0.00000000,0.29684588,2.14778018,0.52219445,0.24825035,-0.31814137,0.00000000,0.00000000
0.15907659,-1.88012254,-0.43219516,-0.14682209,0.78463387,0.00000000,0.00000000,0.33596921,2.15861678,0.52778786,0.27740815,-0.33094656,0.00000000,0.00000000
0.18177333,-1.87814617,-0.42457592,-0.12995619,0.77649343,0.00000000,0.00000000,0.37105313,2.16607213,0.53263342,0.30423516,-0.34372708,0.00000000,0.00000000
0.19663116,-1.87644398,-0.41842788,-0.11700103,0.76856470,0.00000000,0.00000000,0.40166843,2.16930199,0.53666925,0.32817179,-0.35487789,0.00000000,0.00000000
0.20400284,-1.87538505,-0.41369608,-0.10802653,0.75745612,0.00000000,0.00000000,0.42739972,2.16996288,0.53982699,0.34911120,-0.36730513,0.00000000,0.00000000
0.20387833,-1.87570226,-0.41035265,-0.10340974,0.74543911,0.00000000,0.00000000,0.44651467,2.17000008,0.54166663,0.36728421,-0.37887451,0.00000000,0.00000000
0.19612668,-1.87799370,-0.40839118,-0.10350635,0.73528725,0.00000000,0.00000000,0.45831344,2.17000008,0.54169190,0.38400474,-0.39164704,0.00000000,0.00000000
0.18029749,-1.88286901,-0.40783176,-0.10874870,0.72586650,0.00000000,0.00000000,0.46195805,2.17000008,0.53965014,0.39896318,-0.40267104,0.00000000,0.00000000
0.15597677,-1.89056563,-0.40870953,-0.11934879,0.71328849,0.00000000,0.00000000,0.45688519,2.17000008,0.53547186,0.41117236,-0.41366091,0.00000000,0.00000000
0.12338755,-1.90081882,-0.41103676,-0.13511619,0.70223606,0.00000000,0.00000000,0.44444212,2.17000008,0.52973461,0.41921991,-0.42492384,0.00000000,0.00000000
0.08399229,-1.91289604,-0.41474861,-0.15536468,0.69144297,0.00000000,0.00000000,0.42431292,2.17000008,0.52251649,0.42260742,-0.43292248,0.00000000,0.00000000
0.03945431,-1.92520094,-0.41977349,-0.17890616,0.68159133,0.00000000,0.00000000,0.39922965,2.17000008,0.51478690,0.42115802,-0.43879616,0.00000000,0.00000000
-0.00860628,-1.93604648,-0.42602548,-0.20447217,0.66943258,0.00000000,0.00000000,0.37410063,2.17000008,0.50782400,0.41628283,-0.44119555,0.00000000,0.00000000
-0.05982456,-1.94452906,-0.43349451,-0.23144278,0.65384161,0.00000000,0.00000000,0.35349849,2.17000008,0.50284803,0.40879506,-0.44252524,0.00000000,0.00000000
-0.11438953,-1.94952166,-0.44222245,-0.25914818,0.63768613,0.00000000,0.00000000,0.33872867,2.17000008,0.50020409,0.39897680,-0.44468898,0.00000000,0.00000000
-0.17192180,-1.95030582,-0.45213872,-0.28695723,0.62254018,0.00000000,0.00000000,0.32901344,2.17000008,0.49973270,0.38660565,-0.44552165,0.00000000,0.00000000
-0.23120843,-1.94705856,-0.46296436,-0.31447512,0.60991794,0.00000000,0.00000000,0.32326803,2.16998076,0.50121444,0.37118387,-0.44660205,0.00000000,0.00000000
-0.28913704,-1.94060397,-0.47399735,-0.34104666,0.59636354,0.00000000,0.00000000,0.32047459,2.16958737,0.50437063,0.35246921,-0.45026359,0.00000000,0.00000000
-0.34039655,-1.93173397,-0.48406199,-0.36512277,0.57958579,0.00000000,0.00000000,0.32021311,2.16706872,0.50877780,0.33169788,-0.45357925,0.00000000,0.00000000
-0.38123685,-1.92132497,-0.49219486,-0.38535741,0.56176597,0.00000000,0.00000000,0.32210019,2.16019082,0.51378399,0.31141010,-0.45542988,0.00000000,0.00000000
-0.41081238,-1.91085112,-0.49795064,-0.40160093,0.54565084,0.00000000,0.00000000,0.32324681,2.15013552,0.51855224,0.29189914,-0.45635372,0.00000000,0.00000000
-0.42937818,-1.90128708,-0.50119001,-0.41404018,0.52719527,0.00000000,0.00000000,0.32272518,2.13902497,0.52277178,0.27312598,-0.45556095,0.00000000,0.00000000
-0.43717617,-1.89304984,-0.50185800,-0.42275766,0.50971669,0.00000000,0.00000000,0.32002413,2.12833142,0.52628624,0.25542113,-0.45675933,0.00000000,0.00000000
-0.43438944,-1.88628376,-0.49993187,-0.42777225,0.49597153,0.00000000,0.00000000,0.31442943,2.11908960,0.52897567,0.23909372,-0.45479697,0.00000000,0.00000000
-0.42125875,-1.88104844,-0.49541128,-0.42913899,0.48421380,0.00000000,0.00000000,0.30534095,2.11211777,0.53077245,0.22437991,-0.45299369,0.00000000,0.00000000
-0.39813197,-1.87736559,-0.48831573,-0.42697990,0.47199547,0.00000000,0.00000000,0.29245642,2.10822773,0.53165334,0.21157646,-0.45111984,0.00000000,0.00000000
-0.36544386,-1.87520564,-0.47868496,-0.42147067,0.45786986,0.00000000,0.00000000,0.27574104,2.10800338,0.53163797,0.20090096,-0.45029119,0.00000000,0.00000000
-0.32391122,-1.87483788,-0.46659526,-0.41301525,0.44063082,0.00000000,0.00000000,0.25673124,2.11036825,0.53099489,0.19209251,-0.44782996,0.00000000,0.00000000
-0.27502266,-1.87729740,-0.45222956,-0.40253958,0.42253867,0.00000000,0.00000000,0.24009593,2.11200356,0.53041452,0.18458207,-0.44712269,0.00000000,0.00000000
-0.22057745,-1.88333786,-0.43591079,-0.39094076,0.40547621,0.00000000,0.00000000,0.22960566,2.11147213,0.53035527,0.17853919,-0.44623727,0.00000000,0.00000000
-0.16169471,-1.89288127,-0.41794053,-0.37860230,0.38996673,0.00000000,0.00000000,0.22581285,2.10943460,0.53083187,0.17428914,-0.44650355,0.00000000,0.00000000
-0.09911427,-1.90554690,-0.39858946,-0.36568645,0.36862454,0.00000000,0.00000000,0.22783251,2.10691619,0.53170604,0.17196465,-0.44822919,0.00000000,0.00000000
-0.03364759,-1.92080164,-0.37815949,-0.35230863,0.34560478,0.00000000,0.00000000,0.23431458,2.10488176,0.53280526,0.17159636,-0.45028058,0.00000000,0.00000000
0.03313104,-1.93813670,-0.35709453,-0.33885932,0.31987092,0.00000000,0.00000000,0.24380027,2.10426116,0.53395009,0.17322102,-0.45143825,0.00000000,0.00000000
0.09772687,-1.95729959,-0.33617461,-0.32666528,0.29554555,0.00000000,0.00000000,0.25552630,2.10540986,0.53505242,0.17677093,-0.45183074,0.00000000,0.00000000
0.15500867,-1.97709751,-0.31651491,-0.31714496,0.27032354,0.00000000,0.00000000,0.27061564,2.10737777,0.53626174,0.18203555,-0.44749877,0.00000000,0.00000000
0.20055163,-1.99488723,-0.29912522,-0.31016800,0.24336421,0.00000000,0.00000000,0.28919986,2.10983181,0.53759825,0.18880057,-0.44189268,0.00000000,0.00000000
0.23370484,-2.00874352,-0.28422773,-0.30469564,0.21746369,0.00000000,0.00000000,0.30946219,2.11263061,0.53888065,0.19634633,-0.43650100,0.00000000,0.00000000
0.25511694,-2.01715589,-0.27177000,-0.29948947,0.19224903,0.00000000,0.00000000,0.32905236,2.11570382,0.53985685,0.20387073,-0.43357870,0.00000000,0.00000000
0.26581103,-2.01970029,-0.26157600,-0.29394048,0.16899511,0.00000000,0.00000000,0.34525618,2.11971235,0.54017472,0.21094196,-0.42967650,0.00000000,0.00000000
0.26723561,-2.01699495,-0.25334573,-0.28804845,0.14519465,0.00000000,0.00000000,0.35564581,2.12574506,0.53946781,0.21751903,-0.42378268,0.00000000,0.00000000
0.26105285,-2.00974751,-0.24674213,-0.28177613,0.12266573,0.00000000,0.00000000,0.35874426,2.13404965,0.53751403,0.22336967,-0.41615409,0.00000000,0.00000000
0.24868833,-1.99907100,-0.24145268,-0.27530792,0.10156105,0.00000000,0.00000000,0.35349381,2.14378190,0.53420532,0.22769570,-0.40826213,0.00000000,0.00000000
0.23121807,-1.98685741,-0.23719206,-0.26936758,0.08079984,0.00000000,0.00000000,0.33952871,2.15365958,0.52955145,0.22964007,-0.40077016,0.00000000,0.00000000
0.20983452,-1.97516453,-0.23365086,-0.26482004,0.06099664,0.00000000,0.00000000,0.31846640,2.16219664,0.52383006,0.22899176,-0.39293084,0.00000000,0.00000000
0.18614951,-1.96494293,-0.23049225,-0.26183218,0.04149884,0.00000000,0.00000000,0.29480991,2.16765976,0.51769942,0.22652087,-0.38350740,0.00000000,0.00000000
0.16204356,-1.95572531,-0.22738509,-0.25969106,0.02323972,0.00000000,0.00000000,0.27376637,2.16965151,0.51188922,0.22337802,-0.37548023,0.00000000,0.00000000
0.13889121,-1.94668472,-0.22409441,-0.25756201,0.00437531,0.00000000,0.00000000,0.25745997,2.16996670,0.50677210,0.21956156,-0.36460248,0.00000000,0.00000000
0.11689493,-1.93750238,-0.22056369,-0.25509685,-0.01317785,0.00000000,0.00000000,0.24589191,2.16964960,0.50242335,0.21474522,-0.35526082,0.00000000,0.00000000
0.09534614,-1.92858911,-0.21686965,-0.25253981,-0.03182475,0.00000000,0.00000000,0.23837280,2.16754794,0.49876320,0.20900770,-0.34466678,0.00000000,0.00000000
0.07334797,-1.92083085,-0.21311650,-0.25050083,-0.05038337,0.00000000,0.00000000,0.23400211,2.16153145,0.49565971,0.20254758,-0.33367249,0.00000000,0.00000000
0.05034705,-1.91520131,-0.20936267,-0.24965787,-0.06601800,0.00000000,0.00000000,0.23192510,2.15136075,0.49299493,0.19539535,-0.32076883,0.00000000,0.00000000
0.02643948,-1.91241288,-0.20558180,-0.25049576,-0.08073350,0.00000000,0.00000000,0.23152784,2.13751173,0.49068317,0.18750323,-0.30683669,0.00000000,0.00000000
0.00261609,-1.91256785,-0.20163630,-0.25306824,-0.09797817,0.00000000,0.00000000,0.23267135,2.12063837,0.48867291,0.17906059,-0.29411381,0.00000000,0.00000000
-0.01970290,-1.91511297,-0.19735050,-0.25702628,-0.11360143,0.00000000,0.00000000,0.23561612,2.10176277,0.48693481,0.17058989,-0.27877238,0.00000000,0.00000000
-0.03958011,-1.91916299,-0.19263665,-0.26190135,-0.12767802,0.00000000,0.00000000,0.24013251,2.08199787,0.48539957,0.16255008,-0.26494655,0.00000000,0.00000000
-0.05645317,-1.92395759,-0.18747346,-0.26738462,-0.14145580,0.00000000,0.00000000,0.24523889,2.06220460,0.48396087,0.15507762,-0.25108349,0.00000000,0.00000000
-0.06997849,-1.92907250,-0.18187425,-0.27338618,-0.15488979,0.00000000,0.00000000,0.24989331,2.04292488,0.48253989,0.14814167,-0.23724879,0.00000000,0.00000000
-0.08016485,-1.93418133,-0.17589246,-0.27984276,-0.16717373,0.00000000,0.00000000,0.25348833,2.02458143,0.48111176,0.14175753,-0.22558984,0.00000000,0.00000000
-0.08721273,-1.93887997,-0.16959791,-0.28659075,-0.17957838,0.00000000,0.00000000,0.25576416,2.00751972,0.47968963,0.13598500,-0.21184228,0.00000000,0.00000000
-0.09135676,-1.94270933,-0.16305879,-0.29336086,-0.18737839,0.00000000,0.00000000,0.25664726,1.99202883,0.47830531,0.13090208,-0.19672889,0.00000000,0.00000000
-0.09283238,-1.94521999,-0.15634786,-0.29981112,-0.19495161,0.00000000,0.00000000,0.25618294,1.97834837,0.47699979,0.12659739,-0.18348567,0.00000000,0.00000000
-0.09195933,-1.94606924,-0.14956672,-0.30561024,-0.20288549,0.00000000,0.00000000,0.25452805,1.96663117,0.47582212,0.12315560,-0.17174070,0.00000000,0.00000000
-0.08929987,-1.94509387,-0.14287294,-0.31052160,-0.21449615,0.00000000,0.00000000,0.25195724,1.95694768,0.47482768,0.12066298,-0.15881039,0.00000000,0.00000000
-0.08565027,-1.94229341,-0.13647471,-0.31440791,-0.22517414,0.00000000,0.00000000,0.24880974,1.94924724,0.47407371,0.11917458,-0.14990476,0.00000000,0.00000000
-0.08180455,-1.93783641,-0.13058731,-0.31723475,-0.23586772,0.00000000,0.00000000,0.24536455,1.94336569,0.47360975,0.11868923,-0.14044000,0.00000000,0.00000000
-0.07834659,-1.93202412,-0.12538968,-0.31903961,-0.24886073,0.00000000,0.00000000,0.24177031,1.93909550,0.47347245,0.11916030,-0.13370256,0.00000000,0.00000000
-0.07561266,-1.92525709,-0.12100634,-0.31991449,-0.26171505,0.00000000,0.00000000,0.23806575,1.93623304,0.47368646,0.12051398,-0.12594281,0.00000000,0.00000000
-0.07372488,-1.91801035,-0.11750294,-0.32000303,-0.27310708,0.00000000,0.00000000,0.23422879,1.93458354,0.47426957,0.12265873,-0.11856617,0.00000000,0.00000000
-0.07264169,-1.91077995,-0.11489213,-0.31948468,-0.28259745,0.00000000,0.00000000,0.23021631,1.93395150,0.47523710,0.12548994,-0.10994237,0.00000000,0.00000000
-0.07221945,-1.90401876,-0.11314860,-0.31854630,-0.29357734,0.00000000,0.00000000,0.22599290,1.93413794,0.47660530,0.12890050,-0.10080522,0.00000000,0.00000000
-0.07226182,-1.89808714,-0.11222588,-0.31735292,-0.30417606,0.00000000,0.00000000,0.22153729,1.93496084,0.47839165,0.13279912,-0.09262132,0.00000000,0.00000000
-0.07255320,-1.89323449,-0.11207036,-0.31602824,-0.31680089,0.00000000,0.00000000,0.21683183,1.93627536,0.48061299,0.13712522,-0.08326007,0.00000000,0.00000000
-0.07288996,-1.88957250,-0.11263233,-0.31463274,-0.32840896,0.00000000,0.00000000,0.21185064,1.93796873,0.48328391,0.14184588,-0.07894818,0.00000000,0.00000000
-0.07312527,-1.88705850,-0.11387715,-0.31314820,-0.33641893,0.00000000,0.00000000,0.20655625,1.93994761,0.48641521,0.14694287,-0.07445060,0.00000000,0.00000000
-0.07322099,-1.88550806,-0.11579437,-0.31148991,-0.34492743,0.00000000,0.00000000,0.20091298,1.94213176,0.49001440,0.15240438,-0.07083652,0.00000000,0.00000000
-0.07328751,-1.88463354,-0.11840241,-0.30953497,-0.35626307,0.00000000,0.00000000,0.19490486,1.94446206,0.49408567,0.15822636,-0.07024575,0.00000000,0.00000000
-0.07358948,-1.88410294,-0.12174603,-0.30715880,-0.36892420,0.00000000,0.00000000,0.18852970,1.94692397,0.49862632,0.16441707,-0.07024658,0.00000000,0.00000000
-0.07451173,-1.88362014,-0.12588683,-0.30427739,-0.38038504,0.00000000,0.00000000,0.18177751,1.94956148,0.50362313,0.17099515,-0.06734423,0.00000000,0.00000000
-0.07650252,-1.88300633,-0.13089146,-0.30088726,-0.39016193,0.00000000,0.00000000,0.17463522,1.95243764,0.50905532,0.17797142,-0.06474998,0.00000000,0.00000000
-0.08001237,-1.88222742,-0.13682023,-0.29707998,-0.40113875,0.00000000,0.00000000,0.16711952,1.95555139,0.51490289,0.18532132,-0.06306846,0.00000000,0.00000000
-0.08543606,-1.88138151,-0.14371763,-0.29303482,-0.41435939,0.00000000,0.00000000,0.15930757,1.95879936,0.52115321,0.19298223,-0.06015288,0.00000000,0.00000000
-0.09306214,-1.88064826,-0.15160455,-0.28898978,-0.42773214,0.00000000,0.00000000,0.15134440,1.96200442,0.52780187,0.20088120,-0.05887907,0.00000000,0.00000000
-0.10304967,-1.88019860,-0.16047525,-0.28519925,-0.43956995,0.00000000,0.00000000,0.14344642,1.96495938,0.53485262,0.20896369,-0.05792814,0.00000000,0.00000000
-0.11543825,-1.88007557,-0.17029876,-0.28189394,-0.45014781,0.00000000,0.00000000,0.13591926,1.96743619,0.54232115,0.21720488,-0.05901423,0.00000000,0.00000000
-0.13015755,-1.88010561,-0.18101719,-0.27926287,-0.46039876,0.00000000,0.00000000,0.12915759,1.96917295,0.55023813,0.22560459,-0.05665413,0.00000000,0.00000000
-0.14702187,-1.87990117,-0.19253796,-0.27744815,-0.46699449,0.00000000,0.00000000,0.12358986,1.96989596,0.55864221,0.23418571,-0.05558579,0.00000000,0.00000000
-0.16567829,-1.87905121,-0.20472355,-0.27652612,-0.47259212,0.00000000,0.00000000,0.11955351,1.96941233,0.56755656,0.24300411,-0.05275400,0.00000000,0.00000000
-0.18546791,-1.87745476,-0.21738182,-0.27648360,-0.47802448,0.00000000,0.00000000,0.11712651,1.96769524,0.57695681,0.25214091,-0.05085101,0.00000000,0.00000000
-0.20528629,-1.87538052,-0.23025841,-0.27720392,-0.48430306,0.00000000,0.00000000,0.11599232,1.96497238,0.58673978,0.26169494,-0.05062165,0.00000000,0.00000000
-0.22358169,-1.87329638,-0.24302918,-0.27852964,-0.49166697,0.00000000,0.00000000,0.11542741,1.96181226,0.59670538,0.27180430,-0.05008045,0.00000000,0.00000000
-0.23854326,-1.87169933,-0.25531921,-0.28030458,-0.50004184,0.00000000,0.00000000,0.11464014,1.95912576,0.60659742,0.28274861,-0.04927513,0.00000000,0.00000000
-0.24910179,-1.87171900,-0.26684207,-0.28306690,-0.50672942,0.00000000,0.00000000,0.11339068,1.95803726,0.61620122,0.29511824,-0.04429242,0.00000000,0.00000000
-0.25602472,-1.87544274,-0.27756998,-0.28857714,-0.51067710,0.00000000,0.00000000,0.11179497,1.95790601,0.62552321,0.30851960,-0.04132536,0.00000000,0.00000000
-0.25980428,-1.88252127,-0.28750885,-0.29687825,-0.50887251,0.00000000,0.00000000,0.11008883,1.95531332,0.63489169,0.32051340,-0.03929972,0.00000000,0.00000000
-0.26162332,-1.89281595,-0.29677692,-0.30762240,-0.50728661,0.00000000,0.00000000,0.11008705,1.95231676,0.64434218,0.33204433,-0.03871093,0.00000000,0.00000000
-0.26221102,-1.90436518,-0.30551770,-0.31894878,-0.50635815,0.00000000,0.00000000,0.11313203,1.94967151,0.65398246,0.34379742,-0.03960054,0.00000000,0.00000000
-0.26209214,-1.91396141,-0.31392524,-0.32844988,-0.50519741,0.00000000,0.00000000,0.12012269,1.94742930,0.66392618,0.35616228,-0.04128033,0.00000000,0.00000000
-0.26253113,-1.92043972,-0.32224989,-0.33537754,-0.50451171,0.00000000,0.00000000,0.13113454,1.94628680,0.67407101,0.36955079,-0.04161372,0.00000000,0.00000000
-0.26370662,-1.92431033,-0.33045396,-0.33991128,-0.50372487,0.00000000,0.00000000,0.14474230,1.94639623,0.68411136,0.38351941,-0.03841423,0.00000000,0.00000000
-0.26440257,-1.92657959,-0.33820635,-0.34234059,-0.50353754,0.00000000,0.00000000,0.15887015,1.94702613,0.69373304,0.39693263,-0.03636793,0.00000000,0.00000000
-0.26321930,-1.92801988,-0.34516239,-0.34283909,-0.50361556,0.00000000,0.00000000,0.17250863,1.94720948,0.70285076,0.40891796,-0.03303606,0.00000000,0.00000000
-0.25920758,-1.92910373,-0.35109776,-0.34151882,-0.50346106,0.00000000,0.00000000,0.18600063,1.94646132,0.71157509,0.41933063,-0.03276506,0.00000000,0.00000000
-0.25188440,-1.93014872,-0.35590523,-0.33850884,-0.50582439,0.00000000,0.00000000,0.20030214,1.94507647,0.72003448,0.42864776,-0.03365346,0.00000000,0.00000000
-0.24098849,-1.93146062,-0.35953820,-0.33399895,-0.50799716,0.00000000,0.00000000,0.21611255,1.94390631,0.72823232,0.43755496,-0.03698709,0.00000000,0.00000000
-0.22630025,-1.93351972,-0.36196315,-0.32831362,-0.50870705,0.00000000,0.00000000,0.23362295,1.94379747,0.73607403,0.44657993,-0.04149527,0.00000000,0.00000000
-0.20762442,-1.93706644,-0.36314973,-0.32194874,-0.50877881,0.00000000,0.00000000,0.25270739,1.94525790,0.74345148,0.45599043,-0.04742929,0.00000000,0.00000000
-0.18480636,-1.94298899,-0.36307982,-0.31551081,-0.50801897,0.00000000,0.00000000,0.27306443,1.94840360,0.75028151,0.46579188,-0.05541551,0.00000000,0.00000000
-0.15771757,-1.95207393,-0.36175895,-0.30958417,-0.50750375,0.00000000,0.00000000,0.29420519,1.95302546,0.75649470,0.47571379,-0.06443036,0.00000000,0.00000000
-0.12627599,-1.96480405,-0.35922852,-0.30462271,-0.50531417,0.00000000,0.00000000,0.31534663,1.95888245,0.76196575,0.48528454,-0.07175715,0.00000000,0.00000000
-0.09066559,-1.98127651,-0.35560513,-0.30092084,-0.50162089,0.00000000,0.00000000,0.33543965,1.96602976,0.76645869,0.49399102,-0.08126320,0.00000000,0.00000000
-0.05162073,-2.00120258,-0.35112453,-0.29863784,-0.49671170,0.00000000,0.00000000,0.35355371,1.97467828,0.76973009,0.50137293,-0.09185322,0.00000000,0.00000000
-0.01035690,-2.02330875,-0.34616423,-0.29744989,-0.49144730,0.00000000,0.00000000,0.36936557,1.98463345,0.77175730,0.50698668,-0.10140458,0.00000000,0.00000000
0.03142757,-2.04440951,-0.34129152,-0.29601324,-0.48668456,0.00000000,0.00000000,0.38313451,1.99522972,0.77276140,0.51038092,-0.10944417,0.00000000,0.00000000
0.07227680,-2.06130290,-0.33702010,-0.29291782,-0.48066381,0.00000000,0.00000000,0.39541116,2.00580835,0.77304333,0.51125205,-0.11809320,0.00000000,0.00000000
0.11032895,-2.07266617,-0.33380342,-0.28790382,-0.47471485,0.00000000,0.00000000,0.40728286,2.01635289,0.77290589,0.50999552,-0.12973033,0.00000000,0.00000000
0.14344455,-2.07839799,-0.33204740,-0.28147209,-0.46815887,0.00000000,0.00000000,0.42189527,2.02682161,0.77312970,0.50827837,-0.14480868,0.00000000,0.00000000
0.17072283,-2.07894611,-0.33190441,-0.27418149,-0.45897728,0.00000000,0.00000000,0.44227454,2.03665543,0.77457517,0.50801277,-0.16360040,0.00000000,0.00000000
0.19261222,-2.07475924,-0.33330455,-0.26630834,-0.45048848,0.00000000,0.00000000,0.46648589,2.04512930,0.77701777,0.50904441,-0.18109782,0.00000000,0.00000000
0.20964393,-2.06614256,-0.33617496,-0.25802225,-0.44273415,0.00000000,0.00000000,0.49080685,2.05214739,0.77969342,0.51008111,-0.19926658,0.00000000,0.00000000
0.22183856,-2.05344248,-0.34052098,-0.24961358,-0.43765044,0.00000000,0.00000000,0.51260060,2.05810285,0.78196889,0.51014042,-0.22261350,0.00000000,0.00000000
0.22885221,-2.03719997,-0.34639406,-0.24156249,-0.43540612,0.00000000,0.00000000,0.52992159,2.06339478,0.78335279,0.50848097,-0.24401534,0.00000000,0.00000000
0.23023568,-2.01826215,-0.35385007,-0.23457538,-0.43208435,0.00000000,0.00000000,0.54124492,2.06822705,0.78348047,0.50446367,-0.26567098,0.00000000,0.00000000
0.22556192,-1.99777389,-0.36293396,-0.22957024,-0.43038073,0.00000000,0.00000000,0.54539919,2.07259393,0.78210169,0.49752146,-0.28442985,0.00000000,0.00000000
0.21442863,-1.97706091,-0.37368435,-0.22760460,-0.42809758,0.00000000,0.00000000,0.54144770,2.07633948,0.77904224,0.48711628,-0.30457062,0.00000000,0.00000000
0.19644746,-1.95745158,-0.38614050,-0.22974703,-0.42597482,0.00000000,0.00000000,0.52870041,2.07917666,0.77420181,0.47274888,-0.32139197,0.00000000,0.00000000
0.17127635,-1.94008899,-0.40034229,-0.23692121,-0.42377624,0.00000000,0.00000000,0.50681978,2.08075500,0.76757234,0.45404148,-0.33743748,0.00000000,0.00000000
0.13871390,-1.92582846,-0.41631386,-0.24978603,-0.42124274,0.00000000,0.00000000,0.47575262,2.08095670,0.75919330,0.43080571,-0.35185236,0.00000000,0.00000000
0.09886352,-1.91519690,-0.43402913,-0.26865369,-0.42070311,0.00000000,0.00000000,0.43568084,2.07986212,0.74918312,0.40311012,-0.36899075,0.00000000,0.00000000
0.05229825,-1.90830076,-0.45337996,-0.29337570,-0.42112851,0.00000000,0.00000000,0.38752052,2.07755160,0.73786879,0.37171671,-0.38539180,0.00000000,0.00000000
0.00015795,-1.90478837,-0.47414780,-0.32326832,-0.42254743,0.00000000,0.00000000,0.33245292,2.07365537,0.72572410,0.33733886,-0.40300116,0.00000000,0.00000000
-0.05649671,-1.90437996,-0.49606094,-0.35761574,-0.42230174,0.00000000,0.00000000,0.27314571,2.06774569,0.71342266,0.30118328,-0.41971558,0.00000000,0.00000000
-0.11684044,-1.90739322,-0.51877022,-0.39605710,-0.42413417,0.00000000,0.00000000,0.21393821,2.05992246,0.70174497,0.26531267,-0.43497542,0.00000000,0.00000000
-0.17779246,-1.91375661,-0.54143828,-0.43730286,-0.42616472,0.00000000,0.00000000,0.15496372,2.05128479,0.69075072,0.23054802,-0.45063519,0.00000000,0.00000000
-0.23470050,-1.92261815,-0.56288236,-0.47919506,-0.42828783,0.00000000,0.00000000,0.09396230,2.04299259,0.68022048,0.19681428,-0.46574172,0.00000000,0.00000000
-0.28416944,-1.93253338,-0.58221191,-0.51964557,-0.43118802,0.00000000,0.00000000,0.03039201,2.03564739,0.67019945,0.16444634,-0.48161998,0.00000000,0.00000000
-0.32520500,-1.94211960,-0.59912628,-0.55718958,-0.43152338,0.00000000,0.00000000,-0.03274769,2.02888250,0.66107112,0.13461883,-0.49601591,0.00000000,0.00000000
-0.35869262,-1.95059085,-0.61379427,-0.59105855,-0.43019328,0.00000000,0.00000000,-0.08959251,2.02140927,0.65337533,0.10902565,-0.50558674,0.00000000,0.00000000
-0.38536066,-1.95816696,-0.62625581,-0.62100780,-0.42976764,0.00000000,0.00000000,-0.13648152,2.01227522,0.64737493,0.08862733,-0.51453477,0.00000000,0.00000000
-0.40471113,-1.96538448,-0.63620847,-0.64677489,-0.42975724,0.00000000,0.00000000,-0.17242183,2.00177217,0.64307642,0.07394793,-0.52289885,0.00000000,0.00000000
-0.41591549,-1.97253704,-0.64332098,-0.66802680,-0.43082890,0.00000000,0.00000000,-0.19748122,1.99095464,0.64041585,0.06540342,-0.53137666,0.00000000,0.00000000
-0.41836706,-1.97960103,-0.64737010,-0.68447268,-0.42984730,0.00000000,0.00000000,-0.21232788,1.98074067,0.63933408,0.06303034,-0.54051429,0.00000000,0.00000000
-0.41180021,-1.98632467,-0.64822918,-0.69592416,-0.43046841,0.00000000,0.00000000,-0.21800095,1.97144556,0.63979644,0.06638038,-0.55120331,0.00000000,0.00000000
-0.39632812,-1.99229300,-0.64586377,-0.70230740,-0.42866415,0.00000000,0.00000000,-0.21549702,1.96279347,0.64179921,0.07473741,-0.55845422,0.00000000,0.00000000
-0.37229511,-1.99698246,-0.64031476,-0.70363450,-0.42926151,0.00000000,0.00000000,-0.20557462,1.95401788,0.64537340,0.08730333,-0.56598794,0.00000000,0.00000000
-0.34001476,-1.99983025,-0.63166571,-0.69998080,-0.43072745,0.00000000,0.00000000,-0.18888658,1.94396722,0.65058124,0.10323568,-0.57096940,0.00000000,0.00000000
-0.29982063,-2.00037551,-0.62007380,-0.69153833,-0.43413711,0.00000000,0.00000000,-0.16596672,1.93153310,0.65750432,0.12184300,-0.58165354,0.00000000,0.00000000
-0.25359577,-1.99849522,-0.60623538,-0.67904270,-0.43868774,0.00000000,0.00000000,-0.13674669,1.91616881,0.66624510,0.14295913,-0.58988476,0.00000000,0.00000000
-0.20543471,-1.99427199,-0.59161353,-0.66387904,-0.44452983,0.00000000,0.00000000,-0.10067000,1.89791179,0.67690486,0.16687533,-0.59918797,0.00000000,0.00000000
-0.15673785,-1.98739719,-0.57689130,-0.64653850,-0.44886798,0.00000000,0.00000000,-0.05833208,1.87741435,0.68945456,0.19377221,-0.60965407,0.00000000,0.00000000
-0.10660265,-1.97765517,-0.56197023,-0.62690276,-0.45233956,0.00000000,0.00000000,-0.01124399,1.85605180,0.70370096,0.22382759,-0.61863476,0.00000000,0.00000000
-0.05408100,-1.96531701,-0.54663813,-0.60506243,-0.45489100,0.00000000,0.00000000,0.03857553,1.83565819,0.71928453,0.25720215,-0.62839872,0.00000000,0.00000000
0.00017451,-1.95110524,-0.53109962,-0.58176553,-0.45638514,0.00000000,0.00000000,0.08884627,1.81796217,0.73572260,0.29385352,-0.64009809,0.00000000,0.00000000
0.05333537,-1.93612731,-0.51613915,-0.55855983,-0.45565382,0.00000000,0.00000000,0.13777328,1.80381703,0.75257492,0.33350500,-0.65534717,0.00000000,0.00000000
0.10265392,-1.92148817,-0.50248933,-0.53697562,-0.45598388,0.00000000,0.00000000,0.18423565,1.79318118,0.76950103,0.37574598,-0.67040372,0.00000000,0.00000000
0.14726447,-1.90777707,-0.49040234,-0.51768899,-0.45997894,0.00000000,0.00000000,0.22677307,1.78600800,0.78603482,0.41999435,-0.68695557,0.00000000,0.00000000
0.18695998,-1.89509153,-0.48000586,-0.50088555,-0.46469563,0.00000000,0.00000000,0.26366118,1.78260195,0.80152953,0.46564934,-0.70320064,0.00000000,0.00000000
0.22118890,-1.88339448,-0.47152460,-0.48676902,-0.46945849,0.00000000,0.00000000,0.29330692,1.78339541,0.81522834,0.51213992,-0.72254175,0.00000000,0.00000000
0.24908516,-1.87278104,-0.46522984,-0.47571754,-0.47144267,0.00000000,0.00000000,0.31426540,1.78870153,0.82631111,0.55879611,-0.74131143,0.00000000,0.00000000
0.26972616,-1.86356902,-0.46136260,-0.46826944,-0.47183442,0.00000000,0.00000000,0.32524016,1.79850090,0.83397484,0.60470790,-0.76013458,0.00000000,0.00000000
0.28238145,-1.85619545,-0.46008846,-0.46498445,-0.47353274,0.00000000,0.00000000,0.32533690,1.81216168,0.83762807,0.64868891,-0.77905518,0.00000000,0.00000000
0.28671443,-1.85093701,-0.46148297,-0.46619093,-0.47325915,0.00000000,0.00000000,0.31444892,1.82833326,0.83710665,0.68949747,-0.79883045,0.00000000,0.00000000
0.28277555,-1.84769297,-0.46554703,-0.47181344,-0.47449297,0.00000000,0.00000000,0.29331291,1.84534097,0.83266902,0.72618073,-0.81938016,0.00000000,0.00000000
0.27055237,-1.84602475,-0.47230104,-0.48151073,-0.47806543,0.00000000,0.00000000,0.26429570,1.86153674,0.82520694,0.75845855,-0.83877587,0.00000000,0.00000000
0.24985307,-1.84536493,-0.48179474,-0.49485731,-0.48034543,0.00000000,0.00000000,0.23190118,1.87525237,0.81646043,0.78684020,-0.85765719,0.00000000,0.00000000
0.22170524,-1.84541643,-0.49371451,-0.51118809,-0.48318088,0.00000000,0.00000000,0.19845968,1.88501561,0.80756783,0.81135684,-0.87610418,0.00000000,0.00000000
0.18816353,-1.84624279,-0.50740260,-0.52973747,-0.48821494,0.00000000,0.00000000,0.16403969,1.88974404,0.79888427,0.83153677,-0.89380366,0.00000000,0.00000000
0.15133300,-1.84828722,-0.52208889,-0.54993933,-0.49569628,0.00000000,0.00000000,0.12868649,1.88986945,0.79024792,0.84849519,-0.91095269,0.00000000,0.00000000
0.11287114,-1.85187948,-0.53709692,-0.57126117,-0.50608265,0.00000000,0.00000000,0.09259795,1.88769209,0.78089845,0.86501294,-0.92465180,0.00000000,0.00000000
0.07406164,-1.85723865,-0.55183226,-0.59315318,-0.51415402,0.00000000,0.00000000,0.05535977,1.88074183,0.77141213,0.87844974,-0.93948722,0.00000000,0.00000000
0.03619220,-1.86423934,-0.56573403,-0.61482543,-0.52450889,0.00000000,0.00000000,0.01687801,1.86769903,0.76209557,0.88725215,-0.95483905,0.00000000,0.00000000
0.00056188,-1.87218380,-0.57833952,-0.63514638,-0.53505236,0.00000000,0.00000000,-0.02097622,1.84928143,0.75335729,0.89245486,-0.96969831,0.00000000,0.00000000
-0.03176114,-1.87991679,-0.58936942,-0.65283793,-0.54458052,0.00000000,0.00000000,-0.05665296,1.82608294,0.74554753,0.89504403,-0.98434752,0.00000000,0.00000000
-0.05985076,-1.88621557,-0.59865057,-0.66675490,-0.55560702,0.00000000,0.00000000,-0.09160167,1.79762053,0.73818851,0.89435315,-1.00097990,0.00000000,0.00000000
-0.08296214,-1.89010417,-0.60607761,-0.67607415,-0.56877732,0.00000000,0.00000000,-0.12870051,1.76255977,0.73050523,0.88885748,-1.02201128,0.00000000,0.00000000
-0.10048142,-1.89091301,-0.61157936,-0.68029392,-0.58180887,0.00000000,0.00000000,-0.17079686,1.71915662,0.72185802,0.87703735,-1.04138565,0.00000000,0.00000000
-0.11193486,-1.88838100,-0.61508101,-0.67922974,-0.59433740,0.00000000,0.00000000,-0.22012989,1.66572976,0.71183228,0.85780340,-1.05981195,0.00000000,0.00000000
-0.11710785,-1.88285303,-0.61647826,-0.67306900,-0.60914546,0.00000000,0.00000000,-0.27804598,1.60101223,0.70025837,0.83061993,-1.07411420,0.00000000,0.00000000
-0.11607762,-1.87538064,-0.61562431,-0.66242570,-0.62541401,0.00000000,0.00000000,-0.34518319,1.52417564,0.68713695,0.79530978,-1.08831668,0.00000000,0.00000000
-0.10923219,-1.86758900,-0.61237228,-0.64835942,-0.63991308,0.00000000,0.00000000,-0.42180437,1.43479490,0.67251462,0.75187552,-1.10192025,0.00000000,0.00000000
-0.09704989,-1.86119032,-0.60661280,-0.63214856,-0.65350175,0.00000000,0.00000000,-0.50797546,1.33296108,0.65638471,0.70047736,-1.11544693,0.00000000,0.00000000
-0.07957654,-1.85710478,-0.59828979,-0.61464405,-0.66583407,0.00000000,0.00000000,-0.60355175,1.21942937,0.63865882,0.64148271,-1.12507141,0.00000000,0.00000000
-0.05678677,-1.85531580,-0.58753246,-0.59606075,-0.67905354,0.00000000,0.00000000,-0.70795190,1.09548318,0.61927092,0.57544822,-1.13519919,0.00000000,0.00000000
-0.02929447,-1.85487878,-0.57484525,-0.57600272,-0.69401616,0.00000000,0.00000000,-0.82001621,0.96277815,0.59825194,0.50309664,-1.14474213,0.00000000,0.00000000
0.00149968,-1.85431063,-0.56106633,-0.55380303,-0.70641351,0.00000000,0.00000000,-0.93804401,0.82330984,0.57573587,0.42533019,-1.15471423,0.00000000,0.00000000
0.03364266,-1.85270786,-0.54708934,-0.52926314,-0.71750778,0.00000000,0.00000000,-1.05988753,0.67936248,0.55195796,0.34322983,-1.16525638,0.00000000,0.00000000
0.06498580,-1.84996772,-0.53367746,-0.50283027,-0.72802287,0.00000000,0.00000000,-1.18307078,0.53340995,0.52725762,0.25802764,-1.17711806,0.00000000,0.00000000
0.09376172,-1.84660721,-0.52131426,-0.47541389,-0.73683178,0.00000000,0.00000000,-1.30493641,0.38801259,0.50207853,0.17105462,-1.18913352,0.00000000,0.00000000
0.11906941,-1.84343827,-0.51013970,-0.44807121,-0.74383992,0.00000000,0.00000000,-1.42281425,0.24569802,0.47695607,0.08366934,-1.19983411,0.00000000,0.00000000
0.14079571,-1.84142721,-0.50005043,-0.42186874,-0.75064880,0.00000000,0.00000000,-1.53419006,0.10881672,0.45249379,-0.00282558,-1.20949674,0.00000000,0.00000000
0.15918569,-1.84146047,-0.49089074,-0.39776736,-0.75785375,0.00000000,0.00000000,-1.63684678,-0.02058132,0.42933133,-0.08725870,-1.21655619,0.00000000,0.00000000
0.17440513,-1.84428489,-0.48257473,-0.37664145,-0.76444429,0.00000000,0.00000000,-1.72896564,-0.14082016,0.40811053,-0.16863737,-1.22249854,0.00000000,0.00000000
0.18701540,-1.85029411,-0.47499809,-0.35904133,-0.77222210,0.00000000,0.00000000,-1.80919147,-0.25061449,0.38944215,-0.24615593,-1.22856057,0.00000000,0.00000000
0.19809292,-1.86001170,-0.46795499,-0.34553474,-0.77818376,0.00000000,0.00000000,-1.87668622,-0.34903955,0.37387189,-0.31916824,-1.23490858,0.00000000,0.00000000
0.20674346,-1.87485552,-0.46155584,-0.33792695,-0.78381991,0.00000000,0.00000000,-1.93122256,-0.43549946,0.36183113,-0.38713878,-1.24349523,0.00000000,0.00000000
0.21514116,-1.89278364,-0.45559439,-0.33506846,-0.78811222,0.00000000,0.00000000,-1.97340930,-0.50979364,0.35353360,-0.44958964,-1.24866998,0.00000000,0.00000000
0.22356226,-1.91124475,-0.45024514,-0.33521518,-0.79245555,0.00000000,0.00000000,-2.00503278,-0.57232279,0.34878761,-0.50611794,-1.25279200,0.00000000,0.00000000
0.23005326,-1.92680418,-0.44615144,-0.33630997,-0.79863876,0.00000000,0.00000000,-2.02927446,-0.62424183,0.34680298,-0.55647451,-1.25759876,0.00000000,0.00000000
0.23216070,-1.93747401,-0.44391033,-0.33757117,-0.80485290,0.00000000,0.00000000,-2.04993248,-0.66725063,0.34633067,-0.60070020,-1.26353002,0.00000000,0.00000000
0.22952946,-1.94399059,-0.44348782,-0.33980057,-0.80908841,0.00000000,0.00000000,-2.07020473,-0.70299250,0.34609666,-0.63905871,-1.26902246,0.00000000,0.00000000
0.22293353,-1.94675779,-0.44466060,-0.34347266,-0.81500405,0.00000000,0.00000000,-2.09214664,-0.73257822,0.34512347,-0.67180800,-1.27534747,0.00000000,0.00000000
0.21255258,-1.94595909,-0.44733807,-0.34885490,-0.82077742,0.00000000,0.00000000,-2.11683369,-0.75656885,0.34278536,-0.69908154,-1.28237295,0.00000000,0.00000000
0.19888212,-1.94192755,-0.45135927,-0.35602307,-0.82646126,0.00000000,0.00000000,-2.14453220,-0.77511746,0.33880961,-0.72087300,-1.29068339,0.00000000,0.00000000
0.18284234,-1.93502700,-0.45647359,-0.36482787,-0.83047789,0.00000000,0.00000000,-2.17484832,-0.78811157,0.33325604,-0.73706645,-1.30051339,0.00000000,0.00000000
0.16556089,-1.92629254,-0.46231028,-0.37497979,-0.83481103,0.00000000,0.00000000,-2.20687652,-0.79533541,0.32646593,-0.74750882,-1.31185865,0.00000000,0.00000000
0.14795725,-1.91638875,-0.46855360,-0.38530698,-0.83881378,0.00000000,0.00000000,-2.23934889,-0.79673564,0.31897116,-0.75215602,-1.31889355,0.00000000,0.00000000
0.13094954,-1.90419173,-0.47505304,-0.39395288,-0.84297884,0.00000000,0.00000000,-2.27082014,-0.79271609,0.31135920,-0.75124413,-1.32896233,0.00000000,0.00000000
0.11492591,-1.89087582,-0.48155251,-0.40114176,-0.84789473,0.00000000,0.00000000,-2.29979753,-0.78417242,0.30419329,-0.74534392,-1.33543694,0.00000000,0.00000000
0.09987299,-1.87743175,-0.48790666,-0.40730214,-0.85712200,0.00000000,0.00000000,-2.32481456,-0.77232713,0.29798535,-0.73530495,-1.34408534,0.00000000,0.00000000
0.08570889,-1.86411214,-0.49406850,-0.41248879,-0.86595261,0.00000000,0.00000000,-2.34462714,-0.75838423,0.29314700,-0.72205275,-1.35242867,0.00000000,0.00000000
0.07239126,-1.85115159,-0.49999681,-0.41674882,-0.87734753,0.00000000,0.00000000,-2.35839415,-0.74325269,0.28994101,-0.70638841,-1.35706365,0.00000000,0.00000000
0.05992783,-1.83887768,-0.50564069,-0.42018017,-0.88974458,0.00000000,0.00000000,-2.36565661,-0.72751456,0.28849557,-0.68894958,-1.36253369,0.00000000,0.00000000
0.04837595,-1.82774413,-0.51093239,-0.42295417,-0.90516323,0.00000000,0.00000000,-2.36624193,-0.71154314,0.28883818,-0.67027134,-1.36861026,0.00000000,0.00000000
0.03780227,-1.81838393,-0.51578635,-0.42535993,-0.91901040,0.00000000,0.00000000,-2.36025095,-0.69565690,0.29089329,-0.65084839,-1.37183952,0.00000000,0.00000000
0.02825620,-1.81153762,-0.52010876,-0.42777002,-0.93289024,0.00000000,0.00000000,-2.34798002,-0.68017209,0.29451868,-0.63114399,-1.37404823,0.00000000,0.00000000
0.01980782,-1.80783570,-0.52381247,-0.43050361,-0.94504941,0.00000000,0.00000000,-2.32975221,-0.66531259,0.29958713,-0.61153841,-1.37610960,0.00000000,0.00000000
0.01260169,-1.80765796,-0.52682030,-0.43373150,-0.95717961,0.00000000,0.00000000,-2.30589414,-0.65113127,0.30600369,-0.59228134,-1.37691653,0.00000000,0.00000000
0.00685055,-1.81113911,-0.52906609,-0.43748254,-0.96937227,0.00000000,0.00000000,-2.27688026,-0.63753825,0.31365064,-0.57349211,-1.37618184,0.00000000,0.00000000
0.00276960,-1.81820703,-0.53050476,-0.44168228,-0.98188877,0.00000000,0.00000000,-2.24348092,-0.62436384,0.32233524,-0.55517697,-1.37312424,0.00000000,0.00000000
0.00054019,-1.82854462,-0.53112674,-0.44612983,-0.99634671,0.00000000,0.00000000,-2.20690966,-0.61135405,0.33175212,-0.53720027,-1.37176561,0.00000000,0.00000000
0.00037108,-1.84146726,-0.53095949,-0.45040247,-1.01229453,0.00000000,0.00000000,-2.16908383,-0.59820807,0.34141299,-0.51927292,-1.36960924,0.00000000,0.00000000
0.00255909,-1.85594189,-0.53005397,-0.45385489,-1.02589965,0.00000000,0.00000000,-2.13335514,-0.58466363,0.35045183,-0.50104207,-1.36851025,0.00000000,0.00000000
0.00755242,-1.87070644,-0.52845764,-0.45569366,-1.04088390,0.00000000,0.00000000,-2.10384846,-0.57125753,0.35776526,-0.48302391,-1.36512446,0.00000000,0.00000000
0.01625187,-1.88427925,-0.52614385,-0.45493564,-1.05472529,0.00000000,0.00000000,-2.08172131,-0.56014621,0.36297649,-0.46746212,-1.36204028,0.00000000,0.00000000
0.02913811,-1.89558434,-0.52314693,-0.45102650,-1.06848276,0.00000000,0.00000000,-2.06680059,-0.55175990,0.36625221,-0.45516035,-1.36031735,0.00000000,0.00000000
0.04565385,-1.90460515,-0.51963103,-0.44447696,-1.07935834,0.00000000,0.00000000,-2.05913806,-0.54594618,0.36772880,-0.44611934,-1.35964334,0.00000000,0.00000000
0.06440600,-1.91171741,-0.51592034,-0.43647468,-1.09125638,0.00000000,0.00000000,-2.05879974,-0.54284382,0.36747435,-0.44043729,-1.35845268,0.00000000,0.00000000
0.08416006,-1.91670549,-0.51237333,-0.42781568,-1.10147679,0.00000000,0.00000000,-2.06563640,-0.54268342,0.36556107,-0.43830442,-1.35668361,0.00000000,0.00000000
0.10436354,-1.91936707,-0.50917876,-0.41896328,-1.10928977,0.00000000,0.00000000,-2.07920074,-0.54570830,0.36208597,-0.43996793,-1.35412681,0.00000000,0.00000000
0.12483028,-1.91970372,-0.50640815,-0.41026330,-1.11508679,0.00000000,0.00000000,-2.09880519,-0.55225658,0.35714686,-0.44572857,-1.35210502,0.00000000,0.00000000
0.14490303,-1.91773212,-0.50422770,-0.40215763,-1.12154377,0.00000000,0.00000000,-2.12389565,-0.56307280,0.35072425,-0.45596296,-1.35113442,0.00000000,0.00000000
0.16263011,-1.91374409,-0.50304210,-0.39558390,-1.12582290,0.00000000,0.00000000,-2.15473866,-0.57864803,0.34257311,-0.47028178,-1.35143435,0.00000000,0.00000000
0.17613745,-1.90847242,-0.50317425,-0.39162353,-1.13207030,0.00000000,0.00000000,-2.19095874,-0.59744436,0.33278999,-0.48654312,-1.35156274,0.00000000,0.00000000
0.18593548,-1.90259182,-0.50443411,-0.39055619,-1.14218020,0.00000000,0.00000000,-2.22873688,-0.61754769,0.32244915,-0.50331819,-1.35025358,0.00000000,0.00000000
0.19244699,-1.89689076,-0.50664353,-0.39268607,-1.15147972,0.00000000,0.00000000,-2.26519561,-0.63804495,0.31231889,-0.52012169,-1.34760356,0.00000000,0.00000000
0.19515628,-1.89297307,-0.50974518,-0.39894691,-1.16004729,0.00000000,0.00000000,-2.29904532,-0.65844977,0.30272487,-0.53658706,-1.34250546,0.00000000,0.00000000
0.19437253,-1.89057350,-0.51370239,-0.40907198,-1.16926205,0.00000000,0.00000000,-2.32974839,-0.67828947,0.29379639,-0.55225295,-1.33936644,0.00000000,0.00000000
0.19037953,-1.88959813,-0.51846153,-0.42270052,-1.17990518,0.00000000,0.00000000,-2.35706472,-0.69682491,0.28561756,-0.56648409,-1.33526957,0.00000000,0.00000000
0.18344012,-1.88884664,-0.52408695,-0.43875656,-1.19182992,0.00000000,0.00000000,-2.38076568,-0.71327376,0.27828786,-0.57864797,-1.33020997,0.00000000,0.00000000
0.17372027,-1.88840508,-0.53051054,-0.45653856,-1.20589101,0.00000000,0.00000000,-2.40044117,-0.72684282,0.27198529,-0.58816147,-1.32343173,0.00000000,0.00000000
0.16202514,-1.88715613,-0.53765404,-0.47460198,-1.22084486,0.00000000,0.00000000,-2.41547394,-0.73691541,0.26696044,-0.59459466,-1.31797838,0.00000000,0.00000000
0.14904991,-1.88480508,-0.54534006,-0.49222240,-1.23723996,0.00000000,0.00000000,-2.42507601,-0.74300426,0.26352921,-0.59765053,-1.31334877,0.00000000,0.00000000
0.13566208,-1.88199413,-0.55320895,-0.50930852,-1.25406849,0.00000000,0.00000000,-2.42842698,-0.74482208,0.26201320,-0.59719729,-1.30988216,0.00000000,0.00000000
0.12272248,-1.87925303,-0.56089610,-0.52581596,-1.27020776,0.00000000,0.00000000,-2.42481947,-0.74232584,0.26267302,-0.59327787,-1.30696118,0.00000000,0.00000000
0.11088935,-1.87685776,-0.56811124,-0.54164445,-1.28584599,0.00000000,0.00000000,-2.41379213,-0.73564577,0.26566231,-0.58605087,-1.30329859,0.00000000,0.00000000
0.10059047,-1.87486899,-0.57465672,-0.55663252,-1.30170321,0.00000000,0.00000000,-2.39528108,-0.72501642,0.27097851,-0.57572663,-1.30009580,0.00000000,0.00000000
0.09199864,-1.87316835,-0.58044004,-0.57058340,-1.31699681,0.00000000,0.00000000,-2.36983061,-0.71074885,0.27840185,-0.56251997,-1.29489672,0.00000000,0.00000000
0.08509463,-1.87159491,-0.58544099,-0.58333284,-1.33251739,0.00000000,0.00000000,-2.33875847,-0.69321197,0.28746092,-0.54661798,-1.28905344,0.00000000,0.00000000
0.07977678,-1.86997235,-0.58967936,-0.59474707,-1.34818947,0.00000000,0.00000000,-2.30413413,-0.67281514,0.29747233,-0.52817827,-1.28389990,0.00000000,0.00000000
0.07590064,-1.86809897,-0.59320658,-0.60471386,-1.36167276,0.00000000,0.00000000,-2.26870394,-0.65009075,0.30759320,-0.50739533,-1.27775753,0.00000000,0.00000000
0.07320458,-1.86577678,-0.59612328,-0.61318046,-1.37636518,0.00000000,0.00000000,-2.23608088,-0.62603080,0.31677261,-0.48472881,-1.27037430,0.00000000,0.00000000
0.07140218,-1.86283660,-0.59854406,-0.62014276,-1.39190173,0.00000000,0.00000000,-2.21009731,-0.60271400,0.32390389,-0.46163145,-1.26590836,0.00000000,0.00000000
0.07087394,-1.85907328,-0.60039580,-0.62541795,-1.40663683,0.00000000,0.00000000,-2.19200182,-0.58271277,0.32862827,-0.44066468,-1.26294827,0.00000000,0.00000000
0.07253788,-1.85428989,-0.60144502,-0.62870562,-1.42096686,0.00000000,0.00000000,-2.18054461,-0.56682003,0.33141372,-0.42331794,-1.25974143,0.00000000,0.00000000
0.07700986,-1.84846938,-0.60152417,-0.62990510,-1.43577492,0.00000000,0.00000000,-2.17456269,-0.55491847,0.33273664,-0.41007304,-1.25751710,0.00000000,0.00000000
0.08450232,-1.84180367,-0.60055751,-0.62914991,-1.44754386,0.00000000,0.00000000,-2.17347646,-0.54696107,0.33286223,-0.40116316,-1.25156808,0.00000000,0.00000000
0.09497843,-1.83462942,-0.59852540,-0.62672687,-1.46045446,0.00000000,0.00000000,-2.17696977,-0.54305285,0.33192280,-0.39675590,-1.24781966,0.00000000,0.00000000
0.10823345,-1.82731462,-0.59545994,-0.62298620,-1.47071266,0.00000000,0.00000000,-2.18479872,-0.54337829,0.32997131,-0.39696768,-1.24582946,0.00000000,0.00000000
0.12390877,-1.82017863,-0.59145409,-0.61829227,-1.48024702,0.00000000,0.00000000,-2.19673204,-0.54817480,0.32700393,-0.40187290,-1.24336600,0.00000000,0.00000000
0.14130910,-1.81350052,-0.58671522,-0.61308193,-1.49189770,0.00000000,0.00000000,-2.21276569,-0.55786920,0.32290763,-0.41153684,-1.24188328,0.00000000,0.00000000
0.15888098,-1.80756724,-0.58171988,-0.60806346,-1.50372672,0.00000000,0.00000000,-2.23392582,-0.57301080,0.31727648,-0.42568910,-1.24149930,0.00000000,0.00000000
0.17448115,-1.80259955,-0.57714230,-0.60410786,-1.51176417,0.00000000,0.00000000,-2.26162457,-0.59291923,0.30967399,-0.44273016,-1.24147463,0.00000000,0.00000000
0.18736261,-1.79843485,-0.57328731,-0.60142714,-1.51798558,0.00000000,0.00000000,-2.29393053,-0.61501557,0.30062428,-0.46026874,-1.23847950,0.00000000,0.00000000
0.19745231,-1.79484820,-0.57025874,-0.59998441,-1.52598739,0.00000000,0.00000000,-2.32814956,-0.63754791,0.29081127,-0.47705176,-1.23150241,0.00000000,0.00000000
0.20465031,-1.79181612,-0.56812835,-0.59986693,-1.53015697,0.00000000,0.00000000,-2.36249948,-0.65968251,0.28065878,-0.49251020,-1.22408867,0.00000000,0.00000000
0.20898288,-1.78944707,-0.56689602,-0.60118628,-1.53576756,0.00000000,0.00000000,-2.39560270,-0.68067962,0.27051693,-0.50610745,-1.21967328,0.00000000,0.00000000
0.21070443,-1.78777182,-0.56649178,-0.60391039,-1.53883553,0.00000000,0.00000000,-2.42605686,-0.69965529,0.26079395,-0.51724643,-1.22078586,0.00000000,0.00000000
0.21025151,-1.78665650,-0.56680626,-0.60782486,-1.54157364,0.00000000,0.00000000,-2.45235038,-0.71565765,0.25197223,-0.52534014,-1.22092807,0.00000000,0.00000000
0.20810568,-1.78592479,-0.56771356,-0.61265737,-1.54364729,0.00000000,0.00000000,-2.47297716,-0.72787905,0.24454919,-0.52993226,-1.22069240,0.00000000,0.00000000
0.20469734,-1.78544247,-0.56908852,-0.61816508,-1.54288006,0.00000000,0.00000000,-2.48657775,-0.73579621,0.23897228,-0.53076077,-1.22022295,0.00000000,0.00000000
0.20043880,-1.78505826,-0.57080758,-0.62409091,-1.53960979,0.00000000,0.00000000,-2.49197888,-0.73913282,0.23561655,-0.52773076,-1.21883106,0.00000000,0.00000000
0.19573724,-1.78459287,-0.57274806,-0.63015598,-1.53361440,0.00000000,0.00000000,-2.48828363,-0.73780668,0.23475040,-0.52087134,-1.22141957,0.00000000,0.00000000
0.19088964,-1.78397703,-0.57479900,-0.63617772,-1.52855098,0.00000000,0.00000000,-2.47508883,-0.73198307,0.23645835,-0.51033378,-1.22529781,0.00000000,0.00000000
0.18600628,-1.78329396,-0.57688099,-0.64211690,-1.52232635,0.00000000,0.00000000,-2.45269060,-0.72209281,0.24058130,-0.49637225,-1.22988212,0.00000000,0.00000000
0.18106584,-1.78266168,-0.57895076,-0.64798963,-1.51936173,0.00000000,0.00000000,-2.42221236,-0.70870507,0.24670626,-0.47926116,-1.23436081,0.00000000,0.00000000
0.17600116,-1.78213036,-0.58099347,-0.65377986,-1.51958120,0.00000000,0.00000000,-2.38576365,-0.69241536,0.25416139,-0.45922402,-1.23927104,0.00000000,0.00000000
0.17068769,-1.78169370,-0.58302665,-0.65945816,-1.52238929,0.00000000,0.00000000,-2.34665704,-0.67396080,0.26199639,-0.43650216,-1.24293053,0.00000000,0.00000000
0.16491838,-1.78133297,-0.58510244,-0.66502118,-1.52178359,0.00000000,0.00000000,-2.30936670,-0.65454787,0.26903370,-0.41161731,-1.24537587,0.00000000,0.00000000
0.15855658,-1.78101647,-0.58725721,-0.67045122,-1.52272236,0.00000000,0.00000000,-2.27852702,-0.63617319,0.27414480,-0.38582253,-1.24800777,0.00000000,0.00000000
0.15203519,-1.78061914,-0.58935547,-0.67552465,-1.52026868,0.00000000,0.00000000,-2.25649929,-0.62091041,0.27685502,-0.36098111,-1.25064588,0.00000000,0.00000000
0.14631943,-1.77992845,-0.59110171,-0.67983305,-1.51864541,0.00000000,0.00000000,-2.24279475,-0.60948676,0.27746186,-0.33837226,-1.25406694,0.00000000,0.00000000
0.14219628,-1.77878940,-0.59225488,-0.68307340,-1.51695132,0.00000000,0.00000000,-2.23630500,-0.60179245,0.27642167,-0.31853855,-1.25758123,0.00000000,0.00000000
0.14011842,-1.77713871,-0.59267586,-0.68510419,-1.51810980,0.00000000,0.00000000,-2.23624921,-0.59763670,0.27407625,-0.30172166,-1.26206350,0.00000000,0.00000000
0.14032151,-1.77500284,-0.59228754,-0.68590289,-1.51819158,0.00000000,0.00000000,-2.24205947,-0.59691685,0.27066898,-0.28806293,-1.26710117,0.00000000,0.00000000
0.14288980,-1.77249432,-0.59105134,-0.68554240,-1.51434398,0.00000000,0.00000000,-2.25322890,-0.59960490,0.26637638,-0.27764785,-1.27339566,0.00000000,0.00000000
0.14776407,-1.76976466,-0.58897454,-0.68415946,-1.50929558,0.00000000,0.00000000,-2.26924753,-0.60571718,0.26132515,-0.27051726,-1.27690673,0.00000000,0.00000000
0.15471491,-1.76696277,-0.58612728,-0.68193716,-1.50567210,0.00000000,0.00000000,-2.28957987,-0.61531377,0.25560135,-0.26668808,-1.28082061,0.00000000,0.00000000
0.16333975,-1.76422977,-0.58264494,-0.67910290,-1.50134027,0.00000000,0.00000000,-2.31368327,-0.62851542,0.24925557,-0.26617941,-1.28294051,0.00000000,0.00000000
0.17309479,-1.76167917,-0.57871968,-0.67590851,-1.49881828,0.00000000,0.00000000,-2.34107876,-0.64550984,0.24229988,-0.26901796,-1.28770840,0.00000000,0.00000000
0.18330967,-1.75933778,-0.57460684,-0.67259133,-1.49683011,0.00000000,0.00000000,-2.37146044,-0.66660255,0.23469484,-0.27525494,-1.29241252,0.00000000,0.00000000
0.19308250,-1.75719321,-0.57065052,-0.66944033,-1.49706626,0.00000000,0.00000000,-2.40501618,-0.69237989,0.22629531,-0.28499159,-1.29886281,0.00000000,0.00000000
0.20121351,-1.75532210,-0.56728089,-0.66690677,-1.49559033,0.00000000,0.00000000,-2.44238687,-0.72190601,0.21693034,-0.29704988,-1.30344594,0.00000000,0.00000000
0.20663786,-1.75383127,-0.56487584,-0.66544247,-1.49785483,0.00000000,0.00000000,-2.48257470,-0.75085270,0.20684639,-0.30794057,-1.30657089,0.00000000,0.00000000
0.20872298,-1.75264907,-0.56369841,-0.66527510,-1.50016999,0.00000000,0.00000000,-2.52280903,-0.77734154,0.19654348,-0.31616321,-1.31114948,0.00000000,0.00000000
0.20707156,-1.75158715,-0.56395227,-0.66649419,-1.49731576,0.00000000,0.00000000,-2.56057215,-0.80009121,0.18650658,-0.32094583,-1.31451750,0.00000000,0.00000000
0.20188844,-1.75050235,-0.56562227,-0.66902053,-1.49387693,0.00000000,0.00000000,-2.59368682,-0.81785095,0.17719603,-0.32181698,-1.31850374,0.00000000,0.00000000
0.19440076,-1.74935925,-0.56831187,-0.67250413,-1.48968339,0.00000000,0.00000000,-2.62068129,-0.83050722,0.16891211,-0.31928414,-1.31906497,0.00000000,0.00000000
0.18600819,-1.74806654,-0.57156581,-0.67650092,-1.48293746,0.00000000,0.00000000,-2.63910055,-0.83788496,0.16214891,-0.31399769,-1.32032263,0.00000000,0.00000000
0.17768003,-1.74657178,-0.57506102,-0.68071491,-1.47518921,0.00000000,0.00000000,-2.64766335,-0.84034199,0.15714358,-0.30646887,-1.32109094,0.00000000,0.00000000
0.16969760,-1.74508142,-0.57865292,-0.68519449,-1.46265721,0.00000000,0.00000000,-2.64657021,-0.83774775,0.15384392,-0.29656145,-1.32101917,0.00000000,0.00000000
0.16202632,-1.74388206,-0.58228028,-0.69010836,-1.44801390,0.00000000,0.00000000,-2.63679647,-0.83032638,0.15202755,-0.28432667,-1.32281971,0.00000000,0.00000000
0.15456779,-1.74319601,-0.58590645,-0.69558132,-1.43356633,0.00000000,0.00000000,-2.61990261,-0.81893307,0.15135162,-0.27022064,-1.32312071,0.00000000,0.00000000
0.14724845,-1.74314010,-0.58949941,-0.70164746,-1.41668773,0.00000000,0.00000000,-2.59780669,-0.80464393,0.15143403,-0.25483328,-1.32265437,0.00000000,0.00000000
0.14010102,-1.74374688,-0.59300363,-0.70825011,-1.39920700,0.00000000,0.00000000,-2.57244563,-0.78851885,0.15193503,-0.23874597,-1.32051516,0.00000000,0.00000000
0.13323961,-1.74498200,-0.59635073,-0.71527576,-1.38115454,0.00000000,0.00000000,-2.54557085,-0.77154088,0.15259317,-0.22250713,-1.31504667,0.00000000,0.00000000
0.12679031,-1.74673295,-0.59948844,-0.72257096,-1.36251807,0.00000000,0.00000000,-2.51872063,-0.75462991,0.15321918,-0.20664631,-1.30915940,0.00000000,0.00000000
0.12090327,-1.74883568,-0.60236943,-0.72995216,-1.34345067,0.00000000,0.00000000,-2.49321318,-0.73859894,0.15368614,-0.19164488,-1.30524087,0.00000000,0.00000000
0.11579401,-1.75115442,-0.60491860,-0.73724002,-1.32474673,0.00000000,0.00000000,-2.47010922,-0.72410542,0.15392384,-0.17790256,-1.30283606,0.00000000,0.00000000
0.11170159,-1.75361204,-0.60704291,-0.74429166,-1.30729413,0.00000000,0.00000000,-2.45022941,-0.71167290,0.15390347,-0.16573763,-1.30090749,0.00000000,0.00000000
0.10878420,-1.75614429,-0.60868138,-0.75100267,-1.28930950,0.00000000,0.00000000,-2.43421674,-0.70174730,0.15361795,-0.15541650,-1.29888177,0.00000000,0.00000000
0.10701597,-1.75862706,-0.60986143,-0.75728816,-1.27506137,0.00000000,0.00000000,-2.42258596,-0.69473732,0.15306823,-0.14718227,-1.29893672,0.00000000,0.00000000
0.10622236,-1.76087165,-0.61068541,-0.76306188,-1.25606513,0.00000000,0.00000000,-2.41573238,-0.69099295,0.15225701,-0.14123882,-1.29992521,0.00000000,0.00000000
0.10619225,-1.76270187,-0.61126733,-0.76824605,-1.23680902,0.00000000,0.00000000,-2.41391635,-0.69076031,0.15118736,-0.13771299,-1.29921198,0.00000000,0.00000000
0.10669393,-1.76398802,-0.61172032,-0.77279299,-1.21839261,0.00000000,0.00000000,-2.41723490,-0.69417113,0.14986229,-0.13664944,-1.29547596,0.00000000,0.00000000
0.10742527,-1.76466286,-0.61217618,-0.77672374,-1.20064378,0.00000000,0.00000000,-2.42557812,-0.70126092,0.14828703,-0.13803568,-1.29510701,0.00000000,0.00000000
0.10799730,-1.76476002,-0.61278659,-0.78017157,-1.18165803,0.00000000,0.00000000,-2.43859529,-0.71198261,0.14647292,-0.14182422,-1.29327452,0.00000000,0.00000000
0.10796991,-1.76441538,-0.61370981,-0.78337866,-1.16791475,0.00000000,0.00000000,-2.45566559,-0.72617030,0.14444260,-0.14791170,-1.29317272,0.00000000,0.00000000
0.10694595,-1.76380873,-0.61508632,-0.78662717,-1.15227795,0.00000000,0.00000000,-2.47591186,-0.74343705,0.14223419,-0.15606374,-1.29118049,0.00000000,0.00000000
0.10467403,-1.76310277,-0.61700767,-0.79015750,-1.13640642,0.00000000,0.00000000,-2.49828386,-0.76308227,0.13990101,-0.16584776,-1.28600609,0.00000000,0.00000000
0.10112345,-1.76241708,-0.61948669,-0.79410988,-1.12206531,0.00000000,0.00000000,-2.52163553,-0.78406870,0.13751416,-0.17662735,-1.28258300,0.00000000,0.00000000
0.09649618,-1.76185668,-0.62243831,-0.79852390,-1.10489738,0.00000000,0.00000000,-2.54469037,-0.80509889,0.13517570,-0.18762259,-1.28127348,0.00000000,0.00000000
0.09120982,-1.76151919,-0.62568223,-0.80334830,-1.08512831,0.00000000,0.00000000,-2.56590056,-0.82468313,0.13304457,-0.19795561,-1.28038073,0.00000000,0.00000000
0.08590331,-1.76139927,-0.62896818,-0.80839109,-1.06910276,0.00000000,0.00000000,-2.58341455,-0.84108269,0.13134971,-0.20660868,-1.27700591,0.00000000,0.00000000
0.08135562,-1.76134980,-0.63201886,-0.81332475,-1.05480540,0.00000000,0.00000000,-2.59526420,-0.85243458,0.13036707,-0.21249276,-1.27665329,0.00000000,0.00000000
0.07825017,-1.76120806,-0.63458574,-0.81782866,-1.04033983,0.00000000,0.00000000,-2.59973049,-0.85731000,0.13035616,-0.21478726,-1.27930057,0.00000000,0.00000000
0.07697736,-1.76091075,-0.63649410,-0.82171059,-1.02590585,0.00000000,0.00000000,-2.59578705,-0.85528570,0.13147756,-0.21329574,-1.28108740,0.00000000,0.00000000
0.07763641,-1.76049066,-0.63764781,-0.82490271,-1.01098871,0.00000000,0.00000000,-2.58332849,-0.84700364,0.13375194,-0.20848508,-1.27951777,0.00000000,0.00000000
0.08013681,-1.76003492,-0.63800782,-0.82741243,-0.99845004,0.00000000,0.00000000,-2.56300497,-0.83382386,0.13708855,-0.20126124,-1.27703416,0.00000000,0.00000000
0.08430313,-1.75963676,-0.63757050,-0.82927173,-0.98756856,0.00000000,0.00000000,-2.53587532,-0.81739110,0.14134580,-0.19269462,-1.27614868,0.00000000,0.00000000
0.08999302,-1.75929880,-0.63635427,-0.83045918,-0.97657818,0.00000000,0.00000000,-2.50316596,-0.79922038,0.14637464,-0.18376015,-1.27393806,0.00000000,0.00000000
0.09714954,-1.75891221,-0.63438725,-0.83088207,-0.96642298,0.00000000,0.00000000,-2.46611094,-0.78051537,0.15204309,-0.17523094,-1.27106380,0.00000000,0.00000000
0.10572580,-1.75834703,-0.63171285,-0.83045667,-0.95829791,0.00000000,0.00000000,-2.42584062,-0.76227015,0.15824451,-0.16775401,-1.26943231,0.00000000,0.00000000
0.11554045,-1.75753927,-0.62842232,-0.82919621,-0.95091963,0.00000000,0.00000000,-2.38341713,-0.74543709,0.16488598,-0.16195770,-1.26557446,0.00000000,0.00000000
0.12619190,-1.75652456,-0.62468064,-0.82725507,-0.94454449,0.00000000,0.00000000,-2.33992910,-0.73096931,0.17187148,-0.15846159,-1.26116788,0.00000000,0.00000000
0.13716325,-1.75540376,-0.62069309,-0.82487637,-0.93610185,0.00000000,0.00000000,-2.29651666,-0.71966666,0.17909542,-0.15774781,-1.25562775,0.00000000,0.00000000
0.14801681,-1.75429940,-0.61663449,-0.82230532,-0.92585254,0.00000000,0.00000000,-2.25434232,-0.71201563,0.18644238,-0.16004187,-1.25306237,0.00000000,0.00000000
0.15845630,-1.75329685,-0.61263496,-0.81972474,-0.91475314,0.00000000,0.00000000,-2.21459270,-0.70818675,0.19378209,-0.16531493,-1.24932492,0.00000000,0.00000000
0.16824093,-1.75239158,-0.60882050,-0.81723642,-0.90330583,0.00000000,0.00000000,-2.17852020,-0.70814401,0.20095944,-0.17336370,-1.24366045,0.00000000,0.00000000
0.17707190,-1.75149727,-0.60535365,-0.81489593,-0.89412242,0.00000000,0.00000000,-2.14747190,-0.71174634,0.20778523,-0.18387626,-1.23868561,0.00000000,0.00000000
0.18456168,-1.75048590,-0.60243469,-0.81274939,-0.88522339,0.00000000,0.00000000,-2.12287927,-0.71875328,0.21403196,-0.19642727,-1.23421156,0.00000000,0.00000000
0.19027162,-1.74924314,-0.60027343,-0.81086022,-0.87878442,0.00000000,0.00000000,-2.10625243,-0.72871858,0.21943414,-0.21038924,-1.22922051,0.00000000,0.00000000
0.19373873,-1.74770260,-0.59907037,-0.80932462,-0.87181044,0.00000000,0.00000000,-2.09901381,-0.74075866,0.22371788,-0.22476998,-1.22439957,0.00000000,0.00000000
0.19464715,-1.74589777,-0.59893769,-0.80825341,-0.86438596,0.00000000,0.00000000,-2.10154200,-0.75316221,0.22675861,-0.23806807,-1.22118533,0.00000000,0.00000000
0.19314422,-1.74398887,-0.59976679,-0.80769068,-0.85551012,0.00000000,0.00000000,-2.11170149,-0.76350623,0.22882488,-0.24862543,-1.21801186,0.00000000,0.00000000
0.18976997,-1.74223149,-0.60126501,-0.80761713,-0.84972197,0.00000000,0.00000000,-2.12534451,-0.76967156,0.23052590,-0.25536293,-1.21616888,0.00000000,0.00000000
0.18516250,-1.74089420,-0.60309225,-0.80799067,-0.84780490,0.00000000,0.00000000,-2.13808393,-0.77035815,0.23254611,-0.25792259,-1.21210945,0.00000000,0.00000000
0.18002240,-1.74016857,-0.60489857,-0.80870461,-0.84541023,0.00000000,0.00000000,-2.14605927,-0.76518804,0.23549943,-0.25659856,-1.21189487,0.00000000,0.00000000
0.17528673,-1.74006832,-0.60628164,-0.80947906,-0.84680420,0.00000000,0.00000000,-2.14621663,-0.75476629,0.23985358,-0.25256437,-1.21027815,0.00000000,0.00000000
0.17184517,-1.74042022,-0.60690701,-0.80993927,-0.84923774,0.00000000,0.00000000,-2.13783646,-0.74127418,0.24566807,-0.24824151,-1.20951092,0.00000000,0.00000000
0.16978669,-1.74105406,-0.60676509,-0.80993849,-0.84919065,0.00000000,0.00000000,-2.12336898,-0.72931814,0.25244811,-0.24667114,-1.20678186,0.00000000,0.00000000
0.16894406,-1.74181509,-0.60595071,-0.80941671,-0.84900141,0.00000000,0.00000000,-2.10598993,-0.71996450,0.25972858,-0.24826989,-1.20408225,0.00000000,0.00000000
0.16927195,-1.74254882,-0.60451645,-0.80829179,-0.84849900,0.00000000,0.00000000,-2.08818030,-0.71315712,0.26718545,-0.25275838,-1.20217049,0.00000000,0.00000000
0.17088358,-1.74315655,-0.60244536,-0.80648726,-0.84848958,0.00000000,0.00000000,-2.07179523,-0.70896029,0.27456483,-0.25996968,-1.19926047,0.00000000,0.00000000
0.17387347,-1.74360490,-0.59972143,-0.80398697,-0.84791398,0.00000000,0.00000000,-2.05844998,-0.70731145,0.28162378,-0.26964858,-1.19762683,0.00000000,0.00000000
0.17812537,-1.74386644,-0.59641844,-0.80084503,-0.84491527,0.00000000,0.00000000,-2.04973149,-0.70809698,0.28808820,-0.28145409,-1.19484186,0.00000000,0.00000000
0.18331067,-1.74382544,-0.59271848,-0.79711801,-0.84565854,0.00000000,0.00000000,-2.04715157,-0.71113789,0.29365534,-0.29495513,-1.19274807,0.00000000,0.00000000
0.18895182,-1.74329257,-0.58887815,-0.79285240,-0.84804440,0.00000000,0.00000000,-2.05208611,-0.71617562,0.29800454,-0.30962566,-1.19118977,0.00000000,0.00000000
0.19429576,-1.74210632,-0.58525378,-0.78818989,-0.85395944,0.00000000,0.00000000,-2.06585026,-0.72280371,0.30079597,-0.32473448,-1.19326830,0.00000000,0.00000000
0.19848596,-1.74028957,-0.58219558,-0.78341550,-0.86025739,0.00000000,0.00000000,-2.08870935,-0.72975641,0.30192402,-0.33893773,-1.19556093,0.00000000,0.00000000
0.20156559,-1.73810542,-0.57963341,-0.77868420,-0.86631399,0.00000000,0.00000000,-2.11747384,-0.73461294,0.30205020,-0.35058787,-1.19898164,0.00000000,0.00000000
0.20420308,-1.73591685,-0.57722169,-0.77402031,-0.87516242,0.00000000,0.00000000,-2.14703798,-0.73603296,0.30222347,-0.35929859,-1.20558774,0.00000000,0.00000000
0.20688304,-1.73403275,-0.57470191,-0.76947367,-0.88400561,0.00000000,0.00000000,-2.17318034,-0.73391390,0.30330902,-0.36555621,-1.20858490,0.00000000,0.00000000
0.20982562,-1.73267770,-0.57194316,-0.76512498,-0.89058107,0.00000000,0.00000000,-2.19303942,-0.72855526,0.30590656,-0.36999205,-1.21277213,0.00000000,0.00000000
0.21292250,-1.73195565,-0.56897390,-0.76107824,-0.89730078,0.00000000,0.00000000,-2.20514369,-0.72042346,0.31032705,-0.37317523,-1.21636319,0.00000000,0.00000000
0.21574403,-1.73179507,-0.56599021,-0.75742370,-0.90341717,0.00000000,0.00000000,-2.20920563,-0.70989144,0.31663889,-0.37548566,-1.21915662,0.00000000,0.00000000
0.21793862,-1.73203623,-0.56317890,-0.75418091,-0.90759736,0.00000000,0.00000000,-2.20708227,-0.69785041,0.32440618,-0.37752041,-1.22573948,0.00000000,0.00000000
0.21964438,-1.73248219,-0.56054467,-0.75121129,-0.91159689,0.00000000,0.00000000,-2.20312166,-0.68760377,0.33247060,-0.38149792,-1.23137105,0.00000000,0.00000000
0.22140676,-1.73308253,-0.55790377,-0.74835753,-0.91481870,0.00000000,0.00000000,-2.19742560,-0.68120199,0.34066659,-0.38972664,-1.23444664,0.00000000,0.00000000
0.22355933,-1.73391020,-0.55512935,-0.74560487,-0.91847676,0.00000000,0.00000000,-2.19139266,-0.67902803,0.34863698,-0.40254173,-1.23695076,0.00000000,0.00000000
0.22603054,-1.73506641,-0.55224407,-0.74306828,-0.92108822,0.00000000,0.00000000,-2.18726087,-0.68092406,0.35583729,-0.41944200,-1.24247038,0.00000000,0.00000000
0.22837514,-1.73655999,-0.54942822,-0.74089986,-0.92288154,0.00000000,0.00000000,-2.18717670,-0.68663615,0.36168566,-0.43971905,-1.24626493,0.00000000,0.00000000
0.22956298,-1.73825908,-0.54710853,-0.73932344,-0.92175967,0.00000000,0.00000000,-2.19372964,-0.69539601,0.36547098,-0.46190360,-1.24837887,0.00000000,0.00000000
0.22852489,-1.73989546,-0.54574239,-0.73847294,-0.92375553,0.00000000,0.00000000,-2.20855522,-0.70534325,0.36679074,-0.48358038,-1.24837267,0.00000000,0.00000000
0.22552799,-1.74114561,-0.54526627,-0.73801321,-0.92574716,0.00000000,0.00000000,-2.23015738,-0.71460819,0.36608973,-0.50300765,-1.24941266,0.00000000,0.00000000
0.22145990,-1.74190700,-0.54532313,-0.73755270,-0.92678511,0.00000000,0.00000000,-2.25557494,-0.72186297,0.36423060,-0.51939273,-1.25494909,0.00000000,0.00000000
0.21724646,-1.74231088,-0.54548979,-0.73684025,-0.92499095,0.00000000,0.00000000,-2.28156829,-0.72646898,0.36217162,-0.53260249,-1.25883305,0.00000000,0.00000000
0.21366757,-1.74263299,-0.54536951,-0.73576587,-0.92528313,0.00000000,0.00000000,-2.30509639,-0.72841763,0.36081073,-0.54297048,-1.26436424,0.00000000,0.00000000
0.21116664,-1.74320555,-0.54468811,-0.73435688,-0.92323154,0.00000000,0.00000000,-2.32376504,-0.72822440,0.36083007,-0.55114698,-1.27133071,0.00000000,0.00000000
0.20978212,-1.74430394,-0.54334396,-0.73271948,-0.92244875,0.00000000,0.00000000,-2.33594871,-0.72679615,0.36264551,-0.55798346,-1.28038192,0.00000000,0.00000000
0.20921795,-1.74603796,-0.54140276,-0.73094672,-0.92473406,0.00000000,0.00000000,-2.34058094,-0.72534579,0.36646760,-0.56450427,-1.29307258,0.00000000,0.00000000
0.20908131,-1.74833739,-0.53900850,-0.72904992,-0.92692387,0.00000000,0.00000000,-2.33736086,-0.72505742,0.37226048,-0.57166147,-1.30301690,0.00000000,0.00000000
0.20919465,-1.75096667,-0.53626233,-0.72689503,-0.93006861,0.00000000,0.00000000,-2.32842922,-0.72648191,0.37924510,-0.57984316,-1.31257045,0.00000000,0.00000000
0.20949945,-1.75354052,-0.53325760,-0.72424340,-0.93301213,0.00000000,0.00000000,-2.31750631,-0.73048824,0.38603842,-0.58989471,-1.32259738,0.00000000,0.00000000
0.21004839,-1.75574625,-0.53003931,-0.72089612,-0.93156767,0.00000000,0.00000000,-2.30678225,-0.73823273,0.39168310,-0.60303211,-1.33198798,0.00000000,0.00000000
0.21068202,-1.75740600,-0.52671397,-0.71681166,-0.92914635,0.00000000,0.00000000,-2.29853415,-0.74942595,0.39533526,-0.61890697,-1.33836353,0.00000000,0.00000000
0.21107924,-1.75839543,-0.52344245,-0.71203160,-0.92584807,0.00000000,0.00000000,-2.29505420,-0.76315045,0.39618489,-0.63648140,-1.34556210,0.00000000,0.00000000
0.21093132,-1.75865686,-0.52036810,-0.70663518,-0.92742682,0.00000000,0.00000000,-2.29784632,-0.77827495,0.39369103,-0.65463650,-1.35129404,0.00000000,0.00000000
0.20991135,-1.75822115,-0.51762062,-0.70075488,-0.92892647,0.00000000,0.00000000,-2.30782843,-0.79319704,0.38757876,-0.67182595,-1.35795200,0.00000000,0.00000000
0.20769532,-1.75724089,-0.51530129,-0.69458872,-0.93070984,0.00000000,0.00000000,-2.32511640,-0.80596793,0.37794515,-0.68607616,-1.36525249,0.00000000,0.00000000
0.20433664,-1.75595582,-0.51335049,-0.68827623,-0.93215299,0.00000000,0.00000000,-2.34864259,-0.81520993,0.36530685,-0.69597125,-1.37219191,0.00000000,0.00000000
0.20003922,-1.75456321,-0.51165628,-0.68187988,-0.93322706,0.00000000,0.00000000,-2.37658811,-0.81990975,0.35048836,-0.70076090,-1.38200951,0.00000000,0.00000000
0.19498429,-1.75320661,-0.51012111,-0.67542440,-0.93302143,0.00000000,0.00000000,-2.40678668,-0.81956816,0.33443224,-0.70021290,-1.39339519,0.00000000,0.00000000
0.18940262,-1.75204241,-0.50862360,-0.66891921,-0.93160534,0.00000000,0.00000000,-2.43677044,-0.81417358,0.31816474,-0.69447827,-1.40455151,0.00000000,0.00000000
0.18354295,-1.75126648,-0.50702864,-0.66238821,-0.93034393,0.00000000,0.00000000,-2.46381021,-0.80406868,0.30277258,-0.68401706,-1.41782951,0.00000000,0.00000000
0.17754388,-1.75110281,-0.50523722,-0.65590227,-0.92966676,0.00000000,0.00000000,-2.48510885,-0.78989458,0.28930452,-0.66955453,-1.43170774,0.00000000,0.00000000
0.17132416,-1.75174737,-0.50323486,-0.64957118,-0.92847693,0.00000000,0.00000000,-2.49813533,-0.77249438,0.27862707,-0.65197074,-1.44647110,0.00000000,0.00000000
0.16454034,-1.75334060,-0.50110722,-0.64353275,-0.93055457,0.00000000,0.00000000,-2.50101900,-0.75271916,0.27129245,-0.63209742,-1.45730698,0.00000000,0.00000000
0.15661938,-1.75596344,-0.49902692,-0.63794053,-0.93197548,0.00000000,0.00000000,-2.49276900,-0.73118848,0.26750091,-0.61051261,-1.46874118,0.00000000,0.00000000
0.14685155,-1.75965154,-0.49721667,-0.63295400,-0.93465060,0.00000000,0.00000000,-2.47332311,-0.70809054,0.26713663,-0.58740395,-1.48207593,0.00000000,0.00000000
0.13447770,-1.76438916,-0.49592039,-0.62871921,-0.94063693,0.00000000,0.00000000,-2.44373369,-0.68308228,0.26975289,-0.56248820,-1.49596465,0.00000000,0.00000000
0.11878790,-1.77012813,-0.49536735,-0.62536234,-0.94620216,0.00000000,0.00000000,-2.40649843,-0.65539086,0.27449992,-0.53504688,-1.51139522,0.00000000,0.00000000
0.09926061,-1.77689731,-0.49570975,-0.62302595,-0.95194048,0.00000000,0.00000000,-2.36546564,-0.62420893,0.28019300,-0.50423503,-1.52628291,0.00000000,0.00000000
0.07564650,-1.78481305,-0.49699599,-0.62186211,-0.95605636,0.00000000,0.00000000,-2.32502508,-0.58923328,0.28558707,-0.46954796,-1.53823304,0.00000000,0.00000000
0.04804210,-1.79405832,-0.49915487,-0.62200892,-0.96084839,0.00000000,0.00000000,-2.28858232,-0.55068791,0.28983283,-0.43105477,-1.54792106,0.00000000,0.00000000
0.01755371,-1.80470228,-0.50181687,-0.62332869,-0.96710944,0.00000000,0.00000000,-2.25629997,-0.50835985,0.29304516,-0.38947919,-1.55775678,0.00000000,0.00000000
-0.01261828,-1.81609476,-0.50407600,-0.62480301,-0.97072148,0.00000000,0.00000000,-2.22175360,-0.46054736,0.29690498,-0.34614661,-1.56659818,0.00000000,0.00000000
-0.03911792,-1.82707632,-0.50509083,-0.62512630,-0.97115225,0.00000000,0.00000000,-2.17453623,-0.40337822,0.30381030,-0.30084160,-1.57581639,0.00000000,0.00000000
-0.06126910,-1.83738029,-0.50474870,-0.62410009,-0.97261488,0.00000000,0.00000000,-2.11128759,-0.33378190,0.31435445,-0.25217310,-1.58205831,0.00000000,0.00000000
-0.07951821,-1.84710908,-0.50323802,-0.62196916,-0.96851975,0.00000000,0.00000000,-2.03220439,-0.25067079,0.32819828,-0.19945312,-1.58889806,0.00000000,0.00000000
-0.09429607,-1.85626340,-0.50075918,-0.61890399,-0.96256274,0.00000000,0.00000000,-1.93788028,-0.15384203,0.34489194,-0.14254519,-1.59630740,0.00000000,0.00000000
-0.10597076,-1.86478376,-0.49750590,-0.61502057,-0.95798099,0.00000000,0.00000000,-1.82928300,-0.04354333,0.36393437,-0.08155345,-1.60118330,0.00000000,0.00000000
-0.11487743,-1.87260771,-0.49366823,-0.61042577,-0.95364839,0.00000000,0.00000000,-1.70779371,0.07948255,0.38478678,-0.01683921,-1.60664809,0.00000000,0.00000000
-0.12134007,-1.87970674,-0.48943362,-0.60524738,-0.94931644,0.00000000,0.00000000,-1.57523274,0.21395896,0.40688598,0.05096066,-1.61099887,0.00000000,0.00000000
-0.12568595,-1.88607776,-0.48498780,-0.59962887,-0.94717860,0.00000000,0.00000000,-1.43385315,0.35807714,0.42966312,0.12094025,-1.61910820,0.00000000,0.00000000
-0.12825926,-1.89171505,-0.48051348,-0.59371060,-0.94375849,0.00000000,0.00000000,-1.28627741,0.50954264,0.45256984,0.19195352,-1.62766290,0.00000000,0.00000000
-0.12945095,-1.89661384,-0.47618905,-0.58763272,-0.94177121,0.00000000,0.00000000,-1.13537228,0.66566402,0.47510856,0.26266420,-1.63569915,0.00000000,0.00000000
-0.12972632,-1.90078187,-0.47218958,-0.58155078,-0.93914247,0.00000000,0.00000000,-0.98408198,0.82348365,0.49686128,0.33161914,-1.64346135,0.00000000,0.00000000
-0.12956783,-1.90428114,-0.46865755,-0.57564378,-0.93653065,0.00000000,0.00000000,-0.83524692,0.97993642,0.51751328,0.39733911,-1.65321195,0.00000000,0.00000000
-0.12937531,-1.90725219,-0.46566656,-0.57009917,-0.92912203,0.00000000,0.00000000,-0.69142824,1.13200557,0.53686953,0.45840925,-1.66165543,0.00000000,0.00000000
-0.12948655,-1.90987086,-0.46324313,-0.56508774,-0.92142528,0.00000000,0.00000000,-0.55476129,1.27685642,0.55486238,0.51355422,-1.66797125,0.00000000,0.00000000
-0.13017021,-1.91231799,-0.46137920,-0.56074798,-0.91495985,0.00000000,0.00000000,-0.42685884,1.41194189,0.57154632,0.56169128,-1.67705309,0.00000000,0.00000000
-0.13155159,-1.91476512,-0.46001846,-0.55716306,-0.90754175,0.00000000,0.00000000,-0.30877325,1.53507626,0.58708268,0.60195982,-1.68662250,0.00000000,0.00000000
-0.13358022,-1.91732419,-0.45906106,-0.55432868,-0.90080827,0.00000000,0.00000000,-0.20099670,1.64447260,0.60172296,0.63372773,-1.69675565,0.00000000,0.00000000
-0.13603267,-1.91997981,-0.45838186,-0.55212194,-0.89781070,0.00000000,0.00000000,-0.10350300,1.73876166,0.61579150,0.65658450,-1.70549083,0.00000000,0.00000000
-0.13849361,-1.92256284,-0.45783526,-0.55029142,-0.89444196,0.00000000,0.00000000,-0.01585465,1.81701958,0.62965107,0.67033774,-1.71378851,0.00000000,0.00000000
-0.14034574,-1.92474008,-0.45725879,-0.54846263,-0.89130247,0.00000000,0.00000000,0.06261592,1.87882733,0.64364439,0.67504692,-1.72410178,0.00000000,0.00000000
-0.14082479,-1.92601633,-0.45649126,-0.54616505,-0.88739914,0.00000000,0.00000000,0.13260162,1.92446065,0.65800041,0.67118102,-1.73358107,0.00000000,0.00000000
-0.13924873,-1.92594218,-0.45539615,-0.54299241,-0.88338763,0.00000000,0.00000000,0.19473763,1.95540142,0.67270124,0.66000229,-1.74533212,0.00000000,0.00000000
-0.13543068,-1.92452145,-0.45388985,-0.53888088,-0.88014448,0.00000000,0.00000000,0.24966472,1.97478354,0.68739831,0.64379036,-1.76040781,0.00000000,0.00000000
-0.12974550,-1.92221129,-0.45195720,-0.53409916,-0.87850612,0.00000000,0.00000000,0.29793575,1.98658097,0.70155293,0.62512815,-1.77493167,0.00000000,0.00000000
-0.12268846,-1.91946065,-0.44962761,-0.52893251,-0.87804544,0.00000000,0.00000000,0.33982828,1.99416268,0.71469319,0.60597533,-1.78531277,0.00000000,0.00000000
-0.11455284,-1.91651177,-0.44693160,-0.52353752,-0.88082695,0.00000000,0.00000000,0.37539393,1.99981153,0.72652847,0.58752936,-1.79781747,0.00000000,0.00000000
-0.10541912,-1.91344583,-0.44388622,-0.51797372,-0.88349205,0.00000000,0.00000000,0.40460911,2.00494337,0.73693305,0.57047200,-1.81222963,0.00000000,0.00000000
-0.09525788,-1.91025043,-0.44050512,-0.51224810,-0.88635421,0.00000000,0.00000000,0.42746279,2.01040030,0.74589199,0.55517602,-1.82829463,0.00000000,0.00000000
-0.08403341,-1.90690160,-0.43680480,-0.50636184,-0.88903475,0.00000000,0.00000000,0.44399142,2.01668882,0.75344563,0.54184043,-1.84264123,0.00000000,0.00000000
-0.07177573,-1.90344751,-0.43280488,-0.50035274,-0.89161646,0.00000000,0.00000000,0.45429111,2.02414155,0.75964886,0.53057808,-1.85548747,0.00000000,0.00000000
-0.05860175,-1.90002322,-0.42852968,-0.49430463,-0.89459538,0.00000000,0.00000000,0.45852649,2.03297567,0.76455712,0.52145374,-1.86672735,0.00000000,0.00000000
-0.04468908,-1.89681566,-0.42400989,-0.48833221,-0.89621335,0.00000000,0.00000000,0.45695221,2.04327464,0.76823777,0.51448804,-1.87678933,0.00000000,0.00000000
-0.03023239,-1.89402187,-0.41928190,-0.48256406,-0.89704543,0.00000000,0.00000000,0.44993049,2.05496645,0.77078766,0.50965506,-1.88770688,0.00000000,0.00000000
-0.01541734,-1.89181840,-0.41438913,-0.47713014,-0.89970744,0.00000000,0.00000000,0.43791518,2.06785488,0.77233529,0.50689173,-1.90045273,0.00000000,0.00000000
-0.00040760,-1.89031529,-0.40938592,-0.47213933,-0.90246290,0.00000000,0.00000000,0.42141557,2.08164668,0.77303582,0.50611222,-1.91205084,0.00000000,0.00000000
0.01469005,-1.88950181,-0.40433261,-0.46763706,-0.90436214,0.00000000,0.00000000,0.40098169,2.09593511,0.77307504,0.50721163,-1.92310548,0.00000000,0.00000000
0.02984688,-1.88924742,-0.39928117,-0.46358433,-0.90743160,0.00000000,0.00000000,0.37721929,2.11020517,0.77267218,0.51008028,-1.93303514,0.00000000,0.00000000
0.04506295,-1.88940811,-0.39426512,-0.45990127,-0.91443419,0.00000000,0.00000000,0.35080230,2.12392592,0.77206218,0.51465333,-1.94268787,0.00000000,0.00000000
0.06029621,-1.88988113,-0.38930681,-0.45649290,-0.92210156,0.00000000,0.00000000,0.32248953,2.13661385,0.77148634,0.52094960,-1.95652974,0.00000000,0.00000000
0.07542465,-1.89058805,-0.38443342,-0.45324448,-0.92805099,0.00000000,0.00000000,0.29313418,2.14779949,0.77120513,0.52906096,-1.97257316,0.00000000,0.00000000
0.09016976,-1.89142704,-0.37971193,-0.45003790,-0.93348801,0.00000000,0.00000000,0.26368597,2.15700960,0.77150702,0.53913647,-1.98781550,0.00000000,0.00000000
0.10400373,-1.89219093,-0.37528956,-0.44676766,-0.93608499,0.00000000,0.00000000,0.23517983,2.16383886,0.77269554,0.55139494,-2.00259304,0.00000000,0.00000000
0.11619186,-1.89250636,-0.37139216,-0.44333273,-0.93765074,0.00000000,0.00000000,0.20868045,2.16800117,0.77507102,0.56611568,-2.01594806,0.00000000,0.00000000
0.12598448,-1.89186001,-0.36827046,-0.43962240,-0.93729013,0.00000000,0.00000000,0.18521018,2.16965961,0.77893865,0.58356273,-2.02638388,0.00000000,0.00000000
0.13282073,-1.88970423,-0.36613685,-0.43552989,-0.93596792,0.00000000,0.00000000,0.16571850,2.16998243,0.78464854,0.60389119,-2.03429389,0.00000000,0.00000000
0.13644934,-1.88556516,-0.36512539,-0.43097946,-0.93590355,0.00000000,0.00000000,0.15102986,2.17000008,0.79261512,0.62709075,-2.04019380,0.00000000,0.00000000
0.13683325,-1.87912357,-0.36530331,-0.42596802,-0.93662339,0.00000000,0.00000000,0.14168988,2.16999483,0.80319422,0.65310442,-2.04429603,0.00000000,0.00000000
0.13386300,-1.87029529,-0.36672297,-0.42062339,-0.94063497,0.00000000,0.00000000,0.13770586,2.16992664,0.81637102,0.68213058,-2.04905915,0.00000000,0.00000000
0.12714018,-1.85921729,-0.36946595,-0.41520262,-0.94541693,0.00000000,0.00000000,0.13855202,2.16977715,0.83153957,0.71484470,-2.05351591,0.00000000,0.00000000
0.11593114,-1.84616065,-0.37365907,-0.41003600,-0.94676310,0.00000000,0.00000000,0.14263371,2.16917706,0.84781772,0.75082409,-2.05741405,0.00000000,0.00000000
0.09916790,-1.83168149,-0.37946257,-0.40559453,-0.95022303,0.00000000,0.00000000,0.14718211,2.16654420,0.86482525,0.78644401,-2.06070137,0.00000000,0.00000000
0.07554697,-1.81680274,-0.38703856,-0.40257069,-0.95002443,0.00000000,0.00000000,0.15249303,2.16202736,0.88260758,0.81982106,-2.06518126,0.00000000,0.00000000
0.04402386,-1.80266774,-0.39648688,-0.40163201,-0.94820815,0.00000000,0.00000000,0.15873912,2.15687633,0.90077978,0.85077369,-2.07060337,0.00000000,0.00000000
0.00432961,-1.79076850,-0.40771323,-0.40347925,-0.94347531,0.00000000,0.00000000,0.16541249,2.15198684,0.91883498,0.87934029,-2.07508016,0.00000000,0.00000000
-0.04301877,-1.78277719,-0.42043167,-0.40880415,-0.93658954,0.00000000,0.00000000,0.17205396,2.14809084,0.93630081,0.90567577,-2.08037639,0.00000000,0.00000000
-0.09668082,-1.78030515,-0.43415776,-0.41813400,-0.92992234,0.00000000,0.00000000,0.17825386,2.14564610,0.95278186,0.93005943,-2.08220959,0.00000000,0.00000000
-0.15443298,-1.78450799,-0.44821298,-0.43152434,-0.92351115,0.00000000,0.00000000,0.18346378,2.14493227,0.96779680,0.95328867,-2.08296394,0.00000000,0.00000000
-0.21335477,-1.79571688,-0.46179485,-0.44833449,-0.91769117,0.00000000,0.00000000,0.18691647,2.14702845,0.98028839,0.97729152,-2.08511424,0.00000000,0.00000000
-0.27061182,-1.81372368,-0.47414389,-0.46753341,-0.91125596,0.00000000,0.00000000,0.18866251,2.15138030,0.99024200,1.00314558,-2.08949065,0.00000000,0.00000000
-0.32440177,-1.83804321,-0.48476475,-0.48810217,-0.90441900,0.00000000,0.00000000,0.18887168,2.15688944,0.99799275,1.03041780,-2.09198475,0.00000000,0.00000000
-0.37372196,-1.86784363,-0.49340117,-0.50896233,-0.89906019,0.00000000,0.00000000,0.18809144,2.16219664,1.00420046,1.05703771,-2.09593463,0.00000000,0.00000000
-0.41757691,-1.90160537,-0.49990305,-0.52866930,-0.89693713,0.00000000,0.00000000,0.18717012,2.16629171,1.00946617,1.08183682,-2.09970522,0.00000000,0.00000000
-0.45467764,-1.93719578,-0.50415790,-0.54547566,-0.89464247,0.00000000,0.00000000,0.18657862,2.16880131,1.01391983,1.10467839,-2.10218644,0.00000000,0.00000000
-0.48417774,-1.97231913,-0.50624400,-0.55779034,-0.89378798,0.00000000,0.00000000,0.18768401,2.16979742,1.01806533,1.12619019,-2.10357308,0.00000000,0.00000000
-0.50566542,-2.00512004,-0.50632048,-0.56477088,-0.89572734,0.00000000,0.00000000,0.19189315,2.16998959,1.02303219,1.14673841,-2.10623908,0.00000000,0.00000000
-0.51886630,-2.03504252,-0.50441670,-0.56716317,-0.89631397,0.00000000,0.00000000,0.19933923,2.17000008,1.03014278,1.16566277,-2.11072302,0.00000000,0.00000000
-0.52553910,-2.06105876,-0.50126833,-0.56594718,-0.89749616,0.00000000,0.00000000,0.20930418,2.17000008,1.03999090,1.18220031,-2.11542249,0.00000000,0.00000000
-0.52630025,-2.08266330,-0.49717838,-0.56133467,-0.89609689,0.00000000,0.00000000,0.22045514,2.17000008,1.05217254,1.19590342,-2.11978054,0.00000000,0.00000000
-0.52061003,-2.09968138,-0.49202567,-0.55303657,-0.89242524,0.00000000,0.00000000,0.23158726,2.17000008,1.06580150,1.20693266,-2.12243032,0.00000000,0.00000000
-0.50755012,-2.11183405,-0.48557252,-0.54048312,-0.88701719,0.00000000,0.00000000,0.24180095,2.17000008,1.07995200,1.21574056,-2.12395191,0.00000000,0.00000000
-0.48626852,-2.11865926,-0.47762284,-0.52300972,-0.88095212,0.00000000,0.00000000,0.24990968,2.16999388,1.09367621,1.22276306,-2.12774134,0.00000000,0.00000000
-0.45633286,-2.11959028,-0.46811965,-0.50010055,-0.87297964,0.00000000,0.00000000,0.25466958,2.16990399,1.10584247,1.22886980,-2.13081908,0.00000000,0.00000000
-0.41754055,-2.11438203,-0.45703927,-0.47161219,-0.86413532,0.00000000,0.00000000,0.25532076,2.16966414,1.11480784,1.23557174,-2.13177276,0.00000000,0.00000000
-0.36956707,-2.10392833,-0.44421899,-0.43811983,-0.85671347,0.00000000,0.00000000,0.25172180,2.16961384,1.11929357,1.24401033,-2.13398814,0.00000000,0.00000000
-0.31253615,-2.08998418,-0.42957938,-0.40090033,-0.84826404,0.00000000,0.00000000,0.24289742,2.16987133,1.11875117,1.25319254,-2.13852239,0.00000000,0.00000000
-0.24845411,-2.07464600,-0.41350603,-0.36198461,-0.83900696,0.00000000,0.00000000,0.23003939,2.16999149,1.11429358,1.26208389,-2.14091682,0.00000000,0.00000000
-0.18129808,-2.06043530,-0.39678654,-0.32409820,-0.83236188,0.00000000,0.00000000,0.21938479,2.17000008,1.10859621,1.27246225,-2.14029264,0.00000000,0.00000000
-0.11358535,-2.04906344,-0.37995595,-0.28899851,-0.82595044,0.00000000,0.00000000,0.21164538,2.17000008,1.10172915,1.28425682,-2.13859940,0.00000000,0.00000000
-0.04620507,-2.04178166,-0.36323899,-0.25770357,-0.81880844,0.00000000,0.00000000,0.20562091,2.17000008,1.09324288,1.29640317,-2.14063358,0.00000000,0.00000000
0.02027286,-2.03936410,-0.34680545,-0.23087130,-0.81437713,0.00000000,0.00000000,0.20010373,2.17000008,1.08282268,1.30782080,-2.14148355,0.00000000,0.00000000
0.08487204,-2.04194951,-0.33087566,-0.20886572,-0.80817109,0.00000000,0.00000000,0.19403294,2.17000008,1.07035017,1.31760168,-2.14298725,0.00000000,0.00000000
0.14550455,-2.04902291,-0.31577703,-0.19183670,-0.80418003,0.00000000,0.00000000,0.18751729,2.17000008,1.05654538,1.32535911,-2.14309382,0.00000000,0.00000000
0.19909847,-2.05950975,-0.30190468,-0.17971253,-0.80227172,0.00000000,0.00000000,0.18178099,2.17000008,1.04295921,1.33121574,-2.14017820,0.00000000,0.00000000
0.24339822,-2.07210422,-0.28952262,-0.17209075,-0.80068845,0.00000000,0.00000000,0.17751941,2.17000008,1.03076649,1.33521485,-2.13400650,0.00000000,0.00000000
0.27745506,-2.08497810,-0.27875447,-0.16806535,-0.79665554,0.00000000,0.00000000,0.17442681,2.17000008,1.02014971,1.33719957,-2.12846518,0.00000000,0.00000000
0.30116662,-2.09583879,-0.26965314,-0.16635634,-0.79331148,0.00000000,0.00000000,0.17178564,2.17000008,1.01062489,1.33707190,-2.12582040,0.00000000,0.00000000
0.31489843,-2.10256767,-0.26222816,-0.16571173,-0.78922170,0.00000000,0.00000000,0.16871807,2.17000008,1.00147915,1.33476329,-2.12116814,0.00000000,0.00000000
0.31927556,-2.10364175,-0.25645322,-0.16516086,-0.78740919,0.00000000,0.00000000,0.16415748,2.17000008,0.99203551,1.33004534,-2.11397624,0.00000000,0.00000000
0.31509516,-2.09832859,-0.25226310,-0.16413414,-0.78515893,0.00000000,0.00000000,0.15694186,2.17000008,0.98182368,1.32244778,-2.10814834,0.00000000,0.00000000
0.30325201,-2.08683133,-0.24955097,-0.16255431,-0.78385782,0.00000000,0.00000000,0.14613819,2.17000008,0.97072643,1.31137729,-2.10427451,0.00000000,0.00000000
0.28471947,-2.07009506,-0.24817400,-0.16073351,-0.78270799,0.00000000,0.00000000,0.13136286,2.17000008,0.95899290,1.29636991,-2.10052586,0.00000000,0.00000000
0.26055896,-2.04919291,-0.24797179,-0.15904142,-0.78141612,0.00000000,0.00000000,0.11293349,2.16995025,0.94710404,1.27734852,-2.09820914,0.00000000,0.00000000
0.23177053,-2.02489233,-0.24879344,-0.15770724,-0.78064400,0.00000000,0.00000000,0.09208033,2.16916752,0.93571937,1.25487697,-2.09539151,0.00000000,0.00000000
0.19896525,-1.99790549,-0.25051969,-0.15701641,-0.78198308,0.00000000,0.00000000,0.07152938,2.16639280,0.92565101,1.23072076,-2.08944273,0.00000000,0.00000000
0.16265410,-1.96943307,-0.25302106,-0.15756036,-0.78219450,0.00000000,0.00000000,0.05448559,2.16203928,0.91741669,1.20726383,-2.08121610,0.00000000,0.00000000
0.12400164,-1.94087529,-0.25609487,-0.15995409,-0.77905011,0.00000000,0.00000000,0.04143381,2.15622687,0.91099554,1.18472159,-2.07166719,0.00000000,0.00000000
0.08429060,-1.91354215,-0.25952050,-0.16472393,-0.77728552,0.00000000,0.00000000,0.03221006,2.14828491,0.90672708,1.16249585,-2.06477547,0.00000000,0.00000000
0.04406059,-1.88894761,-0.26313990,-0.17246097,-0.77409792,0.00000000,0.00000000,0.02695372,2.13779783,0.90493971,1.14030111,-2.05765915,0.00000000,0.00000000
0.00286263,-1.86840153,-0.26689404,-0.18347017,-0.76753378,0.00000000,0.00000000,0.02574758,2.12522960,0.90529609,1.11816704,-2.05053377,0.00000000,0.00000000
-0.03772429,-1.85183799,-0.27052099,-0.19696446,-0.76089978,0.00000000,0.00000000,0.02855126,2.11103773,0.90725857,1.09593201,-2.04223156,0.00000000,0.00000000
-0.07512665,-1.83943295,-0.27360433,-0.21242547,-0.75624090,0.00000000,0.00000000,0.03513963,2.09572577,0.91012746,1.07329953,-2.03389907,0.00000000,0.00000000
-0.10722261,-1.83072996,-0.27576417,-0.22914962,-0.75298792,0.00000000,0.00000000,0.04523356,2.08003402,0.91312295,1.05013835,-2.02517629,0.00000000,0.00000000
-0.13274753,-1.82524145,-0.27670851,-0.24658634,-0.74947107,0.00000000,0.00000000,0.05781799,2.06443214,0.91547012,1.02602780,-2.01906490,0.00000000,0.00000000
-0.15101598,-1.82278955,-0.27620196,-0.26449117,-0.74688035,0.00000000,0.00000000,0.07172494,2.04923320,0.91654390,1.00055027,-2.01404524,0.00000000,0.00000000
-0.16155966,-1.82319736,-0.27403435,-0.28268537,-0.74376601,0.00000000,0.00000000,0.08599544,2.03471041,0.91589093,0.97342503,-2.01014090,0.00000000,0.00000000
-0.16400883,-1.82619572,-0.27001086,-0.30098119,-0.74029118,0.00000000,0.00000000,0.09986357,2.02110744,0.91320270,0.94444716,-2.00658154,0.00000000,0.00000000
-0.15812044,-1.83143711,-0.26395893,-0.31918299,-0.73596185,0.00000000,0.00000000,0.11275348,2.00860357,0.90831274,0.91344434,-2.00389838,0.00000000,0.00000000
-0.14382206,-1.83855319,-0.25573650,-0.33711010,-0.73135424,0.00000000,0.00000000,0.12426429,1.99724853,0.90119672,0.88025165,-1.99945307,0.00000000,0.00000000
-0.12121490,-1.84714413,-0.24524155,-0.35459468,-0.72482353,0.00000000,0.00000000,0.13406821,1.98700702,0.89190370,0.84473383,-1.99248576,0.00000000,0.00000000
-0.09076793,-1.85661268,-0.23247404,-0.37139574,-0.71866632,0.00000000,0.00000000,0.14206037,1.97788870,0.88054687,0.80692339,-1.98270869,0.00000000,0.00000000
-0.05427645,-1.86603224,-0.21777576,-0.38715908,-0.71426249,0.00000000,0.00000000,0.14915101,1.96993470,0.86754233,0.76730126,-1.97121358,0.00000000,0.00000000
-0.01526169,-1.87444890,-0.20193763,-0.40162969,-0.70623803,0.00000000,0.00000000,0.15737286,1.96296656,0.85369599,0.72670639,-1.95989656,0.00000000,0.00000000
0.02341979,-1.88099623,-0.18565468,-0.41457251,-0.69900942,0.00000000,0.00000000,0.16782507,1.95661533,0.83955890,0.68551719,-1.95077670,0.00000000,0.00000000
0.06004563,-1.88464117,-0.16940449,-0.42556900,-0.69334549,0.00000000,0.00000000,0.18048348,1.95081139,0.82525575,0.64380157,-1.93955410,0.00000000,0.00000000
0.09341740,-1.88518703,-0.15352163,-0.43463480,-0.68781197,0.00000000,0.00000000,0.19500755,1.94569385,0.81076699,0.60161394,-1.92756009,0.00000000,0.00000000
0.12256749,-1.88336372,-0.13825943,-0.44232780,-0.68242860,0.00000000,0.00000000,0.21064180,1.94314969,0.79559088,0.56030250,-1.91411078,0.00000000,0.00000000
0.14705737,-1.88006401,-0.12373723,-0.44927835,-0.67599529,0.00000000,0.00000000,0.22649428,1.94687998,0.77882361,0.52318364,-1.90419078,0.00000000,0.00000000
0.16724427,-1.87563992,-0.10989172,-0.45572793,-0.66924804,0.00000000,0.00000000,0.24358462,1.95577574,0.76115060,0.49112880,-1.89573741,0.00000000,0.00000000
0.18248689,-1.87056744,-0.09691471,-0.46198720,-0.66116327,0.00000000,0.00000000,0.26234773,1.96712184,0.74341154,0.46320298,-1.88414466,0.00000000,0.00000000
0.19194125,-1.86527359,-0.08505414,-0.46830061,-0.65539980,0.00000000,0.00000000,0.28214058,1.97913504,0.72595257,0.43834287,-1.87150717,0.00000000,0.00000000
0.19586484,-1.85990250,-0.07427992,-0.47468594,-0.65081030,0.00000000,0.00000000,0.30187383,1.99128032,0.70878160,0.41587663,-1.85819805,0.00000000,0.00000000
0.19522813,-1.85436559,-0.06438701,-0.48102009,-0.64526397,0.00000000,0.00000000,0.32056805,2.00369501,0.69181424,0.39549282,-1.84537768,0.00000000,0.00000000
0.19105840,-1.84848917,-0.05517106,-0.48717070,-0.63793916,0.00000000,0.00000000,0.33755451,2.01658487,0.67501456,0.37704313,-1.83257127,0.00000000,0.00000000
0.18421197,-1.84215546,-0.04648830,-0.49308741,-0.63249844,0.00000000,0.00000000,0.35238391,2.03006387,0.65839332,0.36042798,-1.82117176,0.00000000,0.00000000
0.17538083,-1.83535337,-0.03824625,-0.49881497,-0.62704563,0.00000000,0.00000000,0.36471081,2.04415798,0.64197725,0.34555265,-1.81244254,0.00000000,0.00000000
0.16518180,-1.82814980,-0.03036424,-0.50444442,-0.62175882,0.00000000,0.00000000,0.37425587,2.05881453,0.62579823,0.33231124,-1.80346715,0.00000000,0.00000000
0.15423314,-1.82061362,-0.02273612,-0.51005000,-0.61586219,0.00000000,0.00000000,0.38085982,2.07389140,0.60990143,0.32059178,-1.79612589,0.00000000,0.00000000
0.14317806,-1.81275451,-0.01521226,-0.51564765,-0.61168677,0.00000000,0.00000000,0.38457227,2.08914113,0.59435898,0.31028944,-1.78757453,0.00000000,0.00000000
0.13268204,-1.80454576,-0.00759375,-0.52121401,-0.60967278,0.00000000,0.00000000,0.38567868,2.10420132,0.57927316,0.30130860,-1.78170133,0.00000000,0.00000000
0.12340866,-1.79600954,0.00035864,-0.52674186,-0.60759294,0.00000000,0.00000000,0.38463080,2.11862159,0.56476390,0.29355299,-1.77546191,0.00000000,0.00000000
0.11594687,-1.78725493,0.00888642,-0.53226978,-0.60524726,0.00000000,0.00000000,0.38192698,2.13193274,0.55094618,0.28692269,-1.76908851,0.00000000,0.00000000
0.11071561,-1.77847540,0.01817506,-0.53788882,-0.60281521,0.00000000,0.00000000,0.37798026,2.14371562,0.53790778,0.28130898,-1.75843668,0.00000000,0.00000000
0.10788902,-1.76993060,0.02830260,-0.54374474,-0.60126370,0.00000000,0.00000000,0.37303922,2.15362716,0.52569938,0.27658504,-1.74908614,0.00000000,0.00000000
0.10736165,-1.76188755,0.03921423,-0.55000377,-0.59924877,0.00000000,0.00000000,0.36721155,2.16137266,0.51434225,0.27260232,-1.73806942,0.00000000,0.00000000
0.10876454,-1.75453341,0.05072825,-0.55678397,-0.59690952,0.00000000,0.00000000,0.36055622,2.16666007,0.50384450,0.26919243,-1.72737134,0.00000000,0.00000000
0.11152834,-1.74790335,0.06256617,-0.56408489,-0.59735161,0.00000000,0.00000000,0.35318878,2.16931915,0.49421915,0.26618016,-1.71328580,0.00000000,0.00000000
0.11497518,-1.74189782,0.07439572,-0.57178098,-0.59667641,0.00000000,0.00000000,0.34536129,2.16996145,0.48549536,0.26341340,-1.69816792,0.00000000,0.00000000
0.11843500,-1.73637342,0.08587981,-0.57968384,-0.59457022,0.00000000,0.00000000,0.33748499,2.17000008,0.47771809,0.26080897,-1.68428516,0.00000000,0.00000000
0.12137876,-1.73118579,0.09672876,-0.58759165,-0.59138435,0.00000000,0.00000000,0.33009091,2.17000008,0.47093913,0.25838575,-1.67161119,0.00000000,0.00000000
0.12352346,-1.72621655,0.10674699,-0.59533495,-0.58903819,0.00000000,0.00000000,0.32374343,2.17000008,0.46520680,0.25624603,-1.65567255,0.00000000,0.00000000
0.12483270,-1.72141171,0.11584795,-0.60281914,-0.58553636,0.00000000,0.00000000,0.31892958,2.17000008,0.46055725,0.25450709,-1.64265394,0.00000000,0.00000000
0.12542841,-1.71679378,0.12403376,-0.61003387,-0.58198291,0.00000000,0.00000000,0.31594783,2.17000008,0.45700690,0.25322083,-1.62815571,0.00000000,0.00000000
0.12550415,-1.71245062,0.13136390,-0.61703944,-0.57975709,0.00000000,0.00000000,0.31484711,2.17000008,0.45454746,0.25232890,-1.61511922,0.00000000,0.00000000
0.12528193,-1.70850706,0.13792875,-0.62393659,-0.57753766,0.00000000,0.00000000,0.31548089,2.17000008,0.45314756,0.25169006,-1.60367751,0.00000000,0.00000000
0.12500656,-1.70507348,0.14383537,-0.63081789,-0.57559806,0.00000000,0.00000000,0.31760800,2.17000008,0.45275697,0.25114948,-1.59273446,0.00000000,0.00000000
0.12492305,-1.70222175,0.14919128,-0.63773996,-0.57226652,0.00000000,0.00000000,0.32093790,2.17000008,0.45330697,0.25059578,-1.58166564,0.00000000,0.00000000
0.12520011,-1.70000410,0.15407091,-0.64473307,-0.56688297,0.00000000,0.00000000,0.32513404,2.16999221,0.45470995,0.24999934,-1.56734014,0.00000000,0.00000000
0.12585405,-1.69846141,0.15848161,-0.65180218,-0.56249321,0.00000000,0.00000000,0.32983491,2.16984820,0.45686650,0.24943224,-1.55219328,0.00000000,0.00000000
0.12674966,-1.69760060,0.16235979,-0.65891016,-0.55519146,0.00000000,0.00000000,0.33469376,2.16903639,0.45967960,0.24904944,-1.53932607,0.00000000,0.00000000
0.12768646,-1.69737136,0.16560316,-0.66597110,-0.54898745,0.00000000,0.00000000,0.33939117,2.16694498,0.46306682,0.24903479,-1.52613890,0.00000000,0.00000000
0.12849805,-1.69766188,0.16811210,-0.67285961,-0.54040617,0.00000000,0.00000000,0.34363505,2.16377139,0.46696788,0.24954832,-1.51444149,0.00000000,0.00000000
0.12908179,-1.69834006,0.16980441,-0.67944568,-0.53296679,0.00000000,0.00000000,0.34717861,2.15995622,0.47134691,0.25071216,-1.50456500,0.00000000,0.00000000
0.12939101,-1.69929290,0.17061642,-0.68562347,-0.52746618,0.00000000,0.00000000,0.34984601,2.15581179,0.47619268,0.25261885,-1.49344039,0.00000000,0.00000000
0.12942694,-1.70042062,0.17050588,-0.69130462,-0.52206051,0.00000000,0.00000000,0.35154656,2.15151215,0.48151463,0.25533631,-1.48221636,0.00000000,0.00000000
0.12922424,-1.70161569,0.16945095,-0.69639939,-0.51479346,0.00000000,0.00000000,0.35227245,2.14710927,0.48733836,0.25891146,-1.47018683,0.00000000,0.00000000
0.12883739,-1.70273125,0.16744868,-0.70079297,-0.50851589,0.00000000,0.00000000,0.35208768,2.14256120,0.49369955,0.26337832,-1.46035290,0.00000000,0.00000000
0.12830196,-1.70361149,0.16449820,-0.70435792,-0.50760245,0.00000000,0.00000000,0.35111299,2.13778257,0.50063747,0.26877537,-1.45155215,0.00000000,0.00000000
0.12761630,-1.70411932,0.16059016,-0.70697016,-0.50301248,0.00000000,0.00000000,0.34949881,2.13269305,0.50818825,0.27516210,-1.44150698,0.00000000,0.00000000
0.12676248,-1.70414186,0.15571247,-0.70851189,-0.50180000,0.00000000,0.00000000,0.34739792,2.12723494,0.51638234,0.28261876,-1.43422484,0.00000000,0.00000000
0.12572481,-1.70364046,0.14985444,-0.70890564,-0.50283509,0.00000000,0.00000000,0.34494343,2.12136745,0.52524453,0.29123417,-1.42659271,0.00000000,0.00000000
0.12449677,-1.70270634,0.14300840,-0.70815498,-0.50537598,0.00000000,0.00000000,0.34222639,2.11506224,0.53479254,0.30109391,-1.41890132,0.00000000,0.00000000
