isaac-sim2real/sage/motion_files/wr75s/amass/0-KIT_675_dry_left_arm_11_poses_idx7.txt
l_joint1,l_joint2,l_joint3,l_joint4,l_joint5,l_joint6,l_joint7,r_joint1,r_joint2,r_joint3,r_joint4,r_joint5,r_joint6,r_joint7
0.05338962,-1.59246004,0.54581189,0.24291660,-0.05250007,0.00000000,0.00000000,0.00539804,1.62299693,-0.08489538,-0.40202335,0.06462929,0.00000000,0.00000000
0.05291928,-1.59317017,0.54574573,0.24235424,-0.06320985,0.00000000,0.00000000,0.00573426,1.62400877,-0.08498186,-0.40189818,0.07706198,0.00000000,0.00000000
0.05221007,-1.59413731,0.54555243,0.24148513,-0.08037724,0.00000000,0.00000000,0.00615015,1.62558091,-0.08507101,-0.40180278,0.09409802,0.00000000,0.00000000
0.05145388,-1.59511733,0.54518342,0.24042192,-0.10074495,0.00000000,0.00000000,0.00649194,1.62734520,-0.08511466,-0.40186012,0.11441376,0.00000000,0.00000000
0.05072919,-1.59600389,0.54462361,0.23923022,-0.12746111,0.00000000,0.00000000,0.00670526,1.62913322,-0.08510152,-0.40209296,0.13193479,0.00000000,0.00000000
0.05004114,-1.59672523,0.54387641,0.23798415,-0.15364130,0.00000000,0.00000000,0.00678753,1.63090897,-0.08503142,-0.40246755,0.15128733,0.00000000,0.00000000
0.04934272,-1.59729004,0.54296321,0.23673581,-0.17832936,0.00000000,0.00000000,0.00677786,1.63266504,-0.08490554,-0.40295008,0.16975936,0.00000000,0.00000000
0.04854997,-1.59774566,0.54191643,0.23552692,-0.20703292,0.00000000,0.00000000,0.00674246,1.63437307,-0.08472786,-0.40353030,0.18587960,0.00000000,0.00000000
0.04757725,-1.59811676,0.54076463,0.23440033,-0.23080023,0.00000000,0.00000000,0.00674676,1.63599682,-0.08450831,-0.40420678,0.19797935,0.00000000,0.00000000
0.04637576,-1.59841275,0.53952563,0.23337725,-0.25387418,0.00000000,0.00000000,0.00683250,1.63753867,-0.08425891,-0.40495721,0.21060500,0.00000000,0.00000000
0.04493044,-1.59865820,0.53820968,0.23244721,-0.27692640,0.00000000,0.00000000,0.00702062,1.63904881,-0.08398596,-0.40573379,0.22282815,0.00000000,0.00000000
0.04321949,-1.59892893,0.53683227,0.23157945,-0.30123019,0.00000000,0.00000000,0.00733723,1.64060271,-0.08369159,-0.40648752,0.23577175,0.00000000,0.00000000
0.04120206,-1.59930706,0.53541416,0.23075584,-0.32024145,0.00000000,0.00000000,0.00781820,1.64225185,-0.08337741,-0.40720183,0.24847092,0.00000000,0.00000000
0.03886661,-1.59980237,0.53396583,0.22998437,-0.34030017,0.00000000,0.00000000,0.00846930,1.64401066,-0.08303681,-0.40789700,0.25843260,0.00000000,0.00000000
0.03625267,-1.60039246,0.53248656,0.22926785,-0.36638346,0.00000000,0.00000000,0.00925032,1.64586902,-0.08264989,-0.40860647,0.26915586,0.00000000,0.00000000
0.03344476,-1.60106242,0.53096753,0.22858676,-0.38875794,0.00000000,0.00000000,0.01008250,1.64780700,-0.08218288,-0.40935233,0.28133875,0.00000000,0.00000000
0.03057056,-1.60177350,0.52938849,0.22791617,-0.40845692,0.00000000,0.00000000,0.01085062,1.64979255,-0.08158797,-0.41014424,0.29515281,0.00000000,0.00000000
0.02775770,-1.60245788,0.52772617,0.22724974,-0.42942947,0.00000000,0.00000000,0.01143378,1.65177119,-0.08081314,-0.41099855,0.30104989,0.00000000,0.00000000
0.02507054,-1.60304236,0.52596968,0.22662044,-0.45308277,0.00000000,0.00000000,0.01175374,1.65367305,-0.07981715,-0.41195500,0.31395805,0.00000000,0.00000000
0.02249348,-1.60347366,0.52412546,0.22609431,-0.47744185,0.00000000,0.00000000,0.01179148,1.65545297,-0.07857589,-0.41306546,0.32177207,0.00000000,0.00000000
0.01996163,-1.60375643,0.52221346,0.22573426,-0.50222492,0.00000000,0.00000000,0.01157095,1.65713573,-0.07707998,-0.41436341,0.33079153,0.00000000,0.00000000
0.01739792,-1.60398304,0.52026069,0.22556286,-0.52435523,0.00000000,0.00000000,0.01113510,1.65882874,-0.07532687,-0.41583556,0.33169284,0.00000000,0.00000000
0.01473978,-1.60431504,0.51829380,0.22555676,-0.54498500,0.00000000,0.00000000,0.01052593,1.66070068,-0.07330821,-0.41741583,0.32811138,0.00000000,0.00000000
0.01193496,-1.60492694,0.51633686,0.22567692,-0.57114387,0.00000000,0.00000000,0.00978483,1.66291857,-0.07100030,-0.41901305,0.32334244,0.00000000,0.00000000
0.00891623,-1.60597730,0.51441467,0.22589783,-0.58964407,0.00000000,0.00000000,0.00897326,1.66557503,-0.06836712,-0.42055693,0.31559592,0.00000000,0.00000000
0.00559816,-1.60758555,0.51255155,0.22622724,-0.60694408,0.00000000,0.00000000,0.00817996,1.66865599,-0.06537086,-0.42203385,0.30257136,0.00000000,0.00000000
0.00191644,-1.60977423,0.51075929,0.22672261,-0.63338649,0.00000000,0.00000000,0.00750026,1.67207086,-0.06197779,-0.42348859,0.29299611,0.00000000,0.00000000
-0.00213218,-1.61243153,0.50902629,0.22749451,-0.65521193,0.00000000,0.00000000,0.00703286,1.67573833,-0.05816222,-0.42498296,0.27669695,0.00000000,0.00000000
-0.00651667,-1.61536074,0.50732625,0.22869332,-0.67210406,0.00000000,0.00000000,0.00695240,1.67968357,-0.05392632,-0.42652857,0.25907913,0.00000000,0.00000000
-0.01124513,-1.61848330,0.50564718,0.23044181,-0.68400681,0.00000000,0.00000000,0.00760931,1.68410981,-0.04932730,-0.42802227,0.24669479,0.00000000,0.00000000
-0.01641319,-1.62199342,0.50401181,0.23277597,-0.69462276,0.00000000,0.00000000,0.00950606,1.68937278,-0.04447345,-0.42924055,0.23137052,0.00000000,0.00000000
-0.02216528,-1.62633169,0.50246984,0.23562878,-0.70829493,0.00000000,0.00000000,0.01309597,1.69586051,-0.03947391,-0.42990071,0.21983084,0.00000000,0.00000000
-0.02854829,-1.63202000,0.50105774,0.23883703,-0.71645498,0.00000000,0.00000000,0.01851978,1.70385754,-0.03436908,-0.42974719,0.21269941,0.00000000,0.00000000
-0.03539099,-1.63920391,0.49973911,0.24232017,-0.72703838,0.00000000,0.00000000,0.02547422,1.71331394,-0.02908652,-0.42868185,0.21345413,0.00000000,0.00000000
-0.04227849,-1.64774907,0.49840498,0.24604712,-0.73994201,0.00000000,0.00000000,0.03327319,1.72386527,-0.02343765,-0.42675015,0.21683568,0.00000000,0.00000000
-0.04874526,-1.65715182,0.49690041,0.25017187,-0.75637937,0.00000000,0.00000000,0.04106010,1.73509896,-0.01716738,-0.42399842,0.21831357,0.00000000,0.00000000
-0.05457342,-1.66640401,0.49506974,0.25516340,-0.77194536,0.00000000,0.00000000,0.04810428,1.74675846,-0.01004898,-0.42036495,0.21961169,0.00000000,0.00000000
-0.05972666,-1.67502713,0.49282962,0.26121521,-0.79101515,0.00000000,0.00000000,0.05406004,1.75870061,-0.00197752,-0.41570902,0.22596855,0.00000000,0.00000000
-0.06428023,-1.68332171,0.49017820,0.26814827,-0.81177813,0.00000000,0.00000000,0.05908861,1.77061665,0.00697725,-0.40998539,0.23578741,0.00000000,0.00000000
-0.06852565,-1.69162214,0.48715577,0.27583662,-0.83430624,0.00000000,0.00000000,0.06379869,1.78188825,0.01658083,-0.40334868,0.25076109,0.00000000,0.00000000
-0.07286739,-1.70014238,0.48381290,0.28422225,-0.85676771,0.00000000,0.00000000,0.06894197,1.79180658,0.02653893,-0.39603961,0.26452681,0.00000000,0.00000000
-0.07758333,-1.70920610,0.48018387,0.29314965,-0.87938285,0.00000000,0.00000000,0.07502342,1.79990280,0.03664212,-0.38818279,0.28259379,0.00000000,0.00000000
-0.08276039,-1.71923637,0.47627231,0.30241925,-0.89634794,0.00000000,0.00000000,0.08216272,1.80611515,0.04682533,-0.37966743,0.31263393,0.00000000,0.00000000
-0.08838037,-1.73061502,0.47205362,0.31193286,-0.90919614,0.00000000,0.00000000,0.09021435,1.81079757,0.05713020,-0.37013245,0.33713683,0.00000000,0.00000000
-0.09445383,-1.74364924,0.46749640,0.32179603,-0.92119133,0.00000000,0.00000000,0.09888988,1.81415391,0.06764720,-0.35931441,0.36193651,0.00000000,0.00000000
-0.10101218,-1.75873685,0.46257731,0.33222726,-0.92855644,0.00000000,0.00000000,0.10783360,1.81627405,0.07847395,-0.34706530,0.38931742,0.00000000,0.00000000
-0.10806213,-1.77662802,0.45730320,0.34334949,-0.93580705,0.00000000,0.00000000,0.11665437,1.81730068,0.08969065,-0.33328962,0.42058477,0.00000000,0.00000000
-0.11555238,-1.79846621,0.45171258,0.35504290,-0.93492824,0.00000000,0.00000000,0.12493881,1.81759524,0.10134622,-0.31787872,0.45210025,0.00000000,0.00000000
-0.12330301,-1.82521009,0.44579428,0.36707404,-0.93693811,0.00000000,0.00000000,0.13228208,1.81772423,0.11344501,-0.30079350,0.49130234,0.00000000,0.00000000
-0.13093670,-1.85650778,0.43933553,0.37946898,-0.94645768,0.00000000,0.00000000,0.13841334,1.81840217,0.12592927,-0.28220034,0.53284180,0.00000000,0.00000000
-0.13806553,-1.89066410,0.43195605,0.39237252,-0.94983864,0.00000000,0.00000000,0.14301610,1.82082999,0.13874164,-0.26229274,0.57283330,0.00000000,0.00000000
-0.14445686,-1.92566347,0.42326692,0.40553150,-0.94762307,0.00000000,0.00000000,0.14534070,1.82517087,0.15185894,-0.24193345,0.60924977,0.00000000,0.00000000
-0.14952315,-1.95950925,0.41279361,0.41835687,-0.94104505,0.00000000,0.00000000,0.14516799,1.82932842,0.16506164,-0.22272053,0.64660108,0.00000000,0.00000000
-0.15253204,-1.99155164,0.40022734,0.43017378,-0.93702835,0.00000000,0.00000000,0.14290382,1.83220983,0.17803858,-0.20516825,0.68768364,0.00000000,0.00000000
-0.15375672,-2.02076268,0.38557789,0.44172072,-0.92755842,0.00000000,0.00000000,0.13901007,1.83355570,0.19053563,-0.18925747,0.72674870,0.00000000,0.00000000
-0.15400377,-2.04611516,0.36908084,0.45416623,-0.91600424,0.00000000,0.00000000,0.13391139,1.83317280,0.20238018,-0.17498524,0.76412904,0.00000000,0.00000000
-0.15419684,-2.06723213,0.35110936,0.46824458,-0.90489596,0.00000000,0.00000000,0.12803578,1.83090985,0.21347325,-0.16233402,0.79635507,0.00000000,0.00000000
-0.15512958,-2.08451033,0.33204362,0.48406300,-0.89180177,0.00000000,0.00000000,0.12171911,1.82669353,0.22376847,-0.15124789,0.83089292,0.00000000,0.00000000
-0.15714781,-2.09901977,0.31211942,0.50116730,-0.88023329,0.00000000,0.00000000,0.11505549,1.82063866,0.23324673,-0.14161360,0.86540145,0.00000000,0.00000000
-0.16017306,-2.11241078,0.29140207,0.51884454,-0.86943775,0.00000000,0.00000000,0.10798748,1.81322527,0.24189436,-0.13317832,0.89161253,0.00000000,0.00000000
-0.16394088,-2.12719464,0.26981616,0.53650552,-0.85446197,0.00000000,0.00000000,0.10052208,1.80543292,0.24969928,-0.12545215,0.92030799,0.00000000,0.00000000
-0.16820072,-2.14403558,0.24724846,0.55364406,-0.84087127,0.00000000,0.00000000,0.09282208,1.79860330,0.25665569,-0.11774402,0.95011657,0.00000000,0.00000000
-0.17250594,-2.15770817,0.22376403,0.56902927,-0.82436371,0.00000000,0.00000000,0.08497424,1.79320323,0.26276353,-0.10980227,0.97268832,0.00000000,0.00000000
-0.17696740,-2.16602087,0.19947080,0.58139020,-0.80776572,0.00000000,0.00000000,0.07702352,1.78905749,0.26802471,-0.10166521,0.99814272,0.00000000,0.00000000
-0.18193778,-2.16932726,0.17443092,0.59011030,-0.78706169,0.00000000,0.00000000,0.06896250,1.78589141,0.27244821,-0.09337632,1.01653004,0.00000000,0.00000000
-0.18780018,-2.16996479,0.14871773,0.59517658,-0.76256299,0.00000000,0.00000000,0.06071408,1.78342950,0.27605030,-0.08494153,1.03837621,0.00000000,0.00000000
-0.19492872,-2.17000008,0.12244885,0.59686679,-0.73318446,0.00000000,0.00000000,0.05217133,1.78146136,0.27885225,-0.07631005,1.05765641,0.00000000,0.00000000
-0.20363240,-2.17000008,0.09575964,0.59550232,-0.70623577,0.00000000,0.00000000,0.04322144,1.77984154,0.28087956,-0.06740046,1.07391965,0.00000000,0.00000000
-0.21415924,-2.17000008,0.06876383,0.59135836,-0.67746335,0.00000000,0.00000000,0.03373853,1.77841055,0.28216153,-0.05816128,1.08996534,0.00000000,0.00000000
-0.22669081,-2.17000008,0.04153187,0.58463317,-0.64561236,0.00000000,0.00000000,0.02356298,1.77696395,0.28273153,-0.04859259,1.10398591,0.00000000,0.00000000
-0.24131945,-2.17000008,0.01408374,0.57541066,-0.61745125,0.00000000,0.00000000,0.01248976,1.77528083,0.28262597,-0.03872091,1.11829782,0.00000000,0.00000000
-0.25802848,-2.17000008,-0.01361384,0.56362981,-0.59234971,0.00000000,0.00000000,0.00025826,1.77316678,0.28188381,-0.02856696,1.13642919,0.00000000,0.00000000
-0.27668738,-2.17000008,-0.04164769,0.54907846,-0.57279998,0.00000000,0.00000000,-0.01346261,1.77047372,0.28054562,-0.01813263,1.15799916,0.00000000,0.00000000
-0.29706368,-2.17000008,-0.07015253,0.53141266,-0.54777777,0.00000000,0.00000000,-0.02908290,1.76709485,0.27865142,-0.00739853,1.17355168,0.00000000,0.00000000
-0.31883734,-2.17000008,-0.09930073,0.51018941,-0.52216536,0.00000000,0.00000000,-0.04709344,1.76295877,0.27623838,0.00367716,1.19282448,0.00000000,0.00000000
-0.34161171,-2.17000008,-0.12929019,0.48491278,-0.49661526,0.00000000,0.00000000,-0.06807496,1.75799787,0.27333829,0.01514190,1.22152269,0.00000000,0.00000000
-0.36493385,-2.17000008,-0.16032752,0.45509160,-0.46826971,0.00000000,0.00000000,-0.09272391,1.75207353,0.26997513,0.02699976,1.25364578,0.00000000,0.00000000
-0.38831991,-2.17000008,-0.19260432,0.42029586,-0.44705638,0.00000000,0.00000000,-0.12190399,1.74485815,0.26616165,0.03913232,1.28201580,0.00000000,0.00000000
-0.41124228,-2.17000008,-0.22627601,0.38020128,-0.42294201,0.00000000,0.00000000,-0.15674847,1.73570001,0.26189435,0.05120100,1.30781448,0.00000000,0.00000000
-0.43305656,-2.17000008,-0.26144525,0.33464035,-0.40519631,0.00000000,0.00000000,-0.19883259,1.72347176,0.25714332,0.06253090,1.33103728,0.00000000,0.00000000
-0.45290565,-2.17000008,-0.29814166,0.28366682,-0.39526594,0.00000000,0.00000000,-0.25038570,1.70636678,0.25183904,0.07196540,1.36111379,0.00000000,0.00000000
-0.46968326,-2.17000008,-0.33629119,0.22761932,-0.38633534,0.00000000,0.00000000,-0.31447324,1.68160284,0.24586351,0.07767908,1.39543140,0.00000000,0.00000000
-0.48211405,-2.16991591,-0.37568897,0.16713232,-0.37694260,0.00000000,0.00000000,-0.39503166,1.64513338,0.23906076,0.07701477,1.42415059,0.00000000,0.00000000
-0.48895425,-2.16854262,-0.41599283,0.10303192,-0.36658189,0.00000000,0.00000000,-0.49649185,1.59186876,0.23129131,0.06666712,1.44545007,0.00000000,0.00000000
-0.48928711,-2.16301155,-0.45674318,0.03613548,-0.35226321,0.00000000,0.00000000,-0.62273729,1.51693797,0.22254497,0.04353714,1.47084308,0.00000000,0.00000000
-0.48279625,-2.15242290,-0.49740580,-0.03293435,-0.33870760,0.00000000,0.00000000,-0.77576411,1.41743970,0.21307373,0.00581712,1.49623311,0.00000000,0.00000000
-0.46989262,-2.13733172,-0.53742683,-0.10387325,-0.32349309,0.00000000,0.00000000,-0.95478868,1.29343987,0.20348096,-0.04655030,1.52622092,0.00000000,0.00000000
-0.45170870,-2.11875176,-0.57627672,-0.17674871,-0.31296197,0.00000000,0.00000000,-1.15598929,1.14802206,0.19475134,-0.11204172,1.55944204,0.00000000,0.00000000
-0.42996886,-2.09807038,-0.61346012,-0.25196511,-0.30287156,0.00000000,0.00000000,-1.37272513,0.98684412,0.18823452,-0.18791656,1.58920312,0.00000000,0.00000000
-0.40660971,-2.07701397,-0.64847016,-0.33013088,-0.28643456,0.00000000,0.00000000,-1.59620380,0.81737244,0.18558548,-0.27065977,1.62516832,0.00000000,0.00000000
-0.38336691,-2.05740857,-0.68071979,-0.41178989,-0.27071109,0.00000000,0.00000000,-1.81654716,0.64782315,0.18866363,-0.35656339,1.66282773,0.00000000,0.00000000
-0.36154908,-2.04071140,-0.70953178,-0.49708620,-0.25611812,0.00000000,0.00000000,-2.02402759,0.48597696,0.19941293,-0.44238701,1.69449604,0.00000000,0.00000000
-0.34209654,-2.02731943,-0.73431057,-0.58544159,-0.24764767,0.00000000,0.00000000,-2.21012115,0.33820212,0.21975435,-0.52591234,1.72184551,0.00000000,0.00000000
-0.32551870,-2.01649475,-0.75464731,-0.67547852,-0.24500822,0.00000000,0.00000000,-2.36809850,0.20883644,0.25151202,-0.60628927,1.75712299,0.00000000,0.00000000
-0.31172842,-2.00747156,-0.77026916,-0.76552922,-0.24335207,0.00000000,0.00000000,-2.49311113,0.09990068,0.29636648,-0.68416065,1.79659915,0.00000000,0.00000000
-0.30157217,-1.99835646,-0.78183299,-0.85366815,-0.24342673,0.00000000,0.00000000,-2.58190346,0.01140514,0.35584566,-0.76140386,1.83796322,0.00000000,0.00000000
-0.29553342,-1.98903370,-0.78985101,-0.93848610,-0.23929389,0.00000000,0.00000000,-2.63534760,-0.05992357,0.42959633,-0.83968318,1.87662852,0.00000000,0.00000000
-0.29473180,-1.98078489,-0.79514730,-1.01963544,-0.23745921,0.00000000,0.00000000,-2.66535807,-0.12228779,0.51110095,-0.91791922,1.91053402,0.00000000,0.00000000
-0.29926920,-1.97354448,-0.79927111,-1.09617245,-0.23928878,0.00000000,0.00000000,-2.68828344,-0.18263680,0.59103215,-0.99413419,1.95007455,0.00000000,0.00000000
-0.30733842,-1.96634734,-0.80332845,-1.16649306,-0.23442093,0.00000000,0.00000000,-2.71217942,-0.24215135,0.66465151,-1.06605291,1.98656023,0.00000000,0.00000000
-0.31677443,-1.95848918,-0.80779308,-1.22929478,-0.23080601,0.00000000,0.00000000,-2.73917866,-0.29928192,0.73076487,-1.13144732,2.01741457,0.00000000,0.00000000
-0.32584026,-1.94954491,-0.81282347,-1.28372371,-0.22896692,0.00000000,0.00000000,-2.76954913,-0.35239807,0.78945976,-1.18867707,2.05186057,0.00000000,0.00000000
-0.33327618,-1.93936145,-0.81831318,-1.32931948,-0.22304873,0.00000000,0.00000000,-2.80266070,-0.40044767,0.84145480,-1.23691285,2.09771824,0.00000000,0.00000000
-0.33831394,-1.92830777,-0.82381642,-1.36615884,-0.21444474,0.00000000,0.00000000,-2.83702993,-0.44317409,0.88785917,-1.27632535,2.14271402,0.00000000,0.00000000
-0.34076226,-1.91723680,-0.82871109,-1.39490676,-0.20454225,0.00000000,0.00000000,-2.87056327,-0.48097154,0.92992699,-1.30795968,2.18831921,0.00000000,0.00000000
-0.34105155,-1.90697801,-0.83264369,-1.41654229,-0.19051614,0.00000000,0.00000000,-2.90143347,-0.51433498,0.96875638,-1.33303058,2.23773837,0.00000000,0.00000000
-0.33999240,-1.89796507,-0.83570069,-1.43198955,-0.17310579,0.00000000,0.00000000,-2.92871618,-0.54348928,1.00514126,-1.35230887,2.28704691,0.00000000,0.00000000
-0.33833960,-1.89037788,-0.83807099,-1.44200087,-0.16055699,0.00000000,0.00000000,-2.95221663,-0.56856585,1.03953958,-1.36625385,2.32995081,0.00000000,0.00000000
-0.33659738,-1.88431954,-0.83981365,-1.44718599,-0.14555909,0.00000000,0.00000000,-2.97190785,-0.58983731,1.07213485,-1.37559688,2.37734365,0.00000000,0.00000000
-0.33513910,-1.87945974,-0.84118676,-1.44781613,-0.13191050,0.00000000,0.00000000,-2.98778319,-0.60759920,1.10288298,-1.38181031,2.42716575,0.00000000,0.00000000
-0.33452392,-1.87500060,-0.84289187,-1.44383657,-0.11700221,0.00000000,0.00000000,-2.99997854,-0.62244606,1.13121378,-1.38742876,2.47995567,0.00000000,0.00000000
-0.33529761,-1.87143314,-0.84476149,-1.43574941,-0.10442602,0.00000000,0.00000000,-3.00769520,-0.63621217,1.15616155,-1.39643776,2.52791262,0.00000000,0.00000000
-0.33721721,-1.87169182,-0.84449625,-1.42518389,-0.09809391,0.00000000,0.00000000,-3.00986218,-0.65109885,1.17751527,-1.41303992,2.57227945,0.00000000,0.00000000
-0.34036958,-1.87865174,-0.84013569,-1.41403818,-0.09159433,0.00000000,0.00000000,-3.00995755,-0.66741753,1.19477892,-1.43689001,2.61681533,0.00000000,0.00000000
-0.34504154,-1.89339483,-0.83117682,-1.40308273,-0.09232401,0.00000000,0.00000000,-3.00925350,-0.68429548,1.20663667,-1.46350789,2.65978456,0.00000000,0.00000000
-0.35116690,-1.91528285,-0.81813824,-1.39186859,-0.09379071,0.00000000,0.00000000,-3.00631642,-0.70009297,1.21312523,-1.48813200,2.70159483,0.00000000,0.00000000
-0.35782748,-1.94233799,-0.80190039,-1.37947869,-0.10252438,0.00000000,0.00000000,-3.00075126,-0.71306944,1.21584892,-1.50733376,2.74557614,0.00000000,0.00000000
-0.36373660,-1.97206604,-0.78342086,-1.36557233,-0.10186607,0.00000000,0.00000000,-2.99391961,-0.72205150,1.21714842,-1.51914942,2.79317093,0.00000000,0.00000000
-0.36867326,-2.00163722,-0.76452523,-1.35033345,-0.09753597,0.00000000,0.00000000,-2.98731351,-0.72671843,1.21934783,-1.52288973,2.82850099,0.00000000,0.00000000
-0.37383258,-2.02848768,-0.74776465,-1.33460164,-0.09353473,0.00000000,0.00000000,-2.98174286,-0.72748899,1.22424304,-1.51888514,2.86353111,0.00000000,0.00000000
-0.38036951,-2.05147505,-0.73474765,-1.31988275,-0.08439965,0.00000000,0.00000000,-2.97700286,-0.72530210,1.23275948,-1.50836754,2.87979317,0.00000000,0.00000000
-0.38807756,-2.07059121,-0.72543687,-1.30704129,-0.07335503,0.00000000,0.00000000,-2.97185183,-0.72140890,1.24483252,-1.49331474,2.87979317,0.00000000,0.00000000
-0.39583221,-2.08612585,-0.71896613,-1.29573214,-0.05799165,0.00000000,0.00000000,-2.96472621,-0.71707213,1.25955772,-1.47589338,2.87979317,0.00000000,0.00000000
-0.40269324,-2.09831953,-0.71461195,-1.28540015,-0.04092865,0.00000000,0.00000000,-2.95513296,-0.71319497,1.27545762,-1.45753634,2.87979317,0.00000000,0.00000000
-0.40823889,-2.10765672,-0.71186650,-1.27694094,-0.02226679,0.00000000,0.00000000,-2.94417381,-0.71021247,1.29090559,-1.43878806,2.87979317,0.00000000,0.00000000
-0.41230431,-2.11537671,-0.70997232,-1.27247620,-0.01316204,0.00000000,0.00000000,-2.93279409,-0.70843387,1.30472052,-1.42021847,2.87979317,0.00000000,0.00000000
-0.41399202,-2.12168264,-0.70826226,-1.27209210,-0.00574136,0.00000000,0.00000000,-2.92128325,-0.70817530,1.31624246,-1.40222085,2.87979317,0.00000000,0.00000000
-0.41209266,-2.12642956,-0.70607704,-1.27493632,0.00411502,0.00000000,0.00000000,-2.90971184,-0.70993662,1.32486904,-1.38496900,2.87979317,0.00000000,0.00000000
-0.40620282,-2.12921023,-0.70347226,-1.28003538,0.01128476,0.00000000,0.00000000,-2.89800644,-0.71387833,1.33042431,-1.36830556,2.87979317,0.00000000,0.00000000
-0.39684695,-2.12950087,-0.70124030,-1.28665316,0.01590138,0.00000000,0.00000000,-2.88565969,-0.71959424,1.33337140,-1.35184658,2.87979317,0.00000000,0.00000000
-0.38543287,-2.12691641,-0.70075130,-1.29472995,0.01898977,0.00000000,0.00000000,-2.87190104,-0.72631222,1.33453834,-1.33514786,2.87979317,0.00000000,0.00000000
-0.37387499,-2.12136817,-0.70358717,-1.30459321,0.01739378,0.00000000,0.00000000,-2.85629487,-0.73343444,1.33447492,-1.31772280,2.87979317,0.00000000,0.00000000
-0.36299482,-2.11309481,-0.71035761,-1.31613564,0.02300566,0.00000000,0.00000000,-2.83891320,-0.74109262,1.33296490,-1.29915583,2.87979317,0.00000000,0.00000000
-0.35171163,-2.10257196,-0.72010797,-1.32841349,0.02212171,0.00000000,0.00000000,-2.82016206,-0.75008625,1.32925165,-1.27920532,2.87979317,0.00000000,0.00000000
-0.34011915,-2.09094667,-0.73209578,-1.34129441,0.02660983,0.00000000,0.00000000,-2.79922843,-0.76136762,1.32298195,-1.25861228,2.87979317,0.00000000,0.00000000
-0.33223349,-2.07960510,-0.74788749,-1.35672891,0.03275339,0.00000000,0.00000000,-2.77406502,-0.77536231,1.31483650,-1.23906672,2.87979317,0.00000000,0.00000000
-0.32751408,-2.06777716,-0.76709449,-1.37455344,0.04384366,0.00000000,0.00000000,-2.74652719,-0.79134488,1.30565703,-1.22045481,2.87979317,0.00000000,0.00000000
-0.32190686,-2.05393720,-0.78743869,-1.39313102,0.05931162,0.00000000,0.00000000,-2.72020197,-0.80825090,1.29588556,-1.20210052,2.87979317,0.00000000,0.00000000
-0.31138378,-2.03773117,-0.80601150,-1.41132748,0.07697259,0.00000000,0.00000000,-2.69813251,-0.82534552,1.28547692,-1.18394101,2.87979317,0.00000000,0.00000000
-0.29514608,-2.02028632,-0.82112646,-1.42872453,0.10047898,0.00000000,0.00000000,-2.68202829,-0.84216398,1.27427721,-1.16639698,2.87979317,0.00000000,0.00000000
-0.27916393,-2.00516391,-0.83392340,-1.44719708,0.11788289,0.00000000,0.00000000,-2.67128992,-0.85721183,1.26357830,-1.15110183,2.87979317,0.00000000,0.00000000
-0.26773924,-1.99359095,-0.84593958,-1.46857119,0.14065772,0.00000000,0.00000000,-2.66313148,-0.86986536,1.25464153,-1.14123023,2.87979317,0.00000000,0.00000000
-0.25928244,-1.98448265,-0.85644138,-1.49154329,0.16224389,0.00000000,0.00000000,-2.65819478,-0.88077927,1.24686742,-1.13701427,2.87979317,0.00000000,0.00000000
-0.25101900,-1.97614932,-0.86458039,-1.51402926,0.18883555,0.00000000,0.00000000,-2.65758085,-0.88996434,1.24009252,-1.13806474,2.87979317,0.00000000,0.00000000
-0.24126197,-1.96705806,-0.87036401,-1.53452170,0.21283890,0.00000000,0.00000000,-2.66139340,-0.89681923,1.23489511,-1.14443421,2.87979317,0.00000000,0.00000000
-0.22957255,-1.95669627,-0.87398666,-1.55189931,0.23434165,0.00000000,0.00000000,-2.66989899,-0.90075982,1.23173356,-1.15536654,2.87979317,0.00000000,0.00000000
-0.21697079,-1.94594419,-0.87554932,-1.56547666,0.25052312,0.00000000,0.00000000,-2.68402267,-0.90168780,1.23042464,-1.16849291,2.87979317,0.00000000,0.00000000
-0.20435102,-1.93648577,-0.87431234,-1.57531619,0.26320258,0.00000000,0.00000000,-2.70360017,-0.90026861,1.23042595,-1.18184412,2.87979317,0.00000000,0.00000000
-0.19205524,-1.92946696,-0.86949474,-1.58181584,0.27269372,0.00000000,0.00000000,-2.72751784,-0.89688957,1.23164105,-1.19437158,2.87979317,0.00000000,0.00000000
-0.18036243,-1.92502713,-0.86109161,-1.58506072,0.28075257,0.00000000,0.00000000,-2.75442553,-0.89131534,1.23445868,-1.20547998,2.87979317,0.00000000,0.00000000
-0.16970496,-1.92295456,-0.84961355,-1.58500218,0.29602027,0.00000000,0.00000000,-2.78263807,-0.88332230,1.23922026,-1.21518397,2.87979317,0.00000000,0.00000000
-0.16114104,-1.92319477,-0.83609211,-1.58201790,0.31578141,0.00000000,0.00000000,-2.80990672,-0.87306309,1.24600017,-1.22425020,2.87979317,0.00000000,0.00000000
-0.15628494,-1.92602587,-0.82189560,-1.57707560,0.33385319,0.00000000,0.00000000,-2.83353639,-0.86122733,1.25449717,-1.23408628,2.87979317,0.00000000,0.00000000
-0.15646125,-1.93187308,-0.80824286,-1.57124913,0.35039225,0.00000000,0.00000000,-2.85230851,-0.84847301,1.26400483,-1.24581182,2.87979317,0.00000000,0.00000000
-0.16159952,-1.94076872,-0.79576629,-1.56502950,0.37057576,0.00000000,0.00000000,-2.86775517,-0.83462131,1.27373266,-1.25941944,2.87979317,0.00000000,0.00000000
-0.16935912,-1.95181799,-0.78412068,-1.55809498,0.39351919,0.00000000,0.00000000,-2.88293600,-0.81848061,1.28329468,-1.27389860,2.87979317,0.00000000,0.00000000
-0.17515354,-1.96361113,-0.77150965,-1.54971647,0.41799375,0.00000000,0.00000000,-2.90006351,-0.79890519,1.29239690,-1.28783154,2.87277126,0.00000000,0.00000000
-0.17723253,-1.97506213,-0.75791669,-1.53995013,0.43644962,0.00000000,0.00000000,-2.91798472,-0.77624530,1.30018246,-1.30033171,2.87101603,0.00000000,0.00000000
-0.18022622,-1.98592532,-0.74753624,-1.53016853,0.46099749,0.00000000,0.00000000,-2.93342161,-0.75149047,1.30569410,-1.31128967,2.87619901,0.00000000,0.00000000
-0.18498020,-1.99526000,-0.74196976,-1.51923323,0.48274145,0.00000000,0.00000000,-2.94626379,-0.72562051,1.30696201,-1.31968808,2.87905478,0.00000000,0.00000000
-0.19053954,-2.00323963,-0.74061936,-1.50473118,0.49857008,0.00000000,0.00000000,-2.95810747,-0.69923276,1.30183899,-1.32412326,2.87979317,0.00000000,0.00000000
-0.19689213,-2.01029325,-0.74337941,-1.48443568,0.51243144,0.00000000,0.00000000,-2.96993566,-0.67238367,1.28895867,-1.32359743,2.87979317,0.00000000,0.00000000
-0.20332676,-2.01631689,-0.74976712,-1.45657659,0.52872592,0.00000000,0.00000000,-2.98186779,-0.64473444,1.26784432,-1.31742716,2.87979317,0.00000000,0.00000000
-0.20823558,-2.02076602,-0.75868940,-1.41972268,0.54927540,0.00000000,0.00000000,-2.99337769,-0.61613482,1.23843575,-1.30522442,2.87979317,0.00000000,0.00000000
-0.20994505,-2.02322221,-0.76874155,-1.37294006,0.57178658,0.00000000,0.00000000,-3.00298023,-0.58700395,1.20092452,-1.28721511,2.87979317,0.00000000,0.00000000
-0.20867892,-2.02427959,-0.77895910,-1.31692553,0.59370804,0.00000000,0.00000000,-3.00849986,-0.55828321,1.15610957,-1.26462805,2.87979317,0.00000000,0.00000000
-0.20823240,-2.02597237,-0.78970146,-1.25486994,0.61406827,0.00000000,0.00000000,-3.00991273,-0.53112769,1.10566735,-1.23958802,2.87979317,0.00000000,0.00000000
-0.21077345,-2.02995253,-0.80076927,-1.18934083,0.63223219,0.00000000,0.00000000,-3.00999999,-0.50650644,1.05163324,-1.21409953,2.87979317,0.00000000,0.00000000
-0.21479951,-2.03667593,-0.81088662,-1.12096024,0.64642805,0.00000000,0.00000000,-3.00999999,-0.48493508,0.99590808,-1.18937385,2.87979317,0.00000000,0.00000000
-0.21844937,-2.04603553,-0.81916648,-1.05001271,0.66487479,0.00000000,0.00000000,-3.00999999,-0.46650785,0.94018739,-1.16597581,2.87979317,0.00000000,0.00000000
-0.22085769,-2.05744076,-0.82546639,-0.97705638,0.68580502,0.00000000,0.00000000,-3.00999999,-0.45107779,0.88608998,-1.14421725,2.87979317,0.00000000,0.00000000
-0.22229768,-2.06956387,-0.83025986,-0.90283012,0.70756441,0.00000000,0.00000000,-3.00999999,-0.43833753,0.83541751,-1.12442696,2.87979317,0.00000000,0.00000000
-0.22352052,-2.08027101,-0.83430588,-0.82837760,0.73064446,0.00000000,0.00000000,-3.00999999,-0.42774165,0.79034728,-1.10697091,2.87979317,0.00000000,0.00000000
-0.22671156,-2.08798623,-0.83852810,-0.75701094,0.75808871,0.00000000,0.00000000,-3.00999999,-0.41851038,0.75318468,-1.09206021,2.87979317,0.00000000,0.00000000
-0.23683989,-2.09268522,-0.84422213,-0.69326562,0.78950155,0.00000000,0.00000000,-3.00999999,-0.40994129,0.72581172,-1.07968104,2.87979317,0.00000000,0.00000000
-0.25385660,-2.09354687,-0.85146469,-0.63718665,0.81946081,0.00000000,0.00000000,-3.00999999,-0.40145910,0.70948541,-1.06966424,2.87979317,0.00000000,0.00000000
-0.27448240,-2.09004331,-0.85953999,-0.58689201,0.84989262,0.00000000,0.00000000,-3.00999999,-0.39251876,0.70479721,-1.06168211,2.87979317,0.00000000,0.00000000
-0.29599151,-2.08235097,-0.86790621,-0.54107839,0.87827474,0.00000000,0.00000000,-3.00999999,-0.38289592,0.71160960,-1.05528831,2.87979317,0.00000000,0.00000000
-0.31633097,-2.07088161,-0.87623954,-0.49887291,0.91224569,0.00000000,0.00000000,-3.00999999,-0.37287334,0.72889394,-1.04974055,2.87979317,0.00000000,0.00000000
-0.33376890,-2.05624104,-0.88429385,-0.45960191,0.94414294,0.00000000,0.00000000,-3.00999999,-0.36309463,0.75469452,-1.04391336,2.87979317,0.00000000,0.00000000
-0.34710070,-2.03932166,-0.89188689,-0.42288011,0.97710037,0.00000000,0.00000000,-3.00999999,-0.35443464,0.78645927,-1.03681576,2.87979317,0.00000000,0.00000000
-0.35591564,-2.02120471,-0.89893931,-0.38868454,1.01649272,0.00000000,0.00000000,-3.00999999,-0.34785864,0.82146472,-1.02827454,2.87979317,0.00000000,0.00000000
-0.36048740,-2.00277901,-0.90549719,-0.35718995,1.05606699,0.00000000,0.00000000,-3.00999999,-0.34367120,0.85714507,-1.01908898,2.87979317,0.00000000,0.00000000
-0.36137280,-1.98453343,-0.91169232,-0.32854813,1.09069073,0.00000000,0.00000000,-3.00999999,-0.34041500,0.89162850,-1.01034081,2.87979317,0.00000000,0.00000000
-0.35914990,-1.96708500,-0.91762429,-0.30297124,1.12956333,0.00000000,0.00000000,-3.00999999,-0.33608434,0.92429292,-1.00221419,2.87979317,0.00000000,0.00000000
-0.35437378,-1.95129204,-0.92334336,-0.28075445,1.17016387,0.00000000,0.00000000,-3.00999999,-0.33056858,0.95539731,-0.99400371,2.87979317,0.00000000,0.00000000
-0.34756440,-1.93773985,-0.92891657,-0.26209870,1.20792735,0.00000000,0.00000000,-3.00999999,-0.32467082,0.98514837,-0.98518145,2.87979317,0.00000000,0.00000000
-0.33920187,-1.92674661,-0.93441874,-0.24711233,1.24821460,0.00000000,0.00000000,-3.00999999,-0.31929398,1.01335096,-0.97568929,2.87979317,0.00000000,0.00000000
-0.32967299,-1.91849530,-0.93990898,-0.23583278,1.28243124,0.00000000,0.00000000,-3.00999999,-0.31521869,1.03959715,-0.96563679,2.87979317,0.00000000,0.00000000
-0.31922400,-1.91306806,-0.94542384,-0.22821926,1.30584633,0.00000000,0.00000000,-3.00999999,-0.31291792,1.06354070,-0.95512986,2.87979317,0.00000000,0.00000000
-0.30798179,-1.91045880,-0.95098174,-0.22416936,1.32972443,0.00000000,0.00000000,-3.00999999,-0.31254867,1.08503878,-0.94433439,2.87979317,0.00000000,0.00000000
-0.29600617,-1.91056049,-0.95659328,-0.22354655,1.36118472,0.00000000,0.00000000,-3.00999999,-0.31403622,1.10417175,-0.93359315,2.87979317,0.00000000,0.00000000
-0.28334290,-1.91317070,-0.96226591,-0.22621807,1.38645923,0.00000000,0.00000000,-3.00999999,-0.31718221,1.12118137,-0.92347968,2.87979317,0.00000000,0.00000000
-0.27007350,-1.91804338,-0.96800333,-0.23209712,1.41299319,0.00000000,0.00000000,-3.00999999,-0.32174918,1.13636672,-0.91476506,2.87979317,0.00000000,0.00000000
-0.25634608,-1.92492986,-0.97380203,-0.24115877,1.43752134,0.00000000,0.00000000,-3.00999999,-0.32745817,1.15000534,-0.90828431,2.87979317,0.00000000,0.00000000
-0.24237549,-1.93357801,-0.97965074,-0.25342068,1.45864928,0.00000000,0.00000000,-3.00999999,-0.33394223,1.16230202,-0.90473771,2.87979317,0.00000000,0.00000000
-0.22841899,-1.94368482,-0.98553586,-0.26890716,1.48111033,0.00000000,0.00000000,-3.00999832,-0.34074700,1.17333043,-0.90451276,2.87979317,0.00000000,0.00000000
-0.21473777,-1.95484555,-0.99144810,-0.28762099,1.50224185,0.00000000,0.00000000,-3.00985217,-0.34739339,1.18297148,-0.90761375,2.87979317,0.00000000,0.00000000
-0.20156361,-1.96653342,-0.99738657,-0.30953857,1.51682734,0.00000000,0.00000000,-3.00782609,-0.35341156,1.19086969,-0.91373581,2.87979317,0.00000000,0.00000000
-0.18909228,-1.97812366,-1.00335407,-0.33463264,1.52715302,0.00000000,0.00000000,-3.00003767,-0.35821998,1.19649756,-0.92249084,2.87979317,0.00000000,0.00000000
-0.17746711,-1.98893726,-1.00934541,-0.36288893,1.53538167,0.00000000,0.00000000,-2.98556662,-0.36106446,1.19932485,-0.93364310,2.87979317,0.00000000,0.00000000
-0.16670997,-1.99838817,-1.01530981,-0.39431626,1.53774393,0.00000000,0.00000000,-2.96516681,-0.36156663,1.19898605,-0.94702995,2.87979317,0.00000000,0.00000000
-0.15679897,-2.00619864,-1.02111065,-0.42903638,1.53825152,0.00000000,0.00000000,-2.93978286,-0.36019823,1.19552863,-0.96216887,2.87979317,0.00000000,0.00000000
-0.14790539,-2.01232672,-1.02655220,-0.46735996,1.53141403,0.00000000,0.00000000,-2.91028476,-0.35745844,1.18957114,-0.97800434,2.87979317,0.00000000,0.00000000
-0.14040928,-2.01678920,-1.03141689,-0.50973099,1.52826321,0.00000000,0.00000000,-2.87708020,-0.35301876,1.18222117,-0.99309260,2.87979317,0.00000000,0.00000000
-0.13480149,-2.01975298,-1.03544056,-0.55671155,1.52259815,0.00000000,0.00000000,-2.83996201,-0.34608325,1.17473388,-1.00606465,2.87979317,0.00000000,0.00000000
-0.13178906,-2.02179265,-1.03827012,-0.60914809,1.51541317,0.00000000,0.00000000,-2.79835629,-0.33611900,1.16810167,-1.01594687,2.87979317,0.00000000,0.00000000
-0.13312539,-2.02424002,-1.03954566,-0.66875368,1.51026714,0.00000000,0.00000000,-2.75177598,-0.32311967,1.16282237,-1.02214563,2.87979317,0.00000000,0.00000000
-0.13945518,-2.02875757,-1.03851724,-0.73571855,1.50002086,0.00000000,0.00000000,-2.70075560,-0.30784386,1.15852809,-1.02406204,2.87979317,0.00000000,0.00000000
-0.14668721,-2.03587818,-1.03359473,-0.80423146,1.48438442,0.00000000,0.00000000,-2.64750767,-0.29240039,1.15358222,-1.02095318,2.87979317,0.00000000,0.00000000
-0.15641986,-2.04618692,-1.02446163,-0.87112761,1.46993530,0.00000000,0.00000000,-2.59393954,-0.27950758,1.14623117,-1.01272440,2.87979317,0.00000000,0.00000000
-0.17005105,-2.06022477,-1.01089859,-0.93557662,1.46354198,0.00000000,0.00000000,-2.54115629,-0.27018982,1.13602602,-0.99907100,2.87979317,0.00000000,0.00000000
-0.18696344,-2.07734919,-0.99278158,-0.99669272,1.45765877,0.00000000,0.00000000,-2.48956275,-0.26396564,1.12363398,-0.97938693,2.87979317,0.00000000,0.00000000
-0.20633154,-2.09598136,-0.97049290,-1.05336273,1.45201969,0.00000000,0.00000000,-2.43953371,-0.25942343,1.11025333,-0.95269603,2.87979317,0.00000000,0.00000000
-0.22761142,-2.11447310,-0.94478685,-1.10461688,1.45589697,0.00000000,0.00000000,-2.39201665,-0.25489885,1.09700322,-0.91780907,2.87664533,0.00000000,0.00000000
-0.25077951,-2.13182688,-0.91657305,-1.15008831,1.45941710,0.00000000,0.00000000,-2.34839177,-0.24980623,1.08425653,-0.87431055,2.84491777,0.00000000,0.00000000
-0.27596188,-2.14749551,-0.88678724,-1.18981898,1.45050764,0.00000000,0.00000000,-2.31033230,-0.24526677,1.07145047,-0.82372618,2.81365752,0.00000000,0.00000000
-0.30250901,-2.16018772,-0.85646969,-1.22346449,1.45095444,0.00000000,0.00000000,-2.27938151,-0.24379657,1.05749655,-0.77050292,2.78186417,0.00000000,0.00000000
-0.32998699,-2.16782522,-0.82711631,-1.25099933,1.44914877,0.00000000,0.00000000,-2.25499678,-0.24861696,1.04144192,-0.72116446,2.75197506,0.00000000,0.00000000
-0.35636210,-2.16987181,-0.79934800,-1.27214146,1.44674683,0.00000000,0.00000000,-2.23607707,-0.25876677,1.02391744,-0.67799336,2.72437215,0.00000000,0.00000000
-0.38019341,-2.17000008,-0.77369159,-1.28695619,1.44561696,0.00000000,0.00000000,-2.22201777,-0.27127331,1.00599480,-0.64067125,2.70146871,0.00000000,0.00000000
-0.40075138,-2.17000008,-0.75089657,-1.29568934,1.44417000,0.00000000,0.00000000,-2.21221018,-0.28343651,0.98847252,-0.60892487,2.68204379,0.00000000,0.00000000
-0.41758952,-2.17000008,-0.73144442,-1.29887021,1.44879758,0.00000000,0.00000000,-2.20600605,-0.29315254,0.97186542,-0.58272928,2.66147947,0.00000000,0.00000000
-0.43052790,-2.17000008,-0.71541202,-1.29724574,1.45127118,0.00000000,0.00000000,-2.20279717,-0.29910749,0.95641303,-0.56224132,2.64908242,0.00000000,0.00000000
-0.43964291,-2.17000008,-0.70247883,-1.29178131,1.45369947,0.00000000,0.00000000,-2.20214248,-0.30091140,0.94207776,-0.54775292,2.64161754,0.00000000,0.00000000
-0.44524041,-2.17000008,-0.69195670,-1.28392887,1.45557868,0.00000000,0.00000000,-2.20396781,-0.29899588,0.92858487,-0.53955263,2.63915372,0.00000000,0.00000000
-0.44772553,-2.17000008,-0.68293869,-1.27566969,1.45623195,0.00000000,0.00000000,-2.20865870,-0.29426557,0.91553605,-0.53776973,2.64086652,0.00000000,0.00000000
-0.44748968,-2.17000008,-0.67458725,-1.26912379,1.46217263,0.00000000,0.00000000,-2.21700239,-0.28765962,0.90255326,-0.54227811,2.63800454,0.00000000,0.00000000
-0.44467780,-2.17000008,-0.66644037,-1.26563680,1.46270227,0.00000000,0.00000000,-2.23000574,-0.27986184,0.88938236,-0.55271041,2.62849045,0.00000000,0.00000000
-0.43903056,-2.17000008,-0.65855998,-1.26513124,1.46025777,0.00000000,0.00000000,-2.24852252,-0.27125403,0.87595481,-0.56860864,2.61593151,0.00000000,0.00000000
-0.43057153,-2.17000008,-0.65173411,-1.26681602,1.45874929,0.00000000,0.00000000,-2.27244496,-0.26206648,0.86249226,-0.58979630,2.60318470,0.00000000,0.00000000
-0.41991273,-2.17000008,-0.64707756,-1.27022588,1.45158088,0.00000000,0.00000000,-2.29981971,-0.25263160,0.84965903,-0.61681694,2.59582520,0.00000000,0.00000000
-0.40726331,-2.16995716,-0.64469427,-1.27527142,1.44212246,0.00000000,0.00000000,-2.32868695,-0.24303585,0.83821994,-0.64965314,2.58876228,0.00000000,0.00000000
-0.39231312,-2.16925812,-0.64295089,-1.28216636,1.43245244,0.00000000,0.00000000,-2.36004543,-0.23131281,0.82869321,-0.68359238,2.58586669,0.00000000,0.00000000
-0.37491846,-2.16647863,-0.63912988,-1.29129958,1.42037535,0.00000000,0.00000000,-2.39227653,-0.21461916,0.82250047,-0.71159136,2.58552098,0.00000000,0.00000000
-0.35554340,-2.16148424,-0.63199222,-1.30234766,1.40738595,0.00000000,0.00000000,-2.42224240,-0.19349018,0.82050550,-0.73218763,2.58873844,0.00000000,0.00000000
-0.33521798,-2.15524864,-0.62192398,-1.31483269,1.38863337,0.00000000,0.00000000,-2.44866371,-0.16901968,0.82270837,-0.74590045,2.59363222,0.00000000,0.00000000
-0.31569806,-2.14887285,-0.61017865,-1.32886744,1.36673510,0.00000000,0.00000000,-2.46983719,-0.14200680,0.82915425,-0.75396597,2.60304642,0.00000000,0.00000000
-0.29942855,-2.14372182,-0.59849542,-1.34523499,1.35065138,0.00000000,0.00000000,-2.48383594,-0.11310333,0.83987862,-0.75801694,2.62640572,0.00000000,0.00000000
-0.28767952,-2.13985062,-0.58846110,-1.36363864,1.33020222,0.00000000,0.00000000,-2.49024725,-0.08341052,0.85420245,-0.75942695,2.65449238,0.00000000,0.00000000
-0.27928090,-2.13649416,-0.58014596,-1.38232958,1.31628680,0.00000000,0.00000000,-2.49107170,-0.05447989,0.87043244,-0.75879079,2.68531680,0.00000000,0.00000000
-0.27278161,-2.13343906,-0.57300431,-1.39956701,1.30814219,0.00000000,0.00000000,-2.48960447,-0.02794108,0.88637477,-0.75627345,2.71632385,0.00000000,0.00000000
-0.26702634,-2.13101268,-0.56631911,-1.41421890,1.29320014,0.00000000,0.00000000,-2.48828340,-0.00509740,0.90026248,-0.75244069,2.74884486,0.00000000,0.00000000
-0.26134962,-2.12940216,-0.55987483,-1.42600787,1.28220391,0.00000000,0.00000000,-2.48912406,0.01358260,0.91088456,-0.74813509,2.77645469,0.00000000,0.00000000
-0.25718054,-2.12806344,-0.55574757,-1.43580437,1.26850808,0.00000000,0.00000000,-2.49551892,0.02800167,0.91691077,-0.74496984,2.80364990,0.00000000,0.00000000
-0.25298867,-2.12511039,-0.55398190,-1.44362712,1.25726485,0.00000000,0.00000000,-2.50607896,0.03775856,0.91856247,-0.74811596,2.82739425,0.00000000,0.00000000
-0.24795477,-2.11900735,-0.55488873,-1.44947779,1.24759567,0.00000000,0.00000000,-2.51801920,0.04357029,0.91683239,-0.76150221,2.84692001,0.00000000,0.00000000
-0.24210460,-2.10948062,-0.55869907,-1.45355916,1.23524904,0.00000000,0.00000000,-2.53097248,0.04628127,0.91191989,-0.78587890,2.87020993,0.00000000,0.00000000
-0.23605919,-2.09734869,-0.56539232,-1.45649683,1.22950184,0.00000000,0.00000000,-2.54614902,0.04650425,0.90340006,-0.81997997,2.87979317,0.00000000,0.00000000
-0.23022036,-2.08437586,-0.57406276,-1.45918083,1.22084808,0.00000000,0.00000000,-2.56455874,0.04516278,0.89100766,-0.86144215,2.87979317,0.00000000,0.00000000
-0.22418229,-2.07198071,-0.58316171,-1.46172333,1.21840107,0.00000000,0.00000000,-2.58673263,0.04347311,0.87476331,-0.90674019,2.87979317,0.00000000,0.00000000
-0.21847467,-2.06139159,-0.59200972,-1.46422911,1.21816742,0.00000000,0.00000000,-2.61168146,0.04295559,0.85553509,-0.95179826,2.87979317,0.00000000,0.00000000
-0.21317521,-2.05258632,-0.60025281,-1.46627855,1.21471417,0.00000000,0.00000000,-2.63637471,0.04602118,0.83571488,-0.99364644,2.87979317,0.00000000,0.00000000
-0.20779280,-2.04454541,-0.60767478,-1.46730196,1.22053945,0.00000000,0.00000000,-2.65880632,0.05398371,0.81742144,-1.03041315,2.87979317,0.00000000,0.00000000
-0.20188420,-2.03670311,-0.61394888,-1.46743286,1.22267306,0.00000000,0.00000000,-2.67751789,0.06662772,0.80257046,-1.06072783,2.87979317,0.00000000,0.00000000
-0.19540776,-2.02961540,-0.61859465,-1.46752834,1.22672319,0.00000000,0.00000000,-2.69147992,0.08232538,0.79272193,-1.08365691,2.87979317,0.00000000,0.00000000
-0.18880172,-2.02429652,-0.62144119,-1.46838474,1.23905098,0.00000000,0.00000000,-2.70045447,0.09869571,0.78862131,-1.09890294,2.87979317,0.00000000,0.00000000
-0.18268132,-2.02127767,-0.62287796,-1.46999645,1.24983823,0.00000000,0.00000000,-2.70490336,0.11346766,0.79011971,-1.10701144,2.87979317,0.00000000,0.00000000
-0.17748979,-2.02038193,-0.62361509,-1.47157300,1.26070082,0.00000000,0.00000000,-2.70585752,0.12489800,0.79618424,-1.10960746,2.87979317,0.00000000,0.00000000
-0.17327540,-2.02107501,-0.62420392,-1.47196913,1.27676153,0.00000000,0.00000000,-2.70486593,0.13186124,0.80486411,-1.10948896,2.87979317,0.00000000,0.00000000
-0.17001580,-2.02324963,-0.62479192,-1.47035754,1.29713368,0.00000000,0.00000000,-2.70380402,0.13360626,0.81353694,-1.10997701,2.87979317,0.00000000,0.00000000
-0.16800076,-2.02761269,-0.62523824,-1.46679056,1.31766725,0.00000000,0.00000000,-2.70438099,0.12951647,0.81971514,-1.11368930,2.87979317,0.00000000,0.00000000
-0.16771789,-2.03448391,-0.62580001,-1.46171355,1.32980824,0.00000000,0.00000000,-2.70816135,0.11959811,0.82159913,-1.12198639,2.87979317,0.00000000,0.00000000
-0.16814826,-2.04185987,-0.62691295,-1.45480394,1.34062362,0.00000000,0.00000000,-2.71645617,0.10481741,0.81825709,-1.13609064,2.87979317,0.00000000,0.00000000
-0.16657147,-2.04668045,-0.62831110,-1.44632387,1.34633899,0.00000000,0.00000000,-2.72847748,0.08678960,0.81045890,-1.15813100,2.87979317,0.00000000,0.00000000
-0.16400823,-2.04917169,-0.63094693,-1.43954396,1.34540439,0.00000000,0.00000000,-2.74342728,0.06788321,0.79958004,-1.18845141,2.87979317,0.00000000,0.00000000
-0.16217586,-2.04943323,-0.63628125,-1.43593311,1.34119511,0.00000000,0.00000000,-2.76087046,0.04908269,0.78652096,-1.22572315,2.87979317,0.00000000,0.00000000
-0.16038767,-2.04827833,-0.64329237,-1.43502700,1.34068847,0.00000000,0.00000000,-2.78059173,0.03065340,0.77191222,-1.26679349,2.87979317,0.00000000,0.00000000
-0.15691529,-2.04651737,-0.65008253,-1.43590486,1.33993268,0.00000000,0.00000000,-2.80080962,0.01323896,0.75745255,-1.30801094,2.87979317,0.00000000,0.00000000
-0.15142663,-2.04391670,-0.65650350,-1.43820727,1.33685625,0.00000000,0.00000000,-2.82069397,-0.00227229,0.74427575,-1.34678900,2.87979317,0.00000000,0.00000000
-0.14471157,-2.04034781,-0.66325200,-1.44264805,1.33186734,0.00000000,0.00000000,-2.84026694,-0.01480909,0.73289287,-1.38109469,2.87979317,0.00000000,0.00000000
-0.13660869,-2.03559804,-0.67027521,-1.44945681,1.31840146,0.00000000,0.00000000,-2.85862112,-0.02301213,0.72434300,-1.40895927,2.87979317,0.00000000,0.00000000
-0.12608722,-2.02918029,-0.67692810,-1.45735145,1.30448568,0.00000000,0.00000000,-2.87395954,-0.02615564,0.71988952,-1.42884874,2.87979317,0.00000000,0.00000000
-0.11352607,-2.02214813,-0.68268752,-1.46497262,1.28969073,0.00000000,0.00000000,-2.88431311,-0.02448719,0.72045588,-1.43992352,2.87979317,0.00000000,0.00000000
-0.10080501,-2.01621747,-0.68774205,-1.47190034,1.27322066,0.00000000,0.00000000,-2.88832498,-0.01889217,0.72614306,-1.44216478,2.87979317,0.00000000,0.00000000
-0.08942523,-2.01189542,-0.69263381,-1.47764885,1.25315464,0.00000000,0.00000000,-2.88570786,-0.01040214,0.73596418,-1.43653893,2.87979317,0.00000000,0.00000000
-0.08018279,-2.00905037,-0.69768542,-1.48169315,1.22934449,0.00000000,0.00000000,-2.87752247,-0.00017174,0.74769634,-1.42525387,2.87979317,0.00000000,0.00000000
-0.07349394,-2.00761867,-0.70285714,-1.48382056,1.20851827,0.00000000,0.00000000,-2.86596751,0.00971436,0.75801355,-1.41203499,2.87979317,0.00000000,0.00000000
-0.06953081,-2.00778365,-0.70778096,-1.48418677,1.18774688,0.00000000,0.00000000,-2.85364366,0.01598575,0.76322532,-1.40167367,2.87979317,0.00000000,0.00000000
-0.06810065,-2.00949574,-0.71202683,-1.48296845,1.16552448,0.00000000,0.00000000,-2.84273767,0.01554825,0.76039445,-1.39845824,2.87979317,0.00000000,0.00000000
-0.06869143,-2.01229310,-0.71530527,-1.48040307,1.13353181,0.00000000,0.00000000,-2.83461618,0.00711209,0.74809426,-1.40422857,2.87979317,0.00000000,0.00000000
-0.07059539,-2.01554513,-0.71744478,-1.47714996,1.09919143,0.00000000,0.00000000,-2.82965064,-0.00798669,0.72674936,-1.41725695,2.87979317,0.00000000,0.00000000
-0.07312302,-2.01852059,-0.71852899,-1.47417951,1.06754804,0.00000000,0.00000000,-2.82681727,-0.02586211,0.69882143,-1.43314445,2.87979317,0.00000000,0.00000000
-0.07443989,-2.01994944,-0.71823126,-1.47175026,1.04471838,0.00000000,0.00000000,-2.82415605,-0.04160234,0.66779804,-1.44715130,2.87979317,0.00000000,0.00000000
-0.07255796,-2.01784229,-0.71660870,-1.46936023,1.01849198,0.00000000,0.00000000,-2.81958628,-0.05102141,0.63678098,-1.45566428,2.87979317,0.00000000,0.00000000
-0.07334298,-2.01427126,-0.71716881,-1.46980071,0.99395627,0.00000000,0.00000000,-2.81069613,-0.05140692,0.60821348,-1.45647454,2.87979317,0.00000000,0.00000000
-0.07343889,-2.00901341,-0.71757740,-1.47054219,0.97037715,0.00000000,0.00000000,-2.79555750,-0.04185434,0.58323711,-1.44834030,2.87979317,0.00000000,0.00000000
-0.07322038,-2.00354314,-0.71716988,-1.47090077,0.95540696,0.00000000,0.00000000,-2.77281427,-0.02302933,0.56200820,-1.43062329,2.87979317,0.00000000,0.00000000
-0.07454362,-1.99968648,-0.71608096,-1.47073936,0.94893754,0.00000000,0.00000000,-2.74200535,0.00326890,0.54399455,-1.40307736,2.87979317,0.00000000,0.00000000
-0.07800649,-1.99854004,-0.71387827,-1.46960294,0.94381469,0.00000000,0.00000000,-2.70375037,0.03465740,0.52819091,-1.36588168,2.87979317,0.00000000,0.00000000
-0.08353589,-2.00057745,-0.71006072,-1.46728969,0.94255584,0.00000000,0.00000000,-2.65967321,0.06868706,0.51319391,-1.31995749,2.87979317,0.00000000,0.00000000
-0.09056284,-2.00543594,-0.70441651,-1.46359408,0.93539900,0.00000000,0.00000000,-2.61219740,0.10321153,0.49721274,-1.26753390,2.87979317,0.00000000,0.00000000
-0.09826572,-2.01195598,-0.69720340,-1.45806229,0.92445701,0.00000000,0.00000000,-2.56418419,0.13608833,0.47831282,-1.21256506,2.87979317,0.00000000,0.00000000
-0.10615229,-2.01939058,-0.68878692,-1.45041430,0.90679240,0.00000000,0.00000000,-2.51835728,0.16407549,0.45484287,-1.16021931,2.87979317,0.00000000,0.00000000
-0.11433915,-2.02821732,-0.67928147,-1.44079566,0.89309990,0.00000000,0.00000000,-2.47684383,0.18304573,0.42563063,-1.11550188,2.87979317,0.00000000,0.00000000
-0.12327445,-2.03933525,-0.66882449,-1.42963707,0.88115847,0.00000000,0.00000000,-2.44107413,0.18970650,0.39000097,-1.08201241,2.87979317,0.00000000,0.00000000
-0.13330059,-2.05299640,-0.65790612,-1.41766238,0.88133287,0.00000000,0.00000000,-2.41199350,0.18371493,0.34780920,-1.06087387,2.87979317,0.00000000,0.00000000
-0.14355646,-2.06676340,-0.64764047,-1.40484226,0.87901962,0.00000000,0.00000000,-2.38965011,0.16895030,0.29983196,-1.05076218,2.87979317,0.00000000,0.00000000
-0.15222371,-2.07630324,-0.63935745,-1.39165306,0.87625694,0.00000000,0.00000000,-2.37206674,0.15043555,0.24805462,-1.05048072,2.87979317,0.00000000,0.00000000
-0.15855290,-2.08080053,-0.63308322,-1.38173890,0.87636882,0.00000000,0.00000000,-2.35700369,0.13176455,0.19433257,-1.05962527,2.87979317,0.00000000,0.00000000
-0.16261382,-2.08052754,-0.62868196,-1.37632716,0.87683946,0.00000000,0.00000000,-2.34295726,0.11453533,0.13982657,-1.07755399,2.87979317,0.00000000,0.00000000
-0.16377166,-2.07691455,-0.62469465,-1.37431931,0.88883388,0.00000000,0.00000000,-2.32904434,0.09905407,0.08520681,-1.10162175,2.87979317,0.00000000,0.00000000
-0.16251890,-2.07366300,-0.61927783,-1.37517405,0.89767498,0.00000000,0.00000000,-2.31285048,0.08663211,0.03209784,-1.12650597,2.87979317,0.00000000,0.00000000
-0.15958409,-2.06894326,-0.61374652,-1.37793994,0.90224200,0.00000000,0.00000000,-2.29281044,0.07952906,-0.01861162,-1.14821887,2.87979317,0.00000000,0.00000000
-0.15551423,-2.06240368,-0.60850358,-1.38322961,0.91827089,0.00000000,0.00000000,-2.26890850,0.07990067,-0.06736735,-1.16422260,2.87979317,0.00000000,0.00000000
-0.15005438,-2.05334640,-0.60343945,-1.38968265,0.93963760,0.00000000,0.00000000,-2.24029517,0.08850938,-0.11446244,-1.17277300,2.87979317,0.00000000,0.00000000
-0.14374448,-2.04354453,-0.59776926,-1.39567161,0.95645434,0.00000000,0.00000000,-2.20611811,0.10399970,-0.16021159,-1.17254591,2.87979317,0.00000000,0.00000000
-0.13806745,-2.03581047,-0.59095597,-1.40055048,0.96934205,0.00000000,0.00000000,-2.16759324,0.12260319,-0.20492920,-1.16270125,2.87979317,0.00000000,0.00000000
-0.13465416,-2.03260779,-0.58290404,-1.40431356,0.97359848,0.00000000,0.00000000,-2.12875938,0.14051105,-0.24859145,-1.14317822,2.87979317,0.00000000,0.00000000
-0.13416323,-2.03467345,-0.57383615,-1.40671778,0.97435415,0.00000000,0.00000000,-2.09235525,0.15546909,-0.29095057,-1.11526847,2.87979317,0.00000000,0.00000000
-0.13657929,-2.04118347,-0.56440669,-1.40729082,0.96984929,0.00000000,0.00000000,-2.06008601,0.16626152,-0.33182520,-1.08188808,2.87979317,0.00000000,0.00000000
-0.14123741,-2.04964852,-0.55565941,-1.40537071,0.96256757,0.00000000,0.00000000,-2.03251314,0.17254475,-0.37096161,-1.04720676,2.87979317,0.00000000,0.00000000
-0.14665072,-2.05673337,-0.54830551,-1.40034318,0.95897126,0.00000000,0.00000000,-2.00922370,0.17440462,-0.40825528,-1.01555753,2.87979317,0.00000000,0.00000000
-0.15214317,-2.06273913,-0.54179460,-1.39325917,0.94744819,0.00000000,0.00000000,-1.99061179,0.17079830,-0.44424695,-0.99032122,2.87979317,0.00000000,0.00000000
-0.15806572,-2.06875896,-0.53594935,-1.38490117,0.94153047,0.00000000,0.00000000,-1.97798896,0.16052610,-0.47983304,-0.97380704,2.87979317,0.00000000,0.00000000
-0.16477270,-2.07473326,-0.53112191,-1.37523389,0.93837845,0.00000000,0.00000000,-1.97231090,0.14307967,-0.51559603,-0.96730667,2.87979317,0.00000000,0.00000000
-0.17138807,-2.07999492,-0.52695704,-1.36436391,0.93927401,0.00000000,0.00000000,-1.97335088,0.11888981,-0.55145973,-0.97119331,2.87979317,0.00000000,0.00000000
-0.17665707,-2.08410811,-0.52270967,-1.35368097,0.94393045,0.00000000,0.00000000,-1.97979963,0.08997802,-0.58695883,-0.98530042,2.87979317,0.00000000,0.00000000
-0.18151867,-2.08757997,-0.51897389,-1.34539580,0.94363272,0.00000000,0.00000000,-1.98860359,0.05840256,-0.62069440,-1.00900638,2.87979317,0.00000000,0.00000000
-0.18628763,-2.09086204,-0.51584625,-1.34006751,0.94399184,0.00000000,0.00000000,-1.99727988,0.02551567,-0.65153456,-1.04008520,2.87979317,0.00000000,0.00000000
-0.18983822,-2.09407926,-0.51239318,-1.33691061,0.94376379,0.00000000,0.00000000,-2.00381112,-0.00609667,-0.67918253,-1.07326901,2.87979317,0.00000000,0.00000000
-0.19139446,-2.09660435,-0.50828427,-1.33503032,0.93805605,0.00000000,0.00000000,-2.00479841,-0.03335106,-0.70320565,-1.10282469,2.87979317,0.00000000,0.00000000
-0.19061972,-2.09805465,-0.50348145,-1.33413315,0.93407458,0.00000000,0.00000000,-2.00002480,-0.05284698,-0.72544849,-1.12529755,2.87979317,0.00000000,0.00000000
-0.18712731,-2.09707713,-0.49833778,-1.33368838,0.93555844,0.00000000,0.00000000,-1.99026108,-0.06318592,-0.74789131,-1.13928759,2.87979317,0.00000000,0.00000000
-0.18168123,-2.09506130,-0.49293602,-1.33346760,0.93421561,0.00000000,0.00000000,-1.97603309,-0.06492432,-0.77143145,-1.14450848,2.87979317,0.00000000,0.00000000
-0.17661223,-2.09421277,-0.48826271,-1.33393610,0.93231553,0.00000000,0.00000000,-1.95859897,-0.06032264,-0.79592466,-1.14196289,2.87979317,0.00000000,0.00000000
-0.17337525,-2.09454942,-0.48552456,-1.33475363,0.92627180,0.00000000,0.00000000,-1.94031894,-0.05299308,-0.82022846,-1.13401353,2.87979317,0.00000000,0.00000000
-0.17189214,-2.09523487,-0.48502555,-1.33523405,0.91504669,0.00000000,0.00000000,-1.92412972,-0.04673069,-0.84259343,-1.12413156,2.87979317,0.00000000,0.00000000
-0.17142260,-2.09517145,-0.48654079,-1.33489573,0.89921427,0.00000000,0.00000000,-1.91223633,-0.04423973,-0.86136806,-1.11628914,2.87979317,0.00000000,0.00000000
-0.17116642,-2.09435868,-0.48923394,-1.33400595,0.88490152,0.00000000,0.00000000,-1.90562904,-0.04705362,-0.87558496,-1.11404026,2.87979317,0.00000000,0.00000000
-0.17077237,-2.09337401,-0.49232993,-1.33298826,0.87355042,0.00000000,0.00000000,-1.90446246,-0.05600130,-0.88494468,-1.11974096,2.87979317,0.00000000,0.00000000
-0.17027064,-2.09257936,-0.49546346,-1.33197749,0.86646098,0.00000000,0.00000000,-1.90821230,-0.07117441,-0.88950813,-1.13410783,2.87979317,0.00000000,0.00000000
-0.16971464,-2.09216595,-0.49844629,-1.33099961,0.86133397,0.00000000,0.00000000,-1.91558075,-0.09173155,-0.88952321,-1.15604746,2.87979317,0.00000000,0.00000000
-0.16880430,-2.09219575,-0.50098735,-1.33016253,0.86076146,0.00000000,0.00000000,-1.92442238,-0.11565503,-0.88551742,-1.18265080,2.87979317,0.00000000,0.00000000
-0.16738719,-2.09234357,-0.50316453,-1.32954741,0.86515117,0.00000000,0.00000000,-1.93216240,-0.13956274,-0.87868667,-1.20959711,2.87979317,0.00000000,0.00000000
-0.16415718,-2.09037685,-0.50498021,-1.32833278,0.87026781,0.00000000,0.00000000,-1.93675804,-0.15963259,-0.87097639,-1.23260999,2.87979317,0.00000000,0.00000000
-0.15762207,-2.08344030,-0.50650704,-1.32561922,0.87361699,0.00000000,0.00000000,-1.93721366,-0.17319039,-0.86441499,-1.24888265,2.87979317,0.00000000,0.00000000
-0.15237470,-2.07758617,-0.50877392,-1.32634020,0.87236673,0.00000000,0.00000000,-1.93337798,-0.17936367,-0.86038166,-1.25731277,2.87979317,0.00000000,0.00000000
-0.14931662,-2.07515740,-0.51138639,-1.33277667,0.86359262,0.00000000,0.00000000,-1.92592835,-0.17916882,-0.85938305,-1.25848830,2.87979317,0.00000000,0.00000000
-0.14615965,-2.07216096,-0.51404804,-1.33998656,0.85483545,0.00000000,0.00000000,-1.91579115,-0.17463736,-0.86117655,-1.25397515,2.87979317,0.00000000,0.00000000
-0.14271851,-2.06637669,-0.51731932,-1.34515691,0.84802234,0.00000000,0.00000000,-1.90373778,-0.16767418,-0.86506009,-1.24573779,2.87979317,0.00000000,0.00000000
-0.13981825,-2.05929828,-0.52093160,-1.34838712,0.84280998,0.00000000,0.00000000,-1.89119577,-0.15933883,-0.87022930,-1.23594356,2.87979317,0.00000000,0.00000000
-0.13897055,-2.05371094,-0.52454382,-1.35036409,0.83295083,0.00000000,0.00000000,-1.88068247,-0.15129657,-0.87591380,-1.22697818,2.87979317,0.00000000,0.00000000
-0.14028627,-2.05046725,-0.52754641,-1.35092068,0.83339316,0.00000000,0.00000000,-1.87339723,-0.14607595,-0.88144189,-1.22160077,2.87979317,0.00000000,0.00000000
-0.14305988,-2.04939771,-0.52920038,-1.34975445,0.83479792,0.00000000,0.00000000,-1.86941934,-0.14607717,-0.88632601,-1.22235048,2.87979317,0.00000000,0.00000000
-0.14680645,-2.05050278,-0.52897179,-1.34705615,0.83042252,0.00000000,0.00000000,-1.86855793,-0.15259174,-0.89051509,-1.23038864,2.87979317,0.00000000,0.00000000
-0.15107542,-2.05370975,-0.52651906,-1.34328175,0.83017236,0.00000000,0.00000000,-1.87015069,-0.16479434,-0.89476782,-1.24435496,2.87979317,0.00000000,0.00000000
-0.15508035,-2.05822730,-0.52168936,-1.33879733,0.82956994,0.00000000,0.00000000,-1.87247157,-0.17919242,-0.90083718,-1.25992870,2.87979317,0.00000000,0.00000000
-0.15805018,-2.06277061,-0.51463896,-1.33383787,0.82215458,0.00000000,0.00000000,-1.87290597,-0.19094777,-0.91096944,-1.27152956,2.87979317,0.00000000,0.00000000
-0.15989155,-2.06680298,-0.50573248,-1.32856929,0.81949735,0.00000000,0.00000000,-1.86930668,-0.19651292,-0.92702806,-1.27513182,2.87979317,0.00000000,0.00000000
-0.16135231,-2.07090878,-0.49546540,-1.32294965,0.81750321,0.00000000,0.00000000,-1.86077952,-0.19466439,-0.95006591,-1.26910675,2.87979317,0.00000000,0.00000000
-0.16354732,-2.07612324,-0.48438665,-1.31675649,0.82193315,0.00000000,0.00000000,-1.84740925,-0.18580155,-0.98037684,-1.25347781,2.87979317,0.00000000,0.00000000
-0.16683453,-2.08300114,-0.47265270,-1.30955327,0.83142024,0.00000000,0.00000000,-1.82956648,-0.17106031,-1.01757014,-1.22911990,2.87979317,0.00000000,0.00000000
-0.17074643,-2.09126854,-0.46018705,-1.30083656,0.85187054,0.00000000,0.00000000,-1.80873215,-0.15276393,-1.06041849,-1.19719756,2.87979317,0.00000000,0.00000000
-0.17598979,-2.10135961,-0.44769356,-1.29112291,0.86496466,0.00000000,0.00000000,-1.78956652,-0.13507572,-1.10670006,-1.15884614,2.87979317,0.00000000,0.00000000
-0.18321690,-2.11254358,-0.43630934,-1.28090084,0.87068909,0.00000000,0.00000000,-1.77523112,-0.12005185,-1.15364575,-1.11560917,2.87979317,0.00000000,0.00000000
-0.19145939,-2.12222600,-0.42649049,-1.26975787,0.87428373,0.00000000,0.00000000,-1.76576161,-0.10694655,-1.19886112,-1.06967843,2.87979317,0.00000000,0.00000000
-0.20029446,-2.13051915,-0.41802338,-1.25837433,0.87778479,0.00000000,0.00000000,-1.76054370,-0.09494298,-1.24087691,-1.02349663,2.87979317,0.00000000,0.00000000
-0.20775554,-2.13792706,-0.40930980,-1.24748063,0.88024455,0.00000000,0.00000000,-1.75975573,-0.08428452,-1.27895272,-0.97959375,2.87979317,0.00000000,0.00000000
-0.21408291,-2.14482832,-0.40046445,-1.23736608,0.87934560,0.00000000,0.00000000,-1.76406789,-0.07616984,-1.31244123,-0.94060963,2.87979317,0.00000000,0.00000000
-0.21971016,-2.15242457,-0.39149916,-1.22825325,0.87831008,0.00000000,0.00000000,-1.77490962,-0.07188955,-1.34090781,-0.91046762,2.87979317,0.00000000,0.00000000
-0.22407933,-2.16063094,-0.38210145,-1.22055995,0.88478845,0.00000000,0.00000000,-1.79330432,-0.07158630,-1.36447513,-0.89467418,2.87979317,0.00000000,0.00000000
-0.22831891,-2.16630673,-0.37413758,-1.21442521,0.88822818,0.00000000,0.00000000,-1.81397367,-0.07737202,-1.38120937,-0.89458764,2.87979317,0.00000000,0.00000000
-0.23249741,-2.16878963,-0.36785364,-1.21007240,0.89534485,0.00000000,0.00000000,-1.83374882,-0.08923464,-1.39070916,-0.90927625,2.87979317,0.00000000,0.00000000
-0.23623323,-2.16797471,-0.36289373,-1.20706928,0.90075916,0.00000000,0.00000000,-1.85147989,-0.10717028,-1.39282298,-0.93779820,2.87979317,0.00000000,0.00000000
-0.23866124,-2.16554546,-0.35799664,-1.20520556,0.90055889,0.00000000,0.00000000,-1.86781001,-0.13113296,-1.38772726,-0.97885168,2.87979317,0.00000000,0.00000000
-0.23874810,-2.16668224,-0.35083061,-1.20598686,0.90903014,0.00000000,0.00000000,-1.88515866,-0.15763889,-1.37831771,-1.02686214,2.87979317,0.00000000,0.00000000
-0.23659928,-2.16913271,-0.34205067,-1.20848405,0.92008644,0.00000000,0.00000000,-1.89880931,-0.18129946,-1.36833012,-1.06886041,2.87979317,0.00000000,0.00000000
-0.23353268,-2.16988111,-0.33362639,-1.21212780,0.92656028,0.00000000,0.00000000,-1.90706992,-0.19714496,-1.36215985,-1.09860909,2.87979317,0.00000000,0.00000000
-0.22963431,-2.16938758,-0.32567891,-1.21685886,0.93519819,0.00000000,0.00000000,-1.91060686,-0.20305826,-1.36269796,-1.11481905,2.87979317,0.00000000,0.00000000
-0.22539406,-2.16764474,-0.31850797,-1.22151375,0.94397998,0.00000000,0.00000000,-1.90997326,-0.19926155,-1.37080610,-1.11727846,2.87979317,0.00000000,0.00000000
-0.22200890,-2.16496897,-0.31286728,-1.22518241,0.95157182,0.00000000,0.00000000,-1.90585947,-0.18707576,-1.38596463,-1.10644817,2.87979317,0.00000000,0.00000000
-0.21973893,-2.16213942,-0.30871052,-1.22748351,0.95717174,0.00000000,0.00000000,-1.89922297,-0.16831411,-1.40669537,-1.08346784,2.87979317,0.00000000,0.00000000
-0.21845059,-2.15967774,-0.30574545,-1.22815204,0.96789014,0.00000000,0.00000000,-1.89127767,-0.14506438,-1.43085623,-1.05028570,2.87979317,0.00000000,0.00000000
-0.21795169,-2.15782833,-0.30364949,-1.22711599,0.97506666,0.00000000,0.00000000,-1.88342881,-0.11956748,-1.45599246,-1.00970066,2.87979317,0.00000000,0.00000000
-0.21788889,-2.15675449,-0.30193719,-1.22454786,0.98203439,0.00000000,0.00000000,-1.87727761,-0.09413308,-1.47971857,-0.96528047,2.87979317,0.00000000,0.00000000
-0.21796218,-2.15663242,-0.30014396,-1.22072732,0.98238534,0.00000000,0.00000000,-1.87462711,-0.07110073,-1.49999762,-0.92113876,2.87979317,0.00000000,0.00000000
-0.21822084,-2.15765738,-0.29809532,-1.21591818,0.97829884,0.00000000,0.00000000,-1.87709451,-0.05284909,-1.51519561,-0.88133693,2.87979317,0.00000000,0.00000000
-0.21905501,-2.16049886,-0.29582012,-1.21059048,0.97212964,0.00000000,0.00000000,-1.88553107,-0.04148111,-1.52416539,-0.84901392,2.87979317,0.00000000,0.00000000
-0.22051738,-2.16529942,-0.29325411,-1.20514905,0.96290505,0.00000000,0.00000000,-1.89996350,-0.03713026,-1.52702618,-0.82583964,2.87979317,0.00000000,0.00000000
-0.22200739,-2.16893387,-0.29063189,-1.19907081,0.96132863,0.00000000,0.00000000,-1.91900194,-0.03747211,-1.52522039,-0.81178707,2.87979317,0.00000000,0.00000000
-0.22362424,-2.16993713,-0.28861400,-1.19283187,0.96053982,0.00000000,0.00000000,-1.94012046,-0.04094268,-1.51968741,-0.80641955,2.87979317,0.00000000,0.00000000
-0.22544685,-2.17000008,-0.28746492,-1.18714154,0.95961452,0.00000000,0.00000000,-1.96112204,-0.04740036,-1.51055086,-0.81018931,2.87979317,0.00000000,0.00000000
-0.22734365,-2.17000008,-0.28718206,-1.18221509,0.96494603,0.00000000,0.00000000,-1.98024929,-0.05762522,-1.49737251,-0.82359934,2.87979317,0.00000000,0.00000000
-0.22927846,-2.17000008,-0.28764656,-1.17811036,0.97347963,0.00000000,0.00000000,-1.99685204,-0.07234364,-1.47967231,-0.84679109,2.87979317,0.00000000,0.00000000
-0.23110662,-2.17000008,-0.28838882,-1.17496407,0.97861958,0.00000000,0.00000000,-2.01239657,-0.09125982,-1.45760953,-0.87932193,2.87979317,0.00000000,0.00000000
-0.23220542,-2.17000008,-0.28844705,-1.17305422,0.98182410,0.00000000,0.00000000,-2.02877283,-0.11237963,-1.43242037,-0.91734517,2.87979317,0.00000000,0.00000000
-0.23212586,-2.17000008,-0.28730184,-1.17258215,0.98948538,0.00000000,0.00000000,-2.04266596,-0.13252416,-1.40569055,-0.95145744,2.87979317,0.00000000,0.00000000
-0.23106489,-2.17000008,-0.28544241,-1.17354333,0.99897438,0.00000000,0.00000000,-2.05192900,-0.14761582,-1.37971544,-0.97615838,2.87979317,0.00000000,0.00000000
-0.22908458,-2.17000008,-0.28343883,-1.17559516,1.01194918,0.00000000,0.00000000,-2.05636144,-0.15406720,-1.35676241,-0.98931372,2.87979317,0.00000000,0.00000000
-0.22621065,-2.17000008,-0.28177139,-1.17814159,1.02642488,0.00000000,0.00000000,-2.05610609,-0.14988802,-1.33809209,-0.98991442,2.87979317,0.00000000,0.00000000
-0.22274464,-2.17000008,-0.28096518,-1.18060017,1.03401577,0.00000000,0.00000000,-2.05158734,-0.13475093,-1.32378089,-0.97797179,2.87979317,0.00000000,0.00000000
-0.21916774,-2.17000008,-0.28145581,-1.18260145,1.04021096,0.00000000,0.00000000,-2.04351640,-0.10973826,-1.31292129,-0.95450622,2.87979317,0.00000000,0.00000000
-0.21591616,-2.17000008,-0.28337693,-1.18416059,1.05012476,0.00000000,0.00000000,-2.03289461,-0.07717217,-1.30391395,-0.92163914,2.87979317,0.00000000,0.00000000
-0.21311970,-2.16999841,-0.28642949,-1.18555844,1.06262946,0.00000000,0.00000000,-2.02108741,-0.04039000,-1.29484642,-0.88268697,2.87979317,0.00000000,0.00000000
-0.21052229,-2.16997838,-0.28997448,-1.18686593,1.07461405,0.00000000,0.00000000,-2.00968575,-0.00360829,-1.28375149,-0.84208053,2.87979317,0.00000000,0.00000000
-0.20768511,-2.16994715,-0.29320106,-1.18794382,1.08335674,0.00000000,0.00000000,-2.00112224,0.02860543,-1.26905620,-0.80613840,2.87979317,0.00000000,0.00000000
-0.20457605,-2.16997838,-0.29589206,-1.18895555,1.09596276,0.00000000,0.00000000,-1.99833322,0.05310274,-1.25021315,-0.78284043,2.87979317,0.00000000,0.00000000
-0.20187016,-2.16999865,-0.29920217,-1.19009352,1.11212111,0.00000000,0.00000000,-1.99953258,0.06822588,-1.22646415,-0.77594060,2.87979317,0.00000000,0.00000000
-0.19987221,-2.17000008,-0.30385226,-1.19161379,1.13041580,0.00000000,0.00000000,-2.00254464,0.07441759,-1.19773221,-0.78557241,2.87979317,0.00000000,0.00000000
-0.19846685,-2.17000008,-0.31000131,-1.19345164,1.14650750,0.00000000,0.00000000,-2.00706911,0.07302516,-1.16449690,-0.81104922,2.87979317,0.00000000,0.00000000
-0.19746475,-2.17000008,-0.31753251,-1.19514549,1.16251993,0.00000000,0.00000000,-2.01480198,0.06589990,-1.12782419,-0.85082525,2.87979317,0.00000000,0.00000000
-0.19668165,-2.17000008,-0.32608700,-1.19616294,1.18442333,0.00000000,0.00000000,-2.02699256,0.05461748,-1.08854687,-0.90084994,2.87979317,0.00000000,0.00000000
-0.19607911,-2.17000008,-0.33549049,-1.19626176,1.19575644,0.00000000,0.00000000,-2.04155517,0.03987609,-1.04606235,-0.95553470,2.87979317,0.00000000,0.00000000
-0.19552661,-2.17000008,-0.34576416,-1.19560564,1.21065617,0.00000000,0.00000000,-2.05720448,0.02336873,-1.00028515,-1.01134276,2.87979317,0.00000000,0.00000000
-0.19462030,-2.17000008,-0.35687113,-1.19469118,1.22488773,0.00000000,0.00000000,-2.07357430,0.00703269,-0.95151293,-1.06600380,2.87979317,0.00000000,0.00000000
-0.19276148,-2.17000008,-0.36867878,-1.19435346,1.23565948,0.00000000,0.00000000,-2.09026980,-0.00747093,-0.89994180,-1.11746061,2.87979317,0.00000000,0.00000000
-0.18927830,-2.16998577,-0.38094428,-1.19578123,1.25066125,0.00000000,0.00000000,-2.10692859,-0.01876994,-0.84564656,-1.16395807,2.87979317,0.00000000,0.00000000
-0.18359223,-2.16968203,-0.39342731,-1.20013964,1.26249969,0.00000000,0.00000000,-2.12326908,-0.02591944,-0.78852385,-1.20423543,2.87979317,0.00000000,0.00000000
-0.17551148,-2.16757321,-0.40618628,-1.20822752,1.27532899,0.00000000,0.00000000,-2.13913274,-0.02850719,-0.72825873,-1.23768032,2.87979317,0.00000000,0.00000000
-0.16542552,-2.16115379,-0.41974741,-1.22043502,1.29039335,0.00000000,0.00000000,-2.15471053,-0.02660915,-0.66445476,-1.26444602,2.87979317,0.00000000,0.00000000
-0.15425046,-2.14980197,-0.43502936,-1.23668647,1.30350971,0.00000000,0.00000000,-2.17066860,-0.02044406,-0.59690893,-1.28517950,2.87979317,0.00000000,0.00000000
-0.14267454,-2.13346529,-0.45264378,-1.25539756,1.31531501,0.00000000,0.00000000,-2.18802285,-0.01033777,-0.52601337,-1.30029786,2.87979317,0.00000000,0.00000000
-0.13081513,-2.11370301,-0.47192430,-1.27329767,1.32533598,0.00000000,0.00000000,-2.20764875,0.00265324,-0.45287433,-1.30935287,2.87979317,0.00000000,0.00000000
-0.12010448,-2.09485102,-0.49198323,-1.28938961,1.32753611,0.00000000,0.00000000,-2.22971272,0.01691901,-0.37866297,-1.31121945,2.87979317,0.00000000,0.00000000
-0.11170809,-2.07905769,-0.51237339,-1.30295539,1.32459307,0.00000000,0.00000000,-2.25349450,0.03126328,-0.30404511,-1.30459416,2.87979317,0.00000000,0.00000000
-0.10595621,-2.06683421,-0.53257179,-1.31315196,1.31942821,0.00000000,0.00000000,-2.27778339,0.04484300,-0.22921002,-1.28865266,2.87979317,0.00000000,0.00000000
-0.10271479,-2.05842733,-0.55184823,-1.31965995,1.31518137,0.00000000,0.00000000,-2.30138135,0.05678158,-0.15419082,-1.26347280,2.87979317,0.00000000,0.00000000
-0.10184223,-2.05412078,-0.56956238,-1.32264495,1.30793655,0.00000000,0.00000000,-2.32336736,0.06609414,-0.07912912,-1.23012865,2.87979317,0.00000000,0.00000000
-0.10332171,-2.05410624,-0.58538127,-1.32245731,1.29764462,0.00000000,0.00000000,-2.34317970,0.07191724,-0.00443477,-1.19058990,2.87979317,0.00000000,0.00000000
-0.10695717,-2.05786943,-0.59936219,-1.31922710,1.29054773,0.00000000,0.00000000,-2.36059928,0.07383411,0.06916784,-1.14749074,2.87979317,0.00000000,0.00000000
-0.11209245,-2.06390524,-0.61186504,-1.31286967,1.28321552,0.00000000,0.00000000,-2.37588811,0.07169101,0.14066173,-1.10380602,2.87979317,0.00000000,0.00000000
-0.11799252,-2.07073474,-0.62328088,-1.30375791,1.27242124,0.00000000,0.00000000,-2.39018106,0.06452418,0.20867661,-1.06263018,2.87979317,0.00000000,0.00000000
-0.12481693,-2.07872844,-0.63375401,-1.29354930,1.25669336,0.00000000,0.00000000,-2.40580702,0.04978690,0.27120158,-1.02736175,2.87979317,0.00000000,0.00000000
-0.13223746,-2.08835745,-0.64303476,-1.28431368,1.23850024,0.00000000,0.00000000,-2.42603397,0.02509197,0.32572410,-1.00210333,2.87979317,0.00000000,0.00000000
-0.13796809,-2.09458613,-0.65221131,-1.27606177,1.22402716,0.00000000,0.00000000,-2.45150375,-0.00804278,0.37171781,-0.98977566,2.87979317,0.00000000,0.00000000
-0.14245632,-2.09443069,-0.66315383,-1.27015603,1.20866644,0.00000000,0.00000000,-2.48107791,-0.04640478,0.40994108,-0.98919380,2.87979317,0.00000000,0.00000000
-0.14518376,-2.08996534,-0.67433494,-1.26672041,1.18821776,0.00000000,0.00000000,-2.51494861,-0.08719120,0.44038489,-0.99520355,2.87979317,0.00000000,0.00000000
-0.14713696,-2.08570123,-0.68387532,-1.26558411,1.17784798,0.00000000,0.00000000,-2.55190492,-0.12959321,0.46345115,-1.00264537,2.87979317,0.00000000,0.00000000
-0.14912674,-2.08203650,-0.69187427,-1.26587975,1.16527104,0.00000000,0.00000000,-2.59006095,-0.17271088,0.47991309,-1.00872409,2.87979317,0.00000000,0.00000000
-0.15130626,-2.07865572,-0.69839370,-1.26707828,1.15175009,0.00000000,0.00000000,-2.62808061,-0.21517432,0.49038690,-1.01181197,2.87979317,0.00000000,0.00000000
-0.15360010,-2.07579470,-0.70309347,-1.26908445,1.13728559,0.00000000,0.00000000,-2.66406488,-0.25560310,0.49588344,-1.01062596,2.87979317,0.00000000,0.00000000
-0.15566218,-2.07359219,-0.70554554,-1.27169085,1.12002945,0.00000000,0.00000000,-2.69542098,-0.29248935,0.49791461,-1.00403285,2.87979317,0.00000000,0.00000000
-0.15712777,-2.07204866,-0.70545924,-1.27433836,1.10589767,0.00000000,0.00000000,-2.71925402,-0.32432961,0.49824440,-0.99116921,2.87979317,0.00000000,0.00000000
-0.15805905,-2.07116580,-0.70294559,-1.27610338,1.08474219,0.00000000,0.00000000,-2.73293805,-0.35002300,0.49846211,-0.97164065,2.87979317,0.00000000,0.00000000
-0.15923713,-2.07116199,-0.69861269,-1.27605104,1.06048644,0.00000000,0.00000000,-2.73477483,-0.36920071,0.49952185,-0.94556344,2.87979317,0.00000000,0.00000000
-0.16187190,-2.07256079,-0.69328278,-1.27374268,1.03322935,0.00000000,0.00000000,-2.72434306,-0.38223898,0.50156212,-0.91342193,2.87979317,0.00000000,0.00000000
-0.16676390,-2.07585859,-0.68751943,-1.26921487,1.00771165,0.00000000,0.00000000,-2.70237923,-0.38996330,0.50407773,-0.87584966,2.87979317,0.00000000,0.00000000
-0.17385696,-2.08105183,-0.68148249,-1.26254976,0.97862083,0.00000000,0.00000000,-2.67042518,-0.39327532,0.50624162,-0.83344728,2.87979317,0.00000000,0.00000000
-0.18234348,-2.08762908,-0.67495024,-1.25380421,0.95346636,0.00000000,0.00000000,-2.63045311,-0.39294845,0.50717521,-0.78673083,2.87979317,0.00000000,0.00000000
-0.19130363,-2.09495616,-0.66757107,-1.24328232,0.93033797,0.00000000,0.00000000,-2.58452559,-0.38965350,0.50611788,-0.73621118,2.87979317,0.00000000,0.00000000
-0.20031351,-2.10267591,-0.65914094,-1.23169851,0.91106111,0.00000000,0.00000000,-2.53461957,-0.38411871,0.50247413,-0.68250757,2.87979317,0.00000000,0.00000000
-0.20935695,-2.11087704,-0.64953196,-1.22010887,0.89542902,0.00000000,0.00000000,-2.48266768,-0.37718847,0.49578828,-0.62635213,2.87979317,0.00000000,0.00000000
-0.21837603,-2.11988735,-0.63854295,-1.20962107,0.87597781,0.00000000,0.00000000,-2.43070769,-0.36969027,0.48571730,-0.56846231,2.87979317,0.00000000,0.00000000
-0.22701810,-2.12957692,-0.62608582,-1.20074534,0.85028380,0.00000000,0.00000000,-2.38087797,-0.36229521,0.47205323,-0.50945419,2.87979317,0.00000000,0.00000000
-0.23511888,-2.13928914,-0.61250937,-1.19325233,0.82650572,0.00000000,0.00000000,-2.33509541,-0.35557303,0.45479685,-0.44993091,2.87979317,0.00000000,0.00000000
-0.24282660,-2.14812946,-0.59848058,-1.18648815,0.80395669,0.00000000,0.00000000,-2.29467654,-0.35029140,0.43418747,-0.39071411,2.87979317,0.00000000,0.00000000
-0.24997117,-2.15523958,-0.58438766,-1.17985225,0.78428835,0.00000000,0.00000000,-2.25992250,-0.34777051,0.41070265,-0.33312517,2.87979317,0.00000000,0.00000000
-0.25818583,-2.16154480,-0.57080543,-1.17484617,0.76546448,0.00000000,0.00000000,-2.23041320,-0.34846675,0.38503212,-0.27828759,2.87979317,0.00000000,0.00000000
-0.26916462,-2.16772175,-0.55890644,-1.17310524,0.75044698,0.00000000,0.00000000,-2.20617771,-0.35027617,0.35792777,-0.22622302,2.87979317,0.00000000,0.00000000
-0.27715307,-2.16985703,-0.54878205,-1.17088020,0.74051344,0.00000000,0.00000000,-2.18638468,-0.35352522,0.33006030,-0.17852427,2.87979317,0.00000000,0.00000000
-0.28371808,-2.17000008,-0.54222298,-1.16995382,0.73044634,0.00000000,0.00000000,-2.16995025,-0.35989761,0.30197057,-0.13686804,2.87979317,0.00000000,0.00000000
-0.28963459,-2.17000008,-0.54019094,-1.16989660,0.71921033,0.00000000,0.00000000,-2.15699029,-0.37003297,0.27402946,-0.10144815,2.87979317,0.00000000,0.00000000
-0.29316774,-2.17000008,-0.54184777,-1.16949761,0.70254105,0.00000000,0.00000000,-2.14802814,-0.38327941,0.24655417,-0.07147676,2.87979317,0.00000000,0.00000000
-0.29272941,-2.16998148,-0.54533845,-1.16949427,0.68907863,0.00000000,0.00000000,-2.14332533,-0.39928123,0.21983224,-0.04642051,2.87979317,0.00000000,0.00000000
-0.28797498,-2.16959572,-0.54909688,-1.17185569,0.67401308,0.00000000,0.00000000,-2.14308691,-0.41831973,0.19409633,-0.02615465,2.87979317,0.00000000,0.00000000
-0.27901354,-2.16711593,-0.55256820,-1.17673135,0.66463494,0.00000000,0.00000000,-2.14744234,-0.44183633,0.16952725,-0.01125623,2.87979317,0.00000000,0.00000000
-0.26650321,-2.16077590,-0.55543280,-1.18267083,0.64896232,0.00000000,0.00000000,-2.15787435,-0.47161964,0.14625630,-0.00241007,2.87979317,0.00000000,0.00000000
-0.25339422,-2.15319848,-0.55764282,-1.18941283,0.62306607,0.00000000,0.00000000,-2.17791080,-0.50654763,0.12436391,0.00153233,2.87979317,0.00000000,0.00000000
-0.24247974,-2.14714193,-0.55915058,-1.19696844,0.60359472,0.00000000,0.00000000,-2.20646834,-0.54358995,0.10386810,0.00236545,2.87979317,0.00000000,0.00000000
-0.23473585,-2.14304566,-0.55978012,-1.20421934,0.58919203,0.00000000,0.00000000,-2.23822498,-0.58019471,0.08473301,0.00133673,2.87979317,0.00000000,0.00000000
-0.23067774,-2.14043617,-0.55970407,-1.20996916,0.57622790,0.00000000,0.00000000,-2.26855898,-0.61390626,0.06690602,-0.00016228,2.87979317,0.00000000,0.00000000
-0.23020323,-2.13841128,-0.55907631,-1.21311200,0.56331980,0.00000000,0.00000000,-2.29390478,-0.64257717,0.05033655,-0.00073154,2.87979317,0.00000000,0.00000000
-0.23265873,-2.13630247,-0.55770171,-1.21287632,0.55410707,0.00000000,0.00000000,-2.31136084,-0.66478848,0.03498145,0.00068899,2.87979317,0.00000000,0.00000000
-0.23737806,-2.13438320,-0.55505723,-1.20930183,0.54638153,0.00000000,0.00000000,-2.31881785,-0.68019241,0.02080510,0.00453617,2.87979317,0.00000000,0.00000000
-0.24403985,-2.13381219,-0.55057114,-1.20326066,0.53665954,0.00000000,0.00000000,-2.31521630,-0.68942106,0.00777856,0.01061475,2.87979317,0.00000000,0.00000000
-0.25260842,-2.13572669,-0.54399592,-1.19585919,0.53084081,0.00000000,0.00000000,-2.30079699,-0.69336331,-0.00411534,0.01849510,2.87979317,0.00000000,0.00000000
-0.26282895,-2.14041257,-0.53540373,-1.18782341,0.52315426,0.00000000,0.00000000,-2.27708602,-0.69247377,-0.01486961,0.02791032,2.87979317,0.00000000,0.00000000
-0.27381855,-2.14715648,-0.52490479,-1.17939186,0.51128811,0.00000000,0.00000000,-2.24669695,-0.68669069,-0.02443655,0.03878994,2.87979317,0.00000000,0.00000000
-0.28413504,-2.15436077,-0.51254660,-1.17056525,0.50113434,0.00000000,0.00000000,-2.21330023,-0.67591554,-0.03270546,0.05095307,2.87979317,0.00000000,0.00000000
-0.29355121,-2.16124439,-0.49876544,-1.16231978,0.49733838,0.00000000,0.00000000,-2.18321991,-0.66117591,-0.03941918,0.06340018,2.87979317,0.00000000,0.00000000
-0.30366060,-2.16767550,-0.48500994,-1.15660644,0.49611598,0.00000000,0.00000000,-2.16390109,-0.64614403,-0.04423012,0.07367413,2.87979317,0.00000000,0.00000000
-0.31172159,-2.16985464,-0.47205284,-1.15292597,0.48409036,0.00000000,0.00000000,-2.15414643,-0.63516039,-0.04713847,0.07943539,2.87979317,0.00000000,0.00000000
-0.31812531,-2.17000008,-0.46149012,-1.15136945,0.46813852,0.00000000,0.00000000,-2.15121913,-0.62796187,-0.04826513,0.08092773,2.87979317,0.00000000,0.00000000
-0.32332504,-2.17000008,-0.45429790,-1.15119219,0.44970927,0.00000000,0.00000000,-2.15393162,-0.62330031,-0.04771622,0.07881927,2.87979317,0.00000000,0.00000000
-0.32693776,-2.17000008,-0.45076075,-1.15124142,0.42480928,0.00000000,0.00000000,-2.16162038,-0.62066740,-0.04559451,0.07335941,2.87979317,0.00000000,0.00000000
-0.32861570,-2.17000008,-0.45085186,-1.15072489,0.39628017,0.00000000,0.00000000,-2.17399335,-0.61995864,-0.04198796,0.06459535,2.87979317,0.00000000,0.00000000
-0.32820344,-2.17000008,-0.45438495,-1.14919043,0.37396091,0.00000000,0.00000000,-2.19105768,-0.62140125,-0.03697376,0.05241815,2.87979317,0.00000000,0.00000000
-0.32572022,-2.17000008,-0.46107203,-1.14638424,0.34987640,0.00000000,0.00000000,-2.21283531,-0.62546766,-0.03064296,0.03663041,2.87979317,0.00000000,0.00000000
-0.32141411,-2.16981912,-0.47043091,-1.14281392,0.32225028,0.00000000,0.00000000,-2.23907328,-0.63300347,-0.02312617,0.01689451,2.87979317,0.00000000,0.00000000
-0.31549674,-2.16710329,-0.48183408,-1.13932168,0.29546702,0.00000000,0.00000000,-2.26975989,-0.64528745,-0.01460172,-0.00733666,2.87979317,0.00000000,0.00000000
-0.30852374,-2.15900493,-0.49400613,-1.13757265,0.26512027,0.00000000,0.00000000,-2.30674887,-0.66224217,-0.00533332,-0.03568975,2.87979317,0.00000000,0.00000000
-0.30226317,-2.15038562,-0.50516719,-1.13995051,0.23764867,0.00000000,0.00000000,-2.35130596,-0.67967033,0.00436385,-0.06502953,2.87979317,0.00000000,0.00000000
-0.29647136,-2.14208984,-0.51457071,-1.14509165,0.21706055,0.00000000,0.00000000,-2.39771223,-0.69486254,0.01437085,-0.09302150,2.87979317,0.00000000,0.00000000
-0.29118270,-2.13439846,-0.52191865,-1.15165460,0.19565572,0.00000000,0.00000000,-2.44061494,-0.70714140,0.02469427,-0.11863369,2.87979317,0.00000000,0.00000000
-0.28676349,-2.12780929,-0.52707380,-1.15867007,0.17207950,0.00000000,0.00000000,-2.47631025,-0.71609676,0.03542639,-0.14108495,2.87979317,0.00000000,0.00000000
-0.28349081,-2.12229156,-0.53009045,-1.16507518,0.14995933,0.00000000,0.00000000,-2.50184464,-0.72118455,0.04672257,-0.15962157,2.87979317,0.00000000,0.00000000
-0.28171507,-2.11785626,-0.53113997,-1.17011666,0.11782876,0.00000000,0.00000000,-2.51531649,-0.72200662,0.05873103,-0.17371741,2.87979317,0.00000000,0.00000000
-0.28184304,-2.11473393,-0.53045225,-1.17351079,0.08867355,0.00000000,0.00000000,-2.51610923,-0.71848106,0.07152083,-0.18318154,2.87979317,0.00000000,0.00000000
-0.28409702,-2.11325479,-0.52820259,-1.17530704,0.05509439,0.00000000,0.00000000,-2.50482583,-0.71074116,0.08505092,-0.18807384,2.87979317,0.00000000,0.00000000
-0.28821269,-2.11371684,-0.52433074,-1.17564404,0.02633476,0.00000000,0.00000000,-2.48293662,-0.69900703,0.09919289,-0.18860047,2.87979317,0.00000000,0.00000000
-0.29344437,-2.11631727,-0.51851249,-1.17461312,-0.01560187,0.00000000,0.00000000,-2.45237875,-0.68353683,0.11377808,-0.18506655,2.87979317,0.00000000,0.00000000
-0.29901284,-2.12114215,-0.51041234,-1.17229140,-0.06070594,0.00000000,0.00000000,-2.41531134,-0.66460788,0.12863649,-0.17784326,2.87979317,0.00000000,0.00000000
-0.30454615,-2.12813091,-0.49998367,-1.16876590,-0.09650257,0.00000000,0.00000000,-2.37404752,-0.64249700,0.14361757,-0.16731851,2.87979317,0.00000000,0.00000000
-0.31000936,-2.13704014,-0.48746520,-1.16419494,-0.13084114,0.00000000,0.00000000,-2.33114243,-0.61754429,0.15859383,-0.15388535,2.87979317,0.00000000,0.00000000
-0.31580818,-2.14772272,-0.47341210,-1.15938210,-0.18249109,0.00000000,0.00000000,-2.29046488,-0.59050131,0.17337805,-0.13803829,2.87979317,0.00000000,0.00000000
-0.32317296,-2.15931034,-0.45914373,-1.15560222,-0.23655340,0.00000000,0.00000000,-2.25714064,-0.56415164,0.18772110,-0.12166220,2.87979317,0.00000000,0.00000000
-0.33105764,-2.16752863,-0.44573382,-1.15213287,-0.28385690,0.00000000,0.00000000,-2.23173475,-0.54292643,0.20176746,-0.10856391,2.87979317,0.00000000,0.00000000
-0.33692512,-2.16985273,-0.43365410,-1.14865291,-0.32464650,0.00000000,0.00000000,-2.21189141,-0.52610159,0.21592838,-0.09914868,2.87979317,0.00000000,0.00000000
-0.34131122,-2.17000008,-0.42349258,-1.14720941,-0.36474141,0.00000000,0.00000000,-2.19732308,-0.51162958,0.23044613,-0.09247495,2.87979317,0.00000000,0.00000000
-0.34485534,-2.17000008,-0.41602311,-1.14769888,-0.39848429,0.00000000,0.00000000,-2.18866205,-0.49889699,0.24544938,-0.08838205,2.87979317,0.00000000,0.00000000
-0.34742677,-2.17000008,-0.41150305,-1.14947450,-0.43095362,0.00000000,0.00000000,-2.18630815,-0.48816246,0.26103860,-0.08727638,2.87979317,0.00000000,0.00000000
-0.34862348,-2.17000008,-0.40978125,-1.15213621,-0.46249515,0.00000000,0.00000000,-2.19028258,-0.47987735,0.27729648,-0.08971993,2.87979317,0.00000000,0.00000000
-0.34798908,-2.17000008,-0.41068399,-1.15510154,-0.48955274,0.00000000,0.00000000,-2.20019579,-0.47425854,0.29428977,-0.09614310,2.87979317,0.00000000,0.00000000
-0.34526193,-2.17000008,-0.41417867,-1.15774107,-0.51051766,0.00000000,0.00000000,-2.21536636,-0.47120357,0.31205964,-0.10672463,2.87979317,0.00000000,0.00000000
-0.34045213,-2.17000008,-0.42030567,-1.15963876,-0.53173459,0.00000000,0.00000000,-2.23501992,-0.47049236,0.33060500,-0.12145503,2.87979317,0.00000000,0.00000000
-0.33376110,-2.17000008,-0.42904621,-1.16075766,-0.55244797,0.00000000,0.00000000,-2.25846410,-0.47199181,0.34986609,-0.14025964,2.87979317,0.00000000,0.00000000
-0.32547173,-2.17000008,-0.44024861,-1.16160583,-0.56960493,0.00000000,0.00000000,-2.28515482,-0.47563422,0.36971954,-0.16304417,2.87979317,0.00000000,0.00000000
-0.31544936,-2.16993809,-0.45320147,-1.16340470,-0.58670306,0.00000000,0.00000000,-2.31467795,-0.48128659,0.38998494,-0.18968424,2.87979317,0.00000000,0.00000000
-0.30165625,-2.16900015,-0.46623796,-1.16692388,-0.60870075,0.00000000,0.00000000,-2.34674168,-0.48884079,0.41042462,-0.22010355,2.87979317,0.00000000,0.00000000
-0.28528613,-2.16595411,-0.48028237,-1.17274308,-0.63219440,0.00000000,0.00000000,-2.38102055,-0.49857670,0.43074709,-0.25451577,2.87979317,0.00000000,0.00000000
-0.27417582,-2.16052747,-0.49861258,-1.18336725,-0.65512288,0.00000000,0.00000000,-2.41682935,-0.51166773,0.45061404,-0.29378626,2.87979317,0.00000000,0.00000000
-0.26197854,-2.15011787,-0.51723880,-1.19403994,-0.66950315,0.00000000,0.00000000,-2.45520496,-0.52893627,0.46938029,-0.33786207,2.87979317,0.00000000,0.00000000
-0.24852164,-2.13718057,-0.53500044,-1.20423269,-0.68739843,0.00000000,0.00000000,-2.49961114,-0.54711783,0.48630133,-0.38233149,2.87979317,0.00000000,0.00000000
-0.23597901,-2.12539887,-0.55148274,-1.21487260,-0.69936949,0.00000000,0.00000000,-2.54672432,-0.56357819,0.50188500,-0.42359599,2.87979317,0.00000000,0.00000000
-0.22474930,-2.11574578,-0.56608611,-1.22531021,-0.71205151,0.00000000,0.00000000,-2.59255695,-0.57726836,0.51678652,-0.46046606,2.87979317,0.00000000,0.00000000
-0.21502252,-2.10800648,-0.57866436,-1.23487985,-0.71403480,0.00000000,0.00000000,-2.63450003,-0.58728242,0.53156370,-0.49237183,2.87979317,0.00000000,0.00000000
-0.20689735,-2.10194325,-0.58912700,-1.24324632,-0.71040535,0.00000000,0.00000000,-2.66976285,-0.59294188,0.54693866,-0.51908010,2.87979317,0.00000000,0.00000000
-0.20042378,-2.09757733,-0.59731364,-1.25031829,-0.70721638,0.00000000,0.00000000,-2.69561100,-0.59396374,0.56366724,-0.54072946,2.87979317,0.00000000,0.00000000
-0.19572127,-2.09501028,-0.60315049,-1.25610399,-0.70906508,0.00000000,0.00000000,-2.71017504,-0.59031779,0.58229023,-0.55758220,2.87979317,0.00000000,0.00000000
-0.19294256,-2.09418344,-0.60674816,-1.26053548,-0.70206642,0.00000000,0.00000000,-2.71276355,-0.58192354,0.60304135,-0.56976855,2.87979317,0.00000000,0.00000000
-0.19206506,-2.09486651,-0.60825694,-1.26340461,-0.69721961,0.00000000,0.00000000,-2.70341992,-0.56850082,0.62597251,-0.57732010,2.87979317,0.00000000,0.00000000
-0.19275962,-2.09683943,-0.60764825,-1.26443946,-0.68909502,0.00000000,0.00000000,-2.68238282,-0.54978490,0.65106094,-0.58042514,2.87979317,0.00000000,0.00000000
-0.19455668,-2.10012913,-0.60466391,-1.26349556,-0.68770462,0.00000000,0.00000000,-2.65024114,-0.52600306,0.67807442,-0.57958305,2.87979317,0.00000000,0.00000000
-0.19714507,-2.10513282,-0.59895319,-1.26071537,-0.68970197,0.00000000,0.00000000,-2.60874152,-0.49825355,0.70627952,-0.57543814,2.87979317,0.00000000,0.00000000
-0.20046575,-2.11246109,-0.59028876,-1.25645518,-0.69871783,0.00000000,0.00000000,-2.56106019,-0.46835184,0.73443276,-0.56848627,2.87979317,0.00000000,0.00000000
-0.20469140,-2.12261558,-0.57882857,-1.25112259,-0.70124817,0.00000000,0.00000000,-2.51092696,-0.43839374,0.76114607,-0.55912256,2.87979317,0.00000000,0.00000000
-0.21032089,-2.13574457,-0.56537938,-1.24536097,-0.70241404,0.00000000,0.00000000,-2.46369553,-0.41044998,0.78474659,-0.54778111,2.87979317,0.00000000,0.00000000
-0.21690026,-2.14981103,-0.55119276,-1.23924398,-0.70754075,0.00000000,0.00000000,-2.42571115,-0.38748464,0.80324572,-0.53668571,2.87979317,0.00000000,0.00000000
-0.22343504,-2.16053343,-0.53799796,-1.23206127,-0.71514088,0.00000000,0.00000000,-2.39626336,-0.37313810,0.81622988,-0.53102380,2.87979317,0.00000000,0.00000000
-0.23184361,-2.16769838,-0.52786279,-1.22646165,-0.72051740,0.00000000,0.00000000,-2.37531447,-0.36539209,0.82434040,-0.53112513,2.87979317,0.00000000,0.00000000
-0.23723291,-2.16985965,-0.51952153,-1.22298956,-0.73050404,0.00000000,0.00000000,-2.36409712,-0.36151609,0.82802844,-0.53565764,2.87979317,0.00000000,0.00000000
-0.23966539,-2.17000008,-0.51388019,-1.22181129,-0.74039876,0.00000000,0.00000000,-2.36265969,-0.35981303,0.82772279,-0.54423004,2.87979317,0.00000000,0.00000000
-0.24031630,-2.17000008,-0.51231581,-1.22216582,-0.75122416,0.00000000,0.00000000,-2.37029052,-0.35912707,0.82382679,-0.55692887,2.87979317,0.00000000,0.00000000
-0.23922828,-2.17000008,-0.51522815,-1.22308290,-0.75997865,0.00000000,0.00000000,-2.38592243,-0.35871190,0.81665236,-0.57401615,2.87979317,0.00000000,0.00000000
-0.23642181,-2.17000008,-0.52250260,-1.22414339,-0.76808494,0.00000000,0.00000000,-2.40821290,-0.35814658,0.80642390,-0.59587395,2.87979317,0.00000000,0.00000000
-0.23188671,-2.16979551,-0.53344589,-1.22573638,-0.77583599,0.00000000,0.00000000,-2.43545365,-0.35749292,0.79328263,-0.62318313,2.87979317,0.00000000,0.00000000
-0.22537877,-2.16661215,-0.54701793,-1.22798824,-0.78452194,0.00000000,0.00000000,-2.46504593,-0.35783565,0.77733910,-0.65745991,2.87979317,0.00000000,0.00000000
-0.21679100,-2.15580821,-0.56201559,-1.22944236,-0.79704762,0.00000000,0.00000000,-2.49544787,-0.36035922,0.75835979,-0.69917214,2.87979317,0.00000000,0.00000000
-0.20764032,-2.14150047,-0.57648337,-1.23064733,-0.80856633,0.00000000,0.00000000,-2.52874207,-0.36314642,0.73581582,-0.74305779,2.87979317,0.00000000,0.00000000
-0.19964045,-2.12856603,-0.58907837,-1.23263574,-0.81676382,0.00000000,0.00000000,-2.56234455,-0.36367294,0.71085721,-0.78343278,2.87979317,0.00000000,0.00000000
-0.19321448,-2.11801624,-0.59924376,-1.23486102,-0.83127552,0.00000000,0.00000000,-2.59324598,-0.36172062,0.68432784,-0.81856567,2.87979317,0.00000000,0.00000000
-0.18820119,-2.10966468,-0.60666466,-1.23665047,-0.84466064,0.00000000,0.00000000,-2.62027097,-0.35697180,0.65663636,-0.84761858,2.87979317,0.00000000,0.00000000
-0.18436059,-2.10320735,-0.61112660,-1.23758733,-0.85379356,0.00000000,0.00000000,-2.64177227,-0.34878814,0.62857741,-0.86980838,2.87979317,0.00000000,0.00000000
-0.18161637,-2.09840155,-0.61254227,-1.23729253,-0.85769373,0.00000000,0.00000000,-2.65565920,-0.33669311,0.60119963,-0.88450068,2.87979317,0.00000000,0.00000000
-0.18021306,-2.09520102,-0.61097002,-1.23544014,-0.86165267,0.00000000,0.00000000,-2.66007996,-0.32061049,0.57546377,-0.89125162,2.87979317,0.00000000,0.00000000
-0.18063076,-2.09375548,-0.60654843,-1.23181391,-0.86806071,0.00000000,0.00000000,-2.65377688,-0.30103490,0.55200887,-0.88994831,2.87979317,0.00000000,0.00000000
-0.18339556,-2.09438586,-0.59939742,-1.22633898,-0.87431937,0.00000000,0.00000000,-2.63630033,-0.27906573,0.53102124,-0.88088727,2.87979317,0.00000000,0.00000000
-0.18890038,-2.09752941,-0.58955544,-1.21905410,-0.87980628,0.00000000,0.00000000,-2.60810804,-0.25630826,0.51221639,-0.86473918,2.87979317,0.00000000,0.00000000
-0.19726115,-2.10359764,-0.57698447,-1.21001065,-0.87807745,0.00000000,0.00000000,-2.57054853,-0.23454677,0.49494705,-0.84232581,2.87979317,0.00000000,0.00000000
-0.20828949,-2.11276793,-0.56166291,-1.19921815,-0.87509775,0.00000000,0.00000000,-2.52579498,-0.21520637,0.47835883,-0.81423151,2.87979317,0.00000000,0.00000000
-0.22146806,-2.12481952,-0.54362649,-1.18680489,-0.88207048,0.00000000,0.00000000,-2.47679210,-0.19903623,0.46145940,-0.78056234,2.87979317,0.00000000,0.00000000
-0.23611343,-2.13919663,-0.52300161,-1.17350495,-0.89301509,0.00000000,0.00000000,-2.42696786,-0.18660301,0.44313303,-0.74141270,2.87979317,0.00000000,0.00000000
-0.25097039,-2.15432262,-0.49992400,-1.16063368,-0.90185750,0.00000000,0.00000000,-2.38099790,-0.17792007,0.42188549,-0.69793850,2.87979317,0.00000000,0.00000000
-0.26435253,-2.16558123,-0.47524634,-1.14949143,-0.90802562,0.00000000,0.00000000,-2.34374332,-0.17261180,0.39627653,-0.65421242,2.87979317,0.00000000,0.00000000
-0.27716118,-2.16948009,-0.45167351,-1.14161205,-0.91209340,0.00000000,0.00000000,-2.31365037,-0.17393431,0.36692643,-0.61685801,2.87979317,0.00000000,0.00000000
-0.28988490,-2.16997957,-0.43060836,-1.13738549,-0.91203773,0.00000000,0.00000000,-2.29013062,-0.17977096,0.33479765,-0.58618045,2.87979317,0.00000000,0.00000000
-0.30214480,-2.17000008,-0.41260132,-1.13519025,-0.91287929,0.00000000,0.00000000,-2.27347302,-0.18750229,0.30049953,-0.56104654,2.87979317,0.00000000,0.00000000
-0.31351188,-2.17000008,-0.39773560,-1.13347566,-0.91485488,0.00000000,0.00000000,-2.26330328,-0.19615936,0.26459068,-0.54132450,2.87979317,0.00000000,0.00000000
-0.32379073,-2.17000008,-0.38581187,-1.13162601,-0.91770422,0.00000000,0.00000000,-2.25888228,-0.20520897,0.22764201,-0.52712756,2.87979317,0.00000000,0.00000000
-0.33291045,-2.17000008,-0.37654492,-1.12958479,-0.91870767,0.00000000,0.00000000,-2.25941062,-0.21428667,0.19018763,-0.51863760,2.87979317,0.00000000,0.00000000
-0.34081316,-2.17000008,-0.36962324,-1.12755668,-0.91528547,0.00000000,0.00000000,-2.26415873,-0.22314505,0.15271394,-0.51607192,2.87979317,0.00000000,0.00000000
-0.34742901,-2.17000008,-0.36476022,-1.12581289,-0.91903317,0.00000000,0.00000000,-2.27236891,-0.23153749,0.11571588,-0.51962036,2.87979317,0.00000000,0.00000000
-0.35265079,-2.17000008,-0.36172083,-1.12451303,-0.92007947,0.00000000,0.00000000,-2.28312230,-0.23909028,0.07974987,-0.52937114,2.87979317,0.00000000,0.00000000
-0.35632843,-2.17000008,-0.36033353,-1.12360072,-0.92461526,0.00000000,0.00000000,-2.29535532,-0.24525686,0.04542919,-0.54528087,2.87979317,0.00000000,0.00000000
-0.35830376,-2.17000008,-0.36049649,-1.12282467,-0.93340808,0.00000000,0.00000000,-2.30796671,-0.24938650,0.01338939,-0.56721735,2.87979317,0.00000000,0.00000000
-0.35845053,-2.17000008,-0.36215526,-1.12188363,-0.93988752,0.00000000,0.00000000,-2.31991792,-0.25089869,-0.01573815,-0.59506136,2.87979317,0.00000000,0.00000000
-0.35669610,-2.17000008,-0.36526692,-1.12058103,-0.95235902,0.00000000,0.00000000,-2.33029699,-0.24948621,-0.04133932,-0.62881947,2.87979317,0.00000000,0.00000000
-0.35303396,-2.17000008,-0.36980188,-1.11884415,-0.97329903,0.00000000,0.00000000,-2.33831477,-0.24516372,-0.06280959,-0.66865188,2.87979317,0.00000000,0.00000000
-0.34751973,-2.17000008,-0.37577218,-1.11660767,-0.99004817,0.00000000,0.00000000,-2.34318209,-0.23786479,-0.07951116,-0.71462458,2.87979317,0.00000000,0.00000000
-0.34024522,-2.17000008,-0.38318577,-1.11380768,-1.00711358,0.00000000,0.00000000,-2.34451199,-0.22740822,-0.09096088,-0.76652414,2.87979317,0.00000000,0.00000000
-0.33158031,-2.17000008,-0.39187402,-1.11118937,-1.02287722,0.00000000,0.00000000,-2.34364724,-0.21577284,-0.09740351,-0.82415354,2.87979317,0.00000000,0.00000000
-0.32219470,-2.17000008,-0.40113342,-1.11111319,-1.03888881,0.00000000,0.00000000,-2.34288788,-0.20397650,-0.09969290,-0.88365847,2.87979317,0.00000000,0.00000000
-0.31180841,-2.17000008,-0.40972129,-1.11476398,-1.04857373,0.00000000,0.00000000,-2.34330964,-0.18603928,-0.09858400,-0.93589920,2.87979317,0.00000000,0.00000000
-0.30042222,-2.17000008,-0.41714263,-1.12115049,-1.07019126,0.00000000,0.00000000,-2.34517050,-0.16316190,-0.09435584,-0.97930837,2.87979317,0.00000000,0.00000000
-0.28914550,-2.17000008,-0.42396748,-1.12895489,-1.09410012,0.00000000,0.00000000,-2.34811020,-0.13812624,-0.08714042,-1.01448417,2.87979317,0.00000000,0.00000000
-0.27877757,-2.16997099,-0.43045881,-1.13723135,-1.10896397,0.00000000,0.00000000,-2.35092115,-0.11197937,-0.07691155,-1.04076052,2.87979317,0.00000000,0.00000000
-0.26957092,-2.16953802,-0.43639898,-1.14486778,-1.12327039,0.00000000,0.00000000,-2.35194874,-0.08550565,-0.06348383,-1.05717587,2.87979317,0.00000000,0.00000000
-0.26185372,-2.16827679,-0.44149065,-1.15086675,-1.13707018,0.00000000,0.00000000,-2.34982634,-0.05961438,-0.04662830,-1.06297183,2.87979317,0.00000000,0.00000000
-0.25621948,-2.16735935,-0.44564697,-1.15481520,-1.14864028,0.00000000,0.00000000,-2.34411192,-0.03538628,-0.02618487,-1.05789173,2.87979317,0.00000000,0.00000000
-0.25307509,-2.16768074,-0.44902587,-1.15662134,-1.16224205,0.00000000,0.00000000,-2.33543158,-0.01404716,-0.00209656,-1.04236269,2.87979317,0.00000000,0.00000000
-0.25234938,-2.16883707,-0.45190904,-1.15631390,-1.17346501,0.00000000,0.00000000,-2.32520390,0.00316108,0.02559229,-1.01760304,2.87979317,0.00000000,0.00000000
-0.25343549,-2.16973734,-0.45449111,-1.15413535,-1.18870068,0.00000000,0.00000000,-2.31517649,0.01524776,0.05670236,-0.98557311,2.87979317,0.00000000,0.00000000
-0.25534174,-2.16998482,-0.45667508,-1.15077162,-1.19994414,0.00000000,0.00000000,-2.30703759,0.02169074,0.09082124,-0.94863921,2.87979317,0.00000000,0.00000000
-0.25709665,-2.17000008,-0.45809245,-1.14753246,-1.20974994,0.00000000,0.00000000,-2.30182695,0.02230879,0.12745409,-0.90915745,2.87979317,0.00000000,0.00000000
-0.25777382,-2.17000008,-0.45852807,-1.14586627,-1.21570992,0.00000000,0.00000000,-2.30187678,0.01715550,0.16509764,-0.86977386,2.87979317,0.00000000,0.00000000
-0.25696620,-2.17000008,-0.45938709,-1.14589441,-1.22453976,0.00000000,0.00000000,-2.31249261,0.00612322,0.20058422,-0.83553308,2.87979317,0.00000000,0.00000000
-0.25542495,-2.17000008,-0.46371973,-1.14579606,-1.22705495,0.00000000,0.00000000,-2.33114696,-0.01158325,0.23478964,-0.81338334,2.87979317,0.00000000,0.00000000
-0.25316167,-2.17000008,-0.47281998,-1.14424264,-1.23049176,0.00000000,0.00000000,-2.35587811,-0.03518539,0.26829317,-0.80521715,2.87979317,0.00000000,0.00000000
-0.24997538,-2.17000008,-0.48674843,-1.14119816,-1.23563385,0.00000000,0.00000000,-2.38599277,-0.06328156,0.30098554,-0.81035882,2.87979317,0.00000000,0.00000000
-0.24597555,-2.16991162,-0.50516331,-1.13766706,-1.24157321,0.00000000,0.00000000,-2.41976476,-0.09450667,0.33324590,-0.82774496,2.87979317,0.00000000,0.00000000
-0.24090959,-2.16849542,-0.52660418,-1.13529599,-1.24907601,0.00000000,0.00000000,-2.45640850,-0.12764098,0.36496970,-0.85484910,2.87979317,0.00000000,0.00000000
-0.23403211,-2.16318965,-0.54847598,-1.13500047,-1.24850297,0.00000000,0.00000000,-2.49611974,-0.16213192,0.39544117,-0.88697237,2.87979317,0.00000000,0.00000000
-0.22539501,-2.15475726,-0.56879765,-1.13626838,-1.24868166,0.00000000,0.00000000,-2.53690863,-0.19696358,0.42502004,-0.91865599,2.87979317,0.00000000,0.00000000
-0.21583004,-2.14580083,-0.58678734,-1.13829315,-1.25372493,0.00000000,0.00000000,-2.57642126,-0.23163351,0.45415285,-0.94664699,2.87979317,0.00000000,0.00000000
-0.20606247,-2.13741255,-0.60238111,-1.14047539,-1.25984967,0.00000000,0.00000000,-2.61431217,-0.26589277,0.48227891,-0.96932679,2.87979317,0.00000000,0.00000000
-0.19647309,-2.12975144,-0.61564326,-1.14243865,-1.26170766,0.00000000,0.00000000,-2.65055537,-0.29916835,0.50882471,-0.98551780,2.87979317,0.00000000,0.00000000
-0.18735257,-2.12290144,-0.62662107,-1.14389527,-1.26087821,0.00000000,0.00000000,-2.68455076,-0.33086482,0.53364879,-0.99429917,2.87979317,0.00000000,0.00000000
-0.17908569,-2.11699533,-0.63538760,-1.14452720,-1.27056777,0.00000000,0.00000000,-2.71546865,-0.36066520,0.55681914,-0.99501407,2.87979317,0.00000000,0.00000000
-0.17218217,-2.11215019,-0.64207035,-1.14399040,-1.27030408,0.00000000,0.00000000,-2.74258089,-0.38857460,0.57842511,-0.98721266,2.87979317,0.00000000,0.00000000
-0.16717422,-2.10838437,-0.64681703,-1.14197791,-1.26910377,0.00000000,0.00000000,-2.76541781,-0.41483617,0.59850973,-0.97056758,2.87979317,0.00000000,0.00000000
-0.16442904,-2.10563087,-0.64968109,-1.13828790,-1.27079856,0.00000000,0.00000000,-2.78366590,-0.43982995,0.61713535,-0.94484836,2.87979317,0.00000000,0.00000000
-0.16405317,-2.10388422,-0.65052003,-1.13290548,-1.27331018,0.00000000,0.00000000,-2.79685092,-0.46398538,0.63452470,-0.90997702,2.87979317,0.00000000,0.00000000
-0.16600256,-2.10332274,-0.64903647,-1.12607181,-1.27150607,0.00000000,0.00000000,-2.80416536,-0.48763007,0.65111589,-0.86604267,2.87979317,0.00000000,0.00000000
-0.17025223,-2.10422778,-0.64494085,-1.11821866,-1.27722573,0.00000000,0.00000000,-2.80464983,-0.51073533,0.66747081,-0.81318229,2.87979317,0.00000000,0.00000000
-0.17682292,-2.10680509,-0.63806236,-1.10978651,-1.28980088,0.00000000,0.00000000,-2.79743910,-0.53269380,0.68417645,-0.75144321,2.87979317,0.00000000,0.00000000
-0.18568012,-2.11113715,-0.62832165,-1.10109663,-1.30500185,0.00000000,0.00000000,-2.78171659,-0.55226159,0.70186216,-0.68077898,2.87979317,0.00000000,0.00000000
-0.19669598,-2.11726165,-0.61569124,-1.09237123,-1.31527257,0.00000000,0.00000000,-2.75658369,-0.56760651,0.72123593,-0.60109150,2.87979317,0.00000000,0.00000000
-0.20968068,-2.12522840,-0.60020709,-1.08384860,-1.32882655,0.00000000,0.00000000,-2.72095752,-0.57626003,0.74309325,-0.51222503,2.87979317,0.00000000,0.00000000
-0.22426634,-2.13494349,-0.58197474,-1.07582223,-1.34117401,0.00000000,0.00000000,-2.67303324,-0.57475358,0.76841223,-0.41401598,2.87979317,0.00000000,0.00000000
-0.23986793,-2.14585662,-0.56125164,-1.06863141,-1.36134696,0.00000000,0.00000000,-2.61002231,-0.55825049,0.79821211,-0.30634624,2.87979317,0.00000000,0.00000000
-0.25565061,-2.15673590,-0.53842801,-1.06259871,-1.38525927,0.00000000,0.00000000,-2.52839756,-0.52080846,0.83310181,-0.18934165,2.87979317,0.00000000,0.00000000
-0.27061880,-2.16521168,-0.51404196,-1.05775511,-1.40996587,0.00000000,0.00000000,-2.42479300,-0.45670882,0.87273538,-0.06367646,2.87979317,0.00000000,0.00000000
-0.28415847,-2.16913128,-0.48885119,-1.05398870,-1.43214333,0.00000000,0.00000000,-2.29722667,-0.36204675,0.91561693,0.06932005,2.87979317,0.00000000,0.00000000
-0.29651383,-2.16995335,-0.46395972,-1.05062735,-1.45185184,0.00000000,0.00000000,-2.14576101,-0.23548661,0.95940620,0.20769125,2.87979317,0.00000000,0.00000000
-0.30807793,-2.17000008,-0.44052312,-1.04576659,-1.47264731,0.00000000,0.00000000,-1.97250128,-0.07824194,1.00141013,0.34881881,2.87979317,0.00000000,0.00000000
-0.31877562,-2.17000008,-0.41922143,-1.03736424,-1.49123311,0.00000000,0.00000000,-1.78143823,0.10611452,1.03902936,0.48938763,2.87979317,0.00000000,0.00000000
-0.32805395,-2.17000008,-0.40008289,-1.02451277,-1.52240551,0.00000000,0.00000000,-1.57823050,0.31186548,1.07015395,0.62547266,2.87979317,0.00000000,0.00000000
-0.33596456,-2.17000008,-0.38321131,-1.00771105,-1.54899573,0.00000000,0.00000000,-1.36981034,0.53155273,1.09350169,0.75282353,2.87979317,0.00000000,0.00000000
-0.34321523,-2.17000008,-0.36907193,-0.98743910,-1.57094550,0.00000000,0.00000000,-1.16375744,0.75664169,1.10882068,0.86731142,2.87979317,0.00000000,0.00000000
