isaac-sim2real/sage/motion_files/wr75s/amass/0-KIT_912_912_3_12_poses_idx5.txt
l_joint1,l_joint2,l_joint3,l_joint4,l_joint5,l_joint6,l_joint7,r_joint1,r_joint2,r_joint3,r_joint4,r_joint5,r_joint6,r_joint7
0.02778099,-2.02575016,-0.55918360,0.03622878,-0.17474401,0.00000000,0.00000000,0.07031171,2.05506039,0.15094930,-0.19363265,0.02218754,0.00000000,0.00000000
0.02948519,-2.03857136,-0.56222212,0.02844552,-0.19962862,0.00000000,0.00000000,0.06808919,2.07222533,0.15300789,-0.18178864,0.00959198,0.00000000,0.00000000
0.03263324,-2.05852699,-0.56797200,0.01571183,-0.22173056,0.00000000,0.00000000,0.06311666,2.09773660,0.15685935,-0.16320772,-0.00503423,0.00000000,0.00000000
0.03667004,-2.08056045,-0.57626528,0.00037997,-0.24104950,0.00000000,0.00000000,0.05668769,2.12188363,0.16207251,-0.14297880,-0.02154688,0.00000000,0.00000000
0.04101019,-2.10160351,-0.58694291,-0.01612459,-0.25775108,0.00000000,0.00000000,0.05012083,2.14092112,0.16832173,-0.12259721,-0.04218540,0.00000000,0.00000000
0.04533156,-2.12022305,-0.59987074,-0.03305208,-0.27315441,0.00000000,0.00000000,0.04266105,2.15502715,0.17552960,-0.10152933,-0.06107781,0.00000000,0.00000000
0.04936523,-2.13557482,-0.61493421,-0.04988185,-0.28636101,0.00000000,0.00000000,0.03347290,2.16458750,0.18359093,-0.07913288,-0.07725324,0.00000000,0.00000000
0.05270878,-2.14706540,-0.63204086,-0.06623863,-0.29548395,0.00000000,0.00000000,0.02281794,2.16898966,0.19228932,-0.05584745,-0.09272544,0.00000000,0.00000000
0.05513523,-2.15438390,-0.65111184,-0.08186033,-0.30203387,0.00000000,0.00000000,0.01041480,2.16994476,0.20144571,-0.03291728,-0.10951734,0.00000000,0.00000000
0.05624270,-2.15819550,-0.67206949,-0.09714787,-0.31378737,0.00000000,0.00000000,-0.00379282,2.17000008,0.21090776,-0.01158604,-0.12713319,0.00000000,0.00000000
0.05493974,-2.16042614,-0.69483495,-0.11357068,-0.32594916,0.00000000,0.00000000,-0.01917477,2.17000008,0.22054872,0.00730330,-0.14462206,0.00000000,0.00000000
0.05050863,-2.16228175,-0.71933591,-0.13226974,-0.33748636,0.00000000,0.00000000,-0.03461583,2.17000008,0.23028116,0.02278981,-0.16195932,0.00000000,0.00000000
0.04332697,-2.16348553,-0.74549931,-0.15319809,-0.35225838,0.00000000,0.00000000,-0.04869057,2.17000008,0.24006040,0.03459604,-0.17644237,0.00000000,0.00000000
0.03432387,-2.16365743,-0.77321965,-0.17585963,-0.36975977,0.00000000,0.00000000,-0.06027490,2.17000008,0.24987072,0.04315257,-0.19234134,0.00000000,0.00000000
0.02450178,-2.16271687,-0.80234367,-0.19986165,-0.38406706,0.00000000,0.00000000,-0.06904811,2.17000008,0.25970280,0.04887135,-0.20940378,0.00000000,0.00000000
0.01467458,-2.16048670,-0.83268654,-0.22502959,-0.39792007,0.00000000,0.00000000,-0.07536880,2.17000008,0.26954362,0.05194722,-0.22722267,0.00000000,0.00000000
0.00537588,-2.15702581,-0.86405492,-0.25132510,-0.40556014,0.00000000,0.00000000,-0.07988384,2.17000008,0.27937904,0.05248426,-0.25347921,0.00000000,0.00000000
-0.00280499,-2.15284801,-0.89620101,-0.27866343,-0.40988782,0.00000000,0.00000000,-0.08332350,2.17000008,0.28919795,0.05057308,-0.28013122,0.00000000,0.00000000
-0.00897069,-2.14868903,-0.92878819,-0.30676088,-0.41048720,0.00000000,0.00000000,-0.08644979,2.17000008,0.29899493,0.04631601,-0.30560303,0.00000000,0.00000000
-0.01224968,-2.14514446,-0.96146256,-0.33524573,-0.40770432,0.00000000,0.00000000,-0.08974268,2.17000008,0.30878022,0.03994835,-0.32691526,0.00000000,0.00000000
-0.01229845,-2.14256024,-0.99393785,-0.36392432,-0.40034878,0.00000000,0.00000000,-0.09294937,2.17000008,0.31859091,0.03193782,-0.34728152,0.00000000,0.00000000
-0.00896676,-2.14106274,-1.02596688,-0.39252076,-0.39317241,0.00000000,0.00000000,-0.09690481,2.17000008,0.32846075,0.02257816,-0.36444065,0.00000000,0.00000000
-0.00262359,-2.14031696,-1.05744660,-0.42071164,-0.38392234,0.00000000,0.00000000,-0.10122393,2.17000008,0.33844092,0.01280078,-0.38125199,0.00000000,0.00000000
0.00567404,-2.13975072,-1.08842242,-0.44841266,-0.37554678,0.00000000,0.00000000,-0.09974902,2.17000008,0.34863868,0.00476707,-0.39570010,0.00000000,0.00000000
0.01580767,-2.13891935,-1.11880851,-0.47515666,-0.36624339,0.00000000,0.00000000,-0.09455144,2.17000008,0.35906267,-0.00157933,-0.39828321,0.00000000,0.00000000
0.02773429,-2.13766408,-1.14845181,-0.50068408,-0.35696873,0.00000000,0.00000000,-0.08729948,2.17000008,0.36973056,-0.00693796,-0.39273110,0.00000000,0.00000000
0.04146947,-2.13604045,-1.17714953,-0.52489501,-0.35231024,0.00000000,0.00000000,-0.07783311,2.16996169,0.38068596,-0.01087341,-0.38405368,0.00000000,0.00000000
0.05833470,-2.13460326,-1.20440698,-0.54716098,-0.35326484,0.00000000,0.00000000,-0.06680335,2.16929913,0.39197364,-0.01317823,-0.37151903,0.00000000,0.00000000
0.07923035,-2.13443780,-1.22961462,-0.56717998,-0.35704419,0.00000000,0.00000000,-0.05520931,2.16621208,0.40363148,-0.01430906,-0.35504764,0.00000000,0.00000000
0.10141819,-2.13600826,-1.25276256,-0.58636957,-0.36050197,0.00000000,0.00000000,-0.04129970,2.15933371,0.41567013,-0.01393527,-0.33462036,0.00000000,0.00000000
0.12241931,-2.13886404,-1.27411044,-0.60567904,-0.37023389,0.00000000,0.00000000,-0.02270915,2.14902782,0.42808875,-0.01145511,-0.31746554,0.00000000,0.00000000
0.14236228,-2.14255476,-1.29366922,-0.62461340,-0.38348442,0.00000000,0.00000000,0.00140417,2.13584399,0.44089177,-0.00677755,-0.30564579,0.00000000,0.00000000
0.16270193,-2.14696264,-1.31122804,-0.64210653,-0.39869615,0.00000000,0.00000000,0.03073041,2.12056065,0.45408350,0.00006425,-0.29209432,0.00000000,0.00000000
0.18499389,-2.15201044,-1.32653999,-0.65717334,-0.40698591,0.00000000,0.00000000,0.06445447,2.10428357,0.46765375,0.00911971,-0.27016878,0.00000000,0.00000000
0.21045935,-2.15732121,-1.33944154,-0.66907024,-0.41790372,0.00000000,0.00000000,0.10144742,2.08809733,0.48156637,0.02037616,-0.24430782,0.00000000,0.00000000
0.23964047,-2.16217279,-1.34987414,-0.67744368,-0.43128079,0.00000000,0.00000000,0.14010389,2.07303858,0.49574652,0.03365229,-0.22031648,0.00000000,0.00000000
0.27140534,-2.16593027,-1.35782683,-0.68301332,-0.43827802,0.00000000,0.00000000,0.17819603,2.06018949,0.51006246,0.04856515,-0.20264031,0.00000000,0.00000000
0.30221239,-2.16841960,-1.36338162,-0.68825334,-0.44788259,0.00000000,0.00000000,0.21360017,2.05015993,0.52433759,0.06449283,-0.17926335,0.00000000,0.00000000
0.32800087,-2.16967440,-1.36706269,-0.69626629,-0.45574540,0.00000000,0.00000000,0.24507973,2.04279613,0.53839260,0.08073178,-0.15968989,0.00000000,0.00000000
0.34674573,-2.16998148,-1.37023795,-0.70869708,-0.46122009,0.00000000,0.00000000,0.27145138,2.03748155,0.55204147,0.09641921,-0.14039636,0.00000000,0.00000000
0.35884941,-2.17000008,-1.37486720,-0.72494376,-0.46674350,0.00000000,0.00000000,0.29157165,2.03351688,0.56509775,0.11069975,-0.11321715,0.00000000,0.00000000
0.36525744,-2.17000008,-1.38269401,-0.74323308,-0.47634003,0.00000000,0.00000000,0.30499491,2.03088284,0.57739443,0.12332743,-0.08460835,0.00000000,0.00000000
0.36622009,-2.16999054,-1.39474881,-0.76167554,-0.48173550,0.00000000,0.00000000,0.31211132,2.03027487,0.58880055,0.13472365,-0.05911867,0.00000000,0.00000000
0.36168730,-2.16971779,-1.41087818,-0.77887195,-0.48266846,0.00000000,0.00000000,0.31340644,2.03153110,0.59924161,0.14483869,-0.03095419,0.00000000,0.00000000
0.35114542,-2.16722560,-1.42954755,-0.79467171,-0.49144182,0.00000000,0.00000000,0.30861410,2.03357387,0.60864848,0.15270782,-0.00190495,0.00000000,0.00000000
0.33406129,-2.15915155,-1.44859111,-0.80956769,-0.50243413,0.00000000,0.00000000,0.29706565,2.03623414,0.61689800,0.15754348,0.03225086,0.00000000,0.00000000
0.31031588,-2.14635277,-1.46628368,-0.82390797,-0.51982594,0.00000000,0.00000000,0.27861968,2.04012012,0.62388903,0.15923321,0.06365485,0.00000000,0.00000000
0.28024703,-2.13117552,-1.48142445,-0.83779067,-0.53436530,0.00000000,0.00000000,0.25368282,2.04568124,0.62959969,0.15800853,0.09711673,0.00000000,0.00000000
0.24348298,-2.11494303,-1.49343848,-0.85173893,-0.55137777,0.00000000,0.00000000,0.22480610,2.05273485,0.63423830,0.15478076,0.12379120,0.00000000,0.00000000
0.19766490,-2.09709430,-1.50287688,-0.86724186,-0.56892270,0.00000000,0.00000000,0.19700596,2.06072736,0.63824081,0.15130325,0.14393701,0.00000000,0.00000000
0.14081776,-2.07621408,-1.51079273,-0.88509250,-0.58336562,0.00000000,0.00000000,0.17271072,2.06910586,0.64184189,0.14842619,0.16386290,0.00000000,0.00000000
0.07257646,-2.05178976,-1.51777864,-0.90468484,-0.59105170,0.00000000,0.00000000,0.15183713,2.07711864,0.64509279,0.14592032,0.18254595,0.00000000,0.00000000
-0.00644028,-2.02425981,-1.52404249,-0.92453545,-0.59664035,0.00000000,0.00000000,0.13407062,2.08442783,0.64800733,0.14357260,0.19913036,0.00000000,0.00000000
-0.09456985,-1.99459553,-1.52965522,-0.94254750,-0.60266823,0.00000000,0.00000000,0.11932202,2.09117818,0.65059561,0.14144276,0.20839432,0.00000000,0.00000000
-0.18897480,-1.96393836,-1.53464830,-0.95625663,-0.60626799,0.00000000,0.00000000,0.10754288,2.09738946,0.65288293,0.13960505,0.21903355,0.00000000,0.00000000
-0.28623328,-1.93318915,-1.53909767,-0.96326739,-0.61412925,0.00000000,0.00000000,0.09884284,2.10256743,0.65493602,0.13808993,0.23564307,0.00000000,0.00000000
-0.38307878,-1.90276396,-1.54315019,-0.96156347,-0.62642652,0.00000000,0.00000000,0.09378669,2.10617256,0.65685600,0.13725585,0.25888857,0.00000000,0.00000000
-0.47642285,-1.87271190,-1.54693699,-0.94938743,-0.63749772,0.00000000,0.00000000,0.09338576,2.10841680,0.65873331,0.13814966,0.27641243,0.00000000,0.00000000
-0.56341928,-1.84276843,-1.55064237,-0.92520028,-0.64398259,0.00000000,0.00000000,0.09803571,2.10948801,0.66061020,0.14162125,0.28939798,0.00000000,0.00000000
-0.64374071,-1.81386638,-1.55375123,-0.89191884,-0.65353072,0.00000000,0.00000000,0.10618781,2.10919428,0.66239429,0.14753236,0.30136418,0.00000000,0.00000000
-0.71821380,-1.79076505,-1.55355847,-0.85898244,-0.66754913,0.00000000,0.00000000,0.11471980,2.10901690,0.66376305,0.15591776,0.31795979,0.00000000,0.00000000
-0.78345704,-1.77572083,-1.54902887,-0.82827950,-0.67546177,0.00000000,0.00000000,0.12152188,2.10882068,0.66452318,0.16627669,0.33168060,0.00000000,0.00000000
-0.83918327,-1.76840007,-1.54073298,-0.80022210,-0.68382818,0.00000000,0.00000000,0.12567659,2.10771704,0.66458499,0.17805031,0.34793699,0.00000000,0.00000000
-0.88649642,-1.76808929,-1.52938151,-0.77541637,-0.69266081,0.00000000,0.00000000,0.12707500,2.10519195,0.66388959,0.19110763,0.36145967,0.00000000,0.00000000
-0.92595732,-1.77439582,-1.51540458,-0.75392318,-0.70407271,0.00000000,0.00000000,0.12611210,2.10104322,0.66239882,0.20568137,0.37009457,0.00000000,0.00000000
-0.95794940,-1.78726053,-1.49898136,-0.73567867,-0.70844793,0.00000000,0.00000000,0.12344981,2.09514642,0.66009456,0.22220729,0.37476462,0.00000000,0.00000000
-0.98284554,-1.80686772,-1.48012638,-0.72062063,-0.70935601,0.00000000,0.00000000,0.11978790,2.08717632,0.65697813,0.24109796,0.37953517,0.00000000,0.00000000
-1.00110662,-1.83367336,-1.45871663,-0.70880514,-0.70869118,0.00000000,0.00000000,0.11601479,2.07622838,0.65313220,0.26252311,0.37686685,0.00000000,0.00000000
-1.01332676,-1.86841929,-1.43451142,-0.70049024,-0.69917798,0.00000000,0.00000000,0.11390983,2.06250930,0.64866787,0.28735229,0.37113065,0.00000000,0.00000000
-1.02016485,-1.91135812,-1.40748119,-0.69598275,-0.68615091,0.00000000,0.00000000,0.11003314,2.04695153,0.64283484,0.31442979,0.35360712,0.00000000,0.00000000
-1.02247274,-1.95993316,-1.37874758,-0.69527042,-0.67405897,0.00000000,0.00000000,0.08908565,2.02168393,0.63392293,0.33347413,0.34236580,0.00000000,0.00000000
-1.02149749,-2.00890517,-1.35049379,-0.69807786,-0.66779649,0.00000000,0.00000000,0.04364414,1.97742879,0.62156987,0.33746010,0.33412647,0.00000000,0.00000000
-1.01765585,-2.05514693,-1.32392013,-0.70398068,-0.66355383,0.00000000,0.00000000,-0.02996331,1.90792692,0.60588050,0.32328850,0.32130203,0.00000000,0.00000000
-1.01095414,-2.09664011,-1.29973626,-0.71250618,-0.65661597,0.00000000,0.00000000,-0.13394576,1.80967379,0.58716911,0.28998911,0.31771117,0.00000000,0.00000000
-1.00167894,-2.13088632,-1.27891886,-0.72324473,-0.65821207,0.00000000,0.00000000,-0.26914755,1.68151510,0.56595570,0.23791777,0.31225023,0.00000000,0.00000000
-0.98999566,-2.15494871,-1.26267624,-0.73558116,-0.66033453,0.00000000,0.00000000,-0.43518063,1.52471566,0.54287940,0.16828418,0.30158502,0.00000000,0.00000000
-0.97539252,-2.16696835,-1.25216103,-0.74843854,-0.66522670,0.00000000,0.00000000,-0.62942237,1.34310353,0.51878458,0.08327480,0.29129976,0.00000000,0.00000000
-0.95677269,-2.16982794,-1.24817228,-0.76048356,-0.66991454,0.00000000,0.00000000,-0.84635210,1.14294398,0.49482509,-0.01383909,0.27919310,0.00000000,0.00000000
-0.93303680,-2.17000008,-1.25092232,-0.77069652,-0.67121989,0.00000000,0.00000000,-1.07768846,0.93247998,0.47251573,-0.11882336,0.26141343,0.00000000,0.00000000
-0.90388960,-2.17000008,-1.25997591,-0.77904648,-0.66195017,0.00000000,0.00000000,-1.31329727,0.72103751,0.45370302,-0.22691816,0.24399786,0.00000000,0.00000000
-0.87019491,-2.16998148,-1.27439094,-0.78667945,-0.65032375,0.00000000,0.00000000,-1.54259181,0.51779604,0.44044518,-0.33351293,0.22115590,0.00000000,0.00000000
-0.83267093,-2.16961026,-1.29276431,-0.79482365,-0.64524359,0.00000000,0.00000000,-1.75593328,0.33066484,0.43483499,-0.43477377,0.18813054,0.00000000,0.00000000
-0.79186606,-2.16739058,-1.31367576,-0.80406624,-0.64117199,0.00000000,0.00000000,-1.94562733,0.16552538,0.43880790,-0.52800971,0.15322657,0.00000000,0.00000000
-0.74910659,-2.16245508,-1.33593988,-0.81460756,-0.62936097,0.00000000,0.00000000,-2.10649991,0.02595011,0.45392734,-0.61166030,0.12060962,0.00000000,0.00000000
-0.70471913,-2.15594292,-1.35841775,-0.82590228,-0.61131895,0.00000000,0.00000000,-2.23642302,-0.08691432,0.48101091,-0.68501019,0.08403197,0.00000000,0.00000000
-0.65324742,-2.14304829,-1.38297784,-0.83196807,-0.59999537,0.00000000,0.00000000,-2.33707833,-0.17488146,0.51941282,-0.74798471,0.04632065,0.00000000,0.00000000
-0.59279031,-2.12489510,-1.40889180,-0.82933617,-0.59367323,0.00000000,0.00000000,-2.41404033,-0.24281621,0.56647700,-0.80112988,0.00673167,0.00000000,0.00000000
-0.53595865,-2.11113095,-1.43220782,-0.82648760,-0.58720255,0.00000000,0.00000000,-2.47434831,-0.29676580,0.61841780,-0.84547907,-0.03244221,0.00000000,0.00000000
-0.48515239,-2.10022783,-1.45378876,-0.82489872,-0.58564997,0.00000000,0.00000000,-2.52353835,-0.34175727,0.67188221,-0.88218325,-0.06967292,0.00000000,0.00000000
-0.43961582,-2.09094214,-1.47399282,-0.82384509,-0.58975321,0.00000000,0.00000000,-2.56528687,-0.38105994,0.72443974,-0.91206050,-0.10032364,0.00000000,0.00000000
-0.40041798,-2.08368778,-1.49246073,-0.82400042,-0.60250121,0.00000000,0.00000000,-2.60205936,-0.41673350,0.77436650,-0.93559295,-0.12921019,0.00000000,0.00000000
-0.36811742,-2.07847810,-1.50903487,-0.82581604,-0.61821705,0.00000000,0.00000000,-2.63583136,-0.45004302,0.82037222,-0.95287806,-0.15921965,0.00000000,0.00000000
-0.34201455,-2.07532310,-1.52354169,-0.82920879,-0.64523172,0.00000000,0.00000000,-2.66782999,-0.48133156,0.86188197,-0.96396476,-0.18872491,0.00000000,0.00000000
-0.32036629,-2.07360578,-1.53618705,-0.83372730,-0.66856170,0.00000000,0.00000000,-2.69718981,-0.50985634,0.89972317,-0.97012496,-0.21579681,0.00000000,0.00000000
-0.30161870,-2.07211018,-1.54759705,-0.83909154,-0.68943030,0.00000000,0.00000000,-2.72294164,-0.53465736,0.93492371,-0.97339851,-0.24270926,0.00000000,0.00000000
-0.28495318,-2.07023072,-1.55814028,-0.84526867,-0.70464009,0.00000000,0.00000000,-2.74540782,-0.55576831,0.96757436,-0.97514069,-0.27154893,0.00000000,0.00000000
-0.27001643,-2.06815863,-1.56777871,-0.85215217,-0.71722531,0.00000000,0.00000000,-2.76498008,-0.57402998,0.99737310,-0.97625870,-0.29407284,0.00000000,0.00000000
-0.25670373,-2.06635809,-1.57633030,-0.85948777,-0.73121458,0.00000000,0.00000000,-2.78190279,-0.59037054,1.02406049,-0.97722858,-0.31428689,0.00000000,0.00000000
-0.24496517,-2.06515622,-1.58368802,-0.86699665,-0.73800665,0.00000000,0.00000000,-2.79635286,-0.60531390,1.04766822,-0.97803289,-0.33612365,0.00000000,0.00000000
-0.23463224,-2.06456208,-1.58992028,-0.87459373,-0.75063610,0.00000000,0.00000000,-2.80850101,-0.61902428,1.06848907,-0.97845304,-0.35321578,0.00000000,0.00000000
-0.22528207,-2.06462479,-1.59505725,-0.88243425,-0.76239949,0.00000000,0.00000000,-2.81852317,-0.63138187,1.08702230,-0.97861683,-0.36460996,0.00000000,0.00000000
-0.21638812,-2.06552291,-1.59903002,-0.89066887,-0.77719986,0.00000000,0.00000000,-2.82684803,-0.64184928,1.10394490,-0.97917110,-0.37783846,0.00000000,0.00000000
-0.20770662,-2.06639147,-1.60237801,-0.89941329,-0.79247773,0.00000000,0.00000000,-2.83468175,-0.65087557,1.11910284,-0.98067224,-0.38076159,0.00000000,0.00000000
-0.19905707,-2.06674862,-1.60539389,-0.90874583,-0.81741291,0.00000000,0.00000000,-2.84267735,-0.65912890,1.13234448,-0.98336554,-0.38506085,0.00000000,0.00000000
-0.19027375,-2.06685519,-1.60790515,-0.91878182,-0.84267271,0.00000000,0.00000000,-2.85052967,-0.66646045,1.14423621,-0.98714012,-0.39010775,0.00000000,0.00000000
-0.18117350,-2.06718826,-1.60960317,-0.92967528,-0.85894030,0.00000000,0.00000000,-2.85790801,-0.67228043,1.15555954,-0.99158072,-0.38685265,0.00000000,0.00000000
-0.17156814,-2.06803632,-1.61029875,-0.94155359,-0.87335014,0.00000000,0.00000000,-2.86477375,-0.67653388,1.16661870,-0.99640429,-0.38100809,0.00000000,0.00000000
-0.16140042,-2.06949329,-1.60991263,-0.95445299,-0.88653398,0.00000000,0.00000000,-2.87123728,-0.67947239,1.17741477,-1.00146937,-0.37547964,0.00000000,0.00000000
-0.15084808,-2.07142496,-1.60848248,-0.96825165,-0.90649885,0.00000000,0.00000000,-2.87742877,-0.68135101,1.18786442,-1.00657701,-0.36878482,0.00000000,0.00000000
-0.14017852,-2.07353091,-1.60611200,-0.98264879,-0.91443431,0.00000000,0.00000000,-2.88343835,-0.68237692,1.19785583,-1.01152098,-0.36282492,0.00000000,0.00000000
-0.12951665,-2.07552314,-1.60285330,-0.99728775,-0.91877145,0.00000000,0.00000000,-2.88925624,-0.68274212,1.20725763,-1.01626408,-0.35444611,0.00000000,0.00000000
-0.11881796,-2.07706046,-1.59876513,-1.01190293,-0.91870016,0.00000000,0.00000000,-2.89475179,-0.68292052,1.21573913,-1.02081501,-0.34480876,0.00000000,0.00000000
-0.10800231,-2.07791185,-1.59382308,-1.02628732,-0.91200495,0.00000000,0.00000000,-2.89980268,-0.68268228,1.22339284,-1.02464831,-0.33270878,0.00000000,0.00000000
-0.09708928,-2.07795358,-1.58795023,-1.04010534,-0.90521908,0.00000000,0.00000000,-2.90424180,-0.68124592,1.23066473,-1.02678251,-0.32676241,0.00000000,0.00000000
-0.08623207,-2.07715559,-1.58105671,-1.05271924,-0.89563447,0.00000000,0.00000000,-2.90758491,-0.67803305,1.23792946,-1.02616394,-0.32397828,0.00000000,0.00000000
-0.07562532,-2.07593322,-1.57279110,-1.06316328,-0.88175565,0.00000000,0.00000000,-2.90913296,-0.67288750,1.24531782,-1.02157104,-0.31432164,0.00000000,0.00000000
-0.06542699,-2.07521343,-1.56248069,-1.07030082,-0.86291337,0.00000000,0.00000000,-2.90904093,-0.66629303,1.25232446,-1.01130354,-0.30440706,0.00000000,0.00000000
-0.05576981,-2.07573080,-1.54964101,-1.07301950,-0.84813738,0.00000000,0.00000000,-2.90818834,-0.65936661,1.25786960,-0.99408132,-0.29429159,0.00000000,0.00000000
-0.04703576,-2.07734776,-1.53446889,-1.07054222,-0.83069909,0.00000000,0.00000000,-2.90691257,-0.65317458,1.26106966,-0.96973950,-0.28832188,0.00000000,0.00000000
-0.04011644,-2.07909656,-1.51779354,-1.06271768,-0.80840933,0.00000000,0.00000000,-2.90517282,-0.64832371,1.26144695,-0.93857515,-0.28542849,0.00000000,0.00000000
-0.03541232,-2.08056688,-1.50003350,-1.04933786,-0.78533363,0.00000000,0.00000000,-2.90232754,-0.64475089,1.25901175,-0.90122324,-0.27991754,0.00000000,0.00000000
-0.03346825,-2.08163190,-1.48147273,-1.03044236,-0.76197982,0.00000000,0.00000000,-2.89708900,-0.64224106,1.25394976,-0.85878634,-0.27893248,0.00000000,0.00000000
-0.03544338,-2.08206725,-1.46258736,-1.00659978,-0.74111646,0.00000000,0.00000000,-2.88838053,-0.64098430,1.24623966,-0.81248170,-0.27817214,0.00000000,0.00000000
-0.04188686,-2.08215308,-1.44354391,-0.97835511,-0.71652788,0.00000000,0.00000000,-2.87634659,-0.64135373,1.23570979,-0.76313436,-0.27775651,0.00000000,0.00000000
-0.05134242,-2.08308530,-1.42380774,-0.94558036,-0.68947452,0.00000000,0.00000000,-2.86193061,-0.64324099,1.22247458,-0.71161705,-0.27822611,0.00000000,0.00000000
-0.06207100,-2.08580017,-1.40302837,-0.90860641,-0.66045940,0.00000000,0.00000000,-2.84444785,-0.64624983,1.20720184,-0.66074049,-0.27141866,0.00000000,0.00000000
-0.07406228,-2.08937430,-1.38209414,-0.86950171,-0.63161325,0.00000000,0.00000000,-2.82471633,-0.65052414,1.19018495,-0.61320835,-0.26744324,0.00000000,0.00000000
-0.08683138,-2.09247231,-1.36191511,-0.83042204,-0.59687752,0.00000000,0.00000000,-2.80595446,-0.65545815,1.17164969,-0.56943846,-0.26505414,0.00000000,0.00000000
-0.09920315,-2.09518409,-1.34236610,-0.79219252,-0.56575924,0.00000000,0.00000000,-2.78984022,-0.66029924,1.15205479,-0.52910382,-0.26510859,0.00000000,0.00000000
-0.11090872,-2.09812236,-1.32308745,-0.75545973,-0.54097009,0.00000000,0.00000000,-2.77597642,-0.66474766,1.13192964,-0.49220544,-0.26737729,0.00000000,0.00000000
-0.12224000,-2.10174203,-1.30386496,-0.72104275,-0.51904196,0.00000000,0.00000000,-2.76394963,-0.66853184,1.11172080,-0.45849720,-0.26731268,0.00000000,0.00000000
-0.13313396,-2.10628557,-1.28455687,-0.68952620,-0.50220805,0.00000000,0.00000000,-2.75369120,-0.67115504,1.09182692,-0.42747822,-0.26232359,0.00000000,0.00000000
-0.14330468,-2.11168528,-1.26516175,-0.66105640,-0.48169059,0.00000000,0.00000000,-2.74506426,-0.67227602,1.07257152,-0.39879668,-0.25688529,0.00000000,0.00000000
-0.15310022,-2.11775970,-1.24584222,-0.63577038,-0.47051182,0.00000000,0.00000000,-2.73773551,-0.67188275,1.05418253,-0.37238225,-0.24716924,0.00000000,0.00000000
-0.16292569,-2.12420130,-1.22684515,-0.61365700,-0.46193215,0.00000000,0.00000000,-2.73129916,-0.66977859,1.03688836,-0.34824285,-0.23874310,0.00000000,0.00000000
-0.17290460,-2.13070416,-1.20838308,-0.59454483,-0.45644185,0.00000000,0.00000000,-2.72582293,-0.66592860,1.02081788,-0.32622457,-0.23426309,0.00000000,0.00000000
-0.18285823,-2.13724589,-1.19050705,-0.57820588,-0.44811732,0.00000000,0.00000000,-2.72144604,-0.66055179,1.00607026,-0.30613649,-0.23286425,0.00000000,0.00000000
-0.19242148,-2.14393210,-1.17315924,-0.56439453,-0.43663108,0.00000000,0.00000000,-2.71808195,-0.65396482,0.99277878,-0.28784618,-0.23149975,0.00000000,0.00000000
-0.20123348,-2.15071917,-1.15627289,-0.55287433,-0.43015367,0.00000000,0.00000000,-2.71543980,-0.64651155,0.98111349,-0.27124852,-0.22460823,0.00000000,0.00000000
-0.20904280,-2.15730882,-1.13981223,-0.54343063,-0.42647043,0.00000000,0.00000000,-2.71313357,-0.63857806,0.97125936,-0.25621331,-0.21544045,0.00000000,0.00000000
-0.21574320,-2.16314292,-1.12379122,-0.53588074,-0.41813380,0.00000000,0.00000000,-2.71082401,-0.63062537,0.96338785,-0.24254969,-0.20662272,0.00000000,0.00000000
-0.22138223,-2.16741157,-1.10830379,-0.53006548,-0.40994254,0.00000000,0.00000000,-2.70829415,-0.62314570,0.95764798,-0.22999150,-0.19897988,0.00000000,0.00000000
-0.22613283,-2.16949511,-1.09356189,-0.52580887,-0.40719166,0.00000000,0.00000000,-2.70545101,-0.61653352,0.95417541,-0.21818466,-0.19243903,0.00000000,0.00000000
-0.23019616,-2.16997194,-1.07987893,-0.52287710,-0.41601223,0.00000000,0.00000000,-2.70225644,-0.61099172,0.95310521,-0.20669702,-0.18310831,0.00000000,0.00000000
-0.23366666,-2.17000008,-1.06756938,-0.52099949,-0.42699870,0.00000000,0.00000000,-2.69862795,-0.60659963,0.95457149,-0.19508120,-0.17891513,0.00000000,0.00000000
-0.23648371,-2.17000008,-1.05686951,-0.51993132,-0.43985227,0.00000000,0.00000000,-2.69439435,-0.60344779,0.95869964,-0.18292703,-0.17970417,0.00000000,0.00000000
-0.23850778,-2.17000008,-1.04795325,-0.51948118,-0.45310509,0.00000000,0.00000000,-2.68935919,-0.60168481,0.96560156,-0.16983598,-0.17296109,0.00000000,0.00000000
-0.23961420,-2.17000008,-1.04097807,-0.51950961,-0.46282944,0.00000000,0.00000000,-2.68336940,-0.60148585,0.97537798,-0.15536776,-0.16496162,0.00000000,0.00000000
-0.23974696,-2.17000008,-1.03610015,-0.51994014,-0.47390437,0.00000000,0.00000000,-2.67631269,-0.60299379,0.98812294,-0.13901605,-0.15880227,0.00000000,0.00000000
-0.23893429,-2.17000008,-1.03346837,-0.52078176,-0.48129204,0.00000000,0.00000000,-2.66809344,-0.60624796,1.00392592,-0.12019061,-0.15440899,0.00000000,0.00000000
-0.23724841,-2.17000008,-1.03322005,-0.52210969,-0.49144873,0.00000000,0.00000000,-2.65869093,-0.61111236,1.02286983,-0.09816177,-0.15352751,0.00000000,0.00000000
-0.23477718,-2.16995811,-1.03548229,-0.52405018,-0.49890572,0.00000000,0.00000000,-2.64820623,-0.61721092,1.04503083,-0.07200873,-0.15052508,0.00000000,0.00000000
-0.23183963,-2.16924047,-1.04039264,-0.52692264,-0.50171608,0.00000000,0.00000000,-2.63672304,-0.62388992,1.07048106,-0.04067288,-0.14934956,0.00000000,0.00000000
-0.22944827,-2.16591096,-1.04816389,-0.53150493,-0.49710813,0.00000000,0.00000000,-2.62410998,-0.63022423,1.09928715,-0.00306197,-0.13853471,0.00000000,0.00000000
-0.22955266,-2.15837145,-1.05910683,-0.53918481,-0.48806936,0.00000000,0.00000000,-2.61005330,-0.63513148,1.13149190,0.04192219,-0.13456410,0.00000000,0.00000000
-0.23496386,-2.14688301,-1.07346416,-0.55210060,-0.47661978,0.00000000,0.00000000,-2.59392667,-0.63764125,1.16709399,0.09521689,-0.12821777,0.00000000,0.00000000
-0.24887960,-2.13308263,-1.09112799,-0.57305664,-0.46859065,0.00000000,0.00000000,-2.57450652,-0.63705659,1.20602822,0.15738194,-0.11951280,0.00000000,0.00000000
-0.27384302,-2.11947393,-1.11138606,-0.60490650,-0.45744914,0.00000000,0.00000000,-2.54998040,-0.63266587,1.24811721,0.22864035,-0.11552159,0.00000000,0.00000000
-0.31056559,-2.10850477,-1.13294327,-0.64952707,-0.44508648,0.00000000,0.00000000,-2.51813149,-0.62231213,1.29280174,0.30915055,-0.10997996,0.00000000,0.00000000
-0.35754386,-2.10151482,-1.15419197,-0.70711243,-0.43426883,0.00000000,0.00000000,-2.47605085,-0.60072172,1.33861327,0.39885557,-0.09325141,0.00000000,0.00000000
-0.41062754,-2.09965825,-1.17294204,-0.77603132,-0.42786944,0.00000000,0.00000000,-2.42007375,-0.56082034,1.38292420,0.49669823,-0.06743596,0.00000000,0.00000000
-0.46414822,-2.10393000,-1.18679285,-0.85292226,-0.42617756,0.00000000,0.00000000,-2.34594417,-0.49504611,1.42199945,0.59996390,-0.03119315,0.00000000,0.00000000
-0.51492959,-2.11468601,-1.19428551,-0.93316805,-0.41732287,0.00000000,0.00000000,-2.24969649,-0.39907020,1.45229483,0.70444095,0.00490618,0.00000000,0.00000000
-0.56046671,-2.12887287,-1.19613469,-1.00898266,-0.40503597,0.00000000,0.00000000,-2.12954044,-0.27223626,1.47125936,0.80591595,0.04228387,0.00000000,0.00000000
-0.59889048,-2.14203072,-1.19454813,-1.07450414,-0.39896426,0.00000000,0.00000000,-1.98628938,-0.11621391,1.47734201,0.90076488,0.07941765,0.00000000,0.00000000
-0.63043451,-2.15222907,-1.19133031,-1.12868834,-0.39565542,0.00000000,0.00000000,-1.82272601,0.06555587,1.46996844,0.98564273,0.12412041,0.00000000,0.00000000
-0.65407318,-2.15845752,-1.18750489,-1.17140138,-0.38392499,0.00000000,0.00000000,-1.64319777,0.26800671,1.44959092,1.05734670,0.17043245,0.00000000,0.00000000
-0.66739994,-2.16207957,-1.18203807,-1.20327902,-0.36803734,0.00000000,0.00000000,-1.45333195,0.48461145,1.41770089,1.11294746,0.20912944,0.00000000,0.00000000
-0.67197078,-2.16482115,-1.17544711,-1.22873640,-0.34867531,0.00000000,0.00000000,-1.25959849,0.70767069,1.37674296,1.15002298,0.25434545,0.00000000,0.00000000
-0.66962034,-2.16679406,-1.16904116,-1.25108576,-0.32395306,0.00000000,0.00000000,-1.06877482,0.92887902,1.32983398,1.16694891,0.29872495,0.00000000,0.00000000
-0.65883487,-2.16901135,-1.16239488,-1.26922059,-0.29792264,0.00000000,0.00000000,-0.88733286,1.14003921,1.28032637,1.16311240,0.33515456,0.00000000,0.00000000
-0.63217479,-2.16961408,-1.15803933,-1.27853572,-0.27757454,0.00000000,0.00000000,-0.72082746,1.33376837,1.23133516,1.13901806,0.36737707,0.00000000,0.00000000
-0.60164165,-2.16927743,-1.15543771,-1.28930640,-0.26023057,0.00000000,0.00000000,-0.57327282,1.50403321,1.18541253,1.09631228,0.40503627,0.00000000,0.00000000
-0.56972188,-2.16932559,-1.15339768,-1.30377352,-0.25125894,0.00000000,0.00000000,-0.44685605,1.64695525,1.14411700,1.03781927,0.44376084,0.00000000,0.00000000
-0.53551680,-2.16971207,-1.15265763,-1.31955695,-0.23767644,0.00000000,0.00000000,-0.34175399,1.76154518,1.10777068,0.96755701,0.48328546,0.00000000,0.00000000
-0.50066316,-2.16994739,-1.15508866,-1.33378577,-0.23308785,0.00000000,0.00000000,-0.25618199,1.85004747,1.07550931,0.89043206,0.52132344,0.00000000,0.00000000
-0.46646610,-2.16999722,-1.16234481,-1.34265053,-0.22057144,0.00000000,0.00000000,-0.18672128,1.91710019,1.04590189,0.81146294,0.56326771,0.00000000,0.00000000
-0.43352860,-2.17000008,-1.17388797,-1.34517109,-0.22056246,0.00000000,0.00000000,-0.12965314,1.96807730,1.01760709,0.73465180,0.59386796,0.00000000,0.00000000
-0.40263298,-2.17000008,-1.18822491,-1.34320223,-0.22794156,0.00000000,0.00000000,-0.08190098,2.00763655,0.98972559,0.66248339,0.62691259,0.00000000,0.00000000
-0.37444940,-2.17000008,-1.20422256,-1.33962309,-0.23722105,0.00000000,0.00000000,-0.04120683,2.03920484,0.96181840,0.59622037,0.65355647,0.00000000,0.00000000
-0.34861252,-2.17000008,-1.22085226,-1.33640277,-0.24113366,0.00000000,0.00000000,-0.00599718,2.06514597,0.93374151,0.53638655,0.67975658,0.00000000,0.00000000
-0.32477981,-2.17000008,-1.23634219,-1.33547747,-0.24831149,0.00000000,0.00000000,0.02454020,2.08699322,0.90548915,0.48294422,0.70390958,0.00000000,0.00000000
-0.30283651,-2.17000008,-1.25094712,-1.33716094,-0.25848839,0.00000000,0.00000000,0.05126092,2.10575366,0.87715876,0.43578380,0.73122919,0.00000000,0.00000000
-0.28148970,-2.17000008,-1.26547670,-1.34093964,-0.27097654,0.00000000,0.00000000,0.07438689,2.12195420,0.84882718,0.39444286,0.74926364,0.00000000,0.00000000
-0.26057684,-2.17000008,-1.28022766,-1.34626555,-0.28449786,0.00000000,0.00000000,0.09438337,2.13570619,0.82063562,0.35846722,0.76115954,0.00000000,0.00000000
-0.24143812,-2.17000008,-1.29562569,-1.35321569,-0.29606679,0.00000000,0.00000000,0.11179289,2.14712644,0.79270011,0.32749680,0.76938057,0.00000000,0.00000000
-0.22385809,-2.17000008,-1.31144226,-1.36200905,-0.30722865,0.00000000,0.00000000,0.12678713,2.15633130,0.76507759,0.30108353,0.77548009,0.00000000,0.00000000
-0.20657840,-2.17000008,-1.32800806,-1.37183964,-0.31863192,0.00000000,0.00000000,0.13975079,2.16327953,0.73783743,0.27885097,0.77836668,0.00000000,0.00000000
-0.19028130,-2.17000008,-1.34528589,-1.38396680,-0.32265234,0.00000000,0.00000000,0.15108444,2.16775513,0.71105093,0.26041228,0.78900528,0.00000000,0.00000000
-0.17438273,-2.17000008,-1.36316264,-1.39806783,-0.32320485,0.00000000,0.00000000,0.16115747,2.16961336,0.68480194,0.24522896,0.79539341,0.00000000,0.00000000
-0.15774843,-2.17000008,-1.38158107,-1.41360378,-0.32830557,0.00000000,0.00000000,0.17019577,2.16997957,0.65914530,0.23268117,0.80089521,0.00000000,0.00000000
-0.13949396,-2.17000008,-1.40018773,-1.43008161,-0.33461812,0.00000000,0.00000000,0.17839809,2.17000008,0.63412243,0.22213100,0.81296426,0.00000000,0.00000000
-0.11963923,-2.17000008,-1.41867042,-1.44693327,-0.33945876,0.00000000,0.00000000,0.18616469,2.17000008,0.60977697,0.21303789,0.82175338,0.00000000,0.00000000
-0.09865369,-2.17000008,-1.43627751,-1.46426392,-0.34968859,0.00000000,0.00000000,0.19387357,2.17000008,0.58611584,0.20505363,0.82792073,0.00000000,0.00000000
-0.07739562,-2.17000008,-1.45279109,-1.48280692,-0.35427186,0.00000000,0.00000000,0.20165776,2.17000008,0.56313878,0.19768532,0.83760673,0.00000000,0.00000000
-0.05641775,-2.17000008,-1.46828306,-1.50307322,-0.36452207,0.00000000,0.00000000,0.20930898,2.17000008,0.54080629,0.19046946,0.84511429,0.00000000,0.00000000
-0.03603858,-2.17000008,-1.48243845,-1.52573323,-0.37755004,0.00000000,0.00000000,0.21693523,2.17000008,0.51908499,0.18317512,0.85357726,0.00000000,0.00000000
-0.01566575,-2.17000008,-1.49530196,-1.55014837,-0.38562575,0.00000000,0.00000000,0.22443615,2.17000008,0.49791297,0.17565422,0.86343926,0.00000000,0.00000000
0.00584040,-2.17000008,-1.50785792,-1.57527459,-0.39707938,0.00000000,0.00000000,0.23148260,2.17000008,0.47720847,0.16759674,0.87455481,0.00000000,0.00000000
0.02937061,-2.17000008,-1.52074182,-1.60092723,-0.40312937,0.00000000,0.00000000,0.23748125,2.17000008,0.45686200,0.15862688,0.88430858,0.00000000,0.00000000
0.05429480,-2.17000008,-1.53457046,-1.62711251,-0.42536646,0.00000000,0.00000000,0.24222992,2.17000008,0.43676588,0.14868675,0.89470476,0.00000000,0.00000000
0.07921741,-2.17000008,-1.55037105,-1.65279806,-0.44820952,0.00000000,0.00000000,0.24546686,2.17000008,0.41679838,0.13775966,0.91366369,0.00000000,0.00000000
0.10342674,-2.17000008,-1.56886828,-1.67744470,-0.46851501,0.00000000,0.00000000,0.24682565,2.17000008,0.39684182,0.12579410,0.93835419,0.00000000,0.00000000
0.12687528,-2.17000008,-1.58993614,-1.70109582,-0.48746404,0.00000000,0.00000000,0.24617988,2.17000008,0.37681067,0.11274886,0.95700878,0.00000000,0.00000000
0.14961626,-2.17000008,-1.61294615,-1.72395766,-0.50818372,0.00000000,0.00000000,0.24362680,2.17000008,0.35665259,0.09853686,0.97815502,0.00000000,0.00000000
0.17177482,-2.17000008,-1.63708353,-1.74620450,-0.51957995,0.00000000,0.00000000,0.23937999,2.17000008,0.33634216,0.08294381,0.99985945,0.00000000,0.00000000
0.19358936,-2.17000008,-1.66147411,-1.76792920,-0.52690423,0.00000000,0.00000000,0.23361315,2.17000008,0.31587237,0.06559874,1.01381731,0.00000000,0.00000000
0.21547206,-2.17000008,-1.68523717,-1.78906012,-0.53357869,0.00000000,0.00000000,0.22632170,2.17000008,0.29525161,0.04605300,1.02306163,0.00000000,0.00000000
0.23773810,-2.17000008,-1.70760131,-1.80964887,-0.54689336,0.00000000,0.00000000,0.21738806,2.16998196,0.27451676,0.02393901,1.02613437,0.00000000,0.00000000
0.26048112,-2.17000008,-1.72806001,-1.82981694,-0.55589473,0.00000000,0.00000000,0.20669141,2.16963649,0.25374693,-0.00080931,1.03183961,0.00000000,0.00000000
0.28349441,-2.17000008,-1.74647665,-1.84945858,-0.56838089,0.00000000,0.00000000,0.19417000,2.16761088,0.23307002,-0.02776683,1.04822040,0.00000000,0.00000000
0.30623165,-2.17000008,-1.76295197,-1.86831570,-0.58909285,0.00000000,0.00000000,0.17991041,2.16215253,0.21266033,-0.05624428,1.06262279,0.00000000,0.00000000
0.32809812,-2.17000008,-1.77764630,-1.88610709,-0.61418456,0.00000000,0.00000000,0.16405143,2.15331125,0.19272235,-0.08576426,1.06800020,0.00000000,0.00000000
0.34871089,-2.17000008,-1.79065549,-1.90259814,-0.64416552,0.00000000,0.00000000,0.14677393,2.14146948,0.17346856,-0.11612000,1.07624280,0.00000000,0.00000000
0.36786371,-2.17000008,-1.80202174,-1.91766858,-0.66964573,0.00000000,0.00000000,0.12838334,2.12676835,0.15509818,-0.14716624,1.08915102,0.00000000,0.00000000
0.38542503,-2.17000008,-1.81181765,-1.93132102,-0.69556403,0.00000000,0.00000000,0.10924886,2.10941577,0.13778536,-0.17869018,1.10814750,0.00000000,0.00000000
0.40132242,-2.17000008,-1.82008469,-1.94361424,-0.72040397,0.00000000,0.00000000,0.08978876,2.09008241,0.12167004,-0.21022901,1.13161421,0.00000000,0.00000000
0.41550732,-2.17000008,-1.82684422,-1.95466888,-0.74164575,0.00000000,0.00000000,0.07049679,2.06964278,0.10683700,-0.24126415,1.16127586,0.00000000,0.00000000
0.42799863,-2.17000008,-1.83202446,-1.96459651,-0.76476300,0.00000000,0.00000000,0.05202694,2.04871917,0.09329002,-0.27149856,1.18602240,0.00000000,0.00000000
0.43899572,-2.17000008,-1.83571184,-1.97337508,-0.78253621,0.00000000,0.00000000,0.03443022,2.02849865,0.08108523,-0.30037144,1.21694541,0.00000000,0.00000000
0.44875488,-2.17000008,-1.83806455,-1.98093510,-0.78906465,0.00000000,0.00000000,0.01721028,2.01103592,0.07034044,-0.32684982,1.24014449,0.00000000,0.00000000
0.45721108,-2.17000008,-1.83933592,-1.98754930,-0.79487878,0.00000000,0.00000000,0.00081720,1.99317193,0.06089032,-0.35297403,1.25843322,0.00000000,0.00000000
0.46442473,-2.17000008,-1.83967710,-1.99334097,-0.79604232,0.00000000,0.00000000,-0.01463548,1.97539914,0.05265560,-0.37864879,1.28212094,0.00000000,0.00000000
0.47080994,-2.17000008,-1.83941865,-1.99802816,-0.80409533,0.00000000,0.00000000,-0.02980069,1.96093607,0.04567897,-0.40217736,1.30961692,0.00000000,0.00000000
0.47629416,-2.17000008,-1.83880126,-2.00180888,-0.80348098,0.00000000,0.00000000,-0.04409327,1.94854152,0.03959562,-0.42449468,1.33590114,0.00000000,0.00000000
0.48103127,-2.17000008,-1.83795142,-2.00468540,-0.79759711,0.00000000,0.00000000,-0.05732047,1.94115317,0.03418298,-0.44440264,1.35956585,0.00000000,0.00000000
0.48471615,-2.17000008,-1.83701825,-2.00721741,-0.79040527,0.00000000,0.00000000,-0.06891572,1.93543684,0.02912423,-0.46385455,1.37874436,0.00000000,0.00000000
0.48729664,-2.17000008,-1.83647323,-2.00965500,-0.78262573,0.00000000,0.00000000,-0.08079065,1.92893779,0.02487028,-0.48375544,1.40495527,0.00000000,0.00000000
0.48960483,-2.17000008,-1.83630896,-2.01115656,-0.77475649,0.00000000,0.00000000,-0.08948461,1.92599642,0.01969731,-0.50117749,1.42811298,0.00000000,0.00000000
0.49129906,-2.17000008,-1.83627844,-2.01221704,-0.76866382,0.00000000,0.00000000,-0.09692029,1.92562759,0.01406048,-0.51820272,1.45425737,0.00000000,0.00000000
0.49229008,-2.17000008,-1.83661270,-2.01303673,-0.76467705,0.00000000,0.00000000,-0.10290103,1.92676818,0.00760644,-0.53599745,1.48098862,0.00000000,0.00000000
0.49311653,-2.17000008,-1.83712447,-2.01310253,-0.76201642,0.00000000,0.00000000,-0.10696706,1.93361771,-0.00017004,-0.55097896,1.51199186,0.00000000,0.00000000
0.49356323,-2.17000008,-1.83759367,-2.01276112,-0.74764591,0.00000000,0.00000000,-0.10784186,1.94486737,-0.00986005,-0.56356943,1.54721344,0.00000000,0.00000000
0.49343330,-2.17000008,-1.83809149,-2.01232076,-0.74091232,0.00000000,0.00000000,-0.10531104,1.95938444,-0.02119949,-0.57326859,1.58070230,0.00000000,0.00000000
0.49267969,-2.17000008,-1.83859134,-2.01194477,-0.73021621,0.00000000,0.00000000,-0.09961370,1.97751176,-0.03340133,-0.57817125,1.60838473,0.00000000,0.00000000
0.49135083,-2.17000008,-1.83906448,-2.01168656,-0.71017754,0.00000000,0.00000000,-0.09125627,1.99946189,-0.04537109,-0.57644266,1.63043916,0.00000000,0.00000000
0.48956525,-2.17000008,-1.83964276,-2.01149631,-0.68986636,0.00000000,0.00000000,-0.08112232,2.02446651,-0.05593560,-0.56703383,1.65173554,0.00000000,0.00000000
0.48745888,-2.17000008,-1.84049189,-2.01129675,-0.66255492,0.00000000,0.00000000,-0.07022648,2.05115914,-0.06416455,-0.54958344,1.66545749,0.00000000,0.00000000
0.48517227,-2.17000008,-1.84169137,-2.01100993,-0.63793772,0.00000000,0.00000000,-0.05956564,2.07815981,-0.06948284,-0.52407026,1.67090452,0.00000000,0.00000000
0.48284075,-2.17000008,-1.84320462,-2.01056552,-0.61237514,0.00000000,0.00000000,-0.05001917,2.10413051,-0.07164956,-0.49072686,1.66467965,0.00000000,0.00000000
0.48057458,-2.17000008,-1.84492743,-2.00991869,-0.58674031,0.00000000,0.00000000,-0.04230478,2.12767649,-0.07068551,-0.45004064,1.65287828,0.00000000,0.00000000
0.47844046,-2.17000008,-1.84675574,-2.00906634,-0.55793512,0.00000000,0.00000000,-0.03698074,2.14729476,-0.06679444,-0.40274930,1.63414168,0.00000000,0.00000000
0.47645786,-2.17000008,-1.84862196,-2.00804567,-0.53603339,0.00000000,0.00000000,-0.03444682,2.16125917,-0.06030336,-0.34987360,1.62373710,0.00000000,0.00000000
0.47460082,-2.17000008,-1.85050273,-2.00692940,-0.51514786,0.00000000,0.00000000,-0.03493021,2.16824603,-0.05162056,-0.29298598,1.60779297,0.00000000,0.00000000
0.47280744,-2.17000008,-1.85238028,-2.00581574,-0.50532460,0.00000000,0.00000000,-0.03849976,2.16990066,-0.04120243,-0.23471726,1.59942114,0.00000000,0.00000000
0.47101843,-2.17000008,-1.85418940,-2.00478339,-0.49807370,0.00000000,0.00000000,-0.04539261,2.17000008,-0.02950506,-0.17860380,1.59048867,0.00000000,0.00000000
0.46919695,-2.17000008,-1.85580397,-2.00387096,-0.49374318,0.00000000,0.00000000,-0.05509743,2.17000008,-0.01703800,-0.12837219,1.57852197,0.00000000,0.00000000
0.46728605,-2.17000008,-1.85708761,-2.00312948,-0.48761505,0.00000000,0.00000000,-0.06437828,2.17000008,-0.00439328,-0.08683895,1.55587518,0.00000000,0.00000000
0.46523345,-2.17000008,-1.85802567,-2.00258517,-0.47683021,0.00000000,0.00000000,-0.07212770,2.17000008,0.00821187,-0.05315996,1.53659213,0.00000000,0.00000000
0.46303898,-2.17000008,-1.85862124,-2.00219989,-0.46782252,0.00000000,0.00000000,-0.08029760,2.17000008,0.02075980,-0.02571484,1.51327348,0.00000000,0.00000000
0.46073544,-2.17000008,-1.85881090,-2.00190330,-0.45259595,0.00000000,0.00000000,-0.08869185,2.17000008,0.03311741,-0.00371665,1.48625994,0.00000000,0.00000000
0.45840344,-2.17000008,-1.85855818,-2.00156307,-0.43416455,0.00000000,0.00000000,-0.09612399,2.17000008,0.04516822,0.01352445,1.45305991,0.00000000,0.00000000
0.45613232,-2.17000008,-1.85789061,-2.00102830,-0.41447768,0.00000000,0.00000000,-0.10192996,2.17000008,0.05685879,0.02680286,1.41765964,0.00000000,0.00000000
0.45397553,-2.17000008,-1.85690606,-2.00019288,-0.40596318,0.00000000,0.00000000,-0.10579402,2.17000008,0.06816051,0.03687204,1.38076520,0.00000000,0.00000000
0.45192626,-2.17000008,-1.85577011,-1.99904239,-0.40044904,0.00000000,0.00000000,-0.10762794,2.17000008,0.07905235,0.04428236,1.34700060,0.00000000,0.00000000
0.44991869,-2.17000008,-1.85465038,-1.99767530,-0.39125150,0.00000000,0.00000000,-0.10745046,2.17000008,0.08951680,0.04937814,1.31273806,0.00000000,0.00000000
0.44787696,-2.17000008,-1.85361516,-1.99624884,-0.38843086,0.00000000,0.00000000,-0.10528140,2.17000008,0.09953978,0.05238897,1.28852904,0.00000000,0.00000000
0.44574389,-2.17000008,-1.85260153,-1.99492419,-0.37860253,0.00000000,0.00000000,-0.10122040,2.17000008,0.10910793,0.05342012,1.25994456,0.00000000,0.00000000
0.44349623,-2.17000008,-1.85144091,-1.99381399,-0.36855623,0.00000000,0.00000000,-0.09546381,2.17000008,0.11820771,0.05257359,1.23465621,0.00000000,0.00000000
0.44114825,-2.17000008,-1.84996843,-1.99295080,-0.35722128,0.00000000,0.00000000,-0.08835016,2.17000008,0.12682337,0.05009066,1.21123028,0.00000000,0.00000000
0.43873733,-2.17000008,-1.84812653,-1.99230158,-0.34365192,0.00000000,0.00000000,-0.08033480,2.17000008,0.13493852,0.04642689,1.18936753,0.00000000,0.00000000
0.43631071,-2.17000008,-1.84597230,-1.99180269,-0.33537507,0.00000000,0.00000000,-0.07184151,2.17000008,0.14254183,0.04221013,1.17208624,0.00000000,0.00000000
0.43392828,-2.17000008,-1.84361601,-1.99137390,-0.32792193,0.00000000,0.00000000,-0.06314577,2.17000008,0.14963046,0.03810950,1.15963829,0.00000000,0.00000000
0.43164077,-2.17000008,-1.84120226,-1.99094689,-0.31973130,0.00000000,0.00000000,-0.05448331,2.17000008,0.15620607,0.03468581,1.14576435,0.00000000,0.00000000
0.42947912,-2.17000008,-1.83890963,-1.99047112,-0.31972709,0.00000000,0.00000000,-0.04618990,2.17000008,0.16226920,0.03227452,1.13164759,0.00000000,0.00000000
0.42745674,-2.17000008,-1.83693326,-1.98991430,-0.32816753,0.00000000,0.00000000,-0.03873682,2.17000008,0.16781694,0.03094571,1.12115467,0.00000000,0.00000000
0.42558110,-2.17000008,-1.83543468,-1.98926234,-0.32914054,0.00000000,0.00000000,-0.03261947,2.17000008,0.17284340,0.03056742,1.10552812,0.00000000,0.00000000
0.42385948,-2.17000008,-1.83447564,-1.98852861,-0.32721469,0.00000000,0.00000000,-0.02806762,2.17000008,0.17734468,0.03088605,1.09986889,0.00000000,0.00000000
0.42228934,-2.17000008,-1.83398366,-1.98776865,-0.31728837,0.00000000,0.00000000,-0.02490753,2.17000008,0.18132257,0.03160040,1.09020853,0.00000000,0.00000000
0.42087576,-2.17000008,-1.83379829,-1.98703468,-0.30373576,0.00000000,0.00000000,-0.02286151,2.17000008,0.18478003,0.03244922,1.08649445,0.00000000,0.00000000
0.41962397,-2.17000008,-1.83381343,-1.98635566,-0.29399398,0.00000000,0.00000000,-0.02184379,2.17000008,0.18771547,0.03322721,1.08021772,0.00000000,0.00000000
0.41853511,-2.17000008,-1.83402812,-1.98573184,-0.27620339,0.00000000,0.00000000,-0.02194039,2.17000008,0.19012322,0.03382290,1.08751214,0.00000000,0.00000000
0.41761026,-2.17000008,-1.83446753,-1.98514485,-0.26272401,0.00000000,0.00000000,-0.02323501,2.17000008,0.19199722,0.03424454,1.09388173,0.00000000,0.00000000
0.41684651,-2.17000008,-1.83511436,-1.98457789,-0.24785559,0.00000000,0.00000000,-0.02568944,2.17000008,0.19333455,0.03454436,1.10230422,0.00000000,0.00000000
0.41623747,-2.17000008,-1.83590686,-1.98401499,-0.24006595,0.00000000,0.00000000,-0.02912742,2.17000008,0.19413623,0.03476098,1.11688507,0.00000000,0.00000000
0.41577813,-2.17000008,-1.83677995,-1.98342955,-0.23980555,0.00000000,0.00000000,-0.03330084,2.17000008,0.19440542,0.03494520,1.13135302,0.00000000,0.00000000
0.41546062,-2.17000008,-1.83771086,-1.98278821,-0.24457906,0.00000000,0.00000000,-0.03799080,2.17000008,0.19414465,0.03515831,1.14568830,0.00000000,0.00000000
0.41526565,-2.17000008,-1.83869755,-1.98206782,-0.23825546,0.00000000,0.00000000,-0.04299372,2.17000008,0.19335590,0.03546877,1.16448498,0.00000000,0.00000000
0.41514117,-2.17000008,-1.83972251,-1.98129380,-0.23076649,0.00000000,0.00000000,-0.04808040,2.17000008,0.19204135,0.03593257,1.18381810,0.00000000,0.00000000
0.41503233,-2.17000008,-1.84074402,-1.98049998,-0.22365020,0.00000000,0.00000000,-0.05301565,2.17000008,0.19020261,0.03655098,1.20598662,0.00000000,0.00000000
0.41490200,-2.17000008,-1.84172797,-1.97969842,-0.21705063,0.00000000,0.00000000,-0.05758511,2.17000008,0.18784057,0.03723815,1.22122014,0.00000000,0.00000000
0.41472185,-2.17000008,-1.84267354,-1.97888947,-0.21246777,0.00000000,0.00000000,-0.06158307,2.17000008,0.18495575,0.03781570,1.23432124,0.00000000,0.00000000
0.41446829,-2.17000008,-1.84361136,-1.97806942,-0.20911606,0.00000000,0.00000000,-0.06479049,2.17000008,0.18154913,0.03804946,1.24415159,0.00000000,0.00000000
0.41412532,-2.17000008,-1.84458387,-1.97723043,-0.21461573,0.00000000,0.00000000,-0.06699719,2.17000008,0.17762192,0.03770874,1.25940013,0.00000000,0.00000000
0.41368493,-2.17000008,-1.84562266,-1.97636139,-0.21753123,0.00000000,0.00000000,-0.06805993,2.17000008,0.17317405,0.03661779,1.28145576,0.00000000,0.00000000
0.41314387,-2.17000008,-1.84672451,-1.97545457,-0.22330821,0.00000000,0.00000000,-0.06791556,2.17000008,0.16820446,0.03466130,1.30380774,0.00000000,0.00000000
0.41249824,-2.17000008,-1.84782767,-1.97451353,-0.23013599,0.00000000,0.00000000,-0.06654938,2.17000008,0.16271257,0.03173589,1.32385635,0.00000000,0.00000000
0.41174167,-2.17000008,-1.84882700,-1.97355378,-0.23818843,0.00000000,0.00000000,-0.06401746,2.17000008,0.15669878,0.02774186,1.35177350,0.00000000,0.00000000
0.41087550,-2.17000008,-1.84961474,-1.97257996,-0.24054685,0.00000000,0.00000000,-0.06052541,2.17000008,0.15016396,0.02268519,1.38045537,0.00000000,0.00000000
0.40991381,-2.17000008,-1.85011017,-1.97157407,-0.23234305,0.00000000,0.00000000,-0.05646874,2.17000008,0.14311081,0.01674980,1.40937471,0.00000000,0.00000000
0.40886077,-2.17000008,-1.85027575,-1.97052121,-0.22534433,0.00000000,0.00000000,-0.05241524,2.17000008,0.13554792,0.01017473,1.43888581,0.00000000,0.00000000
0.40769672,-2.17000008,-1.85012329,-1.96942687,-0.21993586,0.00000000,0.00000000,-0.04896378,2.17000008,0.12749273,0.00316995,1.45797515,0.00000000,0.00000000
0.40638098,-2.17000008,-1.84969592,-1.96831262,-0.21780835,0.00000000,0.00000000,-0.04628009,2.17000008,0.11897079,-0.00367972,1.47680354,0.00000000,0.00000000
0.40487060,-2.17000008,-1.84901619,-1.96720040,-0.21472520,0.00000000,0.00000000,-0.04321265,2.17000008,0.11000320,-0.00980404,1.49069762,0.00000000,0.00000000
0.40315816,-2.17000008,-1.84810865,-1.96606779,-0.20867422,0.00000000,0.00000000,-0.03799423,2.17000008,0.10058121,-0.01678777,1.50447595,0.00000000,0.00000000
0.40123951,-2.17000008,-1.84712470,-1.96487367,-0.20781727,0.00000000,0.00000000,-0.03239054,2.17000008,0.09072158,-0.02623129,1.50449550,0.00000000,0.00000000
0.39906046,-2.17000008,-1.84612131,-1.96363807,-0.20702016,0.00000000,0.00000000,-0.03065641,2.17000008,0.08055974,-0.03849570,1.49704230,0.00000000,0.00000000
0.39669308,-2.17000008,-1.84504783,-1.96224201,-0.20457368,0.00000000,0.00000000,-0.03195549,2.17000008,0.07016357,-0.05549835,1.48783445,0.00000000,0.00000000
0.39411089,-2.17000008,-1.84394622,-1.96067464,-0.20841376,0.00000000,0.00000000,-0.03177336,2.17000008,0.05947326,-0.07742278,1.47444260,0.00000000,0.00000000
0.39128900,-2.17000008,-1.84274149,-1.95892668,-0.20840420,0.00000000,0.00000000,-0.03074892,2.17000008,0.04859067,-0.10453250,1.46512604,0.00000000,0.00000000
0.38820943,-2.17000008,-1.84134758,-1.95698225,-0.21110418,0.00000000,0.00000000,-0.02992301,2.17000008,0.03767846,-0.13671847,1.45647776,0.00000000,0.00000000
0.38482767,-2.17000008,-1.83977461,-1.95485485,-0.22630884,0.00000000,0.00000000,-0.02928888,2.17000008,0.02689828,-0.17328686,1.44361806,0.00000000,0.00000000
0.38111511,-2.17000008,-1.83798504,-1.95253563,-0.23691423,0.00000000,0.00000000,-0.02853814,2.17000008,0.01640717,-0.21322224,1.42453587,0.00000000,0.00000000
0.37706485,-2.17000008,-1.83588564,-1.94999063,-0.24837621,0.00000000,0.00000000,-0.02724642,2.17000008,0.00635430,-0.25524276,1.40709412,0.00000000,0.00000000
0.37268019,-2.17000008,-1.83337867,-1.94718003,-0.26288465,0.00000000,0.00000000,-0.02499733,2.17000008,-0.00311572,-0.29789799,1.38753617,0.00000000,0.00000000
0.36796910,-2.17000008,-1.83040237,-1.94406879,-0.28098536,0.00000000,0.00000000,-0.02148084,2.17000008,-0.01184967,-0.33970314,1.37117720,0.00000000,0.00000000
0.36293751,-2.17000008,-1.82696724,-1.94064033,-0.29658648,0.00000000,0.00000000,-0.01652674,2.17000008,-0.01967767,-0.37926182,1.34901893,0.00000000,0.00000000
0.35759023,-2.17000008,-1.82314396,-1.93689895,-0.30614847,0.00000000,0.00000000,-0.01008016,2.16999173,-0.02641815,-0.41528606,1.33033955,0.00000000,0.00000000
0.35194254,-2.17000008,-1.81900358,-1.93286502,-0.32276258,0.00000000,0.00000000,-0.00214542,2.16982841,-0.03189813,-0.44650403,1.30941629,0.00000000,0.00000000
0.34602806,-2.17000008,-1.81454742,-1.92857206,-0.33127180,0.00000000,0.00000000,0.00730441,2.16885471,-0.03598962,-0.47160676,1.28993833,0.00000000,0.00000000
0.33989513,-2.17000008,-1.80970871,-1.92407227,-0.33447349,0.00000000,0.00000000,0.01828136,2.16648102,-0.03860475,-0.48942035,1.27483773,0.00000000,0.00000000
0.33359522,-2.17000008,-1.80442286,-1.91944218,-0.33194476,0.00000000,0.00000000,0.03062502,2.16380453,-0.03964196,-0.49906749,1.25999391,0.00000000,0.00000000
0.32722616,-2.17000008,-1.79863584,-1.91472447,-0.32476810,0.00000000,0.00000000,0.04402914,2.16173506,-0.03897421,-0.50036311,1.24553633,0.00000000,0.00000000
0.32091373,-2.17000008,-1.79237950,-1.90994227,-0.32227075,0.00000000,0.00000000,0.05799732,2.15917921,-0.03641345,-0.49471632,1.23168850,0.00000000,0.00000000
0.31472677,-2.17000008,-1.78590131,-1.90517747,-0.32290742,0.00000000,0.00000000,0.07235385,2.15442801,-0.03190460,-0.48452693,1.22242355,0.00000000,0.00000000
0.30865556,-2.17000008,-1.77961540,-1.90059078,-0.32107756,0.00000000,0.00000000,0.08731218,2.14662099,-0.02559113,-0.47213966,1.21417701,0.00000000,0.00000000
0.30272681,-2.17000008,-1.77373457,-1.89631104,-0.31375697,0.00000000,0.00000000,0.10133611,2.13639784,-0.01712602,-0.45917338,1.19930267,0.00000000,0.00000000
0.29701117,-2.17000008,-1.76823246,-1.89242542,-0.31708524,0.00000000,0.00000000,0.11434539,2.12541866,-0.00670153,-0.44618076,1.18616617,0.00000000,0.00000000
0.29161426,-2.17000008,-1.76296484,-1.88896823,-0.31518307,0.00000000,0.00000000,0.12693399,2.11473942,0.00528211,-0.43340287,1.16490459,0.00000000,0.00000000
0.28665894,-2.17000008,-1.75773036,-1.88593233,-0.31506434,0.00000000,0.00000000,0.13941269,2.10418296,0.01855603,-0.42128474,1.15889537,0.00000000,0.00000000
0.28224728,-2.17000008,-1.75237930,-1.88330185,-0.31605953,0.00000000,0.00000000,0.15198870,2.09323287,0.03292706,-0.41020027,1.16306388,0.00000000,0.00000000
0.27844012,-2.17000008,-1.74689150,-1.88106239,-0.31864041,0.00000000,0.00000000,0.16469148,2.08179355,0.04830681,-0.40018567,1.16951513,0.00000000,0.00000000
0.27527937,-2.17000008,-1.74137366,-1.87916470,-0.31307545,0.00000000,0.00000000,0.17734480,2.07009602,0.06471200,-0.39106682,1.18445277,0.00000000,0.00000000
0.27277300,-2.17000008,-1.73603237,-1.87754238,-0.31308469,0.00000000,0.00000000,0.18966816,2.05837798,0.08220562,-0.38265216,1.19993746,0.00000000,0.00000000
0.27086657,-2.17000008,-1.73108613,-1.87616348,-0.30916420,0.00000000,0.00000000,0.20147072,2.04676747,0.10081824,-0.37478513,1.21800435,0.00000000,0.00000000
0.26944861,-2.17000008,-1.72668731,-1.87504637,-0.29734600,0.00000000,0.00000000,0.21276215,2.03537822,0.12052033,-0.36728737,1.23949826,0.00000000,0.00000000
0.26839727,-2.17000008,-1.72292066,-1.87421548,-0.29094651,0.00000000,0.00000000,0.22368056,2.02445507,0.14126313,-0.35989240,1.26584744,0.00000000,0.00000000
0.26759920,-2.17000008,-1.71985972,-1.87368441,-0.28603458,0.00000000,0.00000000,0.23437098,2.01436710,0.16302323,-0.35227516,1.28870702,0.00000000,0.00000000
0.26695365,-2.17000008,-1.71763313,-1.87345481,-0.27045628,0.00000000,0.00000000,0.24489774,2.00529671,0.18580933,-0.34423420,1.31088066,0.00000000,0.00000000
0.26639235,-2.17000008,-1.71640050,-1.87349808,-0.24717744,0.00000000,0.00000000,0.25521767,1.99688745,0.20963602,-0.33585641,1.33284891,0.00000000,0.00000000
0.26589778,-2.17000008,-1.71625912,-1.87374270,-0.22946455,0.00000000,0.00000000,0.26528516,1.98863971,0.23449734,-0.32725444,1.35094118,0.00000000,0.00000000
0.26542714,-2.17000008,-1.71724355,-1.87417066,-0.21421553,0.00000000,0.00000000,0.27534008,1.98038173,0.26031789,-0.31829008,1.36136973,0.00000000,0.00000000
0.26495564,-2.17000008,-1.71932590,-1.87476146,-0.19734806,0.00000000,0.00000000,0.28478000,1.97161674,0.28716344,-0.30907598,1.36769652,0.00000000,0.00000000
0.26454467,-2.17000008,-1.72231615,-1.87541270,-0.18056166,0.00000000,0.00000000,0.29121768,1.96147490,0.31542483,-0.29975727,1.36996639,0.00000000,0.00000000
0.26429099,-2.17000008,-1.72580028,-1.87600899,-0.17405775,0.00000000,0.00000000,0.29524514,1.95045340,0.34490505,-0.28851265,1.37099957,0.00000000,0.00000000
0.26423946,-2.17000008,-1.72932756,-1.87650168,-0.17276086,0.00000000,0.00000000,0.29901090,1.93894446,0.37509361,-0.27389613,1.37090921,0.00000000,0.00000000
0.26433909,-2.17000008,-1.73267174,-1.87691867,-0.17748284,0.00000000,0.00000000,0.30230856,1.92670155,0.40591204,-0.25605983,1.37630045,0.00000000,0.00000000
0.26450849,-2.17000008,-1.73585165,-1.87728286,-0.18488058,0.00000000,0.00000000,0.30459094,1.91355598,0.43731087,-0.23549257,1.37969327,0.00000000,0.00000000
0.26467475,-2.17000008,-1.73893833,-1.87761068,-0.18343294,0.00000000,0.00000000,0.30574286,1.89956152,0.46912920,-0.21254760,1.37857723,0.00000000,0.00000000
0.26480207,-2.17000008,-1.74191749,-1.87791419,-0.18619034,0.00000000,0.00000000,0.30574459,1.88491678,0.50116843,-0.18749350,1.38109660,0.00000000,0.00000000
0.26489338,-2.17000008,-1.74471521,-1.87819588,-0.19336052,0.00000000,0.00000000,0.30454233,1.86991525,0.53321481,-0.16057220,1.38399744,0.00000000,0.00000000
0.26496613,-2.17000008,-1.74728334,-1.87845659,-0.19174364,0.00000000,0.00000000,0.30198589,1.85486102,0.56504232,-0.13206668,1.38675785,0.00000000,0.00000000
0.26503393,-2.17000008,-1.74962246,-1.87869048,-0.19924322,0.00000000,0.00000000,0.29786688,1.83996820,0.59640324,-0.10233036,1.39873230,0.00000000,0.00000000
0.26508951,-2.17000008,-1.75174606,-1.87889206,-0.20141183,0.00000000,0.00000000,0.29202947,1.82529259,0.62702209,-0.07175589,1.39965367,0.00000000,0.00000000
0.26509881,-2.17000008,-1.75363123,-1.87905777,-0.20828059,0.00000000,0.00000000,0.28447208,1.81073332,0.65660381,-0.04070780,1.39353812,0.00000000,0.00000000
0.26500237,-2.17000008,-1.75519514,-1.87918961,-0.21694051,0.00000000,0.00000000,0.27537084,1.79608870,0.68485302,-0.00946959,1.38796628,0.00000000,0.00000000
0.26472420,-2.17000008,-1.75631690,-1.87928855,-0.21868369,0.00000000,0.00000000,0.26500425,1.78109801,0.71149188,0.02174753,1.37222886,0.00000000,0.00000000
0.26418486,-2.17000008,-1.75686014,-1.87935436,-0.22120328,0.00000000,0.00000000,0.25366625,1.76545537,0.73626959,0.05277182,1.35881174,0.00000000,0.00000000
0.26332268,-2.17000008,-1.75665021,-1.87938654,-0.22482647,0.00000000,0.00000000,0.24164191,1.74881935,0.75896573,0.08346631,1.34353149,0.00000000,0.00000000
0.26210877,-2.17000008,-1.75544751,-1.87939334,-0.22529797,0.00000000,0.00000000,0.22918497,1.73081028,0.77939093,0.11370996,1.32528102,0.00000000,0.00000000
0.26055282,-2.17000008,-1.75301957,-1.87937355,-0.21906085,0.00000000,0.00000000,0.21638089,1.71096396,0.79737991,0.14328948,1.30763698,0.00000000,0.00000000
0.25867328,-2.17000008,-1.74923050,-1.87932098,-0.21819745,0.00000000,0.00000000,0.20303726,1.68871725,0.81278116,0.17181952,1.29157054,0.00000000,0.00000000
0.25649709,-2.17000008,-1.74402988,-1.87920702,-0.22311267,0.00000000,0.00000000,0.18872574,1.66345334,0.82545257,0.19878313,1.27526689,0.00000000,0.00000000
0.25402123,-2.17000008,-1.73736227,-1.87903214,-0.23516528,0.00000000,0.00000000,0.17293371,1.63453352,0.83526993,0.22362903,1.25984526,0.00000000,0.00000000
0.25123119,-2.17000008,-1.72913861,-1.87882245,-0.24529560,0.00000000,0.00000000,0.15507077,1.60124815,0.84213257,0.24575400,1.24913919,0.00000000,0.00000000
0.24813095,-2.17000008,-1.71928203,-1.87860680,-0.25212631,0.00000000,0.00000000,0.13438357,1.56274164,0.84596151,0.26441965,1.24381280,0.00000000,0.00000000
0.24474972,-2.17000008,-1.70780408,-1.87839961,-0.26055273,0.00000000,0.00000000,0.10991005,1.51797700,0.84669679,0.27870485,1.23429632,0.00000000,0.00000000
0.24113232,-2.17000008,-1.69486821,-1.87818694,-0.27607557,0.00000000,0.00000000,0.08052149,1.46577394,0.84429550,0.28753632,1.22594941,0.00000000,0.00000000
0.23732674,-2.17000008,-1.68081951,-1.87791097,-0.28381041,0.00000000,0.00000000,0.04505119,1.40494168,0.83873010,0.28980213,1.21141529,0.00000000,0.00000000
0.23336214,-2.17000008,-1.66620684,-1.87747490,-0.29816708,0.00000000,0.00000000,0.00246941,1.33446550,0.82998949,0.28450331,1.19536734,0.00000000,0.00000000
0.22920851,-2.17000008,-1.65181732,-1.87678516,-0.31298071,0.00000000,0.00000000,-0.04793905,1.25367200,0.81808424,0.27088335,1.17068613,0.00000000,0.00000000
0.22477959,-2.17000008,-1.63865387,-1.87576735,-0.31348321,0.00000000,0.00000000,-0.10639883,1.16236246,0.80306298,0.24853028,1.15075362,0.00000000,0.00000000
0.21999153,-2.17000008,-1.62773705,-1.87437570,-0.32503727,0.00000000,0.00000000,-0.17247100,1.06092262,0.78503841,0.21746750,1.13597393,0.00000000,0.00000000
0.21481422,-2.17000008,-1.61967576,-1.87284005,-0.33043715,0.00000000,0.00000000,-0.24493362,0.95038027,0.76421720,0.17820662,1.12372911,0.00000000,0.00000000
0.20962872,-2.17000008,-1.61445439,-1.87163258,-0.33801457,0.00000000,0.00000000,-0.32177424,0.83238679,0.74092191,0.13174237,1.11417496,0.00000000,0.00000000
0.20540005,-2.17000008,-1.61170554,-1.87095773,-0.35187870,0.00000000,0.00000000,-0.40029976,0.70911002,0.71560097,0.07948972,1.10538864,0.00000000,0.00000000
0.20297885,-2.17000008,-1.61104572,-1.87087452,-0.36612150,0.00000000,0.00000000,-0.47734964,0.58306056,0.68882269,0.02319390,1.09959936,0.00000000,0.00000000
0.20262024,-2.17000008,-1.61224473,-1.87153912,-0.38986045,0.00000000,0.00000000,-0.54958886,0.45691347,0.66125154,-0.03515719,1.09373057,0.00000000,0.00000000
0.20411359,-2.17000008,-1.61528993,-1.87307298,-0.41097227,0.00000000,0.00000000,-0.61385429,0.33332422,0.63360399,-0.09342075,1.09217370,0.00000000,0.00000000
0.20710339,-2.17000008,-1.62022281,-1.87541139,-0.42863953,0.00000000,0.00000000,-0.66750968,0.21473262,0.60658616,-0.14940473,1.08766496,0.00000000,0.00000000
0.21132673,-2.17000008,-1.62693524,-1.87835300,-0.45260385,0.00000000,0.00000000,-0.70874298,0.10317489,0.58082080,-0.20099272,1.08431482,0.00000000,0.00000000
0.21666260,-2.17000008,-1.63509166,-1.88168490,-0.46531734,0.00000000,0.00000000,-0.73673999,0.00015516,0.55677819,-0.24626827,1.07742941,0.00000000,0.00000000
0.22290443,-2.17000008,-1.64425409,-1.88527095,-0.47754210,0.00000000,0.00000000,-0.75170732,-0.09339581,0.53472728,-0.28362021,1.06980526,0.00000000,0.00000000
0.22950675,-2.17000008,-1.65403986,-1.88908720,-0.49421236,0.00000000,0.00000000,-0.75477296,-0.17709973,0.51471078,-0.31182861,1.06123722,0.00000000,0.00000000
0.23572333,-2.17000008,-1.66407812,-1.89314544,-0.51922590,0.00000000,0.00000000,-0.74779379,-0.25108951,0.49654496,-0.33014905,1.05810034,0.00000000,0.00000000
0.24108210,-2.17000008,-1.67381930,-1.89731610,-0.53584772,0.00000000,0.00000000,-0.73309618,-0.31594926,0.47984362,-0.33838931,1.05708802,0.00000000,0.00000000
0.24552663,-2.17000008,-1.68254578,-1.90135312,-0.55286777,0.00000000,0.00000000,-0.71316856,-0.37262720,0.46406984,-0.33695954,1.05448747,0.00000000,0.00000000
0.24915420,-2.17000008,-1.68964732,-1.90504324,-0.56307745,0.00000000,0.00000000,-0.69035447,-0.42227417,0.44861481,-0.32685190,1.04783475,0.00000000,0.00000000
0.25197786,-2.17000008,-1.69492567,-1.90829670,-0.57206905,0.00000000,0.00000000,-0.66658312,-0.46602529,0.43290019,-0.30952549,1.03754616,0.00000000,0.00000000
0.25393108,-2.17000008,-1.69861138,-1.91110206,-0.58555382,0.00000000,0.00000000,-0.64321738,-0.50484812,0.41647851,-0.28669783,1.03022158,0.00000000,0.00000000
0.25499970,-2.17000008,-1.70109820,-1.91342175,-0.59649283,0.00000000,0.00000000,-0.62108195,-0.53954560,0.39907786,-0.26007614,1.03077340,0.00000000,0.00000000
0.25526240,-2.17000008,-1.70269477,-1.91518033,-0.60544443,0.00000000,0.00000000,-0.60062963,-0.57081652,0.38058189,-0.23111875,1.03143227,0.00000000,0.00000000
0.25484490,-2.17000008,-1.70353734,-1.91632509,-0.61510974,0.00000000,0.00000000,-0.58205241,-0.59929258,0.36099070,-0.20093077,1.03777087,0.00000000,0.00000000
0.25385001,-2.17000008,-1.70361304,-1.91690123,-0.62223977,0.00000000,0.00000000,-0.56524479,-0.62561578,0.34039089,-0.17032993,1.04180121,0.00000000,0.00000000
0.25227484,-2.17000008,-1.70284128,-1.91711426,-0.62718779,0.00000000,0.00000000,-0.54987794,-0.65047401,0.31891754,-0.13996600,1.04823172,0.00000000,0.00000000
0.25000474,-2.17000008,-1.70117593,-1.91727924,-0.64678001,0.00000000,0.00000000,-0.53566349,-0.67443371,0.29671764,-0.11032482,1.05391848,0.00000000,0.00000000
0.24695931,-2.17000008,-1.69863081,-1.91762042,-0.66292375,0.00000000,0.00000000,-0.52257413,-0.69767720,0.27393758,-0.08168399,1.05779350,0.00000000,0.00000000
0.24324635,-2.17000008,-1.69525099,-1.91809201,-0.68226302,0.00000000,0.00000000,-0.51084089,-0.71997803,0.25072879,-0.05418936,1.06298232,0.00000000,0.00000000
0.23914394,-2.17000008,-1.69113386,-1.91838181,-0.70101517,0.00000000,0.00000000,-0.50075084,-0.74086362,0.22726069,-0.02802875,1.06748021,0.00000000,0.00000000
0.23495013,-2.17000008,-1.68644822,-1.91812432,-0.71961290,0.00000000,0.00000000,-0.49234614,-0.75974566,0.20372514,-0.00355543,1.06814349,0.00000000,0.00000000
0.23087652,-2.17000008,-1.68137836,-1.91712427,-0.73199219,0.00000000,0.00000000,-0.48530325,-0.77598506,0.18031782,0.01873419,1.06068707,0.00000000,0.00000000
0.22703440,-2.17000008,-1.67604971,-1.91542089,-0.74317157,0.00000000,0.00000000,-0.47914952,-0.78901070,0.15721336,0.03831452,1.05937684,0.00000000,0.00000000
0.22345299,-2.17000008,-1.67056668,-1.91320264,-0.75044835,0.00000000,0.00000000,-0.47349378,-0.79847473,0.13455687,0.05471116,1.05156112,0.00000000,0.00000000
0.22011121,-2.17000008,-1.66519272,-1.91065454,-0.75514221,0.00000000,0.00000000,-0.46798390,-0.80426180,0.11246573,0.06758418,1.04897559,0.00000000,0.00000000
0.21700290,-2.17000008,-1.66044152,-1.90788114,-0.75638235,0.00000000,0.00000000,-0.46219435,-0.80653733,0.09103291,0.07685658,1.04683793,0.00000000,0.00000000
0.21418002,-2.17000008,-1.65684462,-1.90498292,-0.76477593,0.00000000,0.00000000,-0.45557848,-0.80606139,0.07032742,0.08281339,1.05011606,0.00000000,0.00000000
0.21171725,-2.17000008,-1.65456247,-1.90215671,-0.77681381,0.00000000,0.00000000,-0.44762886,-0.80423880,0.05038624,0.08615461,1.05473506,0.00000000,0.00000000
0.20968214,-2.17000008,-1.65325975,-1.89962351,-0.78873587,0.00000000,0.00000000,-0.43829426,-0.80255300,0.03120798,0.08788817,1.06186759,0.00000000,0.00000000
0.20810033,-2.17000008,-1.65243053,-1.89749348,-0.80147099,0.00000000,0.00000000,-0.42810977,-0.80202162,0.01275578,0.08902333,1.05831015,0.00000000,0.00000000
0.20687301,-2.17000008,-1.65178883,-1.89574945,-0.81296718,0.00000000,0.00000000,-0.41790769,-0.80313355,-0.00502980,0.09032873,1.05109763,0.00000000,0.00000000
0.20579794,-2.17000008,-1.65127861,-1.89429903,-0.81908041,0.00000000,0.00000000,-0.40850770,-0.80599308,-0.02220817,0.09232766,1.04853320,0.00000000,0.00000000
0.20470192,-2.17000008,-1.65089953,-1.89303780,-0.82905489,0.00000000,0.00000000,-0.40052229,-0.81041431,-0.03881801,0.09543979,1.05088711,0.00000000,0.00000000
0.20355827,-2.17000008,-1.65066242,-1.89186895,-0.84263402,0.00000000,0.00000000,-0.39415944,-0.81601274,-0.05487202,0.10007239,1.05469656,0.00000000,0.00000000
0.20241654,-2.17000008,-1.65058088,-1.89081383,-0.85395253,0.00000000,0.00000000,-0.38916394,-0.82244778,-0.07036537,0.10649143,1.05752766,0.00000000,0.00000000
0.20132713,-2.17000008,-1.65064955,-1.88997877,-0.86570787,0.00000000,0.00000000,-0.38509640,-0.82958281,-0.08528246,0.11464674,1.05825496,0.00000000,0.00000000
0.20035622,-2.17000008,-1.65085614,-1.88941634,-0.87549978,0.00000000,0.00000000,-0.38168895,-0.83731467,-0.09960395,0.12420906,1.05962133,0.00000000,0.00000000
0.19958542,-2.17000008,-1.65120625,-1.88911235,-0.89003742,0.00000000,0.00000000,-0.37888515,-0.84534144,-0.11332318,0.13473225,1.06023312,0.00000000,0.00000000
0.19910000,-2.17000008,-1.65173233,-1.88903034,-0.90056407,0.00000000,0.00000000,-0.37663805,-0.85315961,-0.12646519,0.14573473,1.06318033,0.00000000,0.00000000
0.19902143,-2.17000008,-1.65241492,-1.88913035,-0.91599303,0.00000000,0.00000000,-0.37478906,-0.86008388,-0.13909397,0.15679386,1.06657982,0.00000000,0.00000000
0.19944723,-2.17000008,-1.65309978,-1.88944268,-0.92867678,0.00000000,0.00000000,-0.37328145,-0.86539328,-0.15127039,0.16753182,1.06874979,0.00000000,0.00000000
0.20031658,-2.17000008,-1.65352869,-1.89012074,-0.94359928,0.00000000,0.00000000,-0.37269148,-0.86866766,-0.16296566,0.17745931,1.06290638,0.00000000,0.00000000
0.20143765,-2.17000008,-1.65342391,-1.89133430,-0.95378673,0.00000000,0.00000000,-0.37413615,-0.87002295,-0.17406945,0.18591069,1.05294907,0.00000000,0.00000000
0.20263650,-2.17000008,-1.65266633,-1.89312339,-0.95984286,0.00000000,0.00000000,-0.37793076,-0.86999393,-0.18457215,0.19232461,1.04371476,0.00000000,0.00000000
0.20385355,-2.17000008,-1.65145338,-1.89535093,-0.96570879,0.00000000,0.00000000,-0.38280004,-0.86907440,-0.19467910,0.19667009,1.03731585,0.00000000,0.00000000
0.20512076,-2.17000008,-1.65020335,-1.89775467,-0.97330791,0.00000000,0.00000000,-0.38699383,-0.86741692,-0.20465915,0.19947371,1.03683269,0.00000000,0.00000000
0.20647450,-2.17000008,-1.64927268,-1.90004075,-0.97281772,0.00000000,0.00000000,-0.38963270,-0.86504751,-0.21464960,0.20137477,1.03871155,0.00000000,0.00000000
0.20790917,-2.17000008,-1.64881110,-1.90196311,-0.97346324,0.00000000,0.00000000,-0.39066944,-0.86214536,-0.22465350,0.20280357,1.03997314,0.00000000,0.00000000
0.20938174,-2.17000008,-1.64879763,-1.90338278,-0.97959387,0.00000000,0.00000000,-0.39023936,-0.85910463,-0.23463653,0.20398673,1.04048467,0.00000000,0.00000000
0.21080740,-2.17000008,-1.64911461,-1.90429914,-0.99481148,0.00000000,0.00000000,-0.38839594,-0.85644561,-0.24458124,0.20506857,1.04385924,0.00000000,0.00000000
0.21204759,-2.17000008,-1.64959776,-1.90482295,-1.00893545,0.00000000,0.00000000,-0.38520220,-0.85469139,-0.25448877,0.20617807,1.04379869,0.00000000,0.00000000
0.21293403,-2.17000008,-1.65004647,-1.90512490,-1.02271593,0.00000000,0.00000000,-0.38087043,-0.85426813,-0.26435408,0.20741029,1.04383504,0.00000000,0.00000000
0.21335641,-2.17000008,-1.65024137,-1.90533757,-1.03082716,0.00000000,0.00000000,-0.37581968,-0.85543120,-0.27412790,0.20879249,1.04188287,0.00000000,0.00000000
0.21332172,-2.17000008,-1.65002859,-1.90551567,-1.03026581,0.00000000,0.00000000,-0.37053347,-0.85816675,-0.28369629,0.21035157,1.04519522,0.00000000,0.00000000
0.21291956,-2.17000008,-1.64944506,-1.90575278,-1.02896667,0.00000000,0.00000000,-0.36528236,-0.86201406,-0.29289585,0.21229510,1.04596269,0.00000000,0.00000000
0.21232331,-2.17000008,-1.64872527,-1.90613008,-1.03414261,0.00000000,0.00000000,-0.35996649,-0.86619693,-0.30155188,0.21495652,1.04889524,0.00000000,0.00000000
0.21162206,-2.17000008,-1.64812183,-1.90672469,-1.04040504,0.00000000,0.00000000,-0.35446760,-0.87027109,-0.30948988,0.21830337,1.05422187,0.00000000,0.00000000
0.21070780,-2.17000008,-1.64773118,-1.90756094,-1.04301369,0.00000000,0.00000000,-0.34918869,-0.87446946,-0.31652328,0.22164778,1.06353557,0.00000000,0.00000000
0.20956309,-2.17000008,-1.64747787,-1.90841460,-1.04092336,0.00000000,0.00000000,-0.34480622,-0.87902111,-0.32250264,0.22420818,1.07119155,0.00000000,0.00000000
0.20839180,-2.17000008,-1.64730299,-1.90910685,-1.03825772,0.00000000,0.00000000,-0.34139574,-0.88345015,-0.32740250,0.22583590,1.07581615,0.00000000,0.00000000
0.20764457,-2.17000008,-1.64711487,-1.90962958,-1.03253305,0.00000000,0.00000000,-0.33846840,-0.88674319,-0.33129686,0.22692817,1.08081162,0.00000000,0.00000000
0.20772302,-2.17000008,-1.64682674,-1.91011262,-1.02498817,0.00000000,0.00000000,-0.33557805,-0.88810539,-0.33425152,0.22781220,1.08829641,0.00000000,0.00000000
0.20861514,-2.17000008,-1.64648330,-1.91075647,-1.01607132,0.00000000,0.00000000,-0.33273175,-0.88728023,-0.33624220,0.22846916,1.09784424,0.00000000,0.00000000
0.20993668,-2.17000008,-1.64620006,-1.91179109,-1.00585341,0.00000000,0.00000000,-0.33042270,-0.88444054,-0.33716497,0.22867666,1.10939813,0.00000000,0.00000000
0.21135390,-2.17000008,-1.64598322,-1.91320086,-0.99588370,0.00000000,0.00000000,-0.32915038,-0.88011801,-0.33695185,0.22822669,1.12125289,0.00000000,0.00000000
0.21277727,-2.17000008,-1.64577901,-1.91478717,-0.98338133,0.00000000,0.00000000,-0.32870424,-0.87506950,-0.33569676,0.22708300,1.13762367,0.00000000,0.00000000
0.21424276,-2.17000008,-1.64561069,-1.91633976,-0.97644025,0.00000000,0.00000000,-0.32816765,-0.87000966,-0.33363906,0.22537887,1.15456951,0.00000000,0.00000000
0.21571513,-2.17000008,-1.64561152,-1.91769791,-0.97257876,0.00000000,0.00000000,-0.32676741,-0.86536413,-0.33099934,0.22324294,1.16947734,0.00000000,0.00000000
0.21706788,-2.17000008,-1.64589751,-1.91874969,-0.96351117,0.00000000,0.00000000,-0.32447401,-0.86124229,-0.32786465,0.22068444,1.18692112,0.00000000,0.00000000
0.21817636,-2.17000008,-1.64644957,-1.91945028,-0.95175993,0.00000000,0.00000000,-0.32177204,-0.85759306,-0.32422477,0.21768729,1.20310962,0.00000000,0.00000000
0.21896000,-2.17000008,-1.64712453,-1.91982758,-0.94577521,0.00000000,0.00000000,-0.31913185,-0.85435176,-0.32006344,0.21437038,1.21261239,0.00000000,0.00000000
0.21936694,-2.17000008,-1.64774632,-1.91994858,-0.93791181,0.00000000,0.00000000,-0.31676811,-0.85144955,-0.31539530,0.21105529,1.22306967,0.00000000,0.00000000
0.21935961,-2.17000008,-1.64816976,-1.91986752,-0.92567903,0.00000000,0.00000000,-0.31470856,-0.84882343,-0.31024581,0.20815763,1.22931433,0.00000000,0.00000000
0.21894327,-2.17000008,-1.64829731,-1.91955233,-0.90869987,0.00000000,0.00000000,-0.31291163,-0.84653568,-0.30461988,0.20595369,1.23285234,0.00000000,0.00000000
0.21815880,-2.17000008,-1.64807105,-1.91889918,-0.89437491,0.00000000,0.00000000,-0.31132072,-0.84497494,-0.29848513,0.20434198,1.23890388,0.00000000,0.00000000
0.21700007,-2.17000008,-1.64745581,-1.91788876,-0.87207490,0.00000000,0.00000000,-0.30996063,-0.84483498,-0.29175487,0.20281166,1.24346673,0.00000000,0.00000000
0.21540731,-2.17000008,-1.64647520,-1.91661537,-0.85619956,0.00000000,0.00000000,-0.30902687,-0.84655112,-0.28427202,0.20083919,1.25491118,0.00000000,0.00000000
0.21334668,-2.17000008,-1.64530575,-1.91520810,-0.83781785,0.00000000,0.00000000,-0.30861616,-0.84975231,-0.27585286,0.19835816,1.26397049,0.00000000,0.00000000
0.21092877,-2.17000008,-1.64421284,-1.91376615,-0.81738472,0.00000000,0.00000000,-0.30838430,-0.85351413,-0.26636362,0.19567332,1.27757621,0.00000000,0.00000000
0.20844384,-2.17000008,-1.64331627,-1.91236711,-0.79125249,0.00000000,0.00000000,-0.30785567,-0.85702151,-0.25571227,0.19298247,1.28396285,0.00000000,0.00000000
0.20617411,-2.17000008,-1.64260411,-1.91112041,-0.76411045,0.00000000,0.00000000,-0.30681205,-0.85979271,-0.24380277,0.19024096,1.28356564,0.00000000,0.00000000
0.20430638,-2.17000008,-1.64207685,-1.91008461,-0.73824722,0.00000000,0.00000000,-0.30516195,-0.86146045,-0.23053911,0.18741047,1.27952445,0.00000000,0.00000000
0.20299773,-2.17000008,-1.64174438,-1.90920103,-0.72179157,0.00000000,0.00000000,-0.30283120,-0.86158973,-0.21583107,0.18461314,1.27015615,0.00000000,0.00000000
0.20217869,-2.17000008,-1.64162111,-1.90856421,-0.70271593,0.00000000,0.00000000,-0.30013523,-0.85979772,-0.19955030,0.18197045,1.25894248,0.00000000,0.00000000
0.20155941,-2.17000008,-1.64162934,-1.90835965,-0.68890893,0.00000000,0.00000000,-0.29810181,-0.85588115,-0.18150778,0.17942061,1.24492419,0.00000000,0.00000000
0.20099024,-2.17000008,-1.64153636,-1.90844786,-0.67571259,0.00000000,0.00000000,-0.29790425,-0.84992993,-0.16153392,0.17667265,1.22503424,0.00000000,0.00000000
0.20053270,-2.17000008,-1.64117861,-1.90859461,-0.66047937,0.00000000,0.00000000,-0.29967111,-0.84246725,-0.13961358,0.17324552,1.20103908,0.00000000,0.00000000
0.20037796,-2.17000008,-1.64067316,-1.90869761,-0.64268720,0.00000000,0.00000000,-0.30205151,-0.83406299,-0.11592100,0.16873115,1.17353523,0.00000000,0.00000000
0.20067781,-2.17000008,-1.64031374,-1.90873623,-0.62160164,0.00000000,0.00000000,-0.30345473,-0.82485455,-0.09067072,0.16296431,1.14754903,0.00000000,0.00000000
0.20136258,-2.17000008,-1.64028800,-1.90873730,-0.60270017,0.00000000,0.00000000,-0.30339369,-0.81477928,-0.06396793,0.15579563,1.12094343,0.00000000,0.00000000
0.20222282,-2.17000008,-1.64059615,-1.90872610,-0.57834738,0.00000000,0.00000000,-0.30226347,-0.80394584,-0.03582719,0.14695770,1.09335470,0.00000000,0.00000000
0.20312536,-2.17000008,-1.64114916,-1.90870786,-0.55464292,0.00000000,0.00000000,-0.30050406,-0.79265702,-0.00625324,0.13619258,1.05904293,0.00000000,0.00000000
0.20407327,-2.17000008,-1.64184988,-1.90870118,-0.53602040,0.00000000,0.00000000,-0.29826838,-0.78135085,0.02472563,0.12333009,1.02411604,0.00000000,0.00000000
0.20511617,-2.17000008,-1.64263058,-1.90873468,-0.51233280,0.00000000,0.00000000,-0.29561433,-0.77047086,0.05706564,0.10831231,0.98670965,0.00000000,0.00000000
0.20623618,-2.17000008,-1.64349854,-1.90881789,-0.48363593,0.00000000,0.00000000,-0.29273829,-0.76031035,0.09071424,0.09119038,0.94851440,0.00000000,0.00000000
0.20734343,-2.17000008,-1.64455605,-1.90890265,-0.45781764,0.00000000,0.00000000,-0.29002115,-0.75091147,0.12560269,0.07208595,0.91439945,0.00000000,0.00000000
0.20839286,-2.17000008,-1.64591932,-1.90886354,-0.43713915,0.00000000,0.00000000,-0.28800648,-0.74209487,0.16163820,0.05111881,0.88502681,0.00000000,0.00000000
0.20939535,-2.17000008,-1.64758790,-1.90870416,-0.42353567,0.00000000,0.00000000,-0.28729081,-0.73374623,0.19869651,0.02825626,0.85427612,0.00000000,0.00000000
0.21033759,-2.17000008,-1.64940584,-1.90865231,-0.40840596,0.00000000,0.00000000,-0.28842339,-0.72605103,0.23661473,0.00325800,0.81498271,0.00000000,0.00000000
0.21113998,-2.17000008,-1.65124238,-1.90903580,-0.39442915,0.00000000,0.00000000,-0.29179949,-0.71921921,0.27518606,-0.02409441,0.77854127,0.00000000,0.00000000
0.21187650,-2.17000008,-1.65322876,-1.90991998,-0.37790793,0.00000000,0.00000000,-0.29738730,-0.71294558,0.31416932,-0.05373614,0.73544621,0.00000000,0.00000000
0.21292163,-2.17000008,-1.65564811,-1.91103375,-0.36439520,0.00000000,0.00000000,-0.30475292,-0.70640498,0.35331777,-0.08539762,0.69546139,0.00000000,0.00000000
0.21457349,-2.17000008,-1.65868843,-1.91230857,-0.35665324,0.00000000,0.00000000,-0.31357306,-0.69869542,0.39238852,-0.11880152,0.65291941,0.00000000,0.00000000
0.21695416,-2.17000008,-1.66235638,-1.91389883,-0.35684115,0.00000000,0.00000000,-0.32392025,-0.68920308,0.43112797,-0.15378571,0.61867929,0.00000000,0.00000000
0.22016588,-2.17000008,-1.66655219,-1.91594899,-0.35341305,0.00000000,0.00000000,-0.33607200,-0.67767864,0.46926722,-0.19033924,0.58244503,0.00000000,0.00000000
0.22429562,-2.17000008,-1.67111003,-1.91861892,-0.35925147,0.00000000,0.00000000,-0.35035887,-0.66411531,0.50652134,-0.22851980,0.54618734,0.00000000,0.00000000
0.22943558,-2.17000008,-1.67591929,-1.92197275,-0.36189556,0.00000000,0.00000000,-0.36723265,-0.64854664,0.54258019,-0.26830137,0.51368803,0.00000000,0.00000000
0.23562296,-2.17000008,-1.68098032,-1.92599213,-0.36714646,0.00000000,0.00000000,-0.38733450,-0.63103330,0.57709605,-0.30957133,0.48250535,0.00000000,0.00000000
0.24281450,-2.17000008,-1.68638968,-1.93061244,-0.36982873,0.00000000,0.00000000,-0.41133463,-0.61187232,0.60968524,-0.35232347,0.45449477,0.00000000,0.00000000
0.25093210,-2.17000008,-1.69225526,-1.93574476,-0.37183106,0.00000000,0.00000000,-0.43963951,-0.59175968,0.63994730,-0.39683825,0.42499948,0.00000000,0.00000000
0.25988966,-2.17000008,-1.69861555,-1.94134068,-0.37230128,0.00000000,0.00000000,-0.47226366,-0.57158929,0.66749126,-0.44358045,0.39899889,0.00000000,0.00000000
0.26954889,-2.17000008,-1.70552635,-1.94745803,-0.36804983,0.00000000,0.00000000,-0.50907236,-0.55186558,0.69195473,-0.49273646,0.37233579,0.00000000,0.00000000
0.27963305,-2.17000008,-1.71334863,-1.95412791,-0.36835644,0.00000000,0.00000000,-0.55017644,-0.53219128,0.71301103,-0.54367876,0.33815333,0.00000000,0.00000000
0.28977239,-2.17000008,-1.72291136,-1.96088398,-0.36406001,0.00000000,0.00000000,-0.59605974,-0.51138175,0.73038089,-0.59474194,0.30651009,0.00000000,0.00000000
0.29959452,-2.17000008,-1.73485792,-1.96706593,-0.36648244,0.00000000,0.00000000,-0.64734381,-0.48835912,0.74383318,-0.64347339,0.27769822,0.00000000,0.00000000
0.30875105,-2.17000008,-1.74886870,-1.97256851,-0.36561155,0.00000000,0.00000000,-0.70445836,-0.46311066,0.75315642,-0.68723106,0.25902233,0.00000000,0.00000000
0.31712541,-2.17000008,-1.76397455,-1.97749174,-0.36820984,0.00000000,0.00000000,-0.76767129,-0.43663809,0.75811017,-0.72366071,0.23619391,0.00000000,0.00000000
0.32483122,-2.17000008,-1.77916491,-1.98180819,-0.38212556,0.00000000,0.00000000,-0.83714747,-0.41026083,0.75841916,-0.75092864,0.21828918,0.00000000,0.00000000
0.33203194,-2.17000008,-1.79373431,-1.98541021,-0.40177995,0.00000000,0.00000000,-0.91293246,-0.38510680,0.75379837,-0.76773047,0.20376660,0.00000000,0.00000000
0.33871794,-2.17000008,-1.80723834,-1.98837113,-0.41992554,0.00000000,0.00000000,-0.99474877,-0.36206171,0.74401909,-0.77327836,0.19595374,0.00000000,0.00000000
0.34481332,-2.17000008,-1.81943035,-1.99080539,-0.42884555,0.00000000,0.00000000,-1.08207619,-0.34176865,0.72893530,-0.76718152,0.18589075,0.00000000,0.00000000
0.35024592,-2.17000008,-1.83013737,-1.99280107,-0.43503615,0.00000000,0.00000000,-1.17419636,-0.32468027,0.70850241,-0.74937272,0.17715074,0.00000000,0.00000000
0.35496145,-2.17000008,-1.83917701,-1.99442101,-0.44596615,0.00000000,0.00000000,-1.27024662,-0.31110924,0.68277681,-0.72005147,0.17388210,0.00000000,0.00000000
0.35894120,-2.17000008,-1.84630990,-1.99569678,-0.45780808,0.00000000,0.00000000,-1.36929810,-0.30126801,0.65190119,-0.67963094,0.17644264,0.00000000,0.00000000
0.36218867,-2.17000008,-1.85125804,-1.99665785,-0.47465333,0.00000000,0.00000000,-1.47039294,-0.29528379,0.61610484,-0.62869728,0.18465309,0.00000000,0.00000000
0.36469385,-2.17000008,-1.85384893,-1.99734783,-0.49152261,0.00000000,0.00000000,-1.57256186,-0.29313874,0.57571465,-0.56795567,0.19404604,0.00000000,0.00000000
0.36647063,-2.17000008,-1.85407722,-1.99777472,-0.50726134,0.00000000,0.00000000,-1.67487586,-0.29465169,0.53113836,-0.49818674,0.20831001,0.00000000,0.00000000
0.36758247,-2.17000008,-1.85210192,-1.99788153,-0.51238483,0.00000000,0.00000000,-1.77650034,-0.29952633,0.48283124,-0.42023245,0.21339755,0.00000000,0.00000000
0.36811212,-2.17000008,-1.84826374,-1.99757850,-0.51480389,0.00000000,0.00000000,-1.87672043,-0.30739570,0.43127656,-0.33499894,0.22348192,0.00000000,0.00000000
0.36813897,-2.17000008,-1.84307194,-1.99678004,-0.51175690,0.00000000,0.00000000,-1.97493839,-0.31785935,0.37698126,-0.24346964,0.23531780,0.00000000,0.00000000
0.36774114,-2.17000008,-1.83713293,-1.99543393,-0.50528806,0.00000000,0.00000000,-2.07065368,-0.33051559,0.32048270,-0.14672121,0.24718335,0.00000000,0.00000000
0.36701292,-2.17000008,-1.83106589,-1.99352992,-0.49585626,0.00000000,0.00000000,-2.16344166,-0.34497547,0.26235867,-0.04592772,0.25711948,0.00000000,0.00000000
0.36606124,-2.17000008,-1.82544231,-1.99109077,-0.48602456,0.00000000,0.00000000,-2.25294662,-0.36085042,0.20323385,0.05765888,0.26080590,0.00000000,0.00000000
0.36498344,-2.17000008,-1.82068491,-1.98817289,-0.47671783,0.00000000,0.00000000,-2.33888268,-0.37772921,0.14378314,0.16274324,0.27260584,0.00000000,0.00000000
0.36384004,-2.17000008,-1.81693804,-1.98487604,-0.46995449,0.00000000,0.00000000,-2.42102551,-0.39517656,0.08472911,0.26801658,0.28260601,0.00000000,0.00000000
0.36264995,-2.17000008,-1.81407177,-1.98133838,-0.46915981,0.00000000,0.00000000,-2.49918079,-0.41275778,0.02683058,0.37217528,0.29530329,0.00000000,0.00000000
0.36140743,-2.17000008,-1.81187797,-1.97770369,-0.46560124,0.00000000,0.00000000,-2.57313776,-0.43006259,-0.02914306,0.47394049,0.30635986,0.00000000,0.00000000
0.36009806,-2.17000008,-1.81025767,-1.97409070,-0.46411905,0.00000000,0.00000000,-2.64264011,-0.44671273,-0.08244567,0.57208532,0.31934243,0.00000000,0.00000000
0.35870978,-2.17000008,-1.80924499,-1.97057855,-0.45483857,0.00000000,0.00000000,-2.70738769,-0.46238345,-0.13238700,0.66544998,0.33229747,0.00000000,0.00000000
0.35724866,-2.17000008,-1.80890512,-1.96720445,-0.45377558,0.00000000,0.00000000,-2.76703405,-0.47685006,-0.17836742,0.75293970,0.34066501,0.00000000,0.00000000
0.35574967,-2.17000008,-1.80923033,-1.96396577,-0.44046295,0.00000000,0.00000000,-2.82118702,-0.49001601,-0.21991810,0.83353412,0.35622972,0.00000000,0.00000000
0.35426676,-2.17000008,-1.81012785,-1.96083224,-0.41998097,0.00000000,0.00000000,-2.86940598,-0.50188047,-0.25672916,0.90633357,0.36942142,0.00000000,0.00000000
0.35284078,-2.17000008,-1.81148934,-1.95777476,-0.39649591,0.00000000,0.00000000,-2.91122317,-0.51246101,-0.28863922,0.97063375,0.38355476,0.00000000,0.00000000
0.35147560,-2.17000008,-1.81326711,-1.95478308,-0.36862603,0.00000000,0.00000000,-2.94617152,-0.52173656,-0.31559271,1.02598464,0.38911805,0.00000000,0.00000000
0.35017467,-2.17000008,-1.81549263,-1.95181429,-0.34851101,0.00000000,0.00000000,-2.97379804,-0.52966565,-0.33760875,1.07219589,0.39437827,0.00000000,0.00000000
0.34894669,-2.17000008,-1.81819856,-1.94880545,-0.32458523,0.00000000,0.00000000,-2.99363589,-0.53620148,-0.35479072,1.10932398,0.40567717,0.00000000,0.00000000
0.34780440,-2.17000008,-1.82133102,-1.94568956,-0.29298338,0.00000000,0.00000000,-3.00517964,-0.54129648,-0.36737156,1.13765335,0.41978136,0.00000000,0.00000000
0.34672233,-2.17000008,-1.82466400,-1.94246256,-0.26403257,0.00000000,0.00000000,-3.00928068,-0.54485047,-0.37577069,1.15770698,0.43022731,0.00000000,0.00000000
0.34564719,-2.17000008,-1.82779205,-1.93917549,-0.22998258,0.00000000,0.00000000,-3.00996494,-0.54668427,-0.38058928,1.17022407,0.43707353,0.00000000,0.00000000
0.34454656,-2.17000008,-1.83026910,-1.93586421,-0.20397413,0.00000000,0.00000000,-3.00999999,-0.54660916,-0.38249174,1.17603672,0.44209826,0.00000000,0.00000000
0.34338036,-2.17000008,-1.83180881,-1.93256736,-0.17467663,0.00000000,0.00000000,-3.00999999,-0.54451519,-0.38204962,1.17592418,0.44299504,0.00000000,0.00000000
0.34206837,-2.17000008,-1.83235991,-1.92936385,-0.15329327,0.00000000,0.00000000,-3.00999999,-0.54034126,-0.37966716,1.17056704,0.45091379,0.00000000,0.00000000
0.34056062,-2.17000008,-1.83202076,-1.92629898,-0.13752343,0.00000000,0.00000000,-3.00999999,-0.53407192,-0.37558812,1.16051280,0.45576504,0.00000000,0.00000000
0.33883956,-2.17000008,-1.83094883,-1.92339683,-0.11465986,0.00000000,0.00000000,-3.00999999,-0.52577037,-0.36994138,1.14616990,0.46344116,0.00000000,0.00000000
0.33694011,-2.17000008,-1.82932842,-1.92062914,-0.09191857,0.00000000,0.00000000,-3.00999999,-0.51537961,-0.36277914,1.12832236,0.47200710,0.00000000,0.00000000
0.33493102,-2.17000008,-1.82736671,-1.91792655,-0.07914837,0.00000000,0.00000000,-3.00999999,-0.50336277,-0.35411841,1.10850859,0.48296571,0.00000000,0.00000000
0.33289486,-2.17000008,-1.82523370,-1.91521335,-0.06653683,0.00000000,0.00000000,-3.00999999,-0.49212182,-0.34451145,1.08792579,0.50119084,0.00000000,0.00000000
0.33092839,-2.17000008,-1.82300031,-1.91241205,-0.04927911,0.00000000,0.00000000,-3.00999999,-0.48207250,-0.33465865,1.06827593,0.51597184,0.00000000,0.00000000
0.32904378,-2.17000008,-1.82059157,-1.90954435,-0.02490212,0.00000000,0.00000000,-3.00999999,-0.47104496,-0.32298484,1.05121052,0.52332020,0.00000000,0.00000000
0.32729772,-2.17000008,-1.81791842,-1.90658772,-0.00253653,0.00000000,0.00000000,-3.00999999,-0.46127635,-0.31060904,1.03615654,0.52977216,0.00000000,0.00000000
0.32582775,-2.17000008,-1.81482184,-1.90345466,0.01982110,0.00000000,0.00000000,-3.00999999,-0.45373207,-0.29760131,1.02227020,0.53672761,0.00000000,0.00000000
0.32452253,-2.17000008,-1.81135368,-1.90029132,0.04064335,0.00000000,0.00000000,-3.00992346,-0.44750288,-0.28286332,1.00929964,0.53911263,0.00000000,0.00000000
0.32337394,-2.17000008,-1.80767131,-1.89711189,0.05338079,0.00000000,0.00000000,-3.00865889,-0.44220740,-0.26661259,0.99697810,0.53612494,0.00000000,0.00000000
0.32232442,-2.17000008,-1.80408359,-1.89394987,0.06825127,0.00000000,0.00000000,-3.00340486,-0.43743181,-0.24846195,0.98496312,0.53497303,0.00000000,0.00000000
0.32127669,-2.17000008,-1.80095446,-1.89086533,0.08487869,0.00000000,0.00000000,-2.99301577,-0.43284214,-0.22805756,0.97290480,0.52545798,0.00000000,0.00000000
0.32017222,-2.17000008,-1.79845953,-1.88789380,0.09669989,0.00000000,0.00000000,-2.97814202,-0.42788833,-0.20501664,0.96053708,0.52197307,0.00000000,0.00000000
0.31898105,-2.17000008,-1.79658771,-1.88505709,0.11328472,0.00000000,0.00000000,-2.95957184,-0.42204833,-0.17907479,0.94751543,0.51787192,0.00000000,0.00000000
0.31769022,-2.17000008,-1.79516959,-1.88237298,0.12386922,0.00000000,0.00000000,-2.93793106,-0.41501641,-0.15014073,0.93336797,0.52032715,0.00000000,0.00000000
0.31628522,-2.17000008,-1.79395378,-1.87986779,0.13498132,0.00000000,0.00000000,-2.91375422,-0.40664902,-0.11823054,0.91763443,0.52125239,0.00000000,0.00000000
0.31473425,-2.17000008,-1.79273272,-1.87758470,0.14817999,0.00000000,0.00000000,-2.88751316,-0.39678657,-0.08342304,0.90003407,0.51868278,0.00000000,0.00000000
0.31299230,-2.17000008,-1.79141831,-1.87557018,0.16091639,0.00000000,0.00000000,-2.85967803,-0.38512832,-0.04581258,0.88049674,0.51396233,0.00000000,0.00000000
0.31102413,-2.17000008,-1.79003608,-1.87384307,0.18164377,0.00000000,0.00000000,-2.83074522,-0.37132686,-0.00551177,0.85905534,0.50005275,0.00000000,0.00000000
0.30884689,-2.17000008,-1.78863060,-1.87234628,0.20337929,0.00000000,0.00000000,-2.80126286,-0.35532111,0.03735439,0.83568668,0.48531222,0.00000000,0.00000000
0.30655628,-2.17000008,-1.78715324,-1.87092125,0.22711347,0.00000000,0.00000000,-2.77178121,-0.33738431,0.08262236,0.81042576,0.47225535,0.00000000,0.00000000
0.30423295,-2.17000008,-1.78556526,-1.86941767,0.24736701,0.00000000,0.00000000,-2.74286604,-0.31783891,0.13010663,0.78357798,0.46071768,0.00000000,0.00000000
0.30189011,-2.17000008,-1.78414035,-1.86772656,0.27320454,0.00000000,0.00000000,-2.71530461,-0.29734951,0.17979375,0.75541598,0.45326599,0.00000000,0.00000000
0.29950541,-2.17000008,-1.78357255,-1.86573648,0.29627123,0.00000000,0.00000000,-2.69016790,-0.27691129,0.23190993,0.72617406,0.44830143,0.00000000,0.00000000
0.29707706,-2.17000008,-1.78467464,-1.86330771,0.31414443,0.00000000,0.00000000,-2.66859579,-0.25774601,0.28675804,0.69611138,0.43904623,0.00000000,0.00000000
0.29465967,-2.17000008,-1.78794217,-1.86026132,0.32536572,0.00000000,0.00000000,-2.65149808,-0.24109487,0.34447592,0.66557854,0.42650861,0.00000000,0.00000000
0.29225481,-2.17000008,-1.79354131,-1.85650349,0.34054303,0.00000000,0.00000000,-2.63945508,-0.22727720,0.40478823,0.63546419,0.40760073,0.00000000,0.00000000
0.28982654,-2.17000008,-1.80158186,-1.85198808,0.35162640,0.00000000,0.00000000,-2.63302422,-0.21742292,0.46756867,0.60621887,0.38581267,0.00000000,0.00000000
0.28758061,-2.17000008,-1.81203878,-1.84638846,0.36293784,0.00000000,0.00000000,-2.63312125,-0.21624826,0.53368014,0.57620108,0.36357489,0.00000000,0.00000000
0.28552976,-2.17000008,-1.82429004,-1.83957732,0.36470330,0.00000000,0.00000000,-2.63933849,-0.22280259,0.60208678,0.54534346,0.34916547,0.00000000,0.00000000
0.28325281,-2.17000008,-1.83748686,-1.83181155,0.37414655,0.00000000,0.00000000,-2.64960265,-0.23575647,0.67104292,0.51243395,0.33646035,0.00000000,0.00000000
0.28034797,-2.17000008,-1.85080373,-1.82328534,0.38362598,0.00000000,0.00000000,-2.66220498,-0.25500795,0.73944783,0.47597614,0.33122009,0.00000000,0.00000000
0.27655396,-2.17000008,-1.86367583,-1.81402135,0.39029956,0.00000000,0.00000000,-2.67590857,-0.27978551,0.80636829,0.43516925,0.32702616,0.00000000,0.00000000
0.27169976,-2.17000008,-1.87569642,-1.80398941,0.40319666,0.00000000,0.00000000,-2.68979192,-0.30929616,0.87102371,0.38955554,0.32641748,0.00000000,0.00000000
0.26574257,-2.17000008,-1.88642311,-1.79313231,0.42514387,0.00000000,0.00000000,-2.70340633,-0.34304941,0.93283498,0.33904135,0.32113925,0.00000000,0.00000000
0.25873932,-2.17000008,-1.89547253,-1.78139460,0.44162700,0.00000000,0.00000000,-2.71687818,-0.38038665,0.99128860,0.28409624,0.32293391,0.00000000,0.00000000
0.25074780,-2.17000008,-1.90272462,-1.76877749,0.45676547,0.00000000,0.00000000,-2.73078012,-0.41997281,1.04582202,0.22574580,0.31742516,0.00000000,0.00000000
0.24178335,-2.17000008,-1.90832460,-1.75535810,0.46566835,0.00000000,0.00000000,-2.74576330,-0.45986190,1.09585643,0.16522731,0.31395081,0.00000000,0.00000000
0.23185636,-2.17000008,-1.91253912,-1.74127460,0.47283185,0.00000000,0.00000000,-2.76224947,-0.49807826,1.14092910,0.10358588,0.30284739,0.00000000,0.00000000
0.22101875,-2.17000008,-1.91561711,-1.72672474,0.48002696,0.00000000,0.00000000,-2.78033400,-0.53313172,1.18077528,0.04148601,0.29174930,0.00000000,0.00000000
0.20937695,-2.17000008,-1.91766524,-1.71197748,0.48318535,0.00000000,0.00000000,-2.79981875,-0.56417960,1.21531808,-0.02075921,0.28509006,0.00000000,0.00000000
0.19706836,-2.17000008,-1.91856766,-1.69735634,0.48614591,0.00000000,0.00000000,-2.82027054,-0.59094042,1.24461949,-0.08306730,0.27588698,0.00000000,0.00000000
0.18421197,-2.17000008,-1.91803825,-1.68319106,0.48411104,0.00000000,0.00000000,-2.84109306,-0.61350435,1.26883924,-0.14546043,0.26799396,0.00000000,0.00000000
0.17084645,-2.17000008,-1.91578889,-1.66977942,0.48473632,0.00000000,0.00000000,-2.86160636,-0.63214779,1.28821766,-0.20796739,0.26236966,0.00000000,0.00000000
0.15691279,-2.17000008,-1.91166043,-1.65736759,0.49465242,0.00000000,0.00000000,-2.88114810,-0.64718592,1.30307376,-0.27055058,0.25548974,0.00000000,0.00000000
0.14226823,-2.17000008,-1.90561914,-1.64614904,0.50690591,0.00000000,0.00000000,-2.89913177,-0.65893078,1.31380022,-0.33308595,0.25855467,0.00000000,0.00000000
0.12670752,-2.16996551,-1.89764678,-1.63627577,0.51832867,0.00000000,0.00000000,-2.91503334,-0.66770452,1.32083988,-0.39538941,0.25367972,0.00000000,0.00000000
0.10994682,-2.16940594,-1.88769400,-1.62789989,0.53437823,0.00000000,0.00000000,-2.92836785,-0.67390263,1.32464135,-0.45724669,0.24664691,0.00000000,0.00000000
0.09166105,-2.16719007,-1.87572360,-1.62116170,0.55635440,0.00000000,0.00000000,-2.93872428,-0.67795837,1.32562482,-0.51839328,0.24089234,0.00000000,0.00000000
0.07162175,-2.16306901,-1.86181545,-1.61607802,0.57833618,0.00000000,0.00000000,-2.94590235,-0.68025219,1.32417369,-0.57843643,0.23356907,0.00000000,0.00000000
0.04989241,-2.15730786,-1.84623003,-1.61236227,0.60658276,0.00000000,0.00000000,-2.95002580,-0.68108326,1.32063723,-0.63680619,0.24008976,0.00000000,0.00000000
0.02692674,-2.15012980,-1.82944477,-1.60934508,0.63505131,0.00000000,0.00000000,-2.95152140,-0.68064129,1.31537342,-0.69277906,0.24644113,0.00000000,0.00000000
0.00347605,-2.14167047,-1.81219435,-1.60613847,0.66242260,0.00000000,0.00000000,-2.95104837,-0.67892730,1.30882251,-0.74551302,0.25173724,0.00000000,0.00000000
-0.01965177,-2.13203239,-1.79533374,-1.60208845,0.68521255,0.00000000,0.00000000,-2.94953251,-0.67578691,1.30150461,-0.79404920,0.25422561,0.00000000,0.00000000
-0.04190690,-2.12142897,-1.77938473,-1.59731424,0.69892657,0.00000000,0.00000000,-2.94812107,-0.67108524,1.29392016,-0.83737254,0.25287157,0.00000000,0.00000000
-0.06307522,-2.11018801,-1.76435876,-1.59264135,0.70978528,0.00000000,0.00000000,-2.94785905,-0.66481584,1.28647876,-0.87459928,0.24638990,0.00000000,0.00000000
-0.08270876,-2.09863472,-1.75011694,-1.58861160,0.72308558,0.00000000,0.00000000,-2.94933224,-0.65707123,1.27949810,-0.90515000,0.23508532,0.00000000,0.00000000
-0.09994257,-2.08712912,-1.73647547,-1.58497238,0.73884076,0.00000000,0.00000000,-2.95243955,-0.64796352,1.27325952,-0.92885816,0.22888064,0.00000000,0.00000000
-0.11474169,-2.07596254,-1.72317457,-1.58162379,0.75332588,0.00000000,0.00000000,-2.95648003,-0.63776088,1.26792896,-0.94595677,0.22614957,0.00000000,0.00000000
-0.12829599,-2.06545687,-1.70970047,-1.57902300,0.77113038,0.00000000,0.00000000,-2.96080327,-0.62722546,1.26326764,-0.95685685,0.22338673,0.00000000,0.00000000
-0.14153424,-2.05603933,-1.69551039,-1.57729125,0.78841954,0.00000000,0.00000000,-2.96448851,-0.61757523,1.25875485,-0.96273065,0.22518753,0.00000000,0.00000000
-0.15430516,-2.04776716,-1.68078780,-1.57588875,0.80781448,0.00000000,0.00000000,-2.96611977,-0.60971665,1.25415003,-0.96589017,0.22280487,0.00000000,0.00000000
-0.16670513,-2.04030299,-1.66602790,-1.57503676,0.83117992,0.00000000,0.00000000,-2.96536350,-0.60381579,1.24944401,-0.96807826,0.22224742,0.00000000,0.00000000
-0.17894718,-2.03343534,-1.65138030,-1.57567644,0.85357660,0.00000000,0.00000000,-2.96277118,-0.59963268,1.24471271,-0.97031462,0.21904038,0.00000000,0.00000000
-0.18976963,-2.02613640,-1.63854551,-1.57659411,0.87778020,0.00000000,0.00000000,-2.95937490,-0.59501600,1.24112153,-0.97292328,0.21321425,0.00000000,0.00000000
-0.19981652,-2.01864552,-1.62689686,-1.57913625,0.90183133,0.00000000,0.00000000,-2.95532632,-0.59056443,1.23817134,-0.97674423,0.20666172,0.00000000,0.00000000
-0.20954935,-2.01104045,-1.61659825,-1.58346415,0.92802095,0.00000000,0.00000000,-2.95056319,-0.58658767,1.23552990,-0.98257703,0.20853540,0.00000000,0.00000000
-0.21922219,-2.00272322,-1.60922003,-1.58869600,0.94775909,0.00000000,0.00000000,-2.94529510,-0.58212298,1.23355949,-0.99024409,0.20693250,0.00000000,0.00000000
-0.22966674,-1.99425387,-1.60388553,-1.59535956,0.95513940,0.00000000,0.00000000,-2.93897796,-0.57877088,1.23115110,-1.00012386,0.20851862,0.00000000,0.00000000
-0.24046981,-1.98634934,-1.59967875,-1.60228527,0.96522039,0.00000000,0.00000000,-2.93129921,-0.57660556,1.22819591,-1.01070094,0.20115227,0.00000000,0.00000000
-0.25140840,-1.97888780,-1.59695327,-1.60778928,0.97140574,0.00000000,0.00000000,-2.92330551,-0.57214218,1.22656965,-1.01724648,0.19210619,0.00000000,0.00000000
-0.26371714,-1.97244406,-1.59427941,-1.61253989,0.97931790,0.00000000,0.00000000,-2.91347837,-0.56763411,1.22503126,-1.02078569,0.18834500,0.00000000,0.00000000
-0.27918425,-1.96687782,-1.59134364,-1.61807561,0.98364872,0.00000000,0.00000000,-2.90037799,-0.56414872,1.22315598,-1.02329671,0.19003630,0.00000000,0.00000000
-0.29686326,-1.96129405,-1.58929169,-1.62234044,0.99662089,0.00000000,0.00000000,-2.88463688,-0.56130469,1.22103965,-1.02467167,0.19272861,0.00000000,0.00000000
-0.31840271,-1.95552158,-1.58803415,-1.62677383,1.00935864,0.00000000,0.00000000,-2.86542153,-0.55986530,1.21836805,-1.02624941,0.19579305,0.00000000,0.00000000
-0.34447691,-1.94943893,-1.58769095,-1.63164461,1.01994181,0.00000000,0.00000000,-2.84228945,-0.55954283,1.21545529,-1.02770066,0.19880292,0.00000000,0.00000000
-0.37226784,-1.94378066,-1.58736324,-1.63391757,1.02590573,0.00000000,0.00000000,-2.81647396,-0.56140518,1.21140242,-1.02767801,0.20352343,0.00000000,0.00000000
-0.39876643,-1.93972254,-1.58545613,-1.63106775,1.03722680,0.00000000,0.00000000,-2.79010987,-0.56711113,1.20476031,-1.02441263,0.21404642,0.00000000,0.00000000
-0.42367685,-1.93734670,-1.58201611,-1.62330711,1.05400848,0.00000000,0.00000000,-2.76468754,-0.57481718,1.19649398,-1.01507449,0.23025437,0.00000000,0.00000000
-0.44702387,-1.93659389,-1.57712734,-1.61190796,1.07397830,0.00000000,0.00000000,-2.74043131,-0.58278239,1.18782711,-0.99823457,0.25254110,0.00000000,0.00000000
-0.46826512,-1.93741047,-1.57069588,-1.59807920,1.09610546,0.00000000,0.00000000,-2.71713352,-0.59010625,1.17957795,-0.97388786,0.28107277,0.00000000,0.00000000
-0.48676652,-1.93934751,-1.56317294,-1.58273089,1.11351550,0.00000000,0.00000000,-2.69422770,-0.59642667,1.17231095,-0.94342196,0.30357417,0.00000000,0.00000000
-0.50259030,-1.94157207,-1.55564678,-1.56689930,1.12610602,0.00000000,0.00000000,-2.67069697,-0.60244203,1.16603422,-0.91005290,0.32943133,0.00000000,0.00000000
-0.51622027,-1.94372213,-1.54855597,-1.55204797,1.13230026,0.00000000,0.00000000,-2.64618874,-0.60905588,1.16043222,-0.87752867,0.35127363,0.00000000,0.00000000
-0.52677494,-1.94526041,-1.54265571,-1.53918767,1.13924980,0.00000000,0.00000000,-2.62211132,-0.61581117,1.15549481,-0.84756583,0.36966094,0.00000000,0.00000000
-0.53507268,-1.94439542,-1.54068303,-1.52996480,1.14573264,0.00000000,0.00000000,-2.60030174,-0.62294549,1.15069926,-0.82081461,0.39242631,0.00000000,0.00000000
-0.54326099,-1.94196117,-1.54154527,-1.52670288,1.14735949,0.00000000,0.00000000,-2.58026433,-0.63093919,1.14592910,-0.79826903,0.41660088,0.00000000,0.00000000
-0.54880768,-1.93897986,-1.54367638,-1.52863121,1.15018237,0.00000000,0.00000000,-2.56290364,-0.64016718,1.14079666,-0.77973628,0.44738191,0.00000000,0.00000000
-0.55008274,-1.93576455,-1.54657769,-1.53249145,1.15089655,0.00000000,0.00000000,-2.54915357,-0.64839327,1.13608861,-0.76396006,0.47921434,0.00000000,0.00000000
-0.54944283,-1.93087363,-1.55221689,-1.53857887,1.14852536,0.00000000,0.00000000,-2.53725982,-0.65632880,1.13177431,-0.75183624,0.50656325,0.00000000,0.00000000
-0.54702246,-1.92416120,-1.56051159,-1.54606235,1.14453340,0.00000000,0.00000000,-2.52683067,-0.66521388,1.12727928,-0.74362797,0.52788115,0.00000000,0.00000000
-0.54266936,-1.91605461,-1.57064307,-1.55393541,1.14335215,0.00000000,0.00000000,-2.51876760,-0.67514378,1.12225938,-0.73837757,0.55334473,0.00000000,0.00000000
-0.53894114,-1.90624297,-1.58290982,-1.56238127,1.14997458,0.00000000,0.00000000,-2.51140451,-0.68418658,1.11776245,-0.73538977,0.58094180,0.00000000,0.00000000
-0.53895009,-1.89444661,-1.59743178,-1.57151592,1.14823997,0.00000000,0.00000000,-2.50386333,-0.68932301,1.11514711,-0.73330921,0.60460329,0.00000000,0.00000000
-0.54249310,-1.88162756,-1.61239052,-1.58009803,1.15219688,0.00000000,0.00000000,-2.49550986,-0.69454485,1.11276698,-0.73314995,0.62967628,0.00000000,0.00000000
-0.54816931,-1.86890125,-1.62591386,-1.58667314,1.15094602,0.00000000,0.00000000,-2.48649263,-0.70231730,1.10954297,-0.73503661,0.65035015,0.00000000,0.00000000
-0.55534619,-1.85680509,-1.63721645,-1.59020019,1.14469671,0.00000000,0.00000000,-2.47618866,-0.71179187,1.10602570,-0.73797101,0.66638172,0.00000000,0.00000000
-0.56488025,-1.84474230,-1.64727628,-1.59076047,1.12641275,0.00000000,0.00000000,-2.46446657,-0.72071278,1.10329461,-0.74120271,0.68459159,0.00000000,0.00000000
-0.57674158,-1.83252180,-1.65675414,-1.58783937,1.10950077,0.00000000,0.00000000,-2.45205998,-0.72963297,1.10107398,-0.74484283,0.70233077,0.00000000,0.00000000
-0.59060502,-1.82056594,-1.66572380,-1.58134270,1.10050356,0.00000000,0.00000000,-2.43944740,-0.73855287,1.09937656,-0.74917704,0.71785229,0.00000000,0.00000000
